; generated by PrusaSlicer 2.9.6 on 2026-06-27 at 14:23:09 UTC


;
;

;
;
; 

; external perimeters extrusion width = 0.45mm
; perimeters extrusion width = 0.45mm
; infill extrusion width = 0.45mm
; solid infill extrusion width = 0.45mm
; top infill extrusion width = 0.40mm
; support material extrusion width = 0.35mm
; first layer extrusion width = 0.42mm

M73 P0 R77
M201 X9000 Y9000 Z500 E10000 ; sets maximum accelerations, mm/sec^2
M203 X500 Y500 Z12 E120 ; sets maximum feedrates, mm / sec
M204 S2000 T1500 ; sets acceleration (S) and retract acceleration (R), mm/sec^2
M205 X10.00 Y10.00 Z0.20 E4.50 ; sets the jerk limits, mm/sec
M205 S0 T0 ; sets the minimum extruding and travel feed rate, mm/sec

; printing object Stair Gate Hinge.stl id:0 copy 0
; stop printing object Stair Gate Hinge.stl id:0 copy 0

;TYPE:Custom
M83  ; extruder relative mode
M140 S85 ; set bed temp
M109 S160 ; Set extruder temp before bed level
M190 S85 ; wait for bed temp

G28 W ; home all without mesh bed level
G80 N7 ; mesh bed leveling

M109 S250 ; wait for extruder temp

M221 S100 ; Set flow to 100

G1 Y-3.0 F1000.0 ; go outside print area
G92 E0.0
G1 E8 ; Purge Bubble
G1 X60.0 E9.0 F1000.0 ; intro line
G1 X100.0 E12.5 F1000.0 ; intro line
G92 E0.0
G21 ; set units to millimeters
G90 ; use absolute coordinates
M83 ; use relative distances for extrusion

M900 K0.08 ; Filament gcode LA 1.5
M900 K45 ; Filament gcode LA 1.0




M107
;LAYER_CHANGE
;Z:0.2
;HEIGHT:0.2
G1 E-1 F2100
G1 Z.4 F720
G1 X98.508 Y90.125 F6000
G1 Z.2 F720
G1 E1 F2100
M204 S800
;TYPE:Skirt/Brim
;WIDTH:0.42
G1 F1200
G1 X99.669 Y88.969 E.05137
G1 X101.878 Y87.18 E.08913
G1 X103.126 Y86.359 E.04684
G1 X104.428 Y85.625 E.04686
G1 X105.777 Y84.983 E.04684
G1 X107.167 Y84.434 E.04686
G1 X108.591 Y83.981 E.04685
G1 X110.042 Y83.627 E.04683
G1 X111.514 Y83.372 E.04684
G1 X113.001 Y83.219 E.04687
G1 X143.813 Y83.209 E.96609
G1 X145.359 Y83.847 E.05244
G1 X155.771 Y94.237 E.4612
G1 X156.64 Y95.433 E.04635
G1 X157.014 Y96.265 E.0286
G1 X157.253 Y97.145 E.02859
G1 X157.358 Y98.223 E.03396
G1 X157.358 Y111.909 E.42911
G1 X157.253 Y112.987 E.03396
G1 X156.796 Y114.393 E.04635
G1 X156.342 Y115.185 E.02862
G1 X155.643 Y116.032 E.03443
G1 X145.35 Y126.183 E.45327
G1 X143.813 Y126.813 E.05208
G1 X113.217 Y126.813 E.95932
G1 X111.609 Y126.663 E.05064
G1 X110.197 Y126.427 E.04489
G1 X108.53 Y126.023 E.05378
G1 X105.984 Y125.126 E.08464
G1 X104.5 Y124.434 E.05134
G1 X103.087 Y123.638 E.05085
G1 X100.877 Y122.087 E.08465
G1 X99.597 Y120.987 E.05292
G1 X98.488 Y119.874 E.04926
G1 X96.697 Y117.675 E.08892
G1 X95.798 Y116.306 E.05135
G1 X94.49 Y113.784 E.08908
G1 X93.892 Y112.268 E.0511
G1 X93.154 Y109.657 E.08507
G1 X92.863 Y108.051 E.05117
G1 X92.697 Y106.428 E.05115
G1 X92.696 Y103.611 E.08833
G1 X92.866 Y101.954 E.05223
G1 X93.414 Y99.299 E.085
G1 X93.896 Y97.741 E.05113
G1 X94.498 Y96.221 E.05126
G1 X95.81 Y93.696 E.08922
G1 X96.71 Y92.329 E.05132
G1 X98.47 Y90.172 E.08729
M204 S1000
;WIPE_START
G1 F4800
G1 X98.508 Y90.125 E-.02512
G1 X99.669 Y88.969 E-.68095
G1 X100.219 Y88.524 E-.29393
;WIPE_END
G1 Z.4 F720
; printing object Stair Gate Hinge.stl id:0 copy 0
G1 X152.447 Y100.576 F6000
G1 Z.2 F720
G1 E1 F2100
M204 S800
;TYPE:Support material
G1 F1200
G1 X153.131 Y101.441 E.03458
G1 X153.705 Y102.492 E.03755
G1 X154.054 Y103.662 E.03828
G1 X154.209 Y104.92 E.03974
G1 X154.084 Y106.208 E.04057
G1 X153.762 Y107.384 E.03823
G1 X153.508 Y107.718 E.01316
G1 X153.058 Y108.671 E.03304
G1 X152.481 Y109.387 E.02883
G1 X152.425 Y109.44 E.00242
G1 X144.293 Y109.44 E.25497
G1 X144.293 Y100.536 E.27918
G1 X152.405 Y100.538 E.25435
M204 S1000
G1 X153.49 Y107.461 F6000
M204 S800
G1 F1200
G1 X153.49 Y102.959 E.14116
G1 X153.071 Y102.039 E.0317
G1 X153.071 Y107.893 E.18355
G1 X152.652 Y108.634 E.02669
G1 X152.652 Y101.383 E.22735
G1 X152.234 Y100.876 E.0206
G1 X152.234 Y109.1 E.25786
G1 X151.815 Y109.1 E.01314
G1 X151.815 Y100.876 E.25786
G1 X151.396 Y100.876 E.01314
G1 X151.396 Y109.1 E.25786
G1 X150.977 Y109.1 E.01314
G1 X150.977 Y100.876 E.25786
G1 X150.558 Y100.876 E.01314
G1 X150.558 Y109.1 E.25786
G1 X150.139 Y109.1 E.01314
G1 X150.139 Y100.876 E.25786
G1 X149.72 Y100.876 E.01314
G1 X149.72 Y109.1 E.25786
G1 X149.301 Y109.1 E.01314
G1 X149.301 Y100.876 E.25786
G1 X148.882 Y100.876 E.01314
G1 X148.882 Y109.1 E.25786
G1 X148.463 Y109.1 E.01314
G1 X148.463 Y100.876 E.25786
G1 X148.044 Y100.876 E.01314
G1 X148.044 Y109.1 E.25786
G1 X147.625 Y109.1 E.01314
G1 X147.625 Y100.876 E.25786
G1 X147.206 Y100.876 E.01314
G1 X147.206 Y109.1 E.25786
G1 X146.787 Y109.1 E.01314
G1 X146.787 Y100.876 E.25786
G1 X146.368 Y100.876 E.01314
G1 X146.368 Y109.1 E.25786
G1 X145.949 Y109.1 E.01314
G1 X145.949 Y100.876 E.25786
G1 X145.53 Y100.876 E.01314
G1 X145.53 Y109.1 E.25786
G1 X145.111 Y109.1 E.01314
G1 X145.111 Y100.876 E.25786
G1 X144.692 Y100.876 E.01314
G1 X144.692 Y109.27 E.26319
M204 S1000
;WIPE_START
G1 F4800
G1 X144.692 Y106.864 E-1
;WIPE_END
G1 Z.4 F720
G1 X101.595 Y102.047 F6000
G1 Z.2 F720
G1 E1 F2100
M204 S800
;TYPE:Perimeter
;WIDTH:0.419999
G1 F1200
G1 X101.748 Y101.893 E.00681
G1 X102.343 Y101.478 E.02275
G1 X102.961 Y101.193 E.02134
G1 X103.373 Y101.059 E.01358
G1 X103.973 Y100.935 E.01921
G1 X104.766 Y100.912 E.02487
G1 X105.197 Y100.958 E.01359
G1 X105.727 Y101.071 E.01699
G1 X106.205 Y101.246 E.01596
G1 X106.761 Y101.512 E.01933
G1 X107.298 Y101.893 E.02064
G1 X107.62 Y102.183 E.01359
G1 X108.042 Y102.659 E.01995
G1 X108.443 Y103.316 E.02413
G1 X108.62 Y103.712 E.0136
G1 X108.803 Y104.285 E.01886
G1 X108.911 Y105.082 E.02522
G1 X108.921 Y105.381 E.00938
G1 X108.86 Y105.999 E.01947
G1 X108.77 Y106.423 E.01359
G1 X108.573 Y107.016 E.01959
G1 X108.2 Y107.703 E.02451
G1 X107.946 Y108.054 E.01358
G1 X107.609 Y108.427 E.01576
G1 X107.298 Y108.705 E.01308
G1 X106.769 Y109.081 E.02035
G1 X106.164 Y109.37 E.02102
G1 X105.686 Y109.536 E.01587
G1 X105.102 Y109.658 E.01871
G1 X104.28 Y109.686 E.02579
G1 X103.849 Y109.64 E.01359
G1 X103.2 Y109.494 E.02086
G1 X102.626 Y109.256 E.01948
G1 X102.168 Y109.01 E.0163
G1 X101.748 Y108.705 E.01627
G1 X101.426 Y108.415 E.01359
G1 X101.046 Y107.99 E.01788
G1 X100.642 Y107.35 E.02373
G1 X100.426 Y106.886 E.01605
G1 X100.253 Y106.348 E.01772
G1 X100.135 Y105.516 E.02635
G1 X100.135 Y105.082 E.01361
G1 X100.237 Y104.308 E.02448
G1 X100.417 Y103.741 E.01865
G1 X100.581 Y103.366 E.01283
G1 X100.833 Y102.917 E.01614
G1 X101.1 Y102.544 E.01438
G1 X101.552 Y102.09 E.02009
M204 S1000
G1 X101.841 Y102.321 F6000
M204 S800
G1 F1200
G1 X101.977 Y102.193 E.00586
G1 X102.528 Y101.806 E.02111
G1 X103.114 Y101.537 E.02022
G1 X103.927 Y101.326 E.02634
G1 X104.766 Y101.289 E.02633
G1 X105.119 Y101.326 E.01113
G1 X105.638 Y101.438 E.01665
G1 X106.376 Y101.735 E.02494
G1 X106.683 Y101.912 E.01111
G1 X107.092 Y102.21 E.01587
G1 X107.665 Y102.797 E.02572
G1 X107.874 Y103.084 E.01113
G1 X108.175 Y103.614 E.01911
G1 X108.411 Y104.291 E.02248
G1 X108.485 Y104.638 E.01112
G1 X108.541 Y105.18 E.01708
G1 X108.485 Y105.96 E.02452
G1 X108.411 Y106.307 E.01112
G1 X108.223 Y106.875 E.01876
G1 X107.874 Y107.514 E.02283
G1 X107.665 Y107.801 E.01113
G1 X107.279 Y108.227 E.01802
G1 X106.693 Y108.678 E.02319
G1 X106.376 Y108.863 E.01151
G1 X105.787 Y109.117 E.02011
G1 X105.119 Y109.271 E.02149
G1 X104.766 Y109.309 E.01113
G1 X104.21 Y109.307 E.01743
G1 X103.452 Y109.17 E.02415
G1 X102.779 Y108.911 E.02261
G1 X102.363 Y108.686 E.01483
G1 X101.822 Y108.28 E.02121
G1 X101.381 Y107.801 E.02041
G1 X100.968 Y107.161 E.02388
G1 X100.785 Y106.769 E.01356
G1 X100.616 Y106.245 E.01726
G1 X100.51 Y105.476 E.02434
G1 X100.51 Y105.122 E.0111
G1 X100.603 Y104.4 E.02282
G1 X100.775 Y103.857 E.01786
G1 X101.162 Y103.102 E.0266
G1 X101.622 Y102.529 E.02304
G1 X101.798 Y102.362 E.00761
M204 S1000
G1 X102.092 Y102.599 F6000
M204 S800
G1 F1200
G1 X102.199 Y102.498 E.00461
G1 X102.713 Y102.135 E.01973
G1 X103.268 Y101.882 E.01912
G1 X104.005 Y101.695 E.02384
G1 X104.766 Y101.666 E.02388
G1 X105.516 Y101.796 E.02387
G1 X106.222 Y102.079 E.02385
G1 X106.855 Y102.503 E.02389
G1 X107.385 Y103.049 E.02386
G1 X107.79 Y103.693 E.02385
G1 X108.053 Y104.408 E.02389
G1 X108.161 Y105.161 E.02385
G1 X108.11 Y105.92 E.02385
G1 X107.903 Y106.653 E.02388
G1 X107.547 Y107.326 E.02387
G1 X107.06 Y107.91 E.02384
G1 X106.472 Y108.373 E.02347
G1 X105.857 Y108.681 E.02157
G1 X105.516 Y108.802 E.01134
G1 X104.98 Y108.914 E.01717
G1 X104.28 Y108.931 E.02195
G1 X103.53 Y108.802 E.02386
G1 X102.932 Y108.567 E.02015
G1 X102.584 Y108.381 E.01237
G1 X102.077 Y108.001 E.01987
G1 X101.661 Y107.549 E.01926
G1 X101.295 Y106.973 E.0214
G1 X101.075 Y106.443 E.01799
G1 X100.936 Y105.92 E.01697
G1 X100.878 Y105.344 E.01815
G1 X100.936 Y104.678 E.02096
G1 X101.134 Y103.974 E.02293
G1 X101.491 Y103.286 E.0243
G1 X101.902 Y102.781 E.02042
G1 X102.049 Y102.641 E.00636
M204 S1000
G1 X102.343 Y102.878 F6000
M204 S800
G1 F1200
G1 X102.42 Y102.803 E.00337
G1 X102.898 Y102.464 E.01837
G1 X103.421 Y102.226 E.01802
G1 X104.084 Y102.064 E.0214
G1 X104.766 Y102.044 E.02139
G1 X105.438 Y102.165 E.02141
G1 X106.069 Y102.424 E.02139
G1 X106.633 Y102.808 E.02139
G1 X107.105 Y103.301 E.0214
G1 X107.464 Y103.882 E.02141
G1 X107.694 Y104.524 E.02138
G1 X107.786 Y105.2 E.02139
G1 X107.735 Y105.881 E.02141
G1 X107.544 Y106.536 E.02139
G1 X107.221 Y107.137 E.02139
G1 X106.78 Y107.658 E.0214
G1 X106.25 Y108.068 E.02101
G1 X105.704 Y108.337 E.01908
G1 X105.438 Y108.433 E.00887
G1 X104.919 Y108.542 E.01663
G1 X104.28 Y108.554 E.02004
G1 X103.608 Y108.433 E.02141
G1 X103.086 Y108.223 E.01764
G1 X102.806 Y108.075 E.00993
G1 X102.331 Y107.723 E.01854
G1 X101.941 Y107.297 E.01811
G1 X101.622 Y106.784 E.01894
G1 X101.434 Y106.326 E.01552
G1 X101.304 Y105.817 E.01647
G1 X101.258 Y105.227 E.01856
G1 X101.311 Y104.717 E.01608
G1 X101.493 Y104.09 E.02047
G1 X101.819 Y103.471 E.02194
G1 X102.182 Y103.033 E.01784
G1 X102.3 Y102.92 E.00512
M204 S1000
G1 X102.594 Y103.156 F6000
M204 S800
G1 F1200
G1 X103.028 Y102.827 E.01708
G1 X103.574 Y102.571 E.01891
G1 X104.162 Y102.433 E.01894
G1 X104.766 Y102.421 E.01894
G1 X105.359 Y102.534 E.01893
G1 X105.916 Y102.768 E.01894
G1 X106.411 Y103.113 E.01892
G1 X106.825 Y103.554 E.01897
G1 X107.137 Y104.07 E.01891
G1 X107.335 Y104.641 E.01895
G1 X107.411 Y105.24 E.01893
G1 X107.36 Y105.842 E.01894
G1 X107.185 Y106.42 E.01894
G1 X106.894 Y106.949 E.01893
G1 X106.499 Y107.406 E.01894
G1 X106.029 Y107.763 E.01851
G1 X105.551 Y107.992 E.01662
G1 X104.884 Y108.165 E.02161
G1 X104.28 Y108.177 E.01894
G1 X103.687 Y108.064 E.01893
G1 X103.13 Y107.83 E.01894
G1 X102.634 Y107.485 E.01894
G1 X102.221 Y107.044 E.01894
G1 X101.948 Y106.596 E.01645
G1 X101.71 Y105.957 E.02138
G1 X101.635 Y105.358 E.01893
G1 X101.686 Y104.756 E.01894
G1 X101.851 Y104.207 E.01797
G1 X102.148 Y103.655 E.01965
G1 X102.546 Y103.193 E.01912
M204 S1000
G1 X102.843 Y103.433 F6000
M204 S800
;TYPE:External perimeter
G1 F1200
G1 X103.249 Y103.133 E.01583
G1 X103.728 Y102.915 E.0165
G1 X104.241 Y102.802 E.01647
G1 X104.766 Y102.798 E.01646
G1 X105.281 Y102.903 E.01648
G1 X105.762 Y103.113 E.01646
G1 X106.19 Y103.418 E.01648
G1 X106.544 Y103.806 E.01647
G1 X106.811 Y104.259 E.01649
G1 X106.977 Y104.757 E.01646
G1 X107.036 Y105.279 E.01647
G1 X106.984 Y105.811 E.01676
G1 X106.827 Y106.303 E.01619
G1 X106.568 Y106.76 E.01647
G1 X106.219 Y107.153 E.01648
G1 X105.807 Y107.458 E.01607
G1 X105.318 Y107.683 E.01688
G1 X104.805 Y107.796 E.01647
G1 X104.28 Y107.8 E.01646
G1 X103.765 Y107.695 E.01648
G1 X103.284 Y107.485 E.01646
G1 X102.856 Y107.18 E.01648
G1 X102.502 Y106.792 E.01647
G1 X102.235 Y106.339 E.01649
G1 X102.069 Y105.841 E.01646
G1 X102.01 Y105.319 E.01647
G1 X102.061 Y104.796 E.01648
G1 X102.217 Y104.306 E.01612
G1 X102.477 Y103.84 E.01673
G1 X102.8 Y103.475 E.01528
M204 S1000
;WIPE_START
G1 F4800
G1 X102.843 Y103.433 E-.02498
G1 X103.249 Y103.133 E-.20981
G1 X103.728 Y102.915 E-.21873
G1 X104.241 Y102.802 E-.21833
G1 X104.766 Y102.798 E-.21821
G1 X105.025 Y102.851 E-.10994
;WIPE_END
G1 Z.4 F720
G1 X152.25 Y97.782 F6000
G1 Z.2 F720
G1 E1 F2100
M204 S800
;TYPE:Perimeter
;WIDTH:0.376682
G1 F1200
G1 X152.507 Y97.287 E.01548
G1 X152.612 Y97.409 E.00447
G1 X152.812 Y97.782 E.01175
G1 X152.31 Y97.782 E.01393
M204 S1000
;WIPE_START
G1 F4800
G1 X152.25 Y97.782 E-.02494
G1 X152.507 Y97.287 E-.23181
G1 X152.612 Y97.409 E-.0669
G1 X152.812 Y97.782 E-.17591
G1 X152.31 Y97.782 E-.20864
;WIPE_END
G1 E-.2918 F2100
G1 Z.4 F720
G1 X152.341 Y96.722 F6000
G1 Z.2 F720
G1 E1 F2100
M204 S800
;WIDTH:0.419999
G1 F1200
G1 X152.554 Y96.855 E.00787
G1 X152.92 Y97.223 E.01627
G1 X153.151 Y97.673 E.01586
G1 X153.237 Y98.138 E.01483
G1 X151.517 Y98.138 E.05393
G1 X151.896 Y97.683 E.01857
G1 X152.118 Y97.299 E.01391
G1 X152.319 Y96.778 E.01751
M204 S1000
G1 X152.046 Y96.211 F6000
M204 S800
G1 F1200
G1 X152.461 Y96.359 E.01381
G1 X152.799 Y96.568 E.01246
G1 X153.169 Y96.933 E.0163
G1 X153.422 Y97.34 E.01503
G1 X153.587 Y97.854 E.01693
G1 X153.615 Y98.291 E.01373
G1 X153.527 Y98.453 E.00578
G1 X153.291 Y98.515 E.00765
G1 X150.31 Y98.515 E.09347
G1 X150.777 Y98.273 E.01649
G1 X151.347 Y97.779 E.02365
G1 X151.738 Y97.224 E.02129
G1 X151.926 Y96.775 E.01526
G1 X152.034 Y96.27 E.01619
M204 S1000
;WIPE_START
G1 F4800
G1 X152.046 Y96.211 E-.02502
G1 X152.461 Y96.359 E-.18312
G1 X152.799 Y96.568 E-.16517
G1 X153.169 Y96.933 E-.21602
G1 X153.422 Y97.34 E-.19918
G1 X153.578 Y97.825 E-.21149
;WIPE_END
G1 Z.4 F720
G1 X141.904 Y98.635 F6000
G1 Z.2 F720
G1 E1 F2100
M204 S800
G1 F1200
G1 X141.732 Y98.916 E.01033
G1 X141.578 Y99.338 E.01409
G1 X141.518 Y99.835 E.0157
G1 X141.518 Y110.35 E.32969
G1 X141.672 Y110.926 E.01869
G1 X141.99 Y111.457 E.01941
G1 X141.771 Y111.781 E.01226
G1 X141.591 Y112.228 E.01511
G1 X141.518 Y112.773 E.01724
G1 X141.518 Y122.329 E.29962
G1 X113.322 Y122.328 E.88406
G1 X112.181 Y122.214 E.03595
G1 X111.015 Y122.017 E.03708
G1 X109.85 Y121.736 E.03758
G1 X108.718 Y121.38 E.03721
G1 X107.613 Y120.947 E.03721
G1 X106.539 Y120.439 E.03725
G1 X105.503 Y119.859 E.03723
G1 X104.509 Y119.21 E.03722
G1 X103.562 Y118.494 E.03722
G1 X102.666 Y117.716 E.03721
G1 X101.825 Y116.877 E.03725
G1 X101.043 Y115.984 E.03722
G1 X100.336 Y115.053 E.03665
G1 X99.672 Y114.045 E.03785
G1 X99.089 Y113.011 E.03722
G1 X98.578 Y111.939 E.03724
G1 X98.141 Y110.834 E.03726
G1 X97.781 Y109.702 E.03724
G1 X97.499 Y108.549 E.03722
G1 X97.297 Y107.378 E.03726
G1 X97.176 Y106.196 E.03725
G1 X97.136 Y105.028 E.03664
G1 X97.176 Y103.821 E.03787
G1 X97.298 Y102.641 E.0372
G1 X97.5 Y101.47 E.03726
G1 X97.782 Y100.316 E.03725
G1 X98.142 Y99.184 E.03724
G1 X98.579 Y98.08 E.03723
G1 X99.09 Y97.007 E.03726
G1 X99.674 Y95.973 E.03723
G1 X100.316 Y94.996 E.03665
G1 X101.046 Y94.034 E.03786
G1 X101.828 Y93.141 E.03722
G1 X102.669 Y92.303 E.03722
G1 X103.566 Y91.524 E.03725
G1 X104.514 Y90.808 E.03725
G1 X105.508 Y90.159 E.03722
G1 X106.545 Y89.579 E.03725
G1 X107.619 Y89.072 E.03724
G1 X108.707 Y88.646 E.03664
G1 X109.859 Y88.282 E.03788
G1 X111.013 Y88.005 E.03721
G1 X112.183 Y87.807 E.03721
G1 X113.346 Y87.692 E.03664
G1 X141.518 Y87.692 E.88331
G1 X141.518 Y97.604 E.31078
G1 X141.647 Y98.155 E.01774
M73 P0 R76
G1 X141.876 Y98.582 E.01519
M204 S1000
G1 X142.41 Y98.619 F6000
M204 S800
G1 F1200
G1 X142.427 Y98.635 E.00073
G1 X142.228 Y98.825 E.00863
G1 X142.07 Y99.083 E.00949
G1 X141.965 Y99.353 E.00908
G1 X141.895 Y99.835 E.01527
G1 X141.895 Y110.279 E.32746
G1 X142.021 Y110.783 E.01629
M73 P1 R76
G1 X142.278 Y111.215 E.01576
G1 X142.556 Y111.457 E.01156
G1 X142.278 Y111.699 E.01156
G1 X142.102 Y111.961 E.0099
G1 X141.955 Y112.327 E.01237
G1 X141.895 Y112.773 E.01411
G1 X141.895 Y122.706 E.31144
G1 X113.303 Y122.705 E.89648
G1 X112.13 Y122.588 E.03696
G1 X110.939 Y122.386 E.03788
G1 X109.749 Y122.1 E.03837
G1 X108.592 Y121.736 E.03803
G1 X107.463 Y121.293 E.03803
G1 X106.366 Y120.775 E.03804
G1 X105.308 Y120.182 E.03803
G1 X104.292 Y119.519 E.03804
G1 X103.324 Y118.788 E.03803
G1 X102.409 Y117.992 E.03803
G1 X101.55 Y117.135 E.03805
G1 X100.751 Y116.222 E.03804
G1 X100.028 Y115.271 E.03746
G1 X99.35 Y114.242 E.03864
G1 X98.754 Y113.185 E.03805
