; generated by Slic3r Prusa Edition 1.41.0+ on 2018-09-25 at 17:55:12

; 

; external perimeters extrusion width = 0.45mm
; perimeters extrusion width = 0.45mm
; infill extrusion width = 0.45mm
; solid infill extrusion width = 0.45mm
; top infill extrusion width = 0.40mm
; support material extrusion width = 0.35mm
; first layer extrusion width = 0.42mm

M201 X9000 Y9000 Z500 E10000 ; sets maximum accelerations, mm/sec^2
M203 X500 Y500 Z12 E120 ; sets maximum feedrates, mm/sec
M204 P2000 R1500 T2000 ; sets acceleration (P, T) and retract acceleration (R), mm/sec^2
M205 X10.00 Y10.00 Z0.20 E2.50 ; sets the jerk limits, mm/sec
M205 S0 T0 ; sets the minimum extruding and travel feed rate, mm/sec
M107
G21 ; set units to millimeters
G90 ; use absolute positioning
M82 ; absolute extrusion mode
M104 S160 ; set extruder temp no wait
M140 S85 ; set bed temp no wait
M190 S85 ; wait for bed temp

G28 W ; home all without mesh bed level
G80 ; mesh bed leveling

M109 S230 ; wait for extruder temp

M900 K30 ; Linear Advance Value
M205 X8 ; jerk x standard 15
M205 Y8 ; jerk y standard 15
M205 E0.33 ; jerk e axis
M201 E180 ; e axis acceleration

G92 E0.0 ; reset extruder distance position
G1 Y-3.0 F1000.0 ; go outside print area
G1 X60.0 E9.0 F1000.0 ; intro line
M73 P0 R68
G1 X100.0 E21.5 F1000.0 ; intro line
G92 E0.0 ; reset extruder distance position
M900 K45; Filament gcode
G21 ; set units to millimeters
G90 ; use absolute coordinates
M83 ; use relative distances for extrusion
;BEFORE_LAYER_CHANGE
G92 E0.0
;0.2


G1 E-0.80000 F2100.00000
G1 Z0.600 F10800.000
;AFTER_LAYER_CHANGE
;0.2
G1 X104.033 Y90.633
G1 Z0.200
G1 E0.80000 F2100.00000
M204 S1000
G1 F1200
G1 X104.662 Y89.997 E0.02803
G1 X105.104 Y89.714 E0.01644
G1 X105.858 Y89.403 E0.02560
G1 X106.826 Y89.267 E0.03062
G1 X142.883 Y89.264 E1.13055
G1 X143.818 Y89.313 E0.02935
G1 X144.917 Y89.686 E0.03639
G1 X145.627 Y90.208 E0.02765
G1 X146.263 Y91.003 E0.03192
G1 X152.626 Y106.450 E0.52380
G1 X152.626 Y118.048 E0.36366
G1 X152.436 Y118.592 E0.01805
G1 X152.109 Y119.070 E0.01817
G1 X149.520 Y121.501 E0.11135
G1 X148.917 Y121.816 E0.02134
G1 X148.242 Y121.931 E0.02146
G1 X129.375 Y122.101 E0.59160
G1 X101.452 Y122.101 E0.87552
G1 X100.948 Y122.040 E0.01589
G1 X100.473 Y121.864 E0.01589
G1 X100.050 Y121.584 E0.01589
G1 X99.704 Y121.215 E0.01589
G1 X99.392 Y120.622 E0.02100
G1 X99.275 Y119.962 E0.02100
G1 X99.301 Y103.588 E0.51341
G1 X103.617 Y91.408 E0.40514
G1 X104.005 Y90.686 E0.02573
; PURGING FINISHED
G1 F8640
G1 X104.662 Y89.997 E-0.21973
G1 X105.104 Y89.714 E-0.12110
G1 X105.858 Y89.403 E-0.18849
G1 X106.826 Y89.267 E-0.22549
G1 X106.848 Y89.267 E-0.00518
G1 E-0.04000 F2100.00000
G1 Z0.800 F10800.000
G1 X101.463 Y119.912
G1 Z0.200
G1 E0.80000 F2100.00000
G1 F1200
G1 X101.463 Y103.930 E0.50112
G1 X102.217 Y104.684 E0.03344
G1 X102.217 Y119.743 E0.47216
G1 X102.971 Y119.743 E0.02365
G1 X102.971 Y105.438 E0.44851
G1 X103.536 Y106.004 E0.02508
G1 X103.361 Y106.179 E0.00776
G1 X103.361 Y110.071 E0.12205
G1 X103.604 Y110.314 E0.01074
G1 X103.725 Y110.314 E0.00380
G1 X103.725 Y119.743 E0.29565
G1 X104.479 Y119.743 E0.02365
G1 X104.479 Y110.314 E0.29565
G1 X105.233 Y110.314 E0.02365
G1 X105.233 Y119.743 E0.29565
G1 X105.987 Y119.743 E0.02365
G1 X105.987 Y110.314 E0.29565
G1 X106.742 Y110.314 E0.02365
G1 X106.742 Y119.743 E0.29565
G1 X107.496 Y119.743 E0.02365
G1 X107.496 Y110.314 E0.29565
G1 X108.250 Y110.314 E0.02365
G1 X108.250 Y119.743 E0.29565
G1 X109.004 Y119.743 E0.02365
G1 X109.004 Y110.314 E0.29565
G1 X109.758 Y110.314 E0.02365
G1 X109.758 Y119.743 E0.29565
G1 X110.512 Y119.743 E0.02365
G1 X110.512 Y110.314 E0.29565
G1 X111.267 Y110.314 E0.02365
G1 X111.267 Y119.912 E0.30097
G1 F8640
G1 X111.267 Y116.621 E-0.76000
G1 E-0.04000 F2100.00000
G1 Z0.800 F10800.000
G1 X119.562 Y119.912
G1 Z0.200
G1 E0.80000 F2100.00000
G1 F1200
G1 X119.562 Y110.314 E0.30097
G1 X120.316 Y110.314 E0.02365
G1 X120.316 Y119.743 E0.29565
G1 X121.071 Y119.743 E0.02365
G1 X121.071 Y110.314 E0.29565
G1 X121.825 Y110.314 E0.02365
G1 X121.825 Y119.743 E0.29565
G1 X122.579 Y119.743 E0.02365
G1 X122.579 Y110.314 E0.29565
G1 X123.333 Y110.314 E0.02365
G1 X123.333 Y119.743 E0.29565
G1 X124.087 Y119.743 E0.02365
G1 X124.087 Y110.314 E0.29565
G1 X124.841 Y110.314 E0.02365
G1 X124.841 Y119.743 E0.29565
G1 X125.596 Y119.743 E0.02365
G1 X125.596 Y110.314 E0.29565
G1 X126.350 Y110.314 E0.02365
G1 X126.350 Y119.743 E0.29565
G1 X127.104 Y119.743 E0.02365
G1 X127.104 Y110.314 E0.29565
G1 X127.858 Y110.314 E0.02365
G1 X127.858 Y119.743 E0.29565
G1 X128.612 Y119.743 E0.02365
G1 X128.612 Y110.314 E0.29565
G1 X129.366 Y110.314 E0.02365
G1 X129.366 Y119.912 E0.30097
G1 F8640
G1 X129.366 Y116.621 E-0.76000
G1 E-0.04000 F2100.00000
G1 Z0.800 F10800.000
G1 X138.416 Y110.144
G1 Z0.200
G1 E0.80000 F2100.00000
G1 F1200
G1 X138.416 Y119.743 E0.30097
G1 X139.170 Y119.743 E0.02365
G1 X139.170 Y110.314 E0.29565
G1 X139.925 Y110.314 E0.02365
G1 X139.925 Y119.743 E0.29565
G1 X140.679 Y119.743 E0.02365
G1 X140.679 Y110.314 E0.29565
G1 X141.433 Y110.314 E0.02365
G1 X141.433 Y119.743 E0.29565
G1 X142.187 Y119.743 E0.02365
G1 X142.187 Y110.314 E0.29565
G1 X142.941 Y110.314 E0.02365
G1 X142.941 Y119.743 E0.29565
G1 X143.695 Y119.743 E0.02365
G1 X143.695 Y110.314 E0.29565
G1 X144.450 Y110.314 E0.02365
G1 X144.450 Y119.743 E0.29565
G1 X145.204 Y119.743 E0.02365
G1 X145.204 Y110.314 E0.29565
G1 X145.958 Y110.314 E0.02365
G1 X145.958 Y119.743 E0.29565
G1 X146.712 Y119.743 E0.02365
G1 X146.712 Y106.892 E0.40294
G1 X147.466 Y106.892 E0.02365
G1 X147.466 Y119.743 E0.40294
G1 X148.217 Y119.743 E0.02355
G1 X148.220 Y106.892 E0.40294
G1 X148.975 Y106.892 E0.02365
G1 X148.975 Y117.436 E0.33060
G1 X149.729 Y117.436 E0.02365
G1 X149.729 Y106.892 E0.33060
G1 X150.483 Y106.892 E0.02365
G1 X150.483 Y117.605 E0.33592
G1 F8640
G1 X150.483 Y114.314 E-0.76000
G1 E-0.04000 F2100.00000
G1 Z0.800 F10800.000
G1 X145.688 Y109.313
G1 Z0.200
G1 E0.80000 F2100.00000
G1 F1200
G1 X104.362 Y109.313 E1.29574
G1 X104.362 Y106.937 E0.07449
G1 X106.112 Y106.937 E0.05487
G1 X106.114 Y92.731 E0.44542
G1 X106.248 Y92.318 E0.01361
G1 X106.360 Y92.194 E0.00524
G1 X106.727 Y92.051 E0.01235
G1 X107.420 Y92.070 E0.02174
G1 X107.638 Y92.168 E0.00747
G1 X107.838 Y92.371 E0.00896
G1 X107.928 Y92.654 E0.00929
G1 X107.938 Y106.937 E0.44785
G1 X142.112 Y106.937 E1.07149
G1 X142.112 Y92.747 E0.44491
G1 X142.135 Y92.603 E0.00459
G1 X142.249 Y92.321 E0.00953
G1 X142.362 Y92.197 E0.00525
G1 X142.541 Y92.105 E0.00631
G1 X142.700 Y92.052 E0.00524
G1 X143.293 Y92.042 E0.01860
G1 X143.631 Y92.154 E0.01117
G1 X143.843 Y92.397 E0.01011
G1 X143.938 Y92.731 E0.01091
G1 X143.938 Y106.937 E0.44541
G1 X145.688 Y106.937 E0.05487
G1 X145.688 Y109.253 E0.07261
G1 F8640
G1 X142.396 Y109.258 E-0.76000
G1 E-0.04000 F2100.00000
G1 Z0.800 F10800.000
G1 X144.315 Y106.560
G1 Z0.200
G1 E0.80000 F2100.00000
G1 F1200
G1 X146.065 Y106.560 E0.05487
G1 X146.065 Y109.690 E0.09814
G1 X103.985 Y109.690 E1.31939
G1 X103.985 Y106.560 E0.09814
G1 X105.735 Y106.560 E0.05487
G1 X105.737 Y92.678 E0.43526
G1 X105.842 Y92.313 E0.01191
G1 X105.925 Y92.115 E0.00672
G1 X106.099 Y91.918 E0.00827
G1 X106.178 Y91.861 E0.00304
G1 X106.661 Y91.672 E0.01626
G1 X107.506 Y91.696 E0.02649
G1 X107.856 Y91.853 E0.01205
G1 X108.154 Y92.155 E0.01330
G1 X108.305 Y92.595 E0.01460
G1 X108.315 Y106.560 E0.43785
G1 X141.735 Y106.560 E1.04786
G1 X141.735 Y92.717 E0.43404
G1 X141.770 Y92.501 E0.00686
G1 X141.925 Y92.116 E0.01301
G1 X142.130 Y91.893 E0.00950
G1 X142.394 Y91.756 E0.00933
G1 X142.634 Y91.677 E0.00793
G1 X143.344 Y91.666 E0.02226
G1 X143.814 Y91.819 E0.01548
G1 X143.930 Y91.909 E0.00463
G1 X144.175 Y92.195 E0.01179
G1 X144.302 Y92.592 E0.01309
G1 X144.315 Y92.711 E0.00376
G1 X144.315 Y106.500 E0.43234
G1 X144.315 Y106.960 F10800.000
G1 X143.825 Y106.638
G1 F1200
G1 X142.395 Y105.208 E0.06354
G1 X142.395 Y104.674 E0.01679
G1 X143.655 Y105.934 E0.05600
G1 X143.655 Y105.400 E0.01679
G1 X142.395 Y104.140 E0.05600
G1 X142.395 Y103.605 E0.01679
G1 X143.655 Y104.865 E0.05600
G1 X143.655 Y104.331 E0.01679
G1 X142.395 Y103.071 E0.05600
G1 X142.395 Y102.536 E0.01679
G1 X143.655 Y103.797 E0.05600
G1 X143.655 Y103.262 E0.01679
G1 X142.395 Y102.002 E0.05600
G1 X142.395 Y101.468 E0.01679
G1 X143.655 Y102.728 E0.05600
G1 X143.655 Y102.194 E0.01679
G1 X142.395 Y100.933 E0.05600
G1 X142.395 Y100.399 E0.01679
G1 X143.655 Y101.659 E0.05600
G1 X143.655 Y101.125 E0.01679
G1 X142.395 Y99.864 E0.05600
G1 X142.395 Y99.330 E0.01679
G1 X143.655 Y100.590 E0.05600
G1 X143.655 Y100.056 E0.01679
G1 X142.395 Y98.796 E0.05600
G1 X142.395 Y98.261 E0.01679
G1 X143.655 Y99.522 E0.05600
G1 X143.655 Y98.987 E0.01679
G1 X142.395 Y97.727 E0.05600
G1 X142.395 Y97.193 E0.01679
G1 X143.655 Y98.453 E0.05600
G1 X143.655 Y97.918 E0.01679
G1 X142.395 Y96.658 E0.05600
G1 X142.395 Y96.124 E0.01679
G1 X143.655 Y97.384 E0.05600
G1 X143.655 Y96.850 E0.01679
G1 X142.395 Y95.589 E0.05600
G1 X142.395 Y95.055 E0.01679
G1 X143.655 Y96.315 E0.05600
G1 X143.655 Y95.781 E0.01679
G1 X142.395 Y94.521 E0.05600
G1 X142.395 Y93.986 E0.01679
G1 X143.655 Y95.247 E0.05600
G1 X143.655 Y94.712 E0.01679
G1 X142.395 Y93.452 E0.05600
G1 X142.395 Y92.918 E0.01679
G1 X143.655 Y94.178 E0.05600
G1 X143.655 Y93.643 E0.01679
G1 X142.492 Y92.474 E0.05182
G1 X142.537 Y92.426 E0.00206
G1 X142.651 Y92.366 E0.00405
G1 X142.748 Y92.334 E0.00319
G1 X142.878 Y92.332 E0.00411
G1 X143.825 Y93.279 E0.04206
G1 F8640
G1 X142.878 Y92.332 E-0.30908
G1 X142.748 Y92.334 E-0.03019
G1 X142.651 Y92.366 E-0.02346
G1 X142.537 Y92.426 E-0.02979
G1 X142.492 Y92.474 E-0.01516
G1 X143.568 Y93.556 E-0.35232
G1 E-0.04000 F2100.00000
G1 Z0.800 F10800.000
G1 X145.575 Y107.854
G1 Z0.200
G1 E0.80000 F2100.00000
G1 F1200
G1 X144.941 Y107.220 E0.02817
G1 X144.406 Y107.220 E0.01679
G1 X145.405 Y108.219 E0.04438
G1 X145.405 Y108.753 E0.01679
G1 X142.395 Y105.743 E0.13376
G1 X142.395 Y106.277 E0.01679
G1 X145.148 Y109.030 E0.12233
M73 P1 R67
G1 X144.614 Y109.030 E0.01679
G1 X142.395 Y106.811 E0.09859
G1 X142.395 Y107.220 E0.01283
G1 X142.269 Y107.220 E0.00396
G1 X144.079 Y109.030 E0.08044
G1 X143.545 Y109.030 E0.01679
G1 X141.735 Y107.220 E0.08044
G1 X141.200 Y107.220 E0.01679
G1 X143.010 Y109.030 E0.08044
G1 X142.476 Y109.030 E0.01679
G1 X140.666 Y107.220 E0.08044
G1 X140.131 Y107.220 E0.01679
G1 X141.942 Y109.030 E0.08044
G1 X141.407 Y109.030 E0.01679
G1 X139.597 Y107.220 E0.08044
G1 X139.063 Y107.220 E0.01679
G1 X140.873 Y109.030 E0.08044
G1 X140.339 Y109.030 E0.01679
G1 X138.528 Y107.220 E0.08044
G1 X137.994 Y107.220 E0.01679
G1 X139.804 Y109.030 E0.08044
G1 X139.270 Y109.030 E0.01679
G1 X137.459 Y107.220 E0.08044
G1 X136.925 Y107.220 E0.01679
G1 X138.735 Y109.030 E0.08044
G1 X138.201 Y109.030 E0.01679
G1 X136.391 Y107.220 E0.08044
G1 X135.856 Y107.220 E0.01679
G1 X137.667 Y109.030 E0.08044
G1 X137.132 Y109.030 E0.01679
G1 X135.322 Y107.220 E0.08044
G1 X134.788 Y107.220 E0.01679
G1 X136.598 Y109.030 E0.08044
G1 X136.063 Y109.030 E0.01679
G1 X134.253 Y107.220 E0.08044
G1 X133.719 Y107.220 E0.01679
G1 X135.529 Y109.030 E0.08044
G1 X134.995 Y109.030 E0.01679
G1 X133.184 Y107.220 E0.08044
G1 X132.650 Y107.220 E0.01679
G1 X134.460 Y109.030 E0.08044
G1 X133.926 Y109.030 E0.01679
G1 X132.116 Y107.220 E0.08044
G1 X131.581 Y107.220 E0.01679
G1 X133.392 Y109.030 E0.08044
G1 X132.857 Y109.030 E0.01679
G1 X131.047 Y107.220 E0.08044
G1 X130.513 Y107.220 E0.01679
G1 X132.323 Y109.030 E0.08044
G1 X131.788 Y109.030 E0.01679
G1 X129.978 Y107.220 E0.08044
G1 X129.444 Y107.220 E0.01679
G1 X131.254 Y109.030 E0.08044
G1 X130.720 Y109.030 E0.01679
G1 X128.909 Y107.220 E0.08044
G1 X128.375 Y107.220 E0.01679
G1 X130.185 Y109.030 E0.08044
G1 X129.651 Y109.030 E0.01679
G1 X127.841 Y107.220 E0.08044
G1 X127.306 Y107.220 E0.01679
G1 X129.117 Y109.030 E0.08044
G1 X128.582 Y109.030 E0.01679
G1 X126.772 Y107.220 E0.08044
G1 X126.237 Y107.220 E0.01679
G1 X128.048 Y109.030 E0.08044
G1 X127.513 Y109.030 E0.01679
G1 X125.703 Y107.220 E0.08044
G1 X125.169 Y107.220 E0.01679
G1 X126.979 Y109.030 E0.08044
G1 X126.445 Y109.030 E0.01679
G1 X124.634 Y107.220 E0.08044
G1 X124.100 Y107.220 E0.01679
G1 X125.910 Y109.030 E0.08044
G1 X125.376 Y109.030 E0.01679
G1 X123.566 Y107.220 E0.08044
G1 X123.031 Y107.220 E0.01679
G1 X124.841 Y109.030 E0.08044
G1 X124.307 Y109.030 E0.01679
G1 X122.497 Y107.220 E0.08044
G1 X121.962 Y107.220 E0.01679
G1 X123.773 Y109.030 E0.08044
G1 X123.238 Y109.030 E0.01679
G1 X121.428 Y107.220 E0.08044
G1 X120.894 Y107.220 E0.01679
G1 X122.704 Y109.030 E0.08044
G1 X122.170 Y109.030 E0.01679
G1 X120.359 Y107.220 E0.08044
G1 X119.825 Y107.220 E0.01679
G1 X121.635 Y109.030 E0.08044
G1 X121.101 Y109.030 E0.01679
G1 X119.291 Y107.220 E0.08044
G1 X118.756 Y107.220 E0.01679
G1 X120.566 Y109.030 E0.08044
G1 X120.032 Y109.030 E0.01679
G1 X118.222 Y107.220 E0.08044
G1 X117.687 Y107.220 E0.01679
G1 X119.498 Y109.030 E0.08044
G1 X118.963 Y109.030 E0.01679
G1 X117.153 Y107.220 E0.08044
G1 X116.619 Y107.220 E0.01679
G1 X118.429 Y109.030 E0.08044
G1 X117.895 Y109.030 E0.01679
G1 X116.084 Y107.220 E0.08044
G1 X115.550 Y107.220 E0.01679
G1 X117.360 Y109.030 E0.08044
G1 X116.826 Y109.030 E0.01679
G1 X115.016 Y107.220 E0.08044
G1 X114.481 Y107.220 E0.01679
G1 X116.291 Y109.030 E0.08044
G1 X115.757 Y109.030 E0.01679
G1 X113.947 Y107.220 E0.08044
G1 X113.412 Y107.220 E0.01679
G1 X115.223 Y109.030 E0.08044
G1 X114.688 Y109.030 E0.01679
G1 X112.878 Y107.220 E0.08044
G1 X112.344 Y107.220 E0.01679
G1 X114.154 Y109.030 E0.08044
G1 X113.619 Y109.030 E0.01679
G1 X111.809 Y107.220 E0.08044
G1 X111.275 Y107.220 E0.01679
G1 X113.085 Y109.030 E0.08044
G1 X112.551 Y109.030 E0.01679
G1 X110.740 Y107.220 E0.08044
G1 X110.206 Y107.220 E0.01679
G1 X112.016 Y109.030 E0.08044
G1 X111.482 Y109.030 E0.01679
G1 X109.672 Y107.220 E0.08044
G1 X109.137 Y107.220 E0.01679
G1 X110.948 Y109.030 E0.08044
G1 X110.413 Y109.030 E0.01679
G1 X108.603 Y107.220 E0.08044
G1 X108.069 Y107.220 E0.01679
G1 X109.879 Y109.030 E0.08044
G1 X109.344 Y109.030 E0.01679
G1 X106.395 Y106.081 E0.13106
G1 X106.395 Y106.615 E0.01679
G1 X108.810 Y109.030 E0.10732
G1 X108.276 Y109.030 E0.01679
G1 X106.395 Y107.149 E0.08358
G1 X106.395 Y107.220 E0.00222
G1 X105.931 Y107.220 E0.01457
G1 X107.741 Y109.030 E0.08044
G1 X107.207 Y109.030 E0.01679
G1 X105.397 Y107.220 E0.08044
G1 X104.862 Y107.220 E0.01679
G1 X106.673 Y109.030 E0.08044
G1 X106.138 Y109.030 E0.01679
G1 X104.645 Y107.537 E0.06635
G1 X104.645 Y108.071 E0.01679
G1 X105.604 Y109.030 E0.04261
G1 X105.069 Y109.030 E0.01679
G1 X104.475 Y108.436 E0.02640
G1 F8640
G1 X105.069 Y109.030 E-0.19404
G1 X105.604 Y109.030 E-0.12339
G1 X104.645 Y108.071 E-0.31313
G1 X104.645 Y107.537 E-0.12339
G1 X104.663 Y107.555 E-0.00604
G1 E-0.04000 F2100.00000
G1 Z0.800 F10800.000
G1 X106.225 Y105.377
G1 Z0.200
G1 E0.80000 F2100.00000
G1 F1200
G1 X107.655 Y106.807 E0.06355
G1 X107.655 Y106.272 E0.01680
G1 X106.395 Y105.012 E0.05599
G1 X106.395 Y104.478 E0.01679
G1 X107.655 Y105.737 E0.05597
G1 X107.654 Y105.202 E0.01680
G1 X106.395 Y103.943 E0.05595
G1 X106.395 Y103.409 E0.01679
G1 X107.654 Y104.668 E0.05593
G1 X107.653 Y104.133 E0.01680
G1 X106.395 Y102.875 E0.05591
G1 X106.395 Y102.340 E0.01679
G1 X107.653 Y103.598 E0.05589
G1 X107.653 Y103.063 E0.01680
G1 X106.395 Y101.806 E0.05586
G1 X106.395 Y101.272 E0.01679
G1 X107.652 Y102.529 E0.05584
G1 X107.652 Y101.994 E0.01680
G1 X106.396 Y100.737 E0.05582
G1 X106.396 Y100.203 E0.01679
G1 X107.651 Y101.459 E0.05580
G1 X107.651 Y100.924 E0.01680
G1 X106.396 Y99.669 E0.05578
G1 X106.396 Y99.134 E0.01679
G1 X107.651 Y100.389 E0.05576
G1 X107.650 Y99.855 E0.01680
G1 X106.396 Y98.600 E0.05574
G1 X106.396 Y98.066 E0.01679
G1 X107.650 Y99.320 E0.05572
G1 X107.649 Y98.785 E0.01680
G1 X106.396 Y97.532 E0.05570
G1 X106.396 Y96.997 E0.01679
G1 X107.649 Y98.250 E0.05568
G1 X107.649 Y97.715 E0.01680
G1 X106.396 Y96.463 E0.05566
G1 X106.396 Y95.929 E0.01679
G1 X107.648 Y97.181 E0.05564
G1 X107.648 Y96.646 E0.01680
G1 X106.396 Y95.394 E0.05562
G1 X106.396 Y94.860 E0.01679
G1 X107.647 Y96.111 E0.05560
G1 X107.647 Y95.576 E0.01680
G1 X106.396 Y94.326 E0.05558
