; generated by PrusaSlicer 2.1.0+ on 2019-10-01 at 11:10:00 UTC

; 

; external perimeters extrusion width = 0.45mm
; perimeters extrusion width = 0.45mm
; infill extrusion width = 0.45mm
; solid infill extrusion width = 0.45mm
; top infill extrusion width = 0.45mm
; first layer extrusion width = 0.42mm

M73 P0 R39
M201 X9000 Y9000 Z500 E10000 ; sets maximum accelerations, mm/sec^2
M203 X500 Y500 Z12 E120 ; sets maximum feedrates, mm/sec
M204 P2000 R1500 T2000 ; sets acceleration (P, T) and retract acceleration (R), mm/sec^2
M205 X10.00 Y10.00 Z0.20 E2.50 ; sets the jerk limits, mm/sec
M205 S0 T0 ; sets the minimum extruding and travel feed rate, mm/sec
M107
M83  ; extruder relative mode
M140 S75 ; set bed temp
M109 S160 ; Set extruder temp before bed level
M190 S75 ; wait for bed temp

G28 W ; home all without mesh bed level
G80 N7 ; mesh bed leveling

M109 S240 ; wait for extruder temp

M221 S100 ; Set flow to 100

G1 Y-3.0 F1000.0 ; go outside print area
G92 E0.0
G1 E8 ; Purge Bubble
M73 P0 R39
G1 X60.0 E9.0 F1000.0 ; intro line
G1 X100.0 E12.5 F1000.0 ; intro line
G92 E0.0
G21 ; set units to millimeters
G90 ; use absolute coordinates
M83 ; use relative distances for extrusion
M900 K45; Filament gcode
;BEFORE_LAYER_CHANGE
G92 E0.0
;0.2


G1 E-0.80000 F2100.00000
G1 Z0.600 F10800.000
;AFTER_LAYER_CHANGE
;0.2
G1 X106.249 Y83.192
G1 Z0.200
G1 E0.80000 F2100.00000
M204 S1000
G1 F1200
G1 X106.670 Y82.526 E0.02275
G1 X115.781 Y72.846 E0.38345
G1 X116.948 Y71.931 E0.04277
G1 X118.070 Y71.402 E0.03579
G1 X118.932 Y71.171 E0.02574
G1 X120.033 Y71.062 E0.03191
G1 X139.935 Y71.062 E0.57408
G1 X141.116 Y71.179 E0.03423
G1 X142.249 Y71.524 E0.03418
G1 X143.297 Y72.085 E0.03428
G1 X144.198 Y72.824 E0.03362
G1 X144.951 Y73.738 E0.03416
G1 X145.513 Y74.785 E0.03427
G1 X145.860 Y75.921 E0.03427
G1 X145.978 Y77.089 E0.03385
G1 X145.960 Y98.565 E0.61950
G1 X140.943 Y133.717 E1.02428
G1 X140.547 Y135.189 E0.04397
G1 X140.188 Y135.918 E0.02344
G1 X139.748 Y136.575 E0.02280
G1 X139.236 Y137.159 E0.02241
G1 X138.640 Y137.684 E0.02291
G1 X137.985 Y138.123 E0.02276
G1 X137.271 Y138.476 E0.02297
G1 X136.517 Y138.732 E0.02297
G1 X135.717 Y138.889 E0.02350
G1 X115.055 Y138.937 E0.59604
G1 X113.907 Y138.821 E0.03329
G1 X112.794 Y138.484 E0.03355
G1 X112.065 Y138.126 E0.02344
G1 X111.408 Y137.686 E0.02280
G1 X110.823 Y137.174 E0.02241
G1 X110.299 Y136.578 E0.02291
G1 X109.859 Y135.922 E0.02276
G1 X109.506 Y135.208 E0.02297
G1 X109.250 Y134.454 E0.02297
G1 X109.093 Y133.655 E0.02350
G1 X106.094 Y91.330 E1.22396
G1 X106.091 Y83.969 E0.21235
G1 X106.237 Y83.251 E0.02113
G1 F8640
G1 X106.670 Y82.526 E-0.19514
G1 X108.347 Y80.744 E-0.56486
G1 E-0.04000 F2100.00000
G1 Z0.800 F10800.000
G1 X127.794 Y86.701
G1 Z0.200
G1 E0.80000 F2100.00000
G1 F1200
G1 X127.920 Y86.202 E0.01483
G1 X128.052 Y85.829 E0.01142
G1 X128.270 Y85.363 E0.01483
G1 X128.471 Y85.022 E0.01142
G1 X128.773 Y84.606 E0.01483
G1 X129.035 Y84.309 E0.01142
G1 X129.408 Y83.960 E0.01474
G1 X129.660 Y83.763 E0.00922
G1 X130.158 Y83.444 E0.01707
G1 X130.515 Y83.267 E0.01148
G1 X130.997 Y83.079 E0.01493
G1 X131.498 Y82.948 E0.01493
G1 X131.888 Y82.882 E0.01142
G1 X132.401 Y82.848 E0.01483
G1 X132.797 Y82.858 E0.01142
G1 X133.307 Y82.921 E0.01483
G1 X133.694 Y83.007 E0.01142
G1 X134.183 Y83.166 E0.01483
G1 X134.546 Y83.324 E0.01142
G1 X134.996 Y83.572 E0.01483
G1 X135.322 Y83.797 E0.01142
G1 X135.717 Y84.126 E0.01483
G1 X135.994 Y84.409 E0.01142
G1 X136.322 Y84.809 E0.01493
G1 X136.602 Y85.245 E0.01493
G1 X136.785 Y85.596 E0.01142
G1 X136.976 Y86.073 E0.01483
G1 X137.090 Y86.455 E0.01149
G1 X137.198 Y87.043 E0.01725
G1 X137.231 Y87.563 E0.01502
G1 X137.218 Y87.958 E0.01142
G1 X137.153 Y88.469 E0.01483
G1 X137.065 Y88.855 E0.01142
G1 X136.905 Y89.343 E0.01483
G1 X136.744 Y89.705 E0.01142
G1 X136.493 Y90.158 E0.01494
G1 X136.191 Y90.578 E0.01492
G1 X135.933 Y90.878 E0.01142
G1 X135.559 Y91.232 E0.01483
G1 X135.248 Y91.477 E0.01142
G1 X134.815 Y91.753 E0.01483
G1 X134.463 Y91.934 E0.01142
G1 X133.978 Y92.126 E0.01502
G1 X133.401 Y92.280 E0.01724
G1 X133.007 Y92.340 E0.01150
G1 X132.494 Y92.372 E0.01483
G1 X132.098 Y92.356 E0.01142
G1 X131.588 Y92.290 E0.01483
G1 X131.203 Y92.199 E0.01142
G1 X130.712 Y92.036 E0.01492
G1 X130.242 Y91.818 E0.01494
G1 X129.900 Y91.619 E0.01142
G1 X129.483 Y91.318 E0.01483
G1 X129.183 Y91.056 E0.01149
G1 X128.777 Y90.617 E0.01724
G1 X128.471 Y90.196 E0.01502
G1 X128.270 Y89.855 E0.01142
G1 X128.052 Y89.389 E0.01483
G1 X127.920 Y89.016 E0.01142
G1 X127.794 Y88.517 E0.01483
G1 X127.736 Y88.126 E0.01142
G1 X127.706 Y87.609 E0.01493
G1 X127.736 Y87.092 E0.01493
G1 X127.785 Y86.760 E0.00969
G1 X128.158 Y86.815 F10800.000
G1 F1200
G1 X128.281 Y86.311 E0.01496
G1 X128.401 Y85.972 E0.01039
G1 X128.604 Y85.539 E0.01379
G1 X128.786 Y85.229 E0.01039
G1 X129.067 Y84.842 E0.01379
G1 X129.306 Y84.573 E0.01039
G1 X129.654 Y84.247 E0.01375
G1 X129.878 Y84.071 E0.00823
G1 X130.344 Y83.773 E0.01596
G1 X130.668 Y83.612 E0.01041
G1 X131.114 Y83.438 E0.01382
G1 X131.577 Y83.317 E0.01382
G1 X131.932 Y83.257 E0.01038
G1 X132.409 Y83.225 E0.01378
G1 X132.769 Y83.234 E0.01039
G1 X133.243 Y83.293 E0.01379
G1 X133.595 Y83.371 E0.01039
G1 X134.049 Y83.519 E0.01379
G1 X134.379 Y83.662 E0.01039
G1 X134.798 Y83.893 E0.01379
G1 X135.094 Y84.098 E0.01039
G1 X135.461 Y84.403 E0.01378
G1 X135.713 Y84.661 E0.01038
G1 X136.017 Y85.031 E0.01382
G1 X136.275 Y85.435 E0.01382
G1 X136.442 Y85.754 E0.01038
G1 X136.620 Y86.197 E0.01378
G1 X136.723 Y86.543 E0.01041
G1 X136.823 Y87.089 E0.01602
G1 X136.854 Y87.569 E0.01385
G1 X136.842 Y87.928 E0.01039
G1 X136.782 Y88.403 E0.01379
G1 X136.701 Y88.754 E0.01039
G1 X136.552 Y89.208 E0.01378
G1 X136.406 Y89.537 E0.01039
G1 X136.174 Y89.956 E0.01382
G1 X135.894 Y90.345 E0.01382
G1 X135.659 Y90.617 E0.01038
G1 X135.312 Y90.946 E0.01378
G1 X135.030 Y91.169 E0.01039
G1 X134.627 Y91.426 E0.01378
G1 X134.306 Y91.590 E0.01039
G1 X133.860 Y91.767 E0.01385
G1 X133.323 Y91.910 E0.01602
G1 X132.967 Y91.965 E0.01041
G1 X132.490 Y91.994 E0.01378
G1 X132.130 Y91.980 E0.01039
G1 X131.656 Y91.918 E0.01378
G1 X131.306 Y91.835 E0.01038
G1 X130.851 Y91.685 E0.01382
G1 X130.417 Y91.483 E0.01382
G1 X130.105 Y91.302 E0.01039
G1 X129.718 Y91.023 E0.01378
G1 X129.446 Y90.785 E0.01041
G1 X129.069 Y90.378 E0.01602
G1 X128.786 Y89.989 E0.01385
G1 X128.604 Y89.679 E0.01039
G1 X128.401 Y89.246 E0.01379
G1 X128.281 Y88.907 E0.01039
G1 X128.164 Y88.443 E0.01378
G1 X128.111 Y88.087 E0.01038
G1 X128.084 Y87.609 E0.01382
G1 X128.111 Y87.131 E0.01382
G1 X128.149 Y86.874 E0.00748
G1 X127.856 Y86.553 F10800.000
G1 F8640
G1 X128.281 Y86.311 E-0.13351
G1 X128.401 Y85.972 E-0.08313
G1 X128.604 Y85.539 E-0.11034
G1 X128.786 Y85.229 E-0.08313
G1 X129.067 Y84.842 E-0.11035
G1 X129.306 Y84.573 E-0.08313
G1 X129.654 Y84.247 E-0.11006
G1 X129.812 Y84.123 E-0.04633
G1 E-0.04000 F2100.00000
G1 Z0.800 F10800.000
G1 X117.123 Y84.596
G1 Z0.200
G1 E0.80000 F2100.00000
G1 F1200
G1 X117.123 Y76.744 E0.22649
G1 X117.288 Y76.141 E0.01805
G1 X117.447 Y75.767 E0.01173
G1 X117.561 Y75.564 E0.00671
G1 X117.771 Y75.267 E0.01050
G1 X117.924 Y75.091 E0.00672
G1 X118.230 Y74.808 E0.01201
G1 X118.688 Y74.508 E0.01580
G1 X118.898 Y74.407 E0.00673
G1 X119.280 Y74.272 E0.01171
G1 X119.671 Y74.191 E0.01151
G1 X120.089 Y74.163 E0.01208
G1 X139.964 Y74.165 E0.57333
G1 X140.337 Y74.191 E0.01077
G1 X140.756 Y74.282 E0.01238
G1 X141.098 Y74.405 E0.01049
G1 X141.309 Y74.506 E0.00674
G1 X141.611 Y74.691 E0.01021
G1 X141.961 Y74.976 E0.01304
G1 X142.203 Y75.235 E0.01020
G1 X142.349 Y75.427 E0.00697
G1 X142.616 Y75.901 E0.01569
G1 X142.770 Y76.326 E0.01304
G1 X142.843 Y76.673 E0.01021
G1 X142.869 Y76.903 E0.00670
G1 X142.869 Y98.308 E0.61743
G1 X142.815 Y98.702 E0.01148
G1 X142.709 Y99.086 E0.01148
G1 X142.549 Y99.458 E0.01169
G1 X142.436 Y99.658 E0.00662
G1 X142.199 Y99.987 E0.01172
G1 X141.925 Y100.276 E0.01148
G1 X141.613 Y100.526 E0.01153
G1 X141.309 Y100.712 E0.01027
G1 X141.100 Y100.812 E0.00669
G1 X140.718 Y100.947 E0.01169
G1 X140.328 Y101.027 E0.01148
G1 X139.911 Y101.055 E0.01205
G1 X120.089 Y101.055 E0.57179
G1 X119.671 Y101.027 E0.01208
G1 X119.280 Y100.946 E0.01151
G1 X118.904 Y100.814 E0.01151
G1 X118.549 Y100.631 E0.01151
G1 X118.222 Y100.403 E0.01151
G1 X117.929 Y100.132 E0.01151
G1 X117.676 Y99.824 E0.01151
G1 X117.467 Y99.487 E0.01144
G1 X117.287 Y99.075 E0.01297
G1 X117.123 Y98.475 E0.01795
G1 X117.123 Y90.622 E0.22652
G1 X109.139 Y90.622 E0.23029
G1 X109.139 Y84.596 E0.17382
G1 X117.063 Y84.596 E0.22856
G1 X116.746 Y84.219 F10800.000
G1 F1200
G1 X116.746 Y76.619 E0.21923
G1 X116.766 Y76.619 E0.00059
G1 X116.931 Y76.017 E0.01802
G1 X117.109 Y75.600 E0.01306
G1 X117.242 Y75.363 E0.00786
G1 X117.474 Y75.034 E0.01160
G1 X117.653 Y74.828 E0.00786
G1 X117.988 Y74.518 E0.01316
G1 X118.163 Y74.387 E0.00631
G1 X118.507 Y74.177 E0.01163
G1 X118.752 Y74.058 E0.00787
G1 X119.179 Y73.908 E0.01306
G1 X119.620 Y73.817 E0.01298
G1 X120.076 Y73.786 E0.01319
G1 X139.978 Y73.787 E0.57409
G1 X140.382 Y73.817 E0.01169
G1 X140.866 Y73.921 E0.01429
G1 X141.244 Y74.057 E0.01159
G1 X141.489 Y74.175 E0.00785
G1 X141.829 Y74.382 E0.01149
G1 X142.219 Y74.700 E0.01452
G1 X142.491 Y74.991 E0.01148
G1 X142.658 Y75.210 E0.00793
G1 X142.778 Y75.395 E0.00637
G1 X142.962 Y75.749 E0.01151
G1 X143.133 Y76.223 E0.01452
G1 X143.216 Y76.612 E0.01149
G1 X143.246 Y76.882 E0.00784
G1 X143.246 Y98.334 E0.61879
G1 X143.186 Y98.778 E0.01295
G1 X143.066 Y99.211 E0.01295
G1 X142.887 Y99.626 E0.01303
G1 X142.754 Y99.861 E0.00781
G1 X142.490 Y100.228 E0.01304
G1 X142.181 Y100.554 E0.01295
G1 X141.830 Y100.836 E0.01297
G1 X141.489 Y101.043 E0.01151
G1 X141.245 Y101.161 E0.00783
G1 X140.819 Y101.311 E0.01303
G1 X140.379 Y101.402 E0.01295
G1 X139.924 Y101.432 E0.01316
G1 X120.076 Y101.432 E0.57253
G1 X119.620 Y101.401 E0.01319
G1 X119.179 Y101.310 E0.01298
G1 X118.754 Y101.161 E0.01298
G1 X118.354 Y100.955 E0.01298
G1 X117.985 Y100.697 E0.01298
G1 X117.655 Y100.392 E0.01298
G1 X117.368 Y100.044 E0.01298
G1 X117.132 Y99.662 E0.01296
G1 X116.931 Y99.201 E0.01453
G1 X116.766 Y98.599 E0.01799
G1 X116.746 Y98.599 E0.00058
G1 X116.746 Y90.999 E0.21923
G1 X108.762 Y90.999 E0.23029
G1 X108.762 Y84.219 E0.19558
G1 X116.686 Y84.219 E0.22856
G1 X117.135 Y84.126 F10800.000
G1 F8640
G1 X116.712 Y80.928 E-0.76000
G1 E-0.04000 F2100.00000
G1 Z0.800 F10800.000
G1 X116.772 Y90.509
G1 Z0.200
G1 E0.80000 F2100.00000
G1 F1200
G1 X111.142 Y84.879 E0.23153
G1 X110.605 Y84.879 E0.01563
G1 X116.065 Y90.339 E0.22455
G1 X115.527 Y90.339 E0.01563
G1 X110.067 Y84.879 E0.22455
G1 X109.529 Y84.879 E0.01563
G1 X114.990 Y90.339 E0.22455
G1 X114.452 Y90.339 E0.01563
G1 X109.422 Y85.309 E0.20687
G1 X109.422 Y85.847 E0.01563
G1 X113.915 Y90.339 E0.18476
G1 X113.377 Y90.339 E0.01563
G1 X109.422 Y86.384 E0.16265
G1 X109.422 Y86.922 E0.01563
G1 X112.839 Y90.339 E0.14054
G1 X112.302 Y90.339 E0.01563
G1 X109.422 Y87.459 E0.11843
G1 X109.422 Y87.997 E0.01563
G1 X111.764 Y90.339 E0.09632
G1 X111.227 Y90.339 E0.01563
G1 X109.422 Y88.534 E0.07422
G1 X109.422 Y89.072 E0.01563
G1 X110.689 Y90.339 E0.05211
G1 X110.151 Y90.339 E0.01563
G1 X109.422 Y89.610 E0.03000
G1 X109.422 Y90.147 E0.01563
G1 X109.783 Y90.509 E0.01487
G1 F8640
G1 X109.422 Y90.147 E-0.11808
G1 X109.422 Y89.610 E-0.12413
G1 X110.151 Y90.339 E-0.23821
G1 X110.689 Y90.339 E-0.12413
G1 X110.213 Y89.863 E-0.15545
G1 E-0.04000 F2100.00000
G1 Z0.800 F10800.000
G1 X117.251 Y98.514
G1 Z0.200
G1 E0.80000 F2100.00000
G1 F1200
G1 X119.424 Y100.687 E0.08939
G1 X119.709 Y100.746 E0.00846
G1 X120.043 Y100.769 E0.00974
G1 X117.405 Y98.131 E0.10848
G1 X117.405 Y97.593 E0.01563
G1 X120.585 Y100.772 E0.13075
G1 X121.122 Y100.772 E0.01563
G1 X117.405 Y97.056 E0.15285
G1 X117.405 Y96.518 E0.01563
G1 X121.660 Y100.772 E0.17496
G1 X122.198 Y100.772 E0.01563
G1 X117.405 Y95.980 E0.19707
G1 X117.405 Y95.443 E0.01563
G1 X122.735 Y100.772 E0.21918
G1 X123.273 Y100.772 E0.01563
G1 X117.405 Y94.905 E0.24129
G1 X117.405 Y94.368 E0.01563
G1 X123.810 Y100.772 E0.26340
G1 X124.348 Y100.772 E0.01563
G1 X117.405 Y93.830 E0.28550
G1 X117.405 Y93.292 E0.01563
G1 X124.885 Y100.772 E0.30761
G1 X125.423 Y100.772 E0.01563
G1 X117.405 Y92.755 E0.32972
G1 X117.405 Y92.217 E0.01563
G1 X125.961 Y100.772 E0.35183
G1 X126.498 Y100.772 E0.01563
G1 X117.405 Y91.680 E0.37394
G1 X117.405 Y91.142 E0.01563
G1 X127.036 Y100.772 E0.39604
G1 X127.573 Y100.772 E0.01563
G1 X111.680 Y84.879 E0.65362
G1 X112.217 Y84.879 E0.01563
G1 X128.111 Y100.772 E0.65362
G1 X128.649 Y100.772 E0.01563
G1 X112.755 Y84.879 E0.65362
G1 X113.293 Y84.879 E0.01563
G1 X129.186 Y100.772 E0.65362
G1 X129.724 Y100.772 E0.01563
G1 X113.830 Y84.879 E0.65362
G1 X114.368 Y84.879 E0.01563
G1 X130.261 Y100.772 E0.65362
G1 X130.799 Y100.772 E0.01563
G1 X114.905 Y84.879 E0.65362
G1 X115.443 Y84.879 E0.01563
G1 X131.337 Y100.772 E0.65362
G1 X131.874 Y100.772 E0.01563
G1 X115.981 Y84.879 E0.65362
G1 X116.518 Y84.879 E0.01563
G1 X132.412 Y100.772 E0.65362
G1 X132.949 Y100.772 E0.01563
G1 X117.056 Y84.879 E0.65362
G1 X117.405 Y84.879 E0.01017
G1 X117.405 Y84.691 E0.00546
G1 X133.487 Y100.772 E0.66134
G1 X134.024 Y100.772 E0.01563
G1 X117.405 Y84.153 E0.68345
G1 X117.405 Y83.616 E0.01563
G1 X134.562 Y100.772 E0.70556
M73 P2 R38
G1 X135.100 Y100.772 E0.01563
G1 X117.405 Y83.078 E0.72767
G1 X117.405 Y82.541 E0.01563
G1 X135.637 Y100.772 E0.74978
G1 X136.175 Y100.772 E0.01563
G1 X117.405 Y82.003 E0.77188
G1 X117.405 Y81.466 E0.01563
G1 X136.712 Y100.772 E0.79399
G1 X137.250 Y100.772 E0.01563
G1 X117.405 Y80.928 E0.81610
G1 X117.405 Y80.390 E0.01563
G1 X137.957 Y100.942 E0.84519
G1 F8640
G1 X135.630 Y98.615 E-0.76000
G1 E-0.04000 F2100.00000
G1 Z0.800 F10800.000
G1 X142.756 Y91.226
G1 Z0.200
G1 E0.80000 F2100.00000
G1 F1200
G1 X137.066 Y85.536 E0.23400
G1 X137.244 Y85.980 E0.01392
G1 X137.358 Y86.366 E0.01169
G1 X142.586 Y91.594 E0.21500
G1 X142.586 Y92.131 E0.01563
G1 X137.480 Y87.025 E0.20999
G1 X137.513 Y87.596 E0.01661
G1 X142.586 Y92.669 E0.20864
G1 X142.586 Y93.207 E0.01563
G1 X137.485 Y88.105 E0.20980
G1 X137.419 Y88.577 E0.01385
G1 X142.586 Y93.744 E0.21252
G1 X142.586 Y94.282 E0.01563
G1 X137.312 Y89.008 E0.21689
G1 X137.180 Y89.413 E0.01239
G1 X142.586 Y94.819 E0.22235
G1 X142.586 Y95.357 E0.01563
G1 X137.017 Y89.788 E0.22904
G1 X136.828 Y90.136 E0.01153
G1 X142.586 Y95.895 E0.23681
G1 X142.586 Y96.432 E0.01563
G1 X136.620 Y90.466 E0.24537
G1 X136.393 Y90.777 E0.01119
G1 X142.586 Y96.970 E0.25470
G1 X142.586 Y97.507 E0.01563
G1 X136.144 Y91.066 E0.26492
G1 X135.869 Y91.328 E0.01106
G1 X142.586 Y98.045 E0.27625
G1 X142.586 Y98.289 E0.00709
G1 X142.551 Y98.547 E0.00759
G1 X135.579 Y91.576 E0.28671
G1 X135.267 Y91.800 E0.01120
G1 X142.445 Y98.979 E0.29522
G1 X142.283 Y99.354 E0.01189
G1 X134.937 Y92.008 E0.30210
G1 X134.582 Y92.191 E0.01161
G1 X142.071 Y99.680 E0.30800
G1 X141.824 Y99.971 E0.01109
G1 X134.197 Y92.344 E0.31367
G1 X133.786 Y92.470 E0.01251
G1 X141.539 Y100.223 E0.31885
G1 X141.216 Y100.437 E0.01128
G1 X133.352 Y92.573 E0.32341
G1 X132.873 Y92.632 E0.01403
G1 X140.843 Y100.603 E0.32780
G1 X140.642 Y100.674 E0.00621
G1 X140.422 Y100.719 E0.00653
G1 X132.352 Y92.649 E0.33187
G1 X132.074 Y92.638 E0.00809
G1 X131.763 Y92.598 E0.00913
G1 X139.936 Y100.770 E0.33609
G1 X139.400 Y100.772 E0.01557
G1 X131.085 Y92.458 E0.34195
G1 X130.607 Y92.299 E0.01464
G1 X130.200 Y92.110 E0.01306
G1 X138.863 Y100.772 E0.35624
G1 X138.325 Y100.772 E0.01563
G1 X117.405 Y79.853 E0.86032
G1 X117.405 Y79.315 E0.01563
G1 X127.968 Y89.878 E0.43439
G1 X127.790 Y89.497 E0.01225
G1 X127.623 Y88.995 E0.01537
G1 X117.405 Y78.778 E0.42019
G1 X117.405 Y78.240 E0.01563
G1 X127.477 Y88.312 E0.41421
G1 X127.429 Y87.726 E0.01709
G1 X117.405 Y77.702 E0.41223
G1 X117.405 Y77.165 E0.01563
G1 X127.446 Y87.205 E0.41292
G1 X127.504 Y86.726 E0.01405
G1 X117.439 Y76.661 E0.41393
G1 X117.554 Y76.239 E0.01272
G1 X127.606 Y86.290 E0.41336
G1 X127.734 Y85.880 E0.01248
G1 X117.717 Y75.864 E0.41191
G1 X117.927 Y75.536 E0.01132
G1 X127.893 Y85.502 E0.40982
G1 X128.071 Y85.143 E0.01166
G1 X118.174 Y75.245 E0.40704
G1 X118.461 Y74.995 E0.01108
