; generated by PrusaSlicer 2.9.2 on 2025-07-29 at 20:42:28 UTC


;
;

;
;
; 

; external perimeters extrusion width = 0.45mm
; perimeters extrusion width = 0.45mm
; infill extrusion width = 0.45mm
; solid infill extrusion width = 0.45mm
; top infill extrusion width = 0.40mm
; first layer extrusion width = 0.42mm

M73 P0 R65
M201 X9000 Y9000 Z500 E10000 ; sets maximum accelerations, mm/sec^2
M203 X500 Y500 Z12 E120 ; sets maximum feedrates, mm / sec
M204 S2000 T1500 ; sets acceleration (S) and retract acceleration (R), mm/sec^2
M205 X10.00 Y10.00 Z0.20 E4.50 ; sets the jerk limits, mm/sec
M205 S0 T0 ; sets the minimum extruding and travel feed rate, mm/sec

; printing object Bed Arm.stl id:0 copy 0
; stop printing object Bed Arm.stl id:0 copy 0

;TYPE:Custom
M83  ; extruder relative mode
M140 S85 ; set bed temp
M109 S160 ; Set extruder temp before bed level
M190 S85 ; wait for bed temp

G28 W ; home all without mesh bed level
G80 N7 ; mesh bed leveling

M109 S250 ; wait for extruder temp

M221 S100 ; Set flow to 100

G1 Y-3.0 F1000.0 ; go outside print area
G92 E0.0
G1 E8 ; Purge Bubble
G1 X60.0 E9.0 F1000.0 ; intro line
G1 X100.0 E12.5 F1000.0 ; intro line
G92 E0.0
G21 ; set units to millimeters
G90 ; use absolute coordinates
M83 ; use relative distances for extrusion

M900 K0.08 ; Filament gcode LA 1.5
M900 K45 ; Filament gcode LA 1.0




M107
;LAYER_CHANGE
;Z:0.2
;HEIGHT:0.2
G1 E-1 F2100
G1 Z.4 F720
G1 X33.588 Y77.136 F6000
G1 Z.2 F720
G1 E1 F2100
M204 S800
;TYPE:Skirt/Brim
;WIDTH:0.42
G1 F1200
G1 X35.201 Y76.831 E.05147
G1 X220.762 Y114.031 E5.9339
G1 X222.19 Y115.02 E.05446
G1 X229.19 Y126.27 E.41544
G1 X229.521 Y127.426 E.0377
G1 X229.521 Y133.426 E.18813
G1 X229.13 Y134.675 E.04104
G1 X228.097 Y135.477 E.041
G1 X227.335 Y135.615 E.02428
G1 X121.121 Y135.761 E3.33027
G1 X120.277 Y135.593 E.02698
G1 X27.33 Y96.935 E3.1563
G1 X26.327 Y96.094 E.04104
G1 X25.983 Y94.832 E.04101
G1 X26.148 Y94.076 E.02426
G1 X32.749 Y78.139 E.54086
G1 X33.55 Y77.182 E.03913
M204 S1000
;WIPE_START
G1 F4800
G1 X33.588 Y77.136 E-.0248
G1 X35.201 Y76.831 E-.68228
G1 X35.892 Y76.97 E-.29292
;WIPE_END
G1 Z.4 F720
; printing object Bed Arm.stl id:0 copy 0
G1 X35.343 Y86.227 F6000
G1 Z.2 F720
G1 E1 F2100
M204 S800
;TYPE:Perimeter
;WIDTH:0.419999
G1 F1200
G1 X35.88 Y86.204 E.01685
G1 X36.496 Y86.346 E.01982
G1 X37.045 Y86.641 E.01954
G1 X37.499 Y87.067 E.01952
G1 X37.827 Y87.597 E.01954
G1 X38.006 Y88.193 E.01951
G1 X38.026 Y88.815 E.01951
G1 X37.883 Y89.421 E.01952
G1 X37.827 Y89.558 E.00464
G1 X37.55 Y90.029 E.01713
G1 X37.162 Y90.424 E.01736
G1 X36.633 Y90.752 E.01952
G1 X36.037 Y90.931 E.01951
G1 X35.414 Y90.951 E.01954
G1 X34.842 Y90.817 E.01842
G1 X34.268 Y90.519 E.02028
G1 X33.806 Y90.087 E.01983
G1 X33.478 Y89.558 E.01952
G1 X33.298 Y88.962 E.01952
G1 X33.279 Y88.339 E.01954
G1 X33.421 Y87.733 E.01952
G1 X33.716 Y87.184 E.01954
G1 X34.142 Y86.731 E.0195
G1 X34.672 Y86.403 E.01954
G1 X35.234 Y86.232 E.01842
G1 X35.283 Y86.23 E.00154
M204 S1000
G1 X35.391 Y86.59 F6000
M204 S800
;TYPE:External perimeter
G1 F1200
G1 X35.887 Y86.581 E.01555
G1 X36.399 Y86.71 E.01656
G1 X36.856 Y86.967 E.01644
G1 X37.232 Y87.334 E.01647
G1 X37.5 Y87.785 E.01645
G1 X37.642 Y88.29 E.01645
G1 X37.649 Y88.815 E.01646
G1 X37.5 Y89.369 E.01799
G1 X37.232 Y89.82 E.01645
G1 X36.856 Y90.187 E.01647
G1 X36.399 Y90.444 E.01644
G1 X35.89 Y90.573 E.01646
G1 X35.373 Y90.569 E.01621
G1 X34.897 Y90.436 E.0155
G1 X34.449 Y90.188 E.01606
G1 X34.072 Y89.82 E.01652
G1 X33.804 Y89.369 E.01645
G1 X33.662 Y88.864 E.01645
G1 X33.656 Y88.339 E.01646
G1 X33.786 Y87.831 E.01644
G1 X34.042 Y87.373 E.01645
G1 X34.409 Y86.997 E.01647
G1 X34.86 Y86.729 E.01645
G1 X35.332 Y86.602 E.01533
M204 S1000
;WIPE_START
G1 F4800
G1 X35.391 Y86.59 E-.02502
G1 X35.887 Y86.581 E-.20618
G1 X36.399 Y86.71 E-.21945
G1 X36.856 Y86.967 E-.21792
G1 X37.232 Y87.334 E-.21838
G1 X37.371 Y87.568 E-.11305
;WIPE_END
G1 Z.4 F720
G1 X35.197 Y80.005 F6000
G1 Z.2 F720
G1 E1 F2100
M204 S800
;TYPE:Perimeter
G1 F1200
G1 X124.318 Y116.921 E3.02456
G1 X124.535 Y116.964 E.00694
G1 X212.724 Y116.964 E2.7651
G1 X212.724 Y119.176 E.06936
M73 P1 R65
G1 X212.768 Y119.615 E.01383
G1 X212.951 Y119.85 E.00934
G1 X213.29 Y119.964 E.01121
G1 X216.551 Y119.964 E.10225
G1 X216.891 Y119.85 E.01124
G1 X217.073 Y119.614 E.00934
G1 X217.116 Y119.398 E.00691
G1 X217.116 Y116.964 E.07632
G1 X219.545 Y116.964 E.07616
G1 X219.545 Y121.389 E.13874
G1 X196.318 Y121.389 E.72827
G1 X195.378 Y121.528 E.02979
G1 X194.564 Y121.886 E.02788
G1 X193.869 Y122.443 E.02793
G1 X193.343 Y123.161 E.02791
G1 X193.02 Y123.99 E.0279
G1 X192.923 Y124.875 E.02791
G1 X193.058 Y125.755 E.02791
G1 X193.417 Y126.57 E.02792
G1 X193.974 Y127.264 E.0279
G1 X194.691 Y127.791 E.0279
G1 X195.521 Y128.114 E.02793
G1 X196.318 Y128.214 E.02519
G1 X226.545 Y128.214 E.94774
G1 X226.545 Y130.426 E.06936
G1 X226.545 Y132.639 E.06939
G1 X217.497 Y132.639 E.28369
G1 X217.497 Y130.705 E.06064
G1 X217.432 Y130.441 E.00852
G1 X217.244 Y130.234 E.00877
G1 X216.931 Y130.139 E.01026
G1 X212.909 Y130.139 E.12611
G1 X212.596 Y130.234 E.01026
G1 X212.409 Y130.441 E.00875
G1 X212.343 Y130.705 E.00853
G1 X212.343 Y132.639 E.06064
G1 X121.304 Y132.639 E2.85446
G1 X29.198 Y94.488 E3.12585
M73 P1 R64
G1 X35.174 Y80.061 E.48962
M204 S1000
G1 X34.993 Y79.513 F6000
M204 S800
;TYPE:External perimeter
G1 F1200
G1 X124.463 Y116.572 E3.03639
G1 X124.535 Y116.586 E.0023
G1 X213.101 Y116.586 E2.77692
G1 X213.101 Y119.398 E.08817
G1 X213.177 Y119.549 E.0053
G1 X213.29 Y119.586 E.00373
G1 X216.551 Y119.586 E.10225
G1 X216.664 Y119.549 E.00373
G1 X216.739 Y119.398 E.00529
G1 X216.739 Y116.586 E.08817
G1 X219.922 Y116.586 E.0998
G1 X219.922 Y121.766 E.16241
G1 X196.318 Y121.766 E.74009
G1 X195.523 Y121.876 E.02516
G1 X194.793 Y122.185 E.02485
G1 X194.168 Y122.673 E.02486
G1 X193.691 Y123.305 E.02483
G1 X193.394 Y124.04 E.02486
G1 X193.297 Y124.826 E.02483
G1 X193.407 Y125.611 E.02485
G1 X193.716 Y126.34 E.02483
G1 X194.203 Y126.965 E.02484
G1 X194.836 Y127.442 E.02485
G1 X195.57 Y127.74 E.02484
G1 X196.318 Y127.836 E.02365
G1 X226.922 Y127.836 E.95957
G1 X226.922 Y130.426 E.08121
G1 X226.922 Y133.016 E.08121
G1 X217.12 Y133.016 E.30733
G1 X217.12 Y130.705 E.07246
G1 X217.036 Y130.548 E.00558
G1 X216.931 Y130.516 E.00344
G1 X212.909 Y130.516 E.12611
G1 X212.805 Y130.548 E.00341
G1 X212.72 Y130.705 E.0056
G1 X212.72 Y133.016 E.07246
G1 X121.256 Y133.028 E2.86778
G1 X28.706 Y94.692 E3.14093
G1 X34.97 Y79.568 E.51327
M73 P2 R64
M204 S1000
;WIPE_START
G1 F4800
G1 X34.993 Y79.513 E-.02478
G1 X37.161 Y80.411 E-.97522
;WIPE_END
G1 Z.4 F720
G1 X225.651 Y128.327 F6000
G1 Z.2 F720
G1 E1 F2100
M204 S800
;TYPE:Solid infill
;WIDTH:0.420137
G1 F1200
G1 X226.262 Y128.937 E.02708
G1 X226.262 Y129.471 E.01675
G1 X225.288 Y128.496 E.04323
G1 X224.754 Y128.496 E.01675
G1 X226.262 Y130.004 E.06689
G1 X226.262 Y130.538 E.01675
G1 X224.22 Y128.496 E.09058
G1 X223.687 Y128.496 E.01672
G1 X226.262 Y131.071 E.11422
G1 X226.262 Y131.605 E.01675
G1 X223.153 Y128.496 E.13791
G1 X222.62 Y128.496 E.01672
G1 X226.262 Y132.138 E.16155
G1 X226.262 Y132.357 E.00687
G1 X225.947 Y132.357 E.00988
G1 X222.086 Y128.495 E.17129
G1 X221.552 Y128.495 E.01675
G1 X225.414 Y132.357 E.17131
G1 X224.88 Y132.357 E.01675
G1 X221.019 Y128.495 E.17129
G1 X220.485 Y128.495 E.01675
G1 X224.347 Y132.357 E.17131
G1 X223.813 Y132.357 E.01675
G1 X219.952 Y128.495 E.17129
G1 X219.418 Y128.495 E.01675
G1 X223.28 Y132.357 E.17131
G1 X222.746 Y132.357 E.01675
G1 X218.885 Y128.495 E.17129
G1 X218.351 Y128.495 E.01675
G1 X222.213 Y132.357 E.17131
G1 X221.679 Y132.357 E.01675
G1 X217.817 Y128.495 E.17131
G1 X217.284 Y128.494 E.01672
G1 X221.146 Y132.357 E.17133
G1 X220.613 Y132.357 E.01672
G1 X216.75 Y128.494 E.17135
G1 X216.217 Y128.494 E.01672
G1 X220.079 Y132.357 E.17133
G1 X219.546 Y132.357 E.01672
G1 X215.683 Y128.494 E.17135
G1 X215.15 Y128.494 E.01672
G1 X216.512 Y129.857 E.06044
G1 X215.979 Y129.857 E.01672
G1 X214.616 Y128.494 E.06046
G1 X214.082 Y128.494 E.01675
G1 X215.445 Y129.857 E.06046
G1 X214.912 Y129.857 E.01672
G1 X213.549 Y128.494 E.06046
G1 X213.015 Y128.494 E.01675
G1 X214.378 Y129.857 E.06046
G1 X213.845 Y129.857 E.01672
G1 X212.482 Y128.493 E.06048
G1 X211.948 Y128.493 E.01675
G1 X213.311 Y129.857 E.06048
G1 X212.788 Y129.867 E.01641
G1 X211.414 Y128.493 E.06095
G1 X210.881 Y128.493 E.01672
G1 X212.412 Y130.024 E.06791
G1 X212.159 Y130.304 E.01184
G1 X210.347 Y128.493 E.08035
G1 X209.814 Y128.493 E.01672
G1 X212.064 Y130.743 E.09981
G1 X212.063 Y131.276 E.01672
G1 X209.28 Y128.493 E.12345
G1 X208.747 Y128.493 E.01672
G1 X212.062 Y131.808 E.14705
G1 X212.061 Y132.34 E.01669
G1 X208.213 Y128.492 E.17069
G1 X207.679 Y128.492 E.01675
G1 X211.544 Y132.357 E.17144
G1 X211.01 Y132.357 E.01675
G1 X207.146 Y128.492 E.17142
G1 X206.612 Y128.492 E.01675
G1 X210.477 Y132.357 E.17144
G1 X209.943 Y132.357 E.01675
G1 X206.079 Y128.492 E.17142
G1 X205.545 Y128.492 E.01675
G1 X209.41 Y132.357 E.17144
G1 X208.876 Y132.357 E.01675
G1 X205.012 Y128.492 E.17142
G1 X204.478 Y128.492 E.01675
G1 X208.343 Y132.357 E.17144
G1 X207.809 Y132.357 E.01675
G1 X203.944 Y128.492 E.17144
G1 X203.411 Y128.491 E.01672
G1 X207.276 Y132.357 E.17147
G1 X206.742 Y132.357 E.01675
G1 X202.877 Y128.491 E.17147
G1 X202.344 Y128.491 E.01672
G1 X206.209 Y132.357 E.17147
G1 X205.676 Y132.357 E.01672
G1 X201.81 Y128.491 E.17149
G1 X201.276 Y128.491 E.01675
G1 X205.142 Y132.357 E.17149
G1 X204.609 Y132.357 E.01672
G1 X200.743 Y128.491 E.17149
G1 X200.209 Y128.491 E.01675
G1 X204.075 Y132.357 E.17149
G1 X203.542 Y132.357 E.01672
G1 X199.676 Y128.491 E.17149
G1 X199.142 Y128.491 E.01675
G1 X203.008 Y132.357 E.17149
G1 X202.475 Y132.357 E.01672
G1 X198.609 Y128.49 E.17151
G1 X198.075 Y128.49 E.01675
G1 X201.941 Y132.357 E.17151
G1 X201.408 Y132.357 E.01672
G1 X197.541 Y128.49 E.17153
G1 X197.008 Y128.49 E.01672
G1 X200.874 Y132.357 E.17151
G1 X200.341 Y132.357 E.01672
G1 X196.474 Y128.49 E.17153
G1 X196.213 Y128.49 E.00819
G1 X195.899 Y128.449 E.00993
G1 X199.807 Y132.357 E.17335
G1 X199.274 Y132.357 E.01672
G1 X194.929 Y128.012 E.19273
M204 S1000
;WIPE_START
G1 F4800
G1 X196.63 Y129.713 E-1
;WIPE_END
G1 Z.4 F720
G1 X217.607 Y130.952 F6000
G1 Z.2 F720
G1 E1 F2100
M204 S800
G1 F1200
G1 X219.012 Y132.357 E.06232
G1 X218.479 Y132.357 E.01672
G1 X217.778 Y131.656 E.03109
G1 X217.779 Y132.191 E.01678
G1 X218.115 Y132.526 E.01488
M204 S1000
;WIPE_START
G1 F4800
G1 X217.779 Y132.191 E-.1972
G1 X217.778 Y131.656 E-.22236
G1 X218.479 Y132.357 E-.41204
G1 X218.884 Y132.357 E-.1684
;WIPE_END
G1 Z.4 F720
G1 X219.432 Y117.839 F6000
G1 Z.2 F720
G1 E1 F2100
M204 S800
G1 F1200
G1 X218.839 Y117.246 E.0263
G1 X218.305 Y117.246 E.01675
G1 X219.262 Y118.203 E.04245
G1 X219.262 Y118.736 E.01672
G1 X217.772 Y117.246 E.06609
G1 X217.399 Y117.246 E.0117
G1 X217.398 Y117.406 E.00502
G1 X219.262 Y119.27 E.08268
G1 X219.262 Y119.803 E.01672
G1 X217.395 Y117.937 E.08279
G1 X217.393 Y118.467 E.01662
G1 X219.262 Y120.337 E.08293
G1 X219.262 Y120.87 E.01672
G1 X217.39 Y118.998 E.08304
G1 X217.388 Y119.529 E.01666
G1 X218.965 Y121.107 E.06997
G1 X218.431 Y121.107 E.01675
G1 X217.211 Y119.887 E.05412
G1 X217.064 Y120.077 E.00753
G1 X216.928 Y120.136 E.00465
G1 X217.898 Y121.107 E.04305
G1 X217.365 Y121.107 E.01672
G1 X216.504 Y120.246 E.03819
G1 X215.971 Y120.246 E.01672
G1 X216.831 Y121.107 E.03817
G1 X216.298 Y121.107 E.01672
G1 X215.437 Y120.246 E.03819
G1 X214.904 Y120.246 E.01672
G1 X215.764 Y121.107 E.03817
G1 X215.231 Y121.107 E.01672
G1 X214.37 Y120.246 E.03819
G1 X213.837 Y120.246 E.01672
G1 X214.867 Y121.276 E.04569
M204 S1000
;WIPE_START
G1 F4800
G1 X213.837 Y120.246 E-.60542
G1 X214.37 Y120.246 E-.22153
G1 X214.664 Y120.54 E-.17305
;WIPE_END
G1 Z.4 F720
G1 X212.268 Y117.077 F6000
G1 Z.2 F720
G1 E1 F2100
M204 S800
G1 F1200
G1 X212.441 Y117.25 E.00767
G1 X212.441 Y117.784 E.01675
G1 X211.904 Y117.246 E.02384
G1 X211.37 Y117.246 E.01675
G1 X212.441 Y118.317 E.04751
G1 X212.441 Y118.851 E.01675
G1 X210.837 Y117.246 E.07117
G1 X210.304 Y117.246 E.01672
G1 X212.441 Y119.384 E.09481
G1 X212.506 Y119.728 E.01098
G1 X212.781 Y120.082 E.01406
G1 X213.304 Y120.246 E.01719
G1 X214.164 Y121.107 E.03817
G1 X213.63 Y121.107 E.01675
G1 X209.77 Y117.246 E.17124
G1 X209.237 Y117.246 E.01672
G1 X213.097 Y121.107 E.17124
G1 X212.563 Y121.107 E.01675
G1 X208.703 Y117.246 E.17124
G1 X208.17 Y117.246 E.01672
G1 X212.03 Y121.107 E.17124
G1 X211.496 Y121.107 E.01675
G1 X207.636 Y117.246 E.17124
G1 X207.103 Y117.246 E.01672
G1 X210.963 Y121.107 E.17124
G1 X210.429 Y121.107 E.01675
G1 X206.569 Y117.246 E.17124
G1 X206.036 Y117.246 E.01672
G1 X209.896 Y121.107 E.17124
G1 X209.363 Y121.107 E.01672
G1 X205.502 Y117.246 E.17127
G1 X204.969 Y117.246 E.01672
G1 X208.829 Y121.107 E.17124
G1 X208.296 Y121.107 E.01672
G1 X204.435 Y117.246 E.17127
G1 X203.902 Y117.246 E.01672
G1 X207.762 Y121.107 E.17124
G1 X207.229 Y121.107 E.01672
G1 X203.368 Y117.246 E.17127
G1 X202.835 Y117.246 E.01672
G1 X206.695 Y121.107 E.17124
G1 X206.162 Y121.107 E.01672
G1 X202.302 Y117.246 E.17124
G1 X201.768 Y117.246 E.01675
G1 X205.628 Y121.107 E.17124
G1 X205.095 Y121.107 E.01672
G1 X201.235 Y117.246 E.17124
G1 X200.701 Y117.246 E.01675
G1 X204.561 Y121.107 E.17124
G1 X204.028 Y121.107 E.01672
M73 P2 R63
G1 X200.168 Y117.246 E.17124
G1 X199.634 Y117.246 E.01675
G1 X203.494 Y121.107 E.17124
G1 X202.961 Y121.107 E.01672
G1 X199.101 Y117.246 E.17124
G1 X198.567 Y117.246 E.01675
G1 X202.427 Y121.107 E.17124
G1 X201.894 Y121.107 E.01672
G1 X198.034 Y117.246 E.17124
G1 X197.5 Y117.246 E.01675
G1 X201.361 Y121.107 E.17127
G1 X200.827 Y121.107 E.01675
G1 X196.967 Y117.246 E.17124
G1 X196.433 Y117.246 E.01675
G1 X200.294 Y121.107 E.17127
G1 X199.76 Y121.107 E.01675
G1 X195.9 Y117.246 E.17124
G1 X195.366 Y117.246 E.01675
G1 X199.227 Y121.107 E.17127
G1 X198.693 Y121.107 E.01675
G1 X194.833 Y117.246 E.17124
G1 X194.3 Y117.246 E.01672
G1 X198.16 Y121.107 E.17124
G1 X197.626 Y121.107 E.01675
G1 X193.766 Y117.246 E.17124
G1 X193.233 Y117.246 E.01672
G1 X197.093 Y121.107 E.17124
G1 X196.559 Y121.107 E.01675
G1 X192.699 Y117.246 E.17124
G1 X192.166 Y117.246 E.01672
G1 X196.058 Y121.138 E.17264
G1 X195.583 Y121.198 E.01502
G1 X191.632 Y117.246 E.17528
G1 X191.099 Y117.246 E.01672
G1 X195.163 Y121.311 E.18029
G1 X194.786 Y121.467 E.0128
G1 X190.565 Y117.246 E.18723
G1 X190.032 Y117.246 E.01672
G1 X194.426 Y121.641 E.19493
G1 X194.121 Y121.869 E.01194
G1 X189.498 Y117.246 E.20507
G1 X188.965 Y117.246 E.01672
G1 X193.819 Y122.101 E.21534
G1 X193.648 Y122.266 E.00745
G1 X193.564 Y122.379 E.00442
G1 X188.431 Y117.246 E.22769
G1 X187.898 Y117.246 E.01672
G1 X193.334 Y122.683 E.24115
G1 X193.112 Y122.994 E.01199
G1 X187.364 Y117.246 E.25497
G1 X186.831 Y117.246 E.01672
G1 X192.954 Y123.369 E.2716
G1 X192.795 Y123.744 E.01278
G1 X186.298 Y117.246 E.28821
G1 X185.764 Y117.246 E.01675
M73 P3 R63
G1 X192.71 Y124.192 E.30811
G1 X192.651 Y124.667 E.01501
G1 X185.231 Y117.246 E.32916
G1 X184.697 Y117.246 E.01675
G1 X192.692 Y125.241 E.35464
G1 X192.759 Y125.754 E.01623
G1 X192.821 Y125.904 E.00509
G1 X184.164 Y117.246 E.38403
G1 X183.63 Y117.246 E.01675
G1 X198.74 Y132.357 E.67027
G1 X198.207 Y132.357 E.01672
G1 X183.097 Y117.246 E.67027
G1 X182.563 Y117.246 E.01675
G1 X197.674 Y132.357 E.67029
G1 X197.14 Y132.357 E.01675
G1 X182.03 Y117.246 E.67027
G1 X181.496 Y117.246 E.01675
G1 X196.607 Y132.357 E.67029
G1 X196.073 Y132.357 E.01675
G1 X180.963 Y117.246 E.67027
G1 X180.429 Y117.246 E.01675
G1 X195.54 Y132.357 E.67029
G1 X195.006 Y132.357 E.01675
G1 X179.896 Y117.246 E.67027
G1 X179.363 Y117.246 E.01672
G1 X194.473 Y132.357 E.67027
G1 X193.939 Y132.357 E.01675
G1 X178.829 Y117.246 E.67027
G1 X178.296 Y117.246 E.01672
G1 X193.406 Y132.357 E.67027
G1 X192.872 Y132.357 E.01675
G1 X177.762 Y117.246 E.67027
G1 X177.229 Y117.246 E.01672
G1 X192.339 Y132.357 E.67027
G1 X191.805 Y132.357 E.01675
G1 X176.695 Y117.246 E.67027
G1 X176.162 Y117.246 E.01672
G1 X191.272 Y132.357 E.67027
G1 X190.738 Y132.357 E.01675
G1 X175.628 Y117.246 E.67027
G1 X175.095 Y117.246 E.01672
