; generated by PrusaSlicer 2.9.2 on 2025-07-29 at 20:43:36 UTC


;
;

;
;
; 

; external perimeters extrusion width = 0.45mm
; perimeters extrusion width = 0.45mm
; infill extrusion width = 0.45mm
; solid infill extrusion width = 0.45mm
; top infill extrusion width = 0.40mm
; first layer extrusion width = 0.42mm

M73 P0 R22
M201 X9000 Y9000 Z500 E10000 ; sets maximum accelerations, mm/sec^2
M203 X500 Y500 Z12 E120 ; sets maximum feedrates, mm / sec
M204 S2000 T1500 ; sets acceleration (S) and retract acceleration (R), mm/sec^2
M205 X10.00 Y10.00 Z0.20 E4.50 ; sets the jerk limits, mm/sec
M205 S0 T0 ; sets the minimum extruding and travel feed rate, mm/sec

; printing object Mount.stl id:0 copy 0
; stop printing object Mount.stl id:0 copy 0

;TYPE:Custom
M83  ; extruder relative mode
M140 S85 ; set bed temp
M109 S160 ; Set extruder temp before bed level
M190 S85 ; wait for bed temp

G28 W ; home all without mesh bed level
G80 N7 ; mesh bed leveling

M109 S250 ; wait for extruder temp

M221 S100 ; Set flow to 100

G1 Y-3.0 F1000.0 ; go outside print area
G92 E0.0
G1 E8 ; Purge Bubble
G1 X60.0 E9.0 F1000.0 ; intro line
G1 X100.0 E12.5 F1000.0 ; intro line
G92 E0.0
G21 ; set units to millimeters
G90 ; use absolute coordinates
M83 ; use relative distances for extrusion

M900 K0.08 ; Filament gcode LA 1.5
M900 K45 ; Filament gcode LA 1.0




M107
;LAYER_CHANGE
;Z:0.2
;HEIGHT:0.2
G1 E-1 F2100
G1 Z.4 F720
G1 X95.702 Y95.252 F6000
G1 Z.2 F720
G1 E1 F2100
M204 S800
;TYPE:Skirt/Brim
;WIDTH:0.42
G1 F1200
G1 X96.735 Y94.449 E.04102
G1 X97.5 Y94.311 E.02437
G1 X152.5 Y94.311 E1.72449
G1 X153.748 Y94.702 E.04101
M73 P0 R21
G1 X154.551 Y95.735 E.04102
G1 X154.689 Y96.5 E.02437
G1 X154.689 Y113.5 E.53302
G1 X154.298 Y114.748 E.04101
G1 X153.265 Y115.551 E.04102
G1 X152.5 Y115.689 E.02437
G1 X97.5 Y115.689 E1.72449
G1 X96.252 Y115.298 E.04101
M73 P1 R21
G1 X95.449 Y114.265 E.04102
G1 X95.311 Y113.5 E.02437
G1 X95.311 Y96.5 E.53302
G1 X95.684 Y95.309 E.03913
M204 S1000
;WIPE_START
G1 F4800
G1 X95.702 Y95.252 E-.02484
G1 X96.735 Y94.449 E-.5438
G1 X97.5 Y94.311 E-.32309
G1 X97.76 Y94.311 E-.10827
;WIPE_END
G1 Z.4 F720
; printing object Mount.stl id:0 copy 0
G1 X100.809 Y101.425 F6000
G1 Z.2 F720
G1 E1 F2100
M204 S800
;TYPE:Perimeter
;WIDTH:0.419999
G1 F1200
G1 X100.849 Y101.375 E.00201
G1 X101.11 Y101.254 E.00902
G1 X103.351 Y101.246 E.07027
G1 X103.534 Y101.276 E.00581
G1 X103.803 Y101.472 E.01044
G1 X103.907 Y101.71 E.00814
G1 X103.917 Y101.812 E.00321
G1 X103.917 Y108.054 E.19571
G1 X103.838 Y108.342 E.00936
G1 X103.65 Y108.535 E.00845
G1 X103.351 Y108.62 E.00975
G1 X101.208 Y108.62 E.06719
G1 X101.036 Y108.593 E.00546
G1 X100.86 Y108.5 E.00624
G1 X100.706 Y108.315 E.00755
G1 X100.642 Y108.054 E.00843
G1 X100.642 Y101.812 E.19571
G1 X100.702 Y101.558 E.00818
G1 X100.771 Y101.472 E.00346
M204 S1000
G1 X101.068 Y101.709 F6000
M204 S800
;TYPE:External perimeter
G1 F1200
G1 X101.088 Y101.666 E.00149
G1 X101.208 Y101.623 E.004
G1 X103.351 Y101.623 E.06719
G1 X103.502 Y101.698 E.00529
G1 X103.539 Y101.812 E.00376
G1 X103.539 Y108.054 E.19571
G1 X103.487 Y108.184 E.00439
G1 X103.351 Y108.243 E.00465
G1 X101.208 Y108.243 E.06719
G1 X101.092 Y108.203 E.00385
G1 X101.019 Y108.054 E.0052
G1 X101.019 Y101.812 E.19571
G1 X101.042 Y101.763 E.0017
M204 S1000
;WIPE_START
G1 F4800
G1 X101.068 Y101.709 E-.02491
G1 X101.088 Y101.666 E-.01971
G1 X101.208 Y101.623 E-.05298
G1 X103.351 Y101.623 E-.89068
G1 X103.376 Y101.636 E-.01172
;WIPE_END
G1 Z.4 F720
G1 X98.287 Y97.287 F6000
G1 Z.2 F720
G1 E1 F2100
M204 S800
;TYPE:Perimeter
G1 F1200
G1 X151.713 Y97.287 E1.67513
G1 X151.713 Y105 E.24184
G1 X151.713 Y112.713 E.24184
G1 X98.287 Y112.713 E1.67513
G1 X98.287 Y97.347 E.48179
M204 S1000
G1 X97.91 Y96.91 F6000
M204 S800
;TYPE:External perimeter
G1 F1200
G1 X152.09 Y96.91 E1.69877
G1 X152.09 Y105 E.25366
M73 P2 R21
G1 X152.09 Y113.09 E.25366
G1 X97.91 Y113.09 E1.69877
G1 X97.91 Y96.97 E.50543
M204 S1000
;WIPE_START
G1 F4800
G1 X97.91 Y96.91 E-.02494
G1 X100.256 Y96.91 E-.97506
;WIPE_END
G1 Z.4 F720
G1 X150.835 Y97.4 F6000
G1 Z.2 F720
G1 E1 F2100
M204 S800
;TYPE:Solid infill
;WIDTH:0.421192
G1 F1200
G1 X151.43 Y97.995 E.02647
G1 X151.43 Y98.53 E.01683
G1 X150.47 Y97.57 E.0427
G1 X149.935 Y97.57 E.01683
G1 X151.43 Y99.065 E.0665
G1 X151.43 Y99.6 E.01683
G1 X149.4 Y97.57 E.0903
G1 X148.865 Y97.57 E.01683
G1 X151.43 Y100.135 E.1141
G1 X151.43 Y100.67 E.01683
G1 X148.33 Y97.57 E.13789
G1 X147.795 Y97.57 E.01683
G1 X151.43 Y101.205 E.16169
G1 X151.43 Y101.74 E.01683
G1 X147.26 Y97.57 E.18549
G1 X146.725 Y97.57 E.01683
G1 X151.43 Y102.275 E.20929
G1 X151.43 Y102.81 E.01683
G1 X146.19 Y97.57 E.23309
G1 X145.655 Y97.57 E.01683
G1 X151.43 Y103.345 E.25688
G1 X151.43 Y103.88 E.01683
G1 X145.12 Y97.57 E.28068
G1 X144.585 Y97.57 E.01683
G1 X151.43 Y104.415 E.30448
G1 X151.43 Y104.95 E.01683
G1 X144.05 Y97.57 E.32828
G1 X143.515 Y97.57 E.01683
G1 X151.43 Y105.485 E.35207
G1 X151.43 Y106.02 E.01683
G1 X142.98 Y97.57 E.37587
G1 X142.445 Y97.57 E.01683
G1 X151.43 Y106.555 E.39967
G1 X151.43 Y107.09 E.01683
G1 X141.91 Y97.57 E.42347
G1 X141.375 Y97.57 E.01683
M73 P3 R21
G1 X151.43 Y107.625 E.44727
G1 X151.43 Y108.16 E.01683
G1 X140.84 Y97.57 E.47106
G1 X140.306 Y97.57 E.0168
G1 X151.43 Y108.694 E.49482
G1 X151.43 Y109.229 E.01683
G1 X139.771 Y97.57 E.51861
G1 X139.236 Y97.57 E.01683
G1 X151.43 Y109.764 E.54241
G1 X151.43 Y110.299 E.01683
G1 X138.701 Y97.57 E.56621
G1 X138.166 Y97.57 E.01683
G1 X151.43 Y110.834 E.59001
G1 X151.43 Y111.369 E.01683
G1 X137.631 Y97.57 E.61381
G1 X137.096 Y97.57 E.01683
G1 X151.43 Y111.904 E.6376
G1 X151.43 Y112.43 E.01654
G1 X136.561 Y97.57 E.6612
G1 X136.026 Y97.57 E.01683
G1 X150.886 Y112.43 E.661
G1 X150.351 Y112.43 E.01683
G1 X135.491 Y97.57 E.661
G1 X134.956 Y97.57 E.01683
G1 X149.816 Y112.43 E.661
G1 X149.281 Y112.43 E.01683
G1 X134.421 Y97.57 E.661
G1 X133.886 Y97.57 E.01683
M73 P4 R21
G1 X148.746 Y112.43 E.661
G1 X148.211 Y112.43 E.01683
G1 X133.351 Y97.57 E.661
G1 X132.816 Y97.57 E.01683
G1 X147.676 Y112.43 E.661
G1 X147.141 Y112.43 E.01683
G1 X132.281 Y97.57 E.661
G1 X131.746 Y97.57 E.01683
G1 X146.606 Y112.43 E.661
G1 X146.071 Y112.43 E.01683
G1 X131.211 Y97.57 E.661
G1 X130.676 Y97.57 E.01683
G1 X145.537 Y112.43 E.66102
G1 X145.002 Y112.43 E.01683
G1 X130.141 Y97.57 E.66102
G1 X129.606 Y97.57 E.01683
G1 X144.467 Y112.43 E.66102
G1 X143.932 Y112.43 E.01683
G1 X129.071 Y97.57 E.66102
G1 X128.536 Y97.57 E.01683
G1 X143.397 Y112.43 E.66102
G1 X142.862 Y112.43 E.01683
G1 X128.002 Y97.57 E.661
G1 X127.467 Y97.57 E.01683
M73 P5 R21
G1 X142.327 Y112.43 E.661
G1 X141.792 Y112.43 E.01683
G1 X126.932 Y97.57 E.661
G1 X126.397 Y97.57 E.01683
G1 X141.257 Y112.43 E.661
G1 X140.722 Y112.43 E.01683
G1 X125.862 Y97.57 E.661
G1 X125.327 Y97.57 E.01683
M73 P5 R20
G1 X140.187 Y112.43 E.661
G1 X139.652 Y112.43 E.01683
G1 X124.792 Y97.57 E.661
G1 X124.257 Y97.57 E.01683
G1 X139.117 Y112.43 E.661
G1 X138.582 Y112.43 E.01683
G1 X123.722 Y97.57 E.661
G1 X123.187 Y97.57 E.01683
G1 X138.047 Y112.43 E.661
G1 X137.512 Y112.43 E.01683
G1 X122.652 Y97.57 E.661
G1 X122.117 Y97.57 E.01683
G1 X136.977 Y112.43 E.661
G1 X136.442 Y112.43 E.01683
G1 X121.582 Y97.57 E.661
G1 X121.047 Y97.57 E.01683
G1 X135.907 Y112.43 E.661
M73 P6 R20
G1 X135.372 Y112.43 E.01683
G1 X120.512 Y97.57 E.661
G1 X119.977 Y97.57 E.01683
G1 X134.837 Y112.43 E.661
G1 X134.302 Y112.43 E.01683
G1 X119.442 Y97.57 E.661
G1 X118.907 Y97.57 E.01683
G1 X133.767 Y112.43 E.661
G1 X133.233 Y112.43 E.0168
G1 X118.372 Y97.57 E.66102
G1 X117.837 Y97.57 E.01683
G1 X132.698 Y112.43 E.66102
G1 X132.163 Y112.43 E.01683
G1 X117.302 Y97.57 E.66102
G1 X116.767 Y97.57 E.01683
G1 X131.628 Y112.43 E.66102
G1 X131.093 Y112.43 E.01683
G1 X116.232 Y97.57 E.66102
G1 X115.697 Y97.57 E.01683
G1 X130.558 Y112.43 E.66102
G1 X130.023 Y112.43 E.01683
G1 X115.163 Y97.57 E.661
G1 X114.628 Y97.57 E.01683
G1 X129.488 Y112.43 E.661
G1 X128.953 Y112.43 E.01683
M73 P7 R20
G1 X114.093 Y97.57 E.661
G1 X113.558 Y97.57 E.01683
G1 X128.418 Y112.43 E.661
G1 X127.883 Y112.43 E.01683
G1 X113.023 Y97.57 E.661
G1 X112.488 Y97.57 E.01683
G1 X127.348 Y112.43 E.661
G1 X126.813 Y112.43 E.01683
G1 X111.953 Y97.57 E.661
G1 X111.418 Y97.57 E.01683
G1 X126.278 Y112.43 E.661
G1 X125.743 Y112.43 E.01683
G1 X110.883 Y97.57 E.661
G1 X110.348 Y97.57 E.01683
G1 X125.208 Y112.43 E.661
G1 X124.673 Y112.43 E.01683
G1 X109.813 Y97.57 E.661
G1 X109.278 Y97.57 E.01683
G1 X124.138 Y112.43 E.661
G1 X123.603 Y112.43 E.01683
G1 X108.743 Y97.57 E.661
G1 X108.208 Y97.57 E.01683
G1 X123.068 Y112.43 E.661
G1 X122.533 Y112.43 E.01683
M73 P8 R20
G1 X107.673 Y97.57 E.661
G1 X107.138 Y97.57 E.01683
G1 X121.998 Y112.43 E.661
G1 X121.463 Y112.43 E.01683
G1 X106.603 Y97.57 E.661
G1 X106.068 Y97.57 E.01683
G1 X120.928 Y112.43 E.661
G1 X120.394 Y112.43 E.0168
G1 X105.533 Y97.57 E.66102
G1 X104.998 Y97.57 E.01683
G1 X119.859 Y112.43 E.66102
G1 X119.324 Y112.43 E.01683
G1 X104.463 Y97.57 E.66102
G1 X103.928 Y97.57 E.01683
G1 X118.789 Y112.43 E.66102
G1 X118.254 Y112.43 E.01683
G1 X103.393 Y97.57 E.66102
G1 X102.859 Y97.57 E.0168
G1 X117.719 Y112.43 E.661
G1 X117.184 Y112.43 E.01683
G1 X102.324 Y97.57 E.661
G1 X101.789 Y97.57 E.01683
G1 X116.649 Y112.43 E.661
G1 X116.114 Y112.43 E.01683
M73 P9 R20
G1 X101.254 Y97.57 E.661
G1 X100.719 Y97.57 E.01683
G1 X115.579 Y112.43 E.661
G1 X115.044 Y112.43 E.01683
G1 X100.184 Y97.57 E.661
G1 X99.649 Y97.57 E.01683
G1 X103.042 Y100.963 E.15093
G1 X102.507 Y100.963 E.01683
G1 X99.114 Y97.57 E.15093
G1 X98.579 Y97.57 E.01683
G1 X101.972 Y100.963 E.15093
G1 X101.437 Y100.963 E.01683
G1 X98.57 Y98.096 E.12753
G1 X98.57 Y98.631 E.01683
G1 X100.946 Y101.006 E.10567
G1 X100.667 Y101.156 E.00996
G1 X100.619 Y101.215 E.00239
G1 X98.57 Y99.166 E.09114
G1 X98.57 Y99.701 E.01683
G1 X100.419 Y101.55 E.08225
G1 X100.36 Y101.801 E.00811
G1 X100.36 Y102.026 E.00708
G1 X98.57 Y100.236 E.07962
G1 X98.57 Y100.771 E.01683
G1 X100.361 Y102.562 E.07967
G1 X100.362 Y103.098 E.01686
G1 X98.57 Y101.306 E.07971
G1 X98.57 Y101.841 E.01683
G1 X100.363 Y103.633 E.07973
G1 X100.364 Y104.169 E.01686
G1 X98.57 Y102.376 E.07978
G1 X98.57 Y102.91 E.0168
G1 X100.365 Y104.705 E.07984
G1 X100.366 Y105.241 E.01686
G1 X98.57 Y103.445 E.07989
G1 X98.57 Y103.98 E.01683
G1 X100.367 Y105.777 E.07993
G1 X100.368 Y106.313 E.01686
G1 X98.57 Y104.515 E.07998
G1 X98.57 Y105.05 E.01683
G1 X100.369 Y106.849 E.08002
G1 X100.369 Y107.385 E.01686
G1 X98.4 Y105.416 E.08758
M204 S1000
;WIPE_START
G1 F4800
G1 X100.102 Y107.117 E-1
;WIPE_END
G1 Z.4 F720
G1 X104.03 Y101.951 F6000
G1 Z.2 F720
G1 E1 F2100
M204 S800
G1 F1200
G1 X114.509 Y112.43 E.46613
G1 X113.974 Y112.43 E.01683
G1 X104.199 Y102.655 E.43481
G1 X104.199 Y103.19 E.01683
G1 X113.439 Y112.43 E.41101
G1 X112.904 Y112.43 E.01683
G1 X104.199 Y103.725 E.38721
G1 X104.199 Y104.26 E.01683
G1 X112.369 Y112.43 E.36342
G1 X111.834 Y112.43 E.01683
M73 P9 R19
G1 X104.199 Y104.795 E.33962
G1 X104.199 Y105.33 E.01683
G1 X111.299 Y112.43 E.31582
G1 X110.764 Y112.43 E.01683
G1 X104.199 Y105.865 E.29202
G1 X104.199 Y106.4 E.01683
G1 X110.229 Y112.43 E.26823
G1 X109.694 Y112.43 E.01683
G1 X104.199 Y106.935 E.24443
G1 X104.199 Y107.47 E.01683
G1 X109.159 Y112.43 E.22063
G1 X108.624 Y112.43 E.01683
M73 P10 R19
G1 X104.199 Y108.005 E.19683
G1 X104.155 Y108.327 E.01022
G1 X104.102 Y108.443 E.00401
G1 X108.09 Y112.43 E.17737
G1 X107.555 Y112.43 E.01683
G1 X103.855 Y108.73 E.16458
G1 X103.799 Y108.776 E.00228
G1 X103.588 Y108.87 E.00727
G1 X103.476 Y108.886 E.00356
G1 X107.02 Y112.43 E.15764
G1 X106.485 Y112.43 E.01683
G1 X102.957 Y108.903 E.15691
G1 X102.422 Y108.903 E.01683
G1 X105.95 Y112.43 E.15691
G1 X105.415 Y112.43 E.01683
G1 X101.718 Y108.733 E.16445
M204 S1000
;WIPE_START
G1 F4800
G1 X103.419 Y110.434 E-1
;WIPE_END
G1 Z.4 F720
G1 X98.4 Y105.951 F6000
G1 Z.2 F720
G1 E1 F2100
M204 S800
G1 F1200
G1 X100.37 Y107.921 E.08763
G1 X100.371 Y108.2 E.00878
G1 X100.455 Y108.448 E.00824
G1 X100.683 Y108.723 E.01124
G1 X100.949 Y108.864 E.00947
G1 X101.201 Y108.903 E.00802
G1 X101.353 Y108.903 E.00478
G1 X104.88 Y112.43 E.15689
G1 X104.345 Y112.43 E.01683
G1 X98.57 Y106.655 E.25688
G1 X98.57 Y107.19 E.01683
G1 X103.81 Y112.43 E.23309
G1 X103.275 Y112.43 E.01683
G1 X98.57 Y107.725 E.20929
G1 X98.57 Y108.26 E.01683
G1 X102.74 Y112.43 E.18549
G1 X102.205 Y112.43 E.01683
G1 X98.57 Y108.795 E.16169
G1 X98.57 Y109.33 E.01683
G1 X101.67 Y112.43 E.13789
G1 X101.135 Y112.43 E.01683
G1 X98.57 Y109.865 E.1141
G1 X98.57 Y110.4 E.01683
G1 X100.6 Y112.43 E.0903
G1 X100.065 Y112.43 E.01683
G1 X98.57 Y110.935 E.0665
G1 X98.57 Y111.47 E.01683
G1 X99.53 Y112.43 E.0427
G1 X98.995 Y112.43 E.01683
G1 X98.4 Y111.835 E.02647
M204 S1000
;LAYER_CHANGE
;Z:0.4
;HEIGHT:0.2
;BEFORE_LAYER_CHANGE
G92 E0.0
;0.4


;WIPE_START
G1 F4800
G1 X98.995 Y112.43 E-.34973
G1 X99.53 Y112.43 E-.22236
G1 X98.802 Y111.702 E-.42791
;WIPE_END
G1 Z.4 F720
;AFTER_LAYER_CHANGE
;0.4
M140 S90 ; set bed temperature
; stop printing object Mount.stl id:0 copy 0
G1 Z.6
G1 X95.311 Y111.835 F6000
G1 Z.4 F720
G1 E1 F2100
;TYPE:Skirt/Brim
;WIDTH:0.42
G1 F3600
G1 X95.311 Y96.5 E.48082
G1 X95.702 Y95.252 E.04101
G1 X96.735 Y94.449 E.04102
G1 X97.5 Y94.311 E.02437
G1 X152.5 Y94.311 E1.72449
G1 X153.748 Y94.702 E.04101
G1 X154.551 Y95.735 E.04102
G1 X154.689 Y96.5 E.02437
G1 X154.689 Y113.5 E.53302
G1 X154.298 Y114.748 E.04101
G1 X153.265 Y115.551 E.04102
G1 X152.5 Y115.689 E.02437
G1 X97.5 Y115.689 E1.72449
G1 X96.252 Y115.298 E.04101
G1 X95.449 Y114.265 E.04102
G1 X95.311 Y113.5 E.02437
G1 X95.311 Y111.895 E.05032
;WIPE_START
G1 F4800
G1 X95.311 Y111.835 E-.02494
G1 X95.311 Y109.489 E-.97506
;WIPE_END
G1 Z.6 F720
; printing object Mount.stl id:0 copy 0
G1 X100.982 Y108.279 F6000
G1 Z.4 F720
G1 E1 F2100
M204 S800
;TYPE:Perimeter
;WIDTH:0.449999
G1 F1800
G1 X100.861 Y108.125 E.00663
G1 X100.797 Y107.854 E.00943
G1 X100.797 Y102.012 E.19774
G1 X100.857 Y101.748 E.00916
G1 X101.006 Y101.552 E.00833
G1 X101.302 Y101.41 E.01111
G1 X103.151 Y101.401 E.06259
G1 X103.474 Y101.493 E.01137
G1 X103.677 Y101.702 E.00986
G1 X103.754 Y101.918 E.00776
G1 X103.762 Y102.012 E.00319
G1 X103.762 Y107.854 E.19774
G1 X103.729 Y108.052 E.00679
G1 X103.593 Y108.276 E.00887
G1 X103.322 Y108.441 E.01074
G1 X103.151 Y108.465 E.00584
G1 X101.408 Y108.465 E.059
G1 X101.2 Y108.429 E.00715
G1 X101.02 Y108.325 E.00704
M204 S1000
G1 X101.267 Y107.989 F6000
M204 S800
;TYPE:External perimeter
G1 F1800
G1 X101.204 Y107.854 E.00504
G1 X101.204 Y102.012 E.19774
G1 X101.274 Y101.858 E.00573
G1 X101.408 Y101.808 E.00484
G1 X103.151 Y101.808 E.059
G1 X103.298 Y101.871 E.00541
G1 X103.354 Y102.012 E.00514
G1 X103.354 Y107.854 E.19774
G1 X103.298 Y107.995 E.00514
G1 X103.151 Y108.058 E.00541
G1 X101.408 Y108.058 E.059
G1 X101.311 Y108.023 E.00349
M204 S1000
;WIPE_START
G1 F4800
G1 X101.267 Y107.989 E-.02311
G1 X101.204 Y107.854 E-.06192
G1 X101.204 Y105.652 E-.91497
;WIPE_END
G1 Z.6 F720
G1 X98.132 Y112.868 F6000
G1 Z.4 F720
G1 E1 F2100
M204 S800
;TYPE:Perimeter
G1 F3600
G1 X98.132 Y97.132 E.53264
G1 X151.868 Y97.132 E1.8189
G1 X151.868 Y105 E.26632
G1 X151.868 Y112.868 E.26632
G1 X98.192 Y112.868 E1.81687
M204 S1000
G1 X97.725 Y113.275 F6000
M73 P11 R19
M204 S800
;TYPE:External perimeter
G1 F3000
G1 X97.725 Y96.725 E.5602
G1 X152.275 Y96.725 E1.84645
G1 X152.275 Y105 E.2801
G1 X152.275 Y113.275 E.2801
G1 X97.785 Y113.275 E1.84442
M204 S1000
;WIPE_START
G1 F4800
G1 X97.725 Y113.275 E-.02494
G1 X97.725 Y110.929 E-.97506
;WIPE_END
G1 Z.6 F720
G1 X98.548 Y97.47 F6000
G1 Z.4 F720
G1 E1 F2100
M204 S2000
;TYPE:Solid infill
;WIDTH:0.548766
G1 F4744.527
G1 X98.503 Y97.426 E.00265
G1 X98.442 Y97.442 E.00265
G1 X98.426 Y97.503 E.00265
G1 X98.47 Y97.548 E.00265
G1 X98.531 Y97.531 E.00266
;WIDTH:0.449999
G1 F5895.661
G1 X99.182 Y97.437 E.02226
G1 X98.371 Y98.254 E.03897
;WIDTH:0.41646
G1 F6000
G1 X98.305 Y98.327 E.00306
;WIDTH:0.38292
G1 X98.234 Y98.308 E.00208
G1 X98.253 Y98.379 E.00208
G1 X98.294 Y98.368 E.0012
;WIDTH:0.449999
G1 F5895.661
G1 X98.437 Y98.757 E.01403
G1 X99.757 Y97.437 E.06319
G1 X100.333 Y97.437 E.0195
G1 X98.437 Y99.333 E.09076
