; generated by PrusaSlicer 2.0.0+ on 2019-06-04 at 11:30:42

; 

; external perimeters extrusion width = 0.45mm
; perimeters extrusion width = 0.45mm
; infill extrusion width = 0.45mm
; solid infill extrusion width = 0.45mm
; top infill extrusion width = 0.40mm
; first layer extrusion width = 0.42mm

M73 P0 R13
M201 X9000 Y9000 Z500 E10000 ; sets maximum accelerations, mm/sec^2
M203 X500 Y500 Z12 E120 ; sets maximum feedrates, mm/sec
M204 P2000 R1500 T2000 ; sets acceleration (P, T) and retract acceleration (R), mm/sec^2
M205 X10.00 Y10.00 Z0.20 E2.50 ; sets the jerk limits, mm/sec
M205 S0 T0 ; sets the minimum extruding and travel feed rate, mm/sec
M107
M83  ; extruder relative mode
M140 S65 ; set bed temp
M109 S160 ; Set extruder temp before bed level
M190 S65 ; wait for bed temp

G28 W ; home all without mesh bed level
G80 ; mesh bed leveling

M109 S215 ; wait for extruder temp

M221 S100 ; Set flow to 100

G1 Y-3.0 F1000.0 ; go outside print area
G92 E0.0
G1 E8 ; Purge Bubble
M73 P0 R13
G1 X60.0 E9.0 F1000.0 ; intro line
G1 X100.0 E12.5 F1000.0 ; intro line
G92 E0.0
M900 K30; Filament gcode
G21 ; set units to millimeters
G90 ; use absolute coordinates
M83 ; use relative distances for extrusion
;BEFORE_LAYER_CHANGE
G92 E0.0
;0.2


G1 E-0.80000 F2100.00000
G1 Z0.600 F10800.000
;AFTER_LAYER_CHANGE
;0.2
G1 X15.587 Y93.087
G1 Z0.200
G1 E0.80000 F2100.00000
M204 S1000
G1 F1200
G1 X234.413 Y93.087 E6.51807
G1 X234.413 Y116.913 E0.70969
G1 X15.587 Y116.913 E6.51807
G1 X15.587 Y93.147 E0.70790
G1 X15.210 Y92.710 F10800.000
G1 F1200
G1 X234.790 Y92.710 E6.54054
G1 X234.790 Y117.290 E0.73215
G1 X15.210 Y117.290 E6.54054
G1 X15.210 Y92.770 E0.73037
G1 X15.610 Y92.725 F10800.000
G1 F8640
G1 X18.501 Y92.769 E-0.76000
G1 E-0.04000 F2100.00000
G1 Z0.800 F10800.000
G1 X16.463 Y116.800
G1 Z0.200
G1 E0.80000 F2100.00000
G1 F1200
G1 X15.870 Y116.206 E0.02502
G1 X15.870 Y115.673 E0.01591
G1 X16.827 Y116.630 E0.04036
G1 X17.361 Y116.630 E0.01591
G1 X15.870 Y115.139 E0.06286
G1 X15.870 Y114.605 E0.01591
G1 X17.895 Y116.630 E0.08535
G1 X18.428 Y116.630 E0.01591
G1 X15.870 Y114.072 E0.10785
G1 X15.870 Y113.538 E0.01591
G1 X18.962 Y116.630 E0.13034
G1 X19.496 Y116.630 E0.01591
G1 X15.870 Y113.004 E0.15284
G1 X15.870 Y112.471 E0.01591
G1 X20.029 Y116.630 E0.17533
G1 X20.563 Y116.630 E0.01591
G1 X15.870 Y111.937 E0.19783
G1 X15.870 Y111.404 E0.01591
G1 X21.096 Y116.630 E0.22032
G1 X21.630 Y116.630 E0.01591
G1 X15.870 Y110.870 E0.24282
G1 X15.870 Y110.336 E0.01591
G1 X22.164 Y116.630 E0.26531
G1 X22.697 Y116.630 E0.01591
G1 X15.870 Y109.803 E0.28781
M73 P8 R12
G1 X15.870 Y109.269 E0.01591
G1 X23.231 Y116.630 E0.31030
G1 X23.765 Y116.630 E0.01591
G1 X15.870 Y108.735 E0.33280
G1 X15.870 Y108.202 E0.01591
G1 X24.298 Y116.630 E0.35529
G1 X24.832 Y116.630 E0.01591
G1 X15.870 Y107.668 E0.37779
G1 X15.870 Y107.134 E0.01591
G1 X25.366 Y116.630 E0.40028
G1 X25.899 Y116.630 E0.01591
G1 X15.870 Y106.601 E0.42278
G1 X15.870 Y106.067 E0.01591
G1 X26.433 Y116.630 E0.44527
G1 X26.967 Y116.630 E0.01591
G1 X15.870 Y105.533 E0.46777
G1 X15.870 Y105.000 E0.01591
G1 X27.500 Y116.630 E0.49027
G1 X28.034 Y116.630 E0.01591
G1 X15.870 Y104.466 E0.51276
G1 X15.870 Y103.933 E0.01591
G1 X28.567 Y116.630 E0.53526
G1 X29.101 Y116.630 E0.01591
G1 X15.870 Y103.399 E0.55775
G1 X15.870 Y102.865 E0.01591
G1 X29.635 Y116.630 E0.58025
G1 X30.168 Y116.630 E0.01591
G1 X15.870 Y102.332 E0.60274
G1 X15.870 Y101.798 E0.01591
G1 X30.702 Y116.630 E0.62524
G1 X31.236 Y116.630 E0.01591
G1 X15.870 Y101.264 E0.64773
G1 X15.870 Y100.731 E0.01591
G1 X31.769 Y116.630 E0.67023
G1 X32.303 Y116.630 E0.01591
G1 X15.870 Y100.197 E0.69272
G1 X15.870 Y99.663 E0.01591
G1 X32.837 Y116.630 E0.71522
G1 X33.370 Y116.630 E0.01591
G1 X15.870 Y99.130 E0.73771
G1 X15.870 Y98.596 E0.01591
G1 X33.904 Y116.630 E0.76021
G1 X34.438 Y116.630 E0.01591
G1 X15.870 Y98.062 E0.78270
G1 X15.870 Y97.529 E0.01591
G1 X34.971 Y116.630 E0.80520
G1 X35.505 Y116.630 E0.01591
G1 X15.870 Y96.995 E0.82769
G1 X15.870 Y96.462 E0.01591
G1 X36.038 Y116.630 E0.85019
G1 X36.572 Y116.630 E0.01591
G1 X15.870 Y95.928 E0.87268
G1 X15.870 Y95.394 E0.01591
G1 X37.106 Y116.630 E0.89518
G1 X37.639 Y116.630 E0.01591
G1 X15.870 Y94.861 E0.91767
G1 X15.870 Y94.327 E0.01591
G1 X38.173 Y116.630 E0.94017
G1 X38.707 Y116.630 E0.01591
G1 X15.870 Y93.793 E0.96266
G1 X15.870 Y93.370 E0.01262
G1 X15.980 Y93.370 E0.00329
G1 X39.240 Y116.630 E0.98051
G1 X39.774 Y116.630 E0.01591
G1 X16.514 Y93.370 E0.98051
G1 X17.047 Y93.370 E0.01591
G1 X40.308 Y116.630 E0.98051
G1 X40.841 Y116.630 E0.01591
G1 X17.581 Y93.370 E0.98051
G1 X18.115 Y93.370 E0.01591
G1 X41.375 Y116.630 E0.98051
G1 X41.909 Y116.630 E0.01591
G1 X18.648 Y93.370 E0.98051
G1 X19.182 Y93.370 E0.01591
G1 X42.442 Y116.630 E0.98051
G1 X42.976 Y116.630 E0.01591
G1 X19.716 Y93.370 E0.98051
G1 X20.249 Y93.370 E0.01591
G1 X43.510 Y116.630 E0.98051
G1 X44.043 Y116.630 E0.01591
G1 X20.783 Y93.370 E0.98051
G1 X21.317 Y93.370 E0.01591
G1 X44.577 Y116.630 E0.98051
G1 X45.110 Y116.630 E0.01591
G1 X21.850 Y93.370 E0.98051
G1 X22.384 Y93.370 E0.01591
G1 X45.644 Y116.630 E0.98051
G1 X46.178 Y116.630 E0.01591
G1 X22.917 Y93.370 E0.98051
G1 X23.451 Y93.370 E0.01591
G1 X46.711 Y116.630 E0.98051
G1 X47.245 Y116.630 E0.01591
G1 X23.985 Y93.370 E0.98051
G1 X24.518 Y93.370 E0.01591
G1 X47.779 Y116.630 E0.98051
M73 P16 R11
G1 X48.312 Y116.630 E0.01591
G1 X25.052 Y93.370 E0.98051
G1 X25.586 Y93.370 E0.01591
G1 X48.846 Y116.630 E0.98051
G1 X49.380 Y116.630 E0.01591
G1 X26.119 Y93.370 E0.98051
G1 X26.653 Y93.370 E0.01591
G1 X49.913 Y116.630 E0.98051
G1 X50.447 Y116.630 E0.01591
G1 X27.187 Y93.370 E0.98051
G1 X27.720 Y93.370 E0.01591
G1 X50.981 Y116.630 E0.98051
G1 X51.514 Y116.630 E0.01591
G1 X28.254 Y93.370 E0.98051
G1 X28.788 Y93.370 E0.01591
G1 X52.048 Y116.630 E0.98051
G1 X52.581 Y116.630 E0.01591
G1 X29.321 Y93.370 E0.98051
G1 X29.855 Y93.370 E0.01591
G1 X53.115 Y116.630 E0.98051
G1 X53.649 Y116.630 E0.01591
G1 X30.388 Y93.370 E0.98051
G1 X30.922 Y93.370 E0.01591
G1 X54.182 Y116.630 E0.98051
G1 X54.716 Y116.630 E0.01591
G1 X31.456 Y93.370 E0.98051
G1 X31.989 Y93.370 E0.01591
G1 X55.250 Y116.630 E0.98051
G1 X55.783 Y116.630 E0.01591
G1 X32.523 Y93.370 E0.98051
G1 X33.057 Y93.370 E0.01591
G1 X56.317 Y116.630 E0.98051
G1 X56.851 Y116.630 E0.01591
G1 X33.590 Y93.370 E0.98051
G1 X34.124 Y93.370 E0.01591
G1 X57.384 Y116.630 E0.98051
G1 X57.918 Y116.630 E0.01591
G1 X34.658 Y93.370 E0.98051
G1 X35.191 Y93.370 E0.01591
G1 X58.452 Y116.630 E0.98051
G1 X58.985 Y116.630 E0.01591
G1 X35.725 Y93.370 E0.98051
G1 X36.259 Y93.370 E0.01591
G1 X59.519 Y116.630 E0.98051
G1 X60.052 Y116.630 E0.01591
G1 X36.792 Y93.370 E0.98051
G1 X37.326 Y93.370 E0.01591
G1 X60.586 Y116.630 E0.98051
G1 X61.120 Y116.630 E0.01591
G1 X37.859 Y93.370 E0.98051
G1 X38.393 Y93.370 E0.01591
G1 X61.653 Y116.630 E0.98051
G1 X62.187 Y116.630 E0.01591
G1 X38.927 Y93.370 E0.98051
G1 X39.460 Y93.370 E0.01591
G1 X62.721 Y116.630 E0.98051
G1 X63.254 Y116.630 E0.01591
G1 X39.994 Y93.370 E0.98051
G1 X40.528 Y93.370 E0.01591
G1 X63.788 Y116.630 E0.98051
G1 X64.322 Y116.630 E0.01591
G1 X41.061 Y93.370 E0.98051
G1 X41.595 Y93.370 E0.01591
G1 X64.855 Y116.630 E0.98051
G1 X65.389 Y116.630 E0.01591
G1 X42.129 Y93.370 E0.98051
G1 X42.662 Y93.370 E0.01591
G1 X65.923 Y116.630 E0.98051
G1 X66.456 Y116.630 E0.01591
G1 X43.196 Y93.370 E0.98051
G1 X43.730 Y93.370 E0.01591
G1 X66.990 Y116.630 E0.98051
M73 P24 R10
G1 X67.523 Y116.630 E0.01591
G1 X44.263 Y93.370 E0.98051
G1 X44.797 Y93.370 E0.01591
G1 X68.057 Y116.630 E0.98051
G1 X68.591 Y116.630 E0.01591
G1 X45.330 Y93.370 E0.98051
G1 X45.864 Y93.370 E0.01591
G1 X69.124 Y116.630 E0.98051
G1 X69.658 Y116.630 E0.01591
G1 X46.398 Y93.370 E0.98051
G1 X46.931 Y93.370 E0.01591
G1 X70.192 Y116.630 E0.98051
G1 X70.725 Y116.630 E0.01591
G1 X47.465 Y93.370 E0.98051
G1 X47.999 Y93.370 E0.01591
G1 X71.259 Y116.630 E0.98051
G1 X71.793 Y116.630 E0.01591
G1 X48.532 Y93.370 E0.98051
G1 X49.066 Y93.370 E0.01591
G1 X72.326 Y116.630 E0.98051
G1 X72.860 Y116.630 E0.01591
G1 X49.600 Y93.370 E0.98051
G1 X50.133 Y93.370 E0.01591
G1 X73.394 Y116.630 E0.98051
G1 X73.927 Y116.630 E0.01591
G1 X50.667 Y93.370 E0.98051
G1 X51.201 Y93.370 E0.01591
G1 X74.461 Y116.630 E0.98051
G1 X74.994 Y116.630 E0.01591
G1 X51.734 Y93.370 E0.98051
G1 X52.268 Y93.370 E0.01591
G1 X75.528 Y116.630 E0.98051
G1 X76.062 Y116.630 E0.01591
G1 X52.801 Y93.370 E0.98051
G1 X53.335 Y93.370 E0.01591
G1 X76.595 Y116.630 E0.98051
G1 X77.129 Y116.630 E0.01591
G1 X53.869 Y93.370 E0.98051
G1 X54.402 Y93.370 E0.01591
G1 X77.663 Y116.630 E0.98051
G1 X78.196 Y116.630 E0.01591
G1 X54.936 Y93.370 E0.98051
G1 X55.470 Y93.370 E0.01591
G1 X78.730 Y116.630 E0.98051
G1 X79.264 Y116.630 E0.01591
G1 X56.003 Y93.370 E0.98051
G1 X56.537 Y93.370 E0.01591
G1 X79.797 Y116.630 E0.98051
G1 X80.331 Y116.630 E0.01591
G1 X57.071 Y93.370 E0.98051
G1 X57.604 Y93.370 E0.01591
G1 X80.865 Y116.630 E0.98051
G1 X81.398 Y116.630 E0.01591
G1 X58.138 Y93.370 E0.98051
G1 X58.672 Y93.370 E0.01591
G1 X81.932 Y116.630 E0.98051
G1 X82.465 Y116.630 E0.01591
G1 X59.205 Y93.370 E0.98051
G1 X59.739 Y93.370 E0.01591
G1 X82.999 Y116.630 E0.98051
G1 X83.533 Y116.630 E0.01591
G1 X60.273 Y93.370 E0.98051
G1 X60.806 Y93.370 E0.01591
G1 X84.066 Y116.630 E0.98051
G1 X84.600 Y116.630 E0.01591
G1 X61.340 Y93.370 E0.98051
G1 X61.873 Y93.370 E0.01591
G1 X85.134 Y116.630 E0.98051
G1 X85.667 Y116.630 E0.01591
G1 X62.407 Y93.370 E0.98051
G1 X62.941 Y93.370 E0.01591
G1 X86.201 Y116.630 E0.98051
M73 P32 R8
G1 X86.735 Y116.630 E0.01591
G1 X63.474 Y93.370 E0.98051
G1 X64.008 Y93.370 E0.01591
G1 X87.268 Y116.630 E0.98051
G1 X87.802 Y116.630 E0.01591
G1 X64.542 Y93.370 E0.98051
G1 X65.075 Y93.370 E0.01591
G1 X88.336 Y116.630 E0.98051
G1 X88.869 Y116.630 E0.01591
G1 X65.609 Y93.370 E0.98051
G1 X66.143 Y93.370 E0.01591
G1 X89.403 Y116.630 E0.98051
G1 X89.937 Y116.630 E0.01591
G1 X66.676 Y93.370 E0.98051
G1 X67.210 Y93.370 E0.01591
G1 X90.470 Y116.630 E0.98051
G1 X91.004 Y116.630 E0.01591
G1 X67.744 Y93.370 E0.98051
G1 X68.277 Y93.370 E0.01591
G1 X91.537 Y116.630 E0.98051
G1 X92.071 Y116.630 E0.01591
G1 X68.811 Y93.370 E0.98051
G1 X69.344 Y93.370 E0.01591
G1 X92.605 Y116.630 E0.98051
G1 X93.138 Y116.630 E0.01591
G1 X69.878 Y93.370 E0.98051
G1 X70.412 Y93.370 E0.01591
G1 X93.672 Y116.630 E0.98051
G1 X94.206 Y116.630 E0.01591
G1 X70.945 Y93.370 E0.98051
G1 X71.479 Y93.370 E0.01591
G1 X94.739 Y116.630 E0.98051
G1 X95.273 Y116.630 E0.01591
G1 X72.013 Y93.370 E0.98051
G1 X72.546 Y93.370 E0.01591
G1 X95.807 Y116.630 E0.98051
G1 X96.340 Y116.630 E0.01591
G1 X73.080 Y93.370 E0.98051
G1 X73.614 Y93.370 E0.01591
G1 X96.874 Y116.630 E0.98051
G1 X97.408 Y116.630 E0.01591
G1 X74.147 Y93.370 E0.98051
G1 X74.681 Y93.370 E0.01591
G1 X97.941 Y116.630 E0.98051
G1 X98.475 Y116.630 E0.01591
G1 X75.215 Y93.370 E0.98051
G1 X75.748 Y93.370 E0.01591
G1 X99.008 Y116.630 E0.98051
G1 X99.542 Y116.630 E0.01591
G1 X76.282 Y93.370 E0.98051
G1 X76.815 Y93.370 E0.01591
G1 X100.076 Y116.630 E0.98051
G1 X100.609 Y116.630 E0.01591
G1 X77.349 Y93.370 E0.98051
G1 X77.883 Y93.370 E0.01591
G1 X101.143 Y116.630 E0.98051
G1 X101.677 Y116.630 E0.01591
G1 X78.416 Y93.370 E0.98051
G1 X78.950 Y93.370 E0.01591
G1 X102.210 Y116.630 E0.98051
G1 X102.744 Y116.630 E0.01591
G1 X79.484 Y93.370 E0.98051
G1 X80.017 Y93.370 E0.01591
G1 X103.278 Y116.630 E0.98051
G1 X103.811 Y116.630 E0.01591
G1 X80.551 Y93.370 E0.98051
G1 X81.085 Y93.370 E0.01591
G1 X104.345 Y116.630 E0.98051
G1 X104.879 Y116.630 E0.01591
G1 X81.618 Y93.370 E0.98051
G1 X82.152 Y93.370 E0.01591
G1 X105.412 Y116.630 E0.98051
M73 P40 R7
G1 X105.946 Y116.630 E0.01591
G1 X82.686 Y93.370 E0.98051
G1 X83.219 Y93.370 E0.01591
G1 X106.479 Y116.630 E0.98051
G1 X107.013 Y116.630 E0.01591
G1 X83.753 Y93.370 E0.98051
G1 X84.286 Y93.370 E0.01591
G1 X107.547 Y116.630 E0.98051
G1 X108.080 Y116.630 E0.01591
G1 X84.820 Y93.370 E0.98051
G1 X85.354 Y93.370 E0.01591
G1 X108.614 Y116.630 E0.98051
G1 X109.148 Y116.630 E0.01591
G1 X85.887 Y93.370 E0.98051
G1 X86.421 Y93.370 E0.01591
G1 X109.681 Y116.630 E0.98051
G1 X110.215 Y116.630 E0.01591
G1 X86.955 Y93.370 E0.98051
G1 X87.488 Y93.370 E0.01591
G1 X110.749 Y116.630 E0.98051
G1 X111.282 Y116.630 E0.01591
G1 X88.022 Y93.370 E0.98051
G1 X88.556 Y93.370 E0.01591
G1 X111.816 Y116.630 E0.98051
G1 X112.350 Y116.630 E0.01591
G1 X89.089 Y93.370 E0.98051
G1 X89.623 Y93.370 E0.01591
G1 X112.883 Y116.630 E0.98051
G1 X113.417 Y116.630 E0.01591
G1 X90.157 Y93.370 E0.98051
G1 X90.690 Y93.370 E0.01591
G1 X113.950 Y116.630 E0.98051
G1 X114.484 Y116.630 E0.01591
G1 X91.224 Y93.370 E0.98051
G1 X91.757 Y93.370 E0.01591
G1 X115.018 Y116.630 E0.98051
G1 X115.551 Y116.630 E0.01591
G1 X92.291 Y93.370 E0.98051
G1 X92.825 Y93.370 E0.01591
G1 X116.085 Y116.630 E0.98051
G1 X116.619 Y116.630 E0.01591
G1 X93.358 Y93.370 E0.98051
G1 X93.892 Y93.370 E0.01591
G1 X117.152 Y116.630 E0.98051
G1 X117.686 Y116.630 E0.01591
G1 X94.426 Y93.370 E0.98051
G1 X94.959 Y93.370 E0.01591
G1 X118.220 Y116.630 E0.98051
G1 X118.753 Y116.630 E0.01591
G1 X95.493 Y93.370 E0.98051
G1 X96.027 Y93.370 E0.01591
G1 X119.287 Y116.630 E0.98051
G1 X119.821 Y116.630 E0.01591
G1 X96.560 Y93.370 E0.98051
G1 X97.094 Y93.370 E0.01591
G1 X120.354 Y116.630 E0.98051
G1 X120.888 Y116.630 E0.01591
G1 X97.628 Y93.370 E0.98051
G1 X98.161 Y93.370 E0.01591
G1 X121.421 Y116.630 E0.98051
G1 X121.955 Y116.630 E0.01591
G1 X98.695 Y93.370 E0.98051
G1 X99.228 Y93.370 E0.01591
G1 X122.489 Y116.630 E0.98051
G1 X123.022 Y116.630 E0.01591
G1 X99.762 Y93.370 E0.98051
G1 X100.296 Y93.370 E0.01591
G1 X123.556 Y116.630 E0.98051
G1 X124.090 Y116.630 E0.01591
G1 X100.829 Y93.370 E0.98051
G1 X101.363 Y93.370 E0.01591
G1 X124.623 Y116.630 E0.98051
M73 P48 R6
G1 X125.157 Y116.630 E0.01591
G1 X101.897 Y93.370 E0.98051
G1 X102.430 Y93.370 E0.01591
G1 X125.691 Y116.630 E0.98051
G1 X126.224 Y116.630 E0.01591
G1 X102.964 Y93.370 E0.98051
G1 X103.498 Y93.370 E0.01591
G1 X126.758 Y116.630 E0.98051
G1 X127.292 Y116.630 E0.01591
G1 X104.031 Y93.370 E0.98051
G1 X104.565 Y93.370 E0.01591
G1 X127.825 Y116.630 E0.98051
G1 X128.359 Y116.630 E0.01591
G1 X105.099 Y93.370 E0.98051
G1 X105.632 Y93.370 E0.01591
G1 X128.892 Y116.630 E0.98051
G1 X129.426 Y116.630 E0.01591
G1 X106.166 Y93.370 E0.98051
G1 X106.700 Y93.370 E0.01591
G1 X129.960 Y116.630 E0.98051
G1 X130.493 Y116.630 E0.01591
G1 X107.233 Y93.370 E0.98051
G1 X107.767 Y93.370 E0.01591
G1 X131.027 Y116.630 E0.98051
G1 X131.561 Y116.630 E0.01591
G1 X108.300 Y93.370 E0.98051
G1 X108.834 Y93.370 E0.01591
G1 X132.094 Y116.630 E0.98051
G1 X132.628 Y116.630 E0.01591
G1 X109.368 Y93.370 E0.98051
G1 X109.901 Y93.370 E0.01591
G1 X133.162 Y116.630 E0.98051
G1 X133.695 Y116.630 E0.01591
G1 X110.435 Y93.370 E0.98051
G1 X110.969 Y93.370 E0.01591
G1 X134.229 Y116.630 E0.98051
G1 X134.763 Y116.630 E0.01591
G1 X111.502 Y93.370 E0.98051
G1 X112.036 Y93.370 E0.01591
G1 X135.296 Y116.630 E0.98051
G1 X135.830 Y116.630 E0.01591
G1 X112.570 Y93.370 E0.98051
G1 X113.103 Y93.370 E0.01591
G1 X136.363 Y116.630 E0.98051
G1 X136.897 Y116.630 E0.01591
G1 X113.637 Y93.370 E0.98051
G1 X114.171 Y93.370 E0.01591
G1 X137.431 Y116.630 E0.98051
G1 X137.964 Y116.630 E0.01591
G1 X114.704 Y93.370 E0.98051
G1 X115.238 Y93.370 E0.01591
G1 X138.498 Y116.630 E0.98051
G1 X139.032 Y116.630 E0.01591
G1 X115.771 Y93.370 E0.98051
G1 X116.305 Y93.370 E0.01591
G1 X139.565 Y116.630 E0.98051
G1 X140.099 Y116.630 E0.01591
G1 X116.839 Y93.370 E0.98051
G1 X117.372 Y93.370 E0.01591
G1 X140.633 Y116.630 E0.98051
G1 X141.166 Y116.630 E0.01591
G1 X117.906 Y93.370 E0.98051
G1 X118.440 Y93.370 E0.01591
G1 X141.700 Y116.630 E0.98051
G1 X142.234 Y116.630 E0.01591
G1 X118.973 Y93.370 E0.98051
G1 X119.507 Y93.370 E0.01591
G1 X142.767 Y116.630 E0.98051
G1 X143.301 Y116.630 E0.01591
G1 X120.041 Y93.370 E0.98051
G1 X120.574 Y93.370 E0.01591
G1 X143.835 Y116.630 E0.98051
M73 P56 R5
G1 X144.368 Y116.630 E0.01591
G1 X121.108 Y93.370 E0.98051
G1 X121.642 Y93.370 E0.01591
G1 X144.902 Y116.630 E0.98051
G1 X145.435 Y116.630 E0.01591
G1 X122.175 Y93.370 E0.98051
G1 X122.709 Y93.370 E0.01591
G1 X145.969 Y116.630 E0.98051
