; generated by PrusaSlicer 2.4.2+x64 on 2022-07-25 at 15:05:10 UTC


;
;

;
;
; 

; external perimeters extrusion width = 0.45mm
; perimeters extrusion width = 0.45mm
; infill extrusion width = 0.45mm
; solid infill extrusion width = 0.45mm
; top infill extrusion width = 0.40mm
; first layer extrusion width = 0.42mm

M73 P0 R13
M201 X9000 Y9000 Z500 E10000 ; sets maximum accelerations, mm/sec^2
M203 X500 Y500 Z12 E120 ; sets maximum feedrates, mm / sec
M204 P2000 R1500 T2000 ; sets acceleration (P, T) and retract acceleration (R), mm/sec^2
M205 X10.00 Y10.00 Z0.20 E4.50 ; sets the jerk limits, mm/sec
M205 S0 T0 ; sets the minimum extruding and travel feed rate, mm/sec
M107
;TYPE:Custom
M83  ; extruder relative mode
M140 S60 ; set bed temp
M109 S160 ; Set extruder temp before bed level
M190 S60 ; wait for bed temp

G28 W ; home all without mesh bed level
G80 N7 ; mesh bed leveling

M109 S215 ; wait for extruder temp

M221 S100 ; Set flow to 100

G1 Y-3.0 F1000.0 ; go outside print area
G92 E0.0
G1 E8 ; Purge Bubble
G1 X60.0 E9.0 F1000.0 ; intro line
G1 X100.0 E12.5 F1000.0 ; intro line
G92 E0.0
G21 ; set units to millimeters
G90 ; use absolute coordinates
M83 ; use relative distances for extrusion
M900 K0.05 ; Filament gcode LA 1.5
M900 K30 ; Filament gcode LA 1.0
M107
;LAYER_CHANGE
;Z:0.2
;HEIGHT:0.2
;BEFORE_LAYER_CHANGE
G92 E0.0
;0.2


G1 E-.8 F2100
G1 Z.6 F720
;AFTER_LAYER_CHANGE
;0.2
G1 X84.915 Y65.593 F6000
G1 Z.2 F720
G1 E.8 F2100
M204 S800
;TYPE:Skirt/Brim
;WIDTH:0.42
G1 F1200
G1 X85.96 Y64.717 E.04278
G1 X86.9 Y64.523 E.03008
G1 X163.1 Y64.523 E2.3892
G1 X164.407 Y64.915 E.04278
M73 P1 R13
G1 X165.283 Y65.96 E.04278
G1 X165.477 Y66.9 E.03008
G1 X165.477 Y143.1 E2.3892
G1 X165.085 Y144.407 E.04278
G1 X164.04 Y145.283 E.04278
G1 X163.1 Y145.477 E.03008
G1 X86.9 Y145.477 E2.3892
G1 X85.593 Y145.085 E.04278
M73 P2 R12
G1 X84.717 Y144.04 E.04278
G1 X84.523 Y143.1 E.03008
G1 X84.523 Y66.9 E2.3892
G1 X84.897 Y65.65 E.0409
M204 S1000
; printing object 3x3in-calibration-test-v3.stl id:0 copy 0
;WIPE_START
G1 F4800
G1 X85.96 Y64.717 E-.58808
G1 X86.365 Y64.633 E-.17192
;WIPE_END
G1 E-.04 F2100
G1 Z.8 F720
G1 X87.687 Y67.687 F6000
G1 Z.2 F720
G1 E.8 F2100
M204 S800
;TYPE:Perimeter
G1 F1200
M73 P3 R12
G1 X162.313 Y67.687 E2.33984
G1 X162.313 Y142.313 E2.33984
G1 X87.687 Y142.313 E2.33984
G1 X87.687 Y67.747 E2.33796
M204 S1000
M73 P4 R12
G1 X87.31 Y67.31 F6000
M204 S800
;TYPE:External perimeter
G1 F1200
G1 X162.69 Y67.31 E2.36349
G1 X162.69 Y142.69 E2.36349
M73 P5 R12
G1 X87.31 Y142.69 E2.36349
G1 X87.31 Y67.37 E2.36161
M204 S1000
M73 P6 R12
G1 X87.696 Y67.414 F6000
;WIPE_START
G1 F4800
G1 X89.139 Y67.369 E-.76
;WIPE_END
G1 E-.04 F2100
G1 Z.8 F720
G1 X87.8 Y142.03 F6000
G1 Z.2 F720
G1 E.8 F2100
M204 S800
;TYPE:Solid infill
;WIDTH:0.420774
G1 F1200
G1 X162.03 Y142.03 E2.33221
G1 X162.03 Y141.652 E.01187
M73 P7 R12
G1 X87.97 Y141.652 E2.32688
G1 X87.97 Y141.274 E.01187
G1 X162.03 Y141.274 E2.32688
G1 X162.03 Y140.896 E.01187
M73 P8 R12
G1 X87.97 Y140.896 E2.32688
G1 X87.97 Y140.518 E.01187
G1 X162.03 Y140.518 E2.32688
G1 X162.03 Y140.14 E.01187
M73 P9 R12
G1 X87.97 Y140.14 E2.32688
G1 X87.97 Y139.763 E.01187
G1 X162.03 Y139.763 E2.32688
G1 X162.03 Y139.385 E.01187
M73 P10 R11
G1 X87.97 Y139.385 E2.32688
G1 X87.97 Y139.007 E.01187
G1 X162.03 Y139.007 E2.32688
G1 X162.03 Y138.629 E.01187
M73 P11 R11
G1 X87.97 Y138.629 E2.32688
G1 X87.97 Y138.251 E.01187
G1 X162.03 Y138.251 E2.32688
G1 X162.03 Y137.873 E.01187
M73 P12 R11
G1 X87.97 Y137.873 E2.32688
G1 X87.97 Y137.495 E.01187
G1 X162.03 Y137.495 E2.32688
G1 X162.03 Y137.118 E.01187
G1 X87.97 Y137.118 E2.32688
G1 X87.97 Y136.74 E.01187
M73 P13 R11
G1 X162.03 Y136.74 E2.32688
G1 X162.03 Y136.362 E.01187
G1 X87.97 Y136.362 E2.32688
G1 X87.97 Y135.984 E.01187
M73 P14 R11
G1 X162.03 Y135.984 E2.32688
G1 X162.03 Y135.606 E.01187
G1 X87.97 Y135.606 E2.32688
G1 X87.97 Y135.228 E.01187
M73 P15 R11
G1 X162.03 Y135.228 E2.32688
G1 X162.03 Y134.85 E.01187
G1 X87.97 Y134.85 E2.32688
G1 X87.97 Y134.473 E.01187
M73 P16 R11
G1 X162.03 Y134.473 E2.32688
G1 X162.03 Y134.095 E.01187
G1 X87.97 Y134.095 E2.32688
G1 X87.97 Y133.717 E.01187
M73 P17 R11
G1 X162.03 Y133.717 E2.32688
G1 X162.03 Y133.339 E.01187
M73 P17 R10
G1 X87.97 Y133.339 E2.32688
G1 X87.97 Y132.961 E.01187
M73 P18 R10
G1 X162.03 Y132.961 E2.32688
G1 X162.03 Y132.583 E.01187
G1 X87.97 Y132.583 E2.32688
G1 X87.97 Y132.205 E.01187
M73 P19 R10
G1 X162.03 Y132.205 E2.32688
G1 X162.03 Y131.828 E.01187
G1 X87.97 Y131.828 E2.32688
G1 X87.97 Y131.45 E.01187
M73 P20 R10
G1 X162.03 Y131.45 E2.32688
G1 X162.03 Y131.072 E.01187
G1 X87.97 Y131.072 E2.32688
G1 X87.97 Y130.694 E.01187
G1 X162.03 Y130.694 E2.32688
G1 X162.03 Y130.316 E.01187
M73 P21 R10
G1 X87.97 Y130.316 E2.32688
G1 X87.97 Y129.938 E.01187
G1 X162.03 Y129.938 E2.32688
G1 X162.03 Y129.561 E.01187
M73 P22 R10
G1 X87.97 Y129.561 E2.32688
G1 X87.97 Y129.183 E.01187
G1 X162.03 Y129.183 E2.32688
G1 X162.03 Y128.805 E.01187
M73 P23 R10
G1 X87.97 Y128.805 E2.32688
G1 X87.97 Y128.427 E.01187
G1 X162.03 Y128.427 E2.32688
G1 X162.03 Y128.049 E.01187
M73 P24 R10
G1 X87.97 Y128.049 E2.32688
G1 X87.97 Y127.671 E.01187
G1 X162.03 Y127.671 E2.32688
G1 X162.03 Y127.293 E.01187
M73 P25 R9
G1 X87.97 Y127.293 E2.32688
G1 X87.97 Y126.916 E.01187
G1 X162.03 Y126.916 E2.32688
G1 X162.03 Y126.538 E.01187
M73 P26 R9
G1 X87.97 Y126.538 E2.32688
G1 X87.97 Y126.16 E.01187
G1 X162.03 Y126.16 E2.32688
G1 X162.03 Y125.782 E.01187
M73 P27 R9
G1 X87.97 Y125.782 E2.32688
G1 X87.97 Y125.404 E.01187
G1 X162.03 Y125.404 E2.32688
G1 X162.03 Y125.026 E.01187
G1 X87.97 Y125.026 E2.32688
G1 X87.97 Y124.648 E.01187
M73 P28 R9
G1 X162.03 Y124.648 E2.32688
G1 X162.03 Y124.271 E.01187
G1 X87.97 Y124.271 E2.32688
G1 X87.97 Y123.893 E.01187
M73 P29 R9
G1 X162.03 Y123.893 E2.32688
G1 X162.03 Y123.515 E.01187
G1 X87.97 Y123.515 E2.32688
G1 X87.97 Y123.137 E.01187
M73 P30 R9
G1 X162.03 Y123.137 E2.32688
G1 X162.03 Y122.759 E.01187
G1 X87.97 Y122.759 E2.32688
G1 X87.97 Y122.381 E.01187
M73 P31 R9
G1 X162.03 Y122.381 E2.32688
G1 X162.03 Y122.003 E.01187
G1 X87.97 Y122.003 E2.32688
G1 X87.97 Y121.626 E.01187
M73 P32 R9
G1 X162.03 Y121.626 E2.32688
G1 X162.03 Y121.248 E.01187
M73 P32 R8
G1 X87.97 Y121.248 E2.32688
G1 X87.97 Y120.87 E.01187
M73 P33 R8
G1 X162.03 Y120.87 E2.32688
G1 X162.03 Y120.492 E.01187
G1 X87.97 Y120.492 E2.32688
G1 X87.97 Y120.114 E.01187
M73 P34 R8
G1 X162.03 Y120.114 E2.32688
G1 X162.03 Y119.736 E.01187
G1 X87.97 Y119.736 E2.32688
G1 X87.97 Y119.358 E.01187
M73 P35 R8
G1 X162.03 Y119.358 E2.32688
G1 X162.03 Y118.981 E.01187
G1 X87.97 Y118.981 E2.32688
G1 X87.97 Y118.603 E.01187
G1 X162.03 Y118.603 E2.32688
G1 X162.03 Y118.225 E.01187
M73 P36 R8
G1 X87.97 Y118.225 E2.32688
G1 X87.97 Y117.847 E.01187
G1 X162.03 Y117.847 E2.32688
G1 X162.03 Y117.469 E.01187
M73 P37 R8
G1 X87.97 Y117.469 E2.32688
G1 X87.97 Y117.091 E.01187
G1 X162.03 Y117.091 E2.32688
G1 X162.03 Y116.713 E.01187
M73 P38 R8
G1 X87.97 Y116.713 E2.32688
G1 X87.97 Y116.336 E.01187
G1 X162.03 Y116.336 E2.32688
G1 X162.03 Y115.958 E.01187
M73 P39 R8
G1 X87.97 Y115.958 E2.32688
G1 X87.97 Y115.58 E.01187
G1 X162.03 Y115.58 E2.32688
G1 X162.03 Y115.202 E.01187
M73 P40 R7
G1 X87.97 Y115.202 E2.32688
G1 X87.97 Y114.824 E.01187
G1 X162.03 Y114.824 E2.32688
G1 X162.03 Y114.446 E.01187
M73 P41 R7
G1 X87.97 Y114.446 E2.32688
G1 X87.97 Y114.068 E.01187
G1 X162.03 Y114.069 E2.32688
G1 X162.03 Y113.691 E.01187
M73 P42 R7
G1 X87.97 Y113.691 E2.32688
G1 X87.97 Y113.313 E.01187
G1 X162.03 Y113.313 E2.32688
G1 X162.03 Y112.935 E.01187
G1 X87.97 Y112.935 E2.32688
G1 X87.97 Y112.557 E.01187
M73 P43 R7
G1 X162.03 Y112.557 E2.32688
G1 X162.03 Y112.179 E.01187
G1 X87.97 Y112.179 E2.32688
G1 X87.97 Y111.801 E.01187
M73 P44 R7
G1 X162.03 Y111.801 E2.32688
G1 X162.03 Y111.424 E.01187
G1 X87.97 Y111.424 E2.32688
G1 X87.97 Y111.046 E.01187
M73 P45 R7
G1 X162.03 Y111.046 E2.32688
G1 X162.03 Y110.668 E.01187
G1 X87.97 Y110.668 E2.32688
G1 X87.97 Y110.29 E.01187
M73 P46 R7
G1 X162.03 Y110.29 E2.32688
G1 X162.03 Y109.912 E.01187
G1 X87.97 Y109.912 E2.32688
G1 X87.97 Y109.534 E.01187
M73 P47 R7
G1 X162.03 Y109.534 E2.32688
G1 X162.03 Y109.156 E.01187
M73 P47 R6
G1 X87.97 Y109.156 E2.32688
G1 X87.97 Y108.779 E.01187
M73 P48 R6
G1 X162.03 Y108.779 E2.32688
G1 X162.03 Y108.401 E.01187
G1 X87.97 Y108.401 E2.32688
G1 X87.97 Y108.023 E.01187
M73 P49 R6
G1 X162.03 Y108.023 E2.32688
G1 X162.03 Y107.645 E.01187
G1 X87.97 Y107.645 E2.32688
G1 X87.97 Y107.267 E.01187
G1 X162.03 Y107.267 E2.32688
G1 X162.03 Y106.889 E.01187
M73 P50 R6
G1 X87.97 Y106.889 E2.32688
G1 X87.97 Y106.511 E.01187
G1 X162.03 Y106.511 E2.32688
G1 X162.03 Y106.134 E.01187
M73 P51 R6
G1 X87.97 Y106.134 E2.32688
G1 X87.97 Y105.756 E.01187
G1 X162.03 Y105.756 E2.32688
G1 X162.03 Y105.378 E.01187
M73 P52 R6
G1 X87.97 Y105.378 E2.32688
G1 X87.97 Y105 E.01187
G1 X162.03 Y105 E2.32688
G1 X162.03 Y104.622 E.01187
M73 P53 R6
G1 X87.97 Y104.622 E2.32688
G1 X87.97 Y104.244 E.01187
G1 X162.03 Y104.244 E2.32688
G1 X162.03 Y103.866 E.01187
M73 P54 R6
G1 X87.97 Y103.866 E2.32688
G1 X87.97 Y103.489 E.01187
G1 X162.03 Y103.489 E2.32688
G1 X162.03 Y103.111 E.01187
M73 P55 R5
G1 X87.97 Y103.111 E2.32688
G1 X87.97 Y102.733 E.01187
G1 X162.03 Y102.733 E2.32688
G1 X162.03 Y102.355 E.01187
M73 P56 R5
G1 X87.97 Y102.355 E2.32688
G1 X87.97 Y101.977 E.01187
G1 X162.03 Y101.977 E2.32688
G1 X162.03 Y101.599 E.01187
M73 P57 R5
G1 X87.97 Y101.599 E2.32688
G1 X87.97 Y101.221 E.01187
G1 X162.03 Y101.221 E2.32688
G1 X162.03 Y100.844 E.01187
G1 X87.97 Y100.844 E2.32688
G1 X87.97 Y100.466 E.01187
M73 P58 R5
G1 X162.03 Y100.466 E2.32688
G1 X162.03 Y100.088 E.01187
G1 X87.97 Y100.088 E2.32688
G1 X87.97 Y99.71 E.01187
M73 P59 R5
G1 X162.03 Y99.71 E2.32688
G1 X162.03 Y99.332 E.01187
G1 X87.97 Y99.332 E2.32688
G1 X87.97 Y98.954 E.01187
M73 P60 R5
G1 X162.03 Y98.954 E2.32688
G1 X162.03 Y98.576 E.01187
G1 X87.97 Y98.576 E2.32688
G1 X87.97 Y98.199 E.01187
M73 P61 R5
G1 X162.03 Y98.199 E2.32688
G1 X162.03 Y97.821 E.01187
G1 X87.97 Y97.821 E2.32688
G1 X87.97 Y97.443 E.01187
M73 P62 R5
G1 X162.03 Y97.443 E2.32688
G1 X162.03 Y97.065 E.01187
M73 P62 R4
G1 X87.97 Y97.065 E2.32688
G1 X87.97 Y96.687 E.01187
M73 P63 R4
G1 X162.03 Y96.687 E2.32688
G1 X162.03 Y96.309 E.01187
G1 X87.97 Y96.309 E2.32688
G1 X87.97 Y95.932 E.01187
M73 P64 R4
G1 X162.03 Y95.932 E2.32688
G1 X162.03 Y95.554 E.01187
G1 X87.97 Y95.554 E2.32688
G1 X87.97 Y95.176 E.01187
G1 X162.03 Y95.176 E2.32688
G1 X162.03 Y94.798 E.01187
M73 P65 R4
G1 X87.97 Y94.798 E2.32688
G1 X87.97 Y94.42 E.01187
G1 X162.03 Y94.42 E2.32688
G1 X162.03 Y94.042 E.01187
M73 P66 R4
G1 X87.97 Y94.042 E2.32688
G1 X87.97 Y93.664 E.01187
G1 X162.03 Y93.664 E2.32688
G1 X162.03 Y93.287 E.01187
M73 P67 R4
G1 X87.97 Y93.287 E2.32688
G1 X87.97 Y92.909 E.01187
G1 X162.03 Y92.909 E2.32688
G1 X162.03 Y92.531 E.01187
M73 P68 R4
G1 X87.97 Y92.531 E2.32688
G1 X87.97 Y92.153 E.01187
G1 X162.03 Y92.153 E2.32688
G1 X162.03 Y91.775 E.01187
M73 P69 R4
G1 X87.97 Y91.775 E2.32688
G1 X87.97 Y91.397 E.01187
G1 X162.03 Y91.397 E2.32688
G1 X162.03 Y91.019 E.01187
M73 P70 R3
G1 X87.97 Y91.019 E2.32688
G1 X87.97 Y90.642 E.01187
G1 X162.03 Y90.642 E2.32688
G1 X162.03 Y90.264 E.01187
M73 P71 R3
G1 X87.97 Y90.264 E2.32688
G1 X87.97 Y89.886 E.01187
G1 X162.03 Y89.886 E2.32688
G1 X162.03 Y89.508 E.01187
G1 X87.97 Y89.508 E2.32688
G1 X87.97 Y89.13 E.01187
M73 P72 R3
G1 X162.03 Y89.13 E2.32688
G1 X162.03 Y88.752 E.01187
G1 X87.97 Y88.752 E2.32688
G1 X87.97 Y88.374 E.01187
M73 P73 R3
G1 X162.03 Y88.374 E2.32688
G1 X162.03 Y87.997 E.01187
G1 X87.97 Y87.997 E2.32688
G1 X87.97 Y87.619 E.01187
M73 P74 R3
G1 X162.03 Y87.619 E2.32688
G1 X162.03 Y87.241 E.01187
G1 X87.97 Y87.241 E2.32688
G1 X87.97 Y86.863 E.01187
M73 P75 R3
G1 X162.03 Y86.863 E2.32688
G1 X162.03 Y86.485 E.01187
G1 X87.97 Y86.485 E2.32688
G1 X87.97 Y86.107 E.01187
M73 P76 R3
G1 X162.03 Y86.107 E2.32688
G1 X162.03 Y85.729 E.01187
G1 X87.97 Y85.729 E2.32688
G1 X87.97 Y85.352 E.01187
M73 P77 R3
G1 X162.03 Y85.352 E2.32688
G1 X162.03 Y84.974 E.01187
M73 P77 R2
G1 X87.97 Y84.974 E2.32688
G1 X87.97 Y84.596 E.01187
M73 P78 R2
G1 X162.03 Y84.596 E2.32688
G1 X162.03 Y84.218 E.01187
G1 X87.97 Y84.218 E2.32688
G1 X87.97 Y83.84 E.01187
M73 P79 R2
G1 X162.03 Y83.84 E2.32688
G1 X162.03 Y83.462 E.01187
G1 X87.97 Y83.462 E2.32688
G1 X87.97 Y83.084 E.01187
G1 X162.03 Y83.084 E2.32688
G1 X162.03 Y82.707 E.01187
M73 P80 R2
G1 X87.97 Y82.707 E2.32688
G1 X87.97 Y82.329 E.01187
G1 X162.03 Y82.329 E2.32688
G1 X162.03 Y81.951 E.01187
M73 P81 R2
G1 X87.97 Y81.951 E2.32688
G1 X87.97 Y81.573 E.01187
G1 X162.03 Y81.573 E2.32688
G1 X162.03 Y81.195 E.01187
M73 P82 R2
G1 X87.97 Y81.195 E2.32688
G1 X87.97 Y80.817 E.01187
G1 X162.03 Y80.817 E2.32688
G1 X162.03 Y80.439 E.01187
M73 P83 R2
G1 X87.97 Y80.439 E2.32688
G1 X87.97 Y80.062 E.01187
G1 X162.03 Y80.062 E2.32688
G1 X162.03 Y79.684 E.01187
M73 P84 R2
G1 X87.97 Y79.684 E2.32688
G1 X87.97 Y79.306 E.01187
G1 X162.03 Y79.306 E2.32688
G1 X162.03 Y78.928 E.01187
M73 P85 R1
G1 X87.97 Y78.928 E2.32688
G1 X87.97 Y78.55 E.01187
G1 X162.03 Y78.55 E2.32688
G1 X162.03 Y78.172 E.01187
M73 P86 R1
G1 X87.97 Y78.172 E2.32688
G1 X87.97 Y77.795 E.01187
G1 X162.03 Y77.795 E2.32688
G1 X162.03 Y77.417 E.01187
G1 X87.97 Y77.417 E2.32688
G1 X87.97 Y77.039 E.01187
M73 P87 R1
G1 X162.03 Y77.039 E2.32688
G1 X162.03 Y76.661 E.01187
G1 X87.97 Y76.661 E2.32688
G1 X87.97 Y76.283 E.01187
M73 P88 R1
G1 X162.03 Y76.283 E2.32688
G1 X162.03 Y75.905 E.01187
G1 X87.97 Y75.905 E2.32688
G1 X87.97 Y75.527 E.01187
M73 P89 R1
G1 X162.03 Y75.527 E2.32688
G1 X162.03 Y75.15 E.01187
G1 X87.97 Y75.15 E2.32688
G1 X87.97 Y74.772 E.01187
M73 P90 R1
G1 X162.03 Y74.772 E2.32688
G1 X162.03 Y74.394 E.01187
G1 X87.97 Y74.394 E2.32688
G1 X87.97 Y74.016 E.01187
M73 P91 R1
G1 X162.03 Y74.016 E2.32688
G1 X162.03 Y73.638 E.01187
G1 X87.97 Y73.638 E2.32688
G1 X87.97 Y73.26 E.01187
M73 P92 R1
G1 X162.03 Y73.26 E2.32688
G1 X162.03 Y72.882 E.01187
M73 P92 R0
G1 X87.97 Y72.882 E2.32688
G1 X87.97 Y72.505 E.01187
M73 P93 R0
G1 X162.03 Y72.505 E2.32688
G1 X162.03 Y72.127 E.01187
G1 X87.97 Y72.127 E2.32688
G1 X87.97 Y71.749 E.01187
G1 X162.03 Y71.749 E2.32688
G1 X162.03 Y71.371 E.01187
M73 P94 R0
G1 X87.97 Y71.371 E2.32688
G1 X87.97 Y70.993 E.01187
G1 X162.03 Y70.993 E2.32688
G1 X162.03 Y70.615 E.01187
M73 P95 R0
G1 X87.97 Y70.615 E2.32688
G1 X87.97 Y70.237 E.01187
G1 X162.03 Y70.237 E2.32688
G1 X162.03 Y69.86 E.01187
M73 P96 R0
G1 X87.97 Y69.86 E2.32688
G1 X87.97 Y69.482 E.01187
G1 X162.03 Y69.482 E2.32688
G1 X162.03 Y69.104 E.01187
M73 P97 R0
G1 X87.97 Y69.104 E2.32688
G1 X87.97 Y68.726 E.01187
G1 X162.03 Y68.726 E2.32688
G1 X162.03 Y68.348 E.01187
M73 P98 R0
G1 X87.97 Y68.348 E2.32688
G1 X87.97 Y67.97 E.01187
G1 X162.2 Y67.97 E2.33221
M204 S1000
; stop printing object 3x3in-calibration-test-v3.stl id:0 copy 0
;WIPE_START
G1 F4800;_WIPE
M73 P99 R0
G1 X160.371 Y67.97 E-.76
;WIPE_END
G1 E-.04 F2100
G1 Z.8 F720
M107
;TYPE:Custom
; Filament-specific end gcode
; printing object ENDGCODE
G4 ; wait
M104 S0 ; turn off temperature
M140 S0 ; turn off heatbed
M107 ; turn off fan
G1 Z30.8 ; Move print head up
G1 X0 Y200 F3000 ; home X axis
M84 ; disable motors
M300 S100 P10 ; chirp
M73 P100 R0
; filament used [mm] = 489.56
; filament used [cm3] = 1.18
; filament used [g] = 1.46
; filament cost = 0.05
; total filament used [g] = 1.46
; total filament cost = 0.05
; estimated printing time (normal mode) = 13m 17s

; prusaslicer_config = begin
; avoid_crossing_perimeters = 0
; avoid_crossing_perimeters_max_detour = 0
; bed_custom_model = 
; bed_custom_texture = 
; bed_shape = 0x0,250x0,250x210,0x210
; bed_temperature = 60
; before_layer_gcode = ;BEFORE_LAYER_CHANGE\nG92 E0.0\n;[layer_z]\n\n
; between_objects_gcode = 
; bottom_fill_pattern = rectilinear
; bottom_solid_layers = 4
; bottom_solid_min_thickness = 0.5
; bridge_acceleration = 1000
; bridge_angle = 0
; bridge_fan_speed = 100
; bridge_flow_ratio = 0.95
; bridge_speed = 25
; brim_separation = 0.1
; brim_type = outer_only
; brim_width = 0
; clip_multipart_objects = 1
