; generated by PrusaSlicer 2.9.4 on 2026-03-05 at 14:46:50 UTC


;
;

;
;
; 

; external perimeters extrusion width = 0.45mm
; perimeters extrusion width = 0.45mm
; infill extrusion width = 0.45mm
; solid infill extrusion width = 0.45mm
; top infill extrusion width = 0.40mm
; first layer extrusion width = 0.42mm

M73 P0 R85
M201 X9000 Y9000 Z500 E10000 ; sets maximum accelerations, mm/sec^2
M203 X500 Y500 Z12 E120 ; sets maximum feedrates, mm / sec
M204 S2000 T1500 ; sets acceleration (S) and retract acceleration (R), mm/sec^2
M205 X10.00 Y10.00 Z0.20 E4.50 ; sets the jerk limits, mm/sec
M205 S0 T0 ; sets the minimum extruding and travel feed rate, mm/sec

; printing object Cover.stl id:0 copy 0
; stop printing object Cover.stl id:0 copy 0

;TYPE:Custom
M83  ; extruder relative mode
M140 S85 ; set bed temp
M109 S160 ; Set extruder temp before bed level
M190 S85 ; wait for bed temp

G28 W ; home all without mesh bed level
G80 N7 ; mesh bed leveling

M109 S240 ; wait for extruder temp

M221 S100 ; Set flow to 100

G1 Y-3.0 F1000.0 ; go outside print area
G92 E0.0
G1 E8 ; Purge Bubble
G1 X60.0 E9.0 F1000.0 ; intro line
G1 X100.0 E12.5 F1000.0 ; intro line
G92 E0.0
G21 ; set units to millimeters
G90 ; use absolute coordinates
M83 ; use relative distances for extrusion

M900 K0.08 ; Filament gcode LA 1.5
M900 K45 ; Filament gcode LA 1.0




M107
;LAYER_CHANGE
;Z:0.2
;HEIGHT:0.2
G1 E-1 F2100
G1 Z.4 F720
G1 X66.258 Y74.281 F6000
G1 Z.2 F720
G1 E1 F2100
M204 S800
;TYPE:Skirt/Brim
;WIDTH:0.42
G1 F1200
G1 X67.325 Y73.524 E.04102
G1 X68 Y73.418 E.02142
G1 X183.5 Y73.418 E3.62142
G1 X184.748 Y73.808 E.041
G1 X185.551 Y74.841 E.04102
G1 X185.689 Y75.606 E.02437
G1 X185.689 Y134.394 E1.84326
G1 X185.298 Y135.642 E.04101
G1 X184.265 Y136.444 E.041
G1 X183.5 Y136.582 E.02437
G1 X66.5 Y136.582 E3.66845
G1 X65.252 Y136.192 E.041
G1 X64.449 Y135.159 E.04102
G1 X64.311 Y134.394 E.02437
G1 X64.314 Y110.02 E.76423
G1 X65.814 Y75.511 E1.08303
G1 X66.238 Y74.337 E.03914
M204 S1000
;WIPE_START
G1 F4800
G1 X66.258 Y74.281 E-.02471
G1 X67.325 Y73.524 E-.54374
G1 X68 Y73.418 E-.28399
G1 X68.355 Y73.418 E-.14756
;WIPE_END
G1 Z.4 F720
; printing object Cover.stl id:0 copy 0
G1 X121.338 Y101.127 F6000
G1 Z.2 F720
G1 E1 F2100
M204 S800
;TYPE:External perimeter
;WIDTH:0.606039
G1 F1200
G1 X121.338 Y101.091 E.00169
G1 X123.358 Y99.924 E.10923
;WIDTH:0.568319
G1 X125.439 Y98.723 E.10497
;WIDTH:0.606039
G1 X125.5 Y98.688 E.00329
G1 X127.52 Y99.854 E.10921
;WIDTH:0.56832
G1 X129.601 Y101.056 E.10499
;WIDTH:0.606044
G1 X129.662 Y101.091 E.00329
G1 X129.662 Y103.424 E.10924
;WIDTH:0.568321
G1 X129.662 Y105.827 E.10498
;WIDTH:0.606039
G1 X129.662 Y105.897 E.00328
G1 X127.642 Y107.063 E.10921
;WIDTH:0.568317
G1 X125.561 Y108.265 E.10499
;WIDTH:0.606039
G1 X125.5 Y108.3 E.00329
;WIDTH:0.568317
G1 X123.419 Y107.099 E.10497
;WIDTH:0.606039
G1 X121.338 Y105.897 E.11253
G1 X121.338 Y101.187 E.22054
M204 S1000
;WIPE_START
G1 F4800
G1 X121.338 Y101.127 E-.02494
G1 X121.338 Y101.091 E-.01496
G1 X123.338 Y99.936 E-.9601
;WIPE_END
G1 Z.4 F720
G1 X125.775 Y108.705 F6000
G1 Z.2 F720
G1 E1 F2100
M204 S800
G1 F1200
G1 X129.906 Y106.319 E.22337
G1 X131.926 Y107.486 E.10923
;WIDTH:0.568317
G1 X134.008 Y108.687 E.105
;WIDTH:0.606039
G1 X134.069 Y108.723 E.00332
G1 X134.069 Y111.055 E.10919
;WIDTH:0.568318
G1 X134.069 Y113.459 E.10502
;WIDTH:0.606044
G1 X134.069 Y113.529 E.00328
G1 X132.048 Y114.695 E.10925
;WIDTH:0.568319
G1 X129.967 Y115.897 E.10499
;WIDTH:0.606039
G1 X129.906 Y115.932 E.00329
G1 X127.886 Y114.766 E.10921
;WIDTH:0.56832
G1 X125.805 Y113.564 E.10499
;WIDTH:0.606044
G1 X125.744 Y113.529 E.00329
;WIDTH:0.568318
G1 X125.744 Y111.126 E.10498
;WIDTH:0.606039
G1 X125.744 Y108.747 E.11139
M204 S1000
;WIPE_START
G1 F4800
G1 X125.775 Y108.705 E-.0217
G1 X127.813 Y107.528 E-.9783
;WIPE_END
G1 Z.4 F720
M73 P0 R84
G1 X130.181 Y116.336 F6000
G1 Z.2 F720
G1 E1 F2100
M204 S800
G1 F1200
G1 X132.17 Y115.188 E.10753
;WIDTH:0.56832
G1 X134.252 Y113.986 E.10503
;WIDTH:0.606044
G1 X134.312 Y113.951 E.00325
G1 X136.333 Y115.118 E.10927
;WIDTH:0.568319
G1 X138.414 Y116.319 E.10497
;WIDTH:0.606039
G1 X138.475 Y116.354 E.00329
G1 X138.475 Y118.687 E.10924
;WIDTH:0.568318
G1 X138.475 Y121.02 E.10192
;WIDTH:0.530597
G1 X138.425 Y121.074 E.00298
;WIDTH:0.493731
G1 X138.375 Y121.129 E.00279
;WIDTH:0.456865
G1 X138.325 Y121.183 E.00253
;WIDTH:0.419999
G1 X134.407 Y123.446 E.14187
G1 X134.239 Y123.458 E.00528
G1 X130.3 Y121.183 E.14262
;WIDTH:0.456865
G1 X130.25 Y121.129 E.00253
;WIDTH:0.493731
G1 X130.2 Y121.074 E.00279
;WIDTH:0.530597
G1 X130.15 Y121.02 E.00298
;WIDTH:0.568318
G1 X130.15 Y118.687 E.10192
;WIDTH:0.606039
G1 X130.15 Y116.378 E.10812
M204 S1000
;WIPE_START
G1 F4800
G1 X130.181 Y116.336 E-.0217
G1 X132.17 Y115.188 E-.95449
G1 X132.22 Y115.159 E-.02381
;WIPE_END
G1 Z.4 F720
G1 X134.556 Y113.493 F6000
G1 Z.2 F720
G1 E1 F2100
M204 S800
;WIDTH:0.606044
G1 F1200
G1 X134.556 Y111.196 E.10755
;WIDTH:0.568321
G1 X134.556 Y108.793 E.10498
;WIDTH:0.606039
G1 X134.556 Y108.723 E.00328
G1 X138.719 Y106.319 E.22509
G1 X140.739 Y107.486 E.10923
;WIDTH:0.568317
G1 X142.82 Y108.687 E.10497
;WIDTH:0.606038
G1 X142.881 Y108.723 E.00332
G1 X142.881 Y111.055 E.10919
;WIDTH:0.568317
G1 X142.881 Y113.459 E.10502
;WIDTH:0.606043
G1 X142.881 Y113.529 E.00328
G1 X140.861 Y114.695 E.10921
;WIDTH:0.568319
G1 X138.78 Y115.897 E.10499
;WIDTH:0.606039
G1 X138.719 Y115.932 E.00329
G1 X136.699 Y114.766 E.10921
;WIDTH:0.56832
G1 X134.617 Y113.564 E.10503
;WIDTH:0.606044
G1 X134.577 Y113.541 E.00216
M204 S1000
;WIPE_START
G1 F4800
G1 X134.556 Y113.493 E-.02178
G1 X134.556 Y111.196 E-.95469
G1 X134.556 Y111.139 E-.02353
;WIPE_END
G1 Z.4 F720
G1 X134.344 Y108.282 F6000
G1 Z.2 F720
G1 E1 F2100
M204 S800
;WIDTH:0.606039
G1 F1200
G1 X134.312 Y108.3 E.00172
;WIDTH:0.568317
G1 X132.231 Y107.099 E.10497
;WIDTH:0.606039
G1 X130.15 Y105.897 E.11253
G1 X130.15 Y101.091 E.22503
G1 X132.17 Y99.924 E.10923
;WIDTH:0.568319
G1 X134.252 Y98.723 E.105
;WIDTH:0.606039
G1 X134.312 Y98.688 E.00325
G1 X136.333 Y99.854 E.10925
;WIDTH:0.56832
G1 X138.414 Y101.056 E.10499
;WIDTH:0.606044
G1 X138.475 Y101.091 E.00329
G1 X138.475 Y103.424 E.10924
;WIDTH:0.568321
G1 X138.475 Y105.827 E.10498
;WIDTH:0.606039
G1 X138.475 Y105.897 E.00328
G1 X136.455 Y107.063 E.10921
;WIDTH:0.568317
G1 X134.396 Y108.252 E.10387
M204 S1000
;WIPE_START
G1 F4800
G1 X134.344 Y108.282 E-.02495
G1 X134.312 Y108.3 E-.01526
G1 X132.312 Y107.145 E-.95979
;WIPE_END
G1 Z.4 F720
G1 X138.994 Y105.915 F6000
G1 Z.2 F720
G1 E1 F2100
M204 S800
;WIDTH:0.606039
G1 F1200
G1 X138.963 Y105.897 E.00168
G1 X138.963 Y101.091 E.22503
G1 X140.983 Y99.924 E.10923
;WIDTH:0.568319
G1 X143.064 Y98.723 E.10497
;WIDTH:0.606038
G1 X143.125 Y98.688 E.00329
G1 X145.145 Y99.854 E.10921
;WIDTH:0.56832
G1 X147.226 Y101.056 E.10499
;WIDTH:0.606043
G1 X147.287 Y101.091 E.00329
G1 X147.287 Y103.424 E.10924
;WIDTH:0.56832
G1 X147.287 Y105.827 E.10498
;WIDTH:0.606038
G1 X147.287 Y105.897 E.00328
G1 X145.267 Y107.063 E.10921
;WIDTH:0.568316
G1 X143.186 Y108.265 E.10499
;WIDTH:0.606038
G1 X143.125 Y108.3 E.00329
;WIDTH:0.568317
G1 X141.044 Y107.099 E.10497
;WIDTH:0.606039
G1 X139.046 Y105.945 E.10804
M204 S1000
;WIPE_START
G1 F4800
G1 X138.994 Y105.915 E-.02495
G1 X138.963 Y105.897 E-.0149
G1 X138.963 Y103.587 E-.96015
;WIPE_END
G1 Z.4 F720
G1 X143.4 Y108.705 F6000
G1 Z.2 F720
G1 E1 F2100
M204 S800
;WIDTH:0.606038
G1 F1200
G1 X147.531 Y106.319 E.22337
G1 X149.551 Y107.486 E.10923
;WIDTH:0.568316
G1 X151.633 Y108.687 E.105
;WIDTH:0.606038
G1 X151.694 Y108.723 E.00332
G1 X151.694 Y111.055 E.10919
;WIDTH:0.568317
G1 X151.694 Y113.459 E.10502
;WIDTH:0.606043
G1 X151.694 Y113.529 E.00328
G1 X149.673 Y114.695 E.10925
;WIDTH:0.568319
G1 X147.592 Y115.897 E.10499
;WIDTH:0.606038
G1 X147.531 Y115.932 E.00329
G1 X145.511 Y114.766 E.10921
;WIDTH:0.56832
G1 X143.43 Y113.564 E.10499
;WIDTH:0.606043
G1 X143.369 Y113.529 E.00329
G1 X143.369 Y111.196 E.10924
;WIDTH:0.56832
G1 X143.369 Y108.793 E.10498
;WIDTH:0.606038
G1 X143.369 Y108.747 E.00215
M204 S1000
;WIPE_START
G1 F4800
G1 X143.4 Y108.705 E-.0217
G1 X145.438 Y107.528 E-.9783
;WIPE_END
G1 Z.4 F720
G1 X143.156 Y113.969 F6000
G1 Z.2 F720
G1 E1 F2100
M204 S800
;WIDTH:0.606043
G1 F1200
G1 X145.145 Y115.118 E.10756
;WIDTH:0.568319
G1 X147.226 Y116.319 E.10497
;WIDTH:0.606038
G1 X147.287 Y116.354 E.00329
G1 X147.287 Y118.687 E.10924
;WIDTH:0.568317
G1 X147.287 Y121.02 E.10192
;WIDTH:0.530596
G1 X147.238 Y121.074 E.00296
;WIDTH:0.493731
G1 X147.188 Y121.129 E.00279
;WIDTH:0.456865
G1 X147.138 Y121.183 E.00253
;WIDTH:0.419999
G1 X143.219 Y123.446 E.14189
G1 X143.052 Y123.458 E.00525
G1 X139.112 Y121.183 E.14265
;WIDTH:0.456865
G1 X139.062 Y121.129 E.00253
;WIDTH:0.493731
G1 X139.012 Y121.074 E.00279
;WIDTH:0.530597
G1 X138.963 Y121.02 E.00296
;WIDTH:0.568318
G1 X138.963 Y118.687 E.10192
;WIDTH:0.606039
G1 X138.963 Y116.354 E.10924
G1 X140.983 Y115.188 E.10921
;WIDTH:0.56832
G1 X143.003 Y114.022 E.10189
;WIDTH:0.568322
G1 X143.064 Y113.986 E.00309
;WIDTH:0.606043
G1 X143.104 Y113.963 E.00216
M204 S1000
;WIPE_START
G1 F4800
G1 X143.156 Y113.969 E-.02176
G1 X145.145 Y115.118 E-.9547
G1 X145.194 Y115.146 E-.02354
;WIPE_END
G1 Z.4 F720
G1 X147.806 Y116.336 F6000
G1 Z.2 F720
G1 E1 F2100
M204 S800
;WIDTH:0.606038
G1 F1200
G1 X149.795 Y115.188 E.10753
;WIDTH:0.56832
G1 X151.877 Y113.986 E.10503
;WIDTH:0.606043
G1 X151.937 Y113.951 E.00325
G1 X153.958 Y115.118 E.10927
;WIDTH:0.568319
G1 X156.039 Y116.319 E.10497
;WIDTH:0.606038
G1 X156.1 Y116.354 E.00329
G1 X156.1 Y118.687 E.10924
;WIDTH:0.568317
G1 X156.1 Y121.02 E.10192
;WIDTH:0.530596
G1 X156.05 Y121.074 E.00298
;WIDTH:0.493731
G1 X156 Y121.129 E.00279
;WIDTH:0.456865
G1 X155.95 Y121.183 E.00253
;WIDTH:0.419999
G1 X152.032 Y123.446 E.14187
G1 X151.864 Y123.458 E.00528
G1 X147.925 Y121.183 E.14262
;WIDTH:0.456865
G1 X147.875 Y121.129 E.00253
;WIDTH:0.493731
G1 X147.825 Y121.074 E.00279
;WIDTH:0.530596
G1 X147.775 Y121.02 E.00298
;WIDTH:0.568317
G1 X147.775 Y118.687 E.10192
;WIDTH:0.606038
G1 X147.775 Y116.378 E.10812
M204 S1000
;WIPE_START
G1 F4800
G1 X147.806 Y116.336 E-.0217
G1 X149.795 Y115.188 E-.95449
G1 X149.845 Y115.159 E-.02381
;WIPE_END
G1 Z.4 F720
G1 X152.181 Y113.493 F6000
G1 Z.2 F720
G1 E1 F2100
M204 S800
;WIDTH:0.606043
G1 F1200
G1 X152.181 Y111.196 E.10755
;WIDTH:0.56832
G1 X152.181 Y108.793 E.10498
;WIDTH:0.606038
G1 X152.181 Y108.723 E.00328
G1 X156.344 Y106.319 E.22509
G1 X158.364 Y107.486 E.10923
;WIDTH:0.568316
G1 X160.445 Y108.687 E.10497
;WIDTH:0.606038
G1 X160.506 Y108.723 E.00332
G1 X160.506 Y111.055 E.10919
;WIDTH:0.568317
G1 X160.506 Y113.459 E.10502
;WIDTH:0.606043
G1 X160.506 Y113.529 E.00328
G1 X158.486 Y114.695 E.10921
;WIDTH:0.568319
G1 X156.405 Y115.897 E.10499
;WIDTH:0.606038
G1 X156.344 Y115.932 E.00329
G1 X154.324 Y114.766 E.10921
;WIDTH:0.56832
G1 X152.242 Y113.564 E.10503
;WIDTH:0.606043
G1 X152.202 Y113.541 E.00216
M204 S1000
;WIPE_START
G1 F4800
G1 X152.181 Y113.493 E-.02178
G1 X152.181 Y111.196 E-.95469
G1 X152.181 Y111.139 E-.02353
;WIPE_END
G1 Z.4 F720
G1 X151.969 Y108.282 F6000
G1 Z.2 F720
G1 E1 F2100
M204 S800
;WIDTH:0.606038
G1 F1200
G1 X151.937 Y108.3 E.00172
;WIDTH:0.568317
G1 X149.856 Y107.099 E.10497
;WIDTH:0.606038
G1 X147.775 Y105.897 E.11253
G1 X147.775 Y101.091 E.22503
G1 X149.795 Y99.924 E.10923
;WIDTH:0.568319
G1 X151.877 Y98.723 E.105
;WIDTH:0.606038
G1 X151.937 Y98.688 E.00325
G1 X153.958 Y99.854 E.10925
;WIDTH:0.56832
G1 X156.039 Y101.056 E.10499
;WIDTH:0.606043
G1 X156.1 Y101.091 E.00329
G1 X156.1 Y103.424 E.10924
;WIDTH:0.56832
G1 X156.1 Y105.827 E.10498
;WIDTH:0.606038
G1 X156.1 Y105.897 E.00328
G1 X154.08 Y107.063 E.10921
;WIDTH:0.568316
G1 X152.021 Y108.252 E.10387
M204 S1000
;WIPE_START
G1 F4800
G1 X151.969 Y108.282 E-.02495
G1 X151.937 Y108.3 E-.01526
G1 X149.937 Y107.145 E-.95979
;WIPE_END
G1 Z.4 F720
G1 X156.619 Y105.915 F6000
G1 Z.2 F720
G1 E1 F2100
M204 S800
;WIDTH:0.606038
G1 F1200
G1 X156.588 Y105.897 E.00168
G1 X156.588 Y101.091 E.22503
G1 X158.608 Y99.924 E.10923
;WIDTH:0.568319
G1 X160.689 Y98.723 E.10497
;WIDTH:0.606038
G1 X160.75 Y98.688 E.00329
G1 X162.77 Y99.854 E.10921
;WIDTH:0.56832
G1 X164.79 Y101.02 E.10189
;WIDTH:0.530601
G1 X164.813 Y101.091 E.00303
;WIDTH:0.493734
G1 X164.835 Y101.161 E.00275
;WIDTH:0.456867
G1 X164.857 Y101.232 E.00256
;WIDTH:0.419999
G1 X164.857 Y105.756 E.14185
;WIDTH:0.456864
G1 X164.835 Y105.827 E.00256
;WIDTH:0.493729
G1 X164.813 Y105.897 E.00275
;WIDTH:0.530594
G1 X164.79 Y105.967 E.00299
;WIDTH:0.532457
G1 X160.853 Y108.241 E.18507
;WIDTH:0.569248
G1 X160.802 Y108.27 E.00257
;WIDTH:0.606038
G1 X160.75 Y108.3 E.00281
;WIDTH:0.568317
G1 X158.669 Y107.099 E.10497
;WIDTH:0.606038
G1 X156.671 Y105.945 E.10804
M204 S1000
;WIPE_START
G1 F4800
G1 X156.619 Y105.915 E-.02495
G1 X156.588 Y105.897 E-.0149
G1 X156.588 Y103.587 E-.96015
;WIPE_END
G1 Z.4 F720
G1 X160.781 Y113.969 F6000
G1 Z.2 F720
G1 E1 F2100
M204 S800
;WIDTH:0.606043
G1 F1200
G1 X162.77 Y115.118 E.10756
;WIDTH:0.568319
G1 X164.79 Y116.284 E.10189
;WIDTH:0.530594
G1 X164.813 Y116.354 E.00299
;WIDTH:0.493729
G1 X164.835 Y116.425 E.00279
;WIDTH:0.456864
G1 X164.857 Y116.495 E.00253
;WIDTH:0.419999
G1 X164.857 Y121.02 E.14188
G1 X164.791 Y121.167 E.00505
G1 X160.844 Y123.446 E.1429
G1 X160.677 Y123.458 E.00525
G1 X156.737 Y121.183 E.14265
;WIDTH:0.456865
G1 X156.687 Y121.129 E.00253
;WIDTH:0.493731
G1 X156.637 Y121.074 E.00279
;WIDTH:0.530596
G1 X156.588 Y121.02 E.00296
;WIDTH:0.568317
G1 X156.588 Y118.687 E.10192
;WIDTH:0.606038
G1 X156.588 Y116.354 E.10924
G1 X158.608 Y115.188 E.10921
;WIDTH:0.56832
G1 X160.689 Y113.986 E.10499
;WIDTH:0.606043
G1 X160.729 Y113.963 E.00216
M204 S1000
G1 X160.994 Y113.493 F6000
M204 S800
G1 F1200
G1 X160.994 Y111.196 E.10755
;WIDTH:0.56832
G1 X160.994 Y108.793 E.10498
;WIDTH:0.606038
G1 X160.994 Y108.723 E.00328
G1 X163.014 Y107.556 E.10923
;WIDTH:0.568316
G1 X165.034 Y106.39 E.10189
;WIDTH:0.530594
G1 X165.106 Y106.406 E.00299
;WIDTH:0.493729
G1 X165.178 Y106.422 E.00276
;WIDTH:0.456864
G1 X165.251 Y106.438 E.00257
;WIDTH:0.419999
G1 X169.17 Y108.7 E.14188
G1 X169.263 Y108.835 E.00514
G1 X169.263 Y113.388 E.14276
G1 X169.197 Y113.535 E.00505
G1 X165.251 Y115.814 E.14288
;WIDTH:0.460674
G1 X165.178 Y115.83 E.0026
;WIDTH:0.495634
G1 X165.106 Y115.846 E.00278
;WIDTH:0.530594
G1 X165.034 Y115.862 E.00299
;WIDTH:0.568319
G1 X163.014 Y114.695 E.10192
;WIDTH:0.606043
G1 X161.015 Y113.541 E.10808
M204 S1000
;WIPE_START
G1 F4800
M73 P1 R84
G1 X160.994 Y113.493 E-.02178
G1 X160.994 Y111.196 E-.95469
G1 X160.994 Y111.139 E-.02353
;WIPE_END
G1 Z.4 F720
G1 X156.313 Y100.65 F6000
G1 Z.2 F720
G1 E1 F2100
M204 S800
G1 F1200
G1 X154.324 Y99.502 E.10753
;WIDTH:0.568319
G1 X152.242 Y98.3 E.10503
;WIDTH:0.606038
G1 X152.181 Y98.265 E.00329
G1 X152.181 Y93.459 E.22503
G1 X156.344 Y91.056 E.22507
G1 X158.364 Y92.222 E.10921
;WIDTH:0.568316
G1 X160.445 Y93.424 E.10499
;WIDTH:0.606038
G1 X160.506 Y93.459 E.00329
G1 X160.506 Y95.792 E.10924
;WIDTH:0.568317
G1 X160.506 Y98.195 E.10498
;WIDTH:0.606038
G1 X160.506 Y98.265 E.00328
G1 X158.486 Y99.432 E.10923
;WIDTH:0.56832
G1 X156.466 Y100.598 E.10189
;WIDTH:0.568322
G1 X156.405 Y100.633 E.00307
;WIDTH:0.606043
G1 X156.365 Y100.656 E.00216
M204 S1000
;WIPE_START
G1 F4800
G1 X156.313 Y100.65 E-.02176
G1 X154.324 Y99.502 E-.95449
G1 X154.275 Y99.473 E-.02375
;WIPE_END
G1 Z.4 F720
G1 X161.025 Y98.283 F6000
G1 Z.2 F720
G1 E1 F2100
M204 S800
;WIDTH:0.606038
G1 F1200
G1 X160.994 Y98.265 E.00168
;WIDTH:0.568317
G1 X160.994 Y95.862 E.10498
;WIDTH:0.606038
G1 X160.994 Y93.459 E.11252
G1 X163.014 Y92.292 E.10923
;WIDTH:0.568316
G1 X165.034 Y91.126 E.10189
;WIDTH:0.530594
G1 X165.106 Y91.142 E.00299
;WIDTH:0.493729
G1 X165.178 Y91.158 E.00276
;WIDTH:0.456864
G1 X165.251 Y91.174 E.00257
;WIDTH:0.419999
G1 X169.169 Y93.436 E.14185
G1 X169.254 Y93.541 E.00424
G1 X169.263 Y94.053 E.01606
G1 X169.263 Y98.124 E.12764
G1 X169.207 Y98.259 E.00458
G1 X165.251 Y100.55 E.14334
;WIDTH:0.456867
G1 X165.178 Y100.566 E.00257
;WIDTH:0.493734
G1 X165.106 Y100.582 E.00276
;WIDTH:0.530601
