; generated by PrusaSlicer 2.9.4 on 2026-03-05 at 14:41:12 UTC


;
;

;
;
; 

; external perimeters extrusion width = 0.45mm
; perimeters extrusion width = 0.45mm
; infill extrusion width = 0.45mm
; solid infill extrusion width = 0.45mm
; top infill extrusion width = 0.40mm
; support material extrusion width = 0.35mm
; first layer extrusion width = 0.42mm

; external perimeters extrusion width = 0.45mm
; perimeters extrusion width = 0.45mm
; infill extrusion width = 0.45mm
; solid infill extrusion width = 0.45mm
; top infill extrusion width = 0.40mm
; support material extrusion width = 0.35mm
; first layer extrusion width = 0.42mm

M73 P0 R52
M201 X9000 Y9000 Z500 E10000 ; sets maximum accelerations, mm/sec^2
M203 X500 Y500 Z12 E120 ; sets maximum feedrates, mm / sec
M204 S2000 T1500 ; sets acceleration (S) and retract acceleration (R), mm/sec^2
M205 X10.00 Y10.00 Z0.20 E4.50 ; sets the jerk limits, mm/sec
M205 S0 T0 ; sets the minimum extruding and travel feed rate, mm/sec

; printing object MOSFET_Rail_x4.stl id:1 copy 0
; stop printing object MOSFET_Rail_x4.stl id:1 copy 0
; printing object MOSFET_Rail_x4.stl id:1 copy 1
; stop printing object MOSFET_Rail_x4.stl id:1 copy 1
; printing object MOSFET_Rail_x4.stl id:1 copy 2
; stop printing object MOSFET_Rail_x4.stl id:1 copy 2
; printing object MOSFET_Rail_x4.stl id:1 copy 3
; stop printing object MOSFET_Rail_x4.stl id:1 copy 3
; printing object MOSFET_Main_Rail_x2.stl id:0 copy 0
; stop printing object MOSFET_Main_Rail_x2.stl id:0 copy 0
; printing object MOSFET_Main_Rail_x2.stl id:0 copy 1
; stop printing object MOSFET_Main_Rail_x2.stl id:0 copy 1

;TYPE:Custom
M83  ; extruder relative mode
M140 S85 ; set bed temp
M109 S160 ; Set extruder temp before bed level
M190 S85 ; wait for bed temp

G28 W ; home all without mesh bed level
G80 N7 ; mesh bed leveling

M109 S240 ; wait for extruder temp

M221 S100 ; Set flow to 100

G1 Y-3.0 F1000.0 ; go outside print area
G92 E0.0
G1 E8 ; Purge Bubble
G1 X60.0 E9.0 F1000.0 ; intro line
G1 X100.0 E12.5 F1000.0 ; intro line
G92 E0.0
G21 ; set units to millimeters
G90 ; use absolute coordinates
M83 ; use relative distances for extrusion

M900 K0.08 ; Filament gcode LA 1.5
M900 K45 ; Filament gcode LA 1.0




M107
;LAYER_CHANGE
;Z:0.2
;HEIGHT:0.2
G1 E-1 F2100
G1 Z.4 F720
G1 X69.099 Y72.243 F6000
G1 Z.2 F720
G1 E1 F2100
M204 S800
;TYPE:Skirt/Brim
;WIDTH:0.42
G1 F1200
G1 X113.544 Y29.732 E1.92836
G1 X114.441 Y29.214 E.03248
G1 X118.371 Y28.06 E.12842
G1 X118.988 Y27.971 E.01955
M73 P0 R51
G1 X131.012 Y27.971 E.377
G1 X131.629 Y28.06 E.01955
G1 X135.559 Y29.214 E.12842
G1 X136.456 Y29.732 E.03248
G1 X182.416 Y73.692 E1.99409
G1 X182.561 Y73.837 E.00643
G1 X183.202 Y75.384 E.0525
G1 X183.199 Y90.631 E.47806
G1 X178.767 Y178.551 E2.76017
G1 X178.315 Y179.776 E.04094
G1 X178.127 Y180.021 E.00968
G1 X177.056 Y180.772 E.04101
G1 X176.392 Y180.875 E.02107
G1 X73.53 Y180.875 E3.22517
G1 X71.982 Y180.234 E.05253
G1 X71.872 Y180.123 E.0049
G1 X71.233 Y178.686 E.04931
G1 X66.801 Y90.766 E2.76017
G1 X66.798 Y75.384 E.48229
G1 X67.439 Y73.837 E.0525
G1 X67.584 Y73.692 E.00643
G1 X69.056 Y72.285 E.06385
M204 S1000
;WIPE_START
G1 F4800
G1 X69.099 Y72.243 E-.02498
G1 X70.794 Y70.621 E-.97502
;WIPE_END
G1 Z.4 F720
M73 P1 R51
G1 X72.082 Y75.497 F6000
G1 Z.2 F720
G1 E1 F2100
M204 S800
G1 F1200
G1 X72.737 Y75.022 E.02537
G1 X74.581 Y74.424 E.06078
G1 X83.366 Y74.414 E.27545
G1 X84.387 Y74.616 E.03263
G1 X85.328 Y75.019 E.0321
G1 X86.449 Y75.913 E.04496
G1 X87.256 Y77.064 E.04408
G1 X87.697 Y78.401 E.04414
G1 X87.754 Y87.234 E.27696
G1 X87.429 Y88.586 E.0436
G1 X86.849 Y89.647 E.03791
G1 X85.998 Y90.543 E.03875
G1 X85.344 Y91.018 E.02534
G1 X83.386 Y91.633 E.06435
G1 X74.722 Y91.633 E.27165
G1 X73.374 Y91.309 E.04347
G1 X72.313 Y90.729 E.03791
G1 X71.417 Y89.878 E.03875
G1 X70.942 Y89.224 E.02534
G1 X70.327 Y87.266 E.06435
G1 X70.327 Y78.802 E.26538
G1 X70.651 Y77.454 E.04347
G1 X71.231 Y76.393 E.03791
G1 X72.041 Y75.541 E.03686
M204 S1000
G1 X72.313 Y75.802 F6000
M204 S800
G1 F1200
G1 X72.342 Y75.771 E.00133
G1 X72.932 Y75.346 E.0228
G1 X74.667 Y74.792 E.05711
G1 X83.312 Y74.787 E.27106
G1 X84.258 Y74.97 E.03021
G1 X85.155 Y75.356 E.03062
G1 X86.191 Y76.189 E.04168
G1 X86.93 Y77.255 E.04067
G1 X87.329 Y78.489 E.04066
G1 X87.377 Y87.212 E.27351
G1 X87.069 Y88.471 E.04064
G1 X86.531 Y89.443 E.03483
G1 X85.738 Y90.269 E.0359
G1 X85.148 Y90.694 E.0228
G1 X83.358 Y91.256 E.05883
G1 X74.745 Y91.256 E.27005
G1 X73.489 Y90.949 E.04054
G1 X72.517 Y90.411 E.03483
G1 X71.691 Y89.618 E.0359
G1 X71.266 Y89.028 E.0228
G1 X70.704 Y87.238 E.05883
G1 X70.704 Y78.825 E.26378
G1 X71.011 Y77.569 E.04054
G1 X71.549 Y76.597 E.03483
G1 X72.271 Y75.845 E.03269
M204 S1000
G1 X72.541 Y76.107 F6000
M204 S800
G1 F1200
G1 X72.6 Y76.047 E.00264
G1 X73.126 Y75.67 E.02029
G1 X74.752 Y75.161 E.05342
G1 X83.293 Y75.164 E.2678
G1 X84.164 Y75.336 E.02784
G1 X84.98 Y75.691 E.0279
G1 X85.931 Y76.464 E.03843
G1 X86.603 Y77.445 E.03728
G1 X86.961 Y78.575 E.03717
G1 X86.999 Y87.19 E.27012
G1 X86.709 Y88.354 E.03761
G1 X86.215 Y89.236 E.0317
G1 X85.48 Y89.993 E.03308
G1 X84.954 Y90.37 E.02029
G1 X83.329 Y90.879 E.05339
G1 X74.768 Y90.879 E.26842
G1 X73.605 Y90.589 E.03758
G1 X72.724 Y90.095 E.03167
G1 X71.967 Y89.36 E.03308
G1 X71.59 Y88.834 E.02029
G1 X71.081 Y87.209 E.05339
G1 X71.081 Y78.848 E.26215
G1 X71.371 Y77.685 E.03758
G1 X71.865 Y76.804 E.03167
G1 X72.499 Y76.15 E.02856
M204 S1000
G1 X72.768 Y76.414 F6000
M204 S800
G1 F1200
G1 X72.857 Y76.324 E.00397
G1 X73.32 Y75.995 E.01781
G1 X74.78 Y75.538 E.04797
G1 X83.274 Y75.541 E.26632
G1 X84.069 Y75.702 E.02543
G1 X84.804 Y76.025 E.02517
G1 X85.67 Y76.737 E.03515
G1 X86.274 Y77.631 E.03383
G1 X86.592 Y78.659 E.03374
G1 X86.622 Y87.167 E.26676
G1 X86.35 Y88.236 E.03459
G1 X85.9 Y89.028 E.02856
G1 X85.223 Y89.716 E.03026
G1 X84.76 Y90.045 E.01781
G1 X83.3 Y90.502 E.04797
G1 X74.792 Y90.502 E.26676
G1 X73.724 Y90.23 E.03456
G1 X72.932 Y89.78 E.02856
G1 X72.244 Y89.103 E.03026
G1 X71.915 Y88.64 E.01781
G1 X71.458 Y87.18 E.04797
G1 X71.458 Y78.872 E.26049
G1 X71.73 Y77.804 E.03456
G1 X72.18 Y77.012 E.02856
G1 X72.726 Y76.457 E.02441
M204 S1000
G1 X72.992 Y76.722 F6000
M204 S800
G1 F1200
G1 X73.111 Y76.602 E.0053
G1 X73.512 Y76.321 E.01535
G1 X74.809 Y75.915 E.04261
G1 X83.255 Y75.919 E.26482
G1 X83.936 Y76.055 E.02177
G1 X84.627 Y76.359 E.02367
G1 X85.407 Y77.008 E.03181
G1 X85.944 Y77.816 E.03042
G1 X86.223 Y78.741 E.03029
G1 X86.245 Y87.143 E.26344
G1 X85.992 Y88.115 E.03149
G1 X85.587 Y88.817 E.02541
G1 X84.969 Y89.438 E.02747
G1 X84.568 Y89.719 E.01535
G1 X83.272 Y90.125 E.04258
G1 X74.817 Y90.125 E.2651
G1 X73.845 Y89.872 E.03149
G1 X73.143 Y89.467 E.02541
G1 X72.522 Y88.849 E.02747
G1 X72.241 Y88.448 E.01535
G1 X71.835 Y87.152 E.04258
G1 X71.835 Y78.897 E.25883
G1 X72.088 Y77.925 E.03149
G1 X72.493 Y77.223 E.02541
G1 X72.95 Y76.764 E.02031
M204 S1000
G1 X73.22 Y77.072 F6000
M204 S800
G1 F1200
G1 X73.703 Y76.647 E.02017
G1 X74.838 Y76.292 E.03729
G1 X83.235 Y76.296 E.26328
G1 X83.839 Y76.42 E.01933
G1 X84.448 Y76.692 E.02091
G1 X85.142 Y77.278 E.02848
G1 X85.613 Y77.998 E.02698
G1 X85.854 Y78.82 E.02686
G1 X85.868 Y87.118 E.26018
G1 X85.635 Y87.992 E.02836
G1 X85.275 Y88.603 E.02224
G1 X84.716 Y89.158 E.0247
G1 X84.377 Y89.393 E.01293
G1 X83.243 Y89.748 E.03726
G1 X74.842 Y89.748 E.26341
G1 X73.968 Y89.515 E.02836
G1 X73.357 Y89.155 E.02224
G1 X72.802 Y88.596 E.0247
G1 X72.567 Y88.257 E.01293
G1 X72.212 Y87.123 E.03726
G1 X72.212 Y78.922 E.25714
G1 X72.445 Y78.048 E.02836
G1 X72.805 Y77.437 E.02224
G1 X73.175 Y77.111 E.01546
M204 S1000
G1 X73.417 Y77.389 F6000
M204 S800
G1 F1200
G1 X73.892 Y76.974 E.01978
G1 X74.866 Y76.669 E.032
G1 X83.215 Y76.673 E.26178
G1 X83.739 Y76.784 E.01679
G1 X84.267 Y77.024 E.01819
G1 X84.874 Y77.545 E.02508
G1 X85.28 Y78.176 E.02353
G1 X85.484 Y78.897 E.02349
G1 X85.491 Y87.092 E.25695
G1 X85.279 Y87.866 E.02516
G1 X84.965 Y88.387 E.01907
G1 X84.188 Y89.066 E.03235
G1 X83.214 Y89.371 E.032
G1 X74.868 Y89.371 E.26168
G1 X74.094 Y89.159 E.02516
G1 X73.573 Y88.845 E.01907
G1 X72.894 Y88.068 E.03235
G1 X72.589 Y87.094 E.032
G1 X72.589 Y78.948 E.25541
G1 X72.801 Y78.174 E.02516
G1 X73.115 Y77.653 E.01907
G1 X73.372 Y77.428 E.01071
M204 S1000
G1 X73.614 Y77.707 F6000
M204 S800
G1 F1200
G1 X74.08 Y77.302 E.01936
G1 X74.895 Y77.046 E.02678
G1 X83.194 Y77.05 E.26021
G1 X83.637 Y77.147 E.01422
G1 X84.083 Y77.354 E.01542
G1 X84.606 Y77.811 E.02178
G1 X84.925 Y78.306 E.01846
G1 X85.114 Y78.975 E.0218
G1 X85.114 Y87.065 E.25366
G1 X84.924 Y87.736 E.02187
G1 X84.658 Y88.167 E.01588
G1 X84.216 Y88.592 E.01923
G1 X84 Y88.738 E.00817
G1 X83.185 Y88.994 E.02678
G1 X74.895 Y88.994 E.25993
G1 X74.224 Y88.804 E.02187
G1 X73.793 Y88.538 E.01588
G1 X73.368 Y88.096 E.01923
G1 X73.222 Y87.88 E.00817
G1 X72.966 Y87.065 E.02678
G1 X72.966 Y78.975 E.25366
G1 X73.156 Y78.304 E.02187
G1 X73.422 Y77.873 E.01588
G1 X73.568 Y77.746 E.00607
M204 S1000
G1 X73.809 Y78.025 F6000
M204 S800
G1 F1200
G1 X74.265 Y77.632 E.01887
G1 X74.924 Y77.423 E.02168
G1 X83.171 Y77.427 E.25858
G1 X83.896 Y77.682 E.0241
G1 X84.336 Y78.074 E.01848
G1 X84.571 Y78.44 E.01364
G1 X84.737 Y79.003 E.0184
G1 X84.737 Y87.037 E.2519
G1 X84.57 Y87.602 E.01847
G1 X84.354 Y87.944 E.01268
G1 X83.815 Y88.408 E.0223
G1 X83.156 Y88.617 E.02168
G1 X74.923 Y88.617 E.25814
G1 X74.358 Y88.45 E.01847
G1 X74.016 Y88.234 E.01268
G1 X73.552 Y87.695 E.0223
G1 X73.343 Y87.036 E.02168
G1 X73.343 Y79.003 E.25187
G1 X73.51 Y78.438 E.01847
G1 X73.726 Y78.096 E.01268
G1 X73.763 Y78.064 E.00153
M204 S1000
G1 X74.027 Y78.324 F6000
M204 S800
G1 F1200
G1 X74.447 Y77.963 E.01736
G1 X74.953 Y77.8 E.01667
G1 X83.149 Y77.804 E.25698
G1 X83.708 Y78.011 E.01869
G1 X84.063 Y78.335 E.01507
G1 X84.36 Y79.032 E.02376
G1 X84.36 Y87.008 E.25008
G1 X84.219 Y87.463 E.01494
G1 X83.728 Y88.016 E.02319
G1 X83.127 Y88.24 E.02011
G1 X74.952 Y88.24 E.25632
G1 X74.497 Y88.099 E.01494
G1 X73.944 Y87.608 E.02319
G1 X73.72 Y87.007 E.02011
G1 X73.72 Y79.032 E.25005
G1 X73.861 Y78.577 E.01494
G1 X73.994 Y78.375 E.00758
M204 S1000
G1 X74.3 Y78.586 F6000
M204 S800
G1 F1200
G1 X74.623 Y78.296 E.01361
G1 X74.984 Y78.177 E.01192
G1 X83.127 Y78.181 E.25532
G1 X83.518 Y78.338 E.01321
G1 X83.787 Y78.593 E.01162
G1 X83.983 Y79.064 E.016
G1 X83.983 Y86.976 E.24808
G1 X83.78 Y87.454 E.01628
G1 X83.457 Y87.744 E.01361
G1 X83.096 Y87.863 E.01192
G1 X74.984 Y87.863 E.25435
G1 X74.506 Y87.66 E.01628
G1 X74.216 Y87.337 E.01361
G1 X74.097 Y86.976 E.01192
G1 X74.097 Y79.064 E.24808
G1 X74.276 Y78.641 E.0144
M204 S1000
G1 X74.572 Y78.848 F6000
M204 S800
G1 F1200
G1 X74.806 Y78.631 E.01001
G1 X75.019 Y78.554 E.0071
G1 X83.075 Y78.554 E.25259
G1 X83.506 Y78.845 E.01631
G1 X83.606 Y79.099 E.00856
G1 X83.606 Y86.941 E.24588
G1 X83.508 Y87.192 E.00845
G1 X83.274 Y87.409 E.01001
G1 X83.061 Y87.486 E.0071
G1 X75.019 Y87.486 E.25215
G1 X74.768 Y87.388 E.00845
G1 X74.551 Y87.154 E.01001
G1 X74.474 Y86.941 E.0071
G1 X74.474 Y79.099 E.24588
G1 X74.55 Y78.904 E.00656
M204 S1000
G1 X74.853 Y79.139 F6000
M204 S800
G1 F1200
G1 X74.992 Y78.96 E.00711
G1 X83.088 Y78.96 E.25384
G1 X83.229 Y79.141 E.00719
G1 X83.229 Y86.899 E.24325
G1 X83.088 Y87.08 E.00719
G1 X75.061 Y87.109 E.25168
G1 X74.88 Y86.968 E.00719
G1 X74.852 Y79.198 E.24362
M204 S1000
;WIPE_START
G1 F4800
G1 X74.853 Y79.139 E-.02453
G1 X74.992 Y78.96 E-.09419
G1 X77.112 Y78.96 E-.88128
;WIPE_END
G1 Z.4 F720
G1 X117.377 Y45.918 F6000
G1 Z.2 F720
M73 P2 R51
G1 E1 F2100
M204 S800
G1 F1200
G1 X116.902 Y45.264 E.02534
G1 X116.287 Y43.306 E.06435
G1 X116.287 Y34.842 E.26538
G1 X116.611 Y33.494 E.04347
G1 X117.191 Y32.433 E.03791
G1 X118.042 Y31.537 E.03875
G1 X118.697 Y31.062 E.02537
G1 X120.541 Y30.464 E.06078
G1 X129.326 Y30.454 E.27545
G1 X130.347 Y30.656 E.03263
G1 X131.288 Y31.059 E.0321
G1 X132.409 Y31.953 E.04496
G1 X133.216 Y33.104 E.04408
G1 X133.657 Y34.441 E.04414
G1 X133.714 Y43.274 E.27696
G1 X133.389 Y44.626 E.0436
G1 X132.809 Y45.687 E.03791
G1 X131.958 Y46.583 E.03875
G1 X131.304 Y47.058 E.02534
G1 X129.346 Y47.673 E.06435
G1 X120.682 Y47.673 E.27165
G1 X119.334 Y47.349 E.04347
G1 X118.273 Y46.769 E.03791
G1 X117.421 Y45.959 E.03686
M204 S1000
G1 X117.682 Y45.687 F6000
M204 S800
G1 F1200
G1 X117.651 Y45.658 E.00133
G1 X117.226 Y45.068 E.0228
G1 X116.664 Y43.278 E.05883
G1 X116.664 Y34.865 E.26378
G1 X116.971 Y33.609 E.04054
G1 X117.509 Y32.637 E.03483
G1 X118.302 Y31.811 E.0359
G1 X118.892 Y31.386 E.0228
G1 X120.627 Y30.832 E.05711
G1 X129.272 Y30.827 E.27106
G1 X130.218 Y31.01 E.03021
G1 X131.115 Y31.396 E.03062
G1 X132.151 Y32.229 E.04168
G1 X132.89 Y33.295 E.04067
G1 X133.289 Y34.529 E.04066
G1 X133.337 Y43.252 E.27351
G1 X133.029 Y44.511 E.04064
G1 X132.491 Y45.483 E.03483
G1 X131.698 Y46.309 E.0359
G1 X131.108 Y46.734 E.0228
G1 X129.318 Y47.296 E.05883
G1 X120.705 Y47.296 E.27005
G1 X119.449 Y46.989 E.04054
G1 X118.477 Y46.451 E.03483
G1 X117.725 Y45.729 E.03269
M204 S1000
G1 X117.987 Y45.459 F6000
M204 S800
G1 F1200
G1 X117.927 Y45.4 E.00264
G1 X117.55 Y44.874 E.02029
G1 X117.041 Y43.249 E.05339
G1 X117.041 Y34.888 E.26215
G1 X117.331 Y33.725 E.03758
G1 X117.825 Y32.844 E.03167
G1 X118.56 Y32.087 E.03308
G1 X119.086 Y31.71 E.02029
G1 X120.712 Y31.201 E.05342
G1 X129.253 Y31.204 E.2678
G1 X130.124 Y31.376 E.02784
G1 X130.94 Y31.731 E.0279
G1 X131.891 Y32.504 E.03843
G1 X132.563 Y33.485 E.03728
G1 X132.921 Y34.615 E.03717
G1 X132.959 Y43.23 E.27012
G1 X132.669 Y44.394 E.03761
M73 P2 R50
G1 X132.175 Y45.276 E.0317
G1 X131.44 Y46.033 E.03308
G1 X130.914 Y46.41 E.02029
G1 X129.289 Y46.919 E.05339
G1 X120.728 Y46.919 E.26842
G1 X119.565 Y46.629 E.03758
G1 X118.684 Y46.135 E.03167
G1 X118.03 Y45.501 E.02856
M204 S1000
G1 X118.294 Y45.232 F6000
M204 S800
G1 F1200
G1 X118.204 Y45.143 E.00397
G1 X117.875 Y44.68 E.01781
G1 X117.418 Y43.22 E.04797
G1 X117.418 Y34.912 E.26049
G1 X117.69 Y33.844 E.03456
G1 X118.14 Y33.052 E.02856
G1 X118.817 Y32.364 E.03026
G1 X119.28 Y32.035 E.01781
G1 X120.74 Y31.578 E.04797
G1 X129.234 Y31.581 E.26632
G1 X130.029 Y31.742 E.02543
G1 X130.764 Y32.065 E.02517
G1 X131.63 Y32.777 E.03515
G1 X132.234 Y33.671 E.03383
G1 X132.552 Y34.699 E.03374
G1 X132.582 Y43.207 E.26676
G1 X132.31 Y44.276 E.03459
G1 X131.86 Y45.068 E.02856
G1 X131.183 Y45.756 E.03026
G1 X130.72 Y46.085 E.01781
G1 X129.26 Y46.542 E.04797
G1 X120.752 Y46.542 E.26676
G1 X119.684 Y46.27 E.03456
G1 X118.892 Y45.82 E.02856
G1 X118.337 Y45.274 E.02441
M204 S1000
G1 X118.602 Y45.008 F6000
M204 S800
G1 F1200
G1 X118.482 Y44.889 E.0053
G1 X118.201 Y44.488 E.01535
G1 X117.795 Y43.192 E.04258
G1 X117.795 Y34.937 E.25883
G1 X118.048 Y33.965 E.03149
G1 X118.453 Y33.263 E.02541
G1 X119.071 Y32.642 E.02747
G1 X119.472 Y32.361 E.01535
G1 X120.769 Y31.955 E.04261
G1 X129.215 Y31.959 E.26482
G1 X129.896 Y32.095 E.02177
G1 X130.587 Y32.399 E.02367
G1 X131.367 Y33.048 E.03181
G1 X131.904 Y33.856 E.03042
G1 X132.183 Y34.781 E.03029
G1 X132.205 Y43.183 E.26344
G1 X131.952 Y44.155 E.03149
G1 X131.547 Y44.857 E.02541
G1 X130.929 Y45.478 E.02747
G1 X130.528 Y45.759 E.01535
G1 X129.232 Y46.165 E.04258
G1 X120.777 Y46.165 E.2651
G1 X119.805 Y45.912 E.03149
G1 X119.103 Y45.507 E.02541
G1 X118.644 Y45.05 E.02031
M204 S1000
G1 X118.911 Y44.786 F6000
M204 S800
G1 F1200
G1 X118.762 Y44.636 E.00663
G1 X118.527 Y44.297 E.01293
G1 X118.172 Y43.163 E.03726
G1 X118.172 Y34.962 E.25714
G1 X118.405 Y34.088 E.02836
G1 X118.765 Y33.477 E.02224
G1 X119.663 Y32.687 E.0375
G1 X120.798 Y32.332 E.03729
G1 X129.195 Y32.336 E.26328
G1 X129.799 Y32.46 E.01933
G1 X130.408 Y32.732 E.02091
G1 X131.102 Y33.318 E.02848
G1 X131.573 Y34.038 E.02698
G1 X131.814 Y34.86 E.02686
G1 X131.828 Y43.158 E.26018
G1 X131.595 Y44.032 E.02836
G1 X131.235 Y44.643 E.02224
G1 X130.676 Y45.198 E.0247
G1 X130.337 Y45.433 E.01293
G1 X129.203 Y45.788 E.03726
G1 X120.802 Y45.788 E.26341
G1 X119.928 Y45.555 E.02836
G1 X119.317 Y45.195 E.02224
G1 X118.953 Y44.828 E.01621
M204 S1000
G1 X119.254 Y44.566 F6000
M204 S800
G1 F1200
G1 X118.854 Y44.108 E.01907
G1 X118.549 Y43.134 E.032
G1 X118.549 Y34.988 E.25541
G1 X118.761 Y34.214 E.02516
