; generated by PrusaSlicer 2.9.4 on 2026-03-05 at 15:24:34 UTC


;
;

;
;
; 

; external perimeters extrusion width = 0.45mm
; perimeters extrusion width = 0.45mm
; infill extrusion width = 0.45mm
; solid infill extrusion width = 0.45mm
; top infill extrusion width = 0.40mm
; first layer extrusion width = 0.42mm

M73 P0 R89
M201 X9000 Y9000 Z500 E10000 ; sets maximum accelerations, mm/sec^2
M203 X500 Y500 Z12 E120 ; sets maximum feedrates, mm / sec
M204 S2000 T1500 ; sets acceleration (S) and retract acceleration (R), mm/sec^2
M205 X10.00 Y10.00 Z0.20 E4.50 ; sets the jerk limits, mm/sec
M205 S0 T0 ; sets the minimum extruding and travel feed rate, mm/sec

; printing object Anchor_SKR_Bear_Long.stl id:0 copy 0
; stop printing object Anchor_SKR_Bear_Long.stl id:0 copy 0

;TYPE:Custom
M83  ; extruder relative mode
M140 S85 ; set bed temp
M109 S160 ; Set extruder temp before bed level
M190 S85 ; wait for bed temp

G28 W ; home all without mesh bed level
G80 N7 ; mesh bed leveling

M109 S240 ; wait for extruder temp

M221 S100 ; Set flow to 100

G1 Y-3.0 F1000.0 ; go outside print area
G92 E0.0
G1 E8 ; Purge Bubble
G1 X60.0 E9.0 F1000.0 ; intro line
G1 X100.0 E12.5 F1000.0 ; intro line
G92 E0.0
G21 ; set units to millimeters
G90 ; use absolute coordinates
M83 ; use relative distances for extrusion

M900 K0.08 ; Filament gcode LA 1.5
M900 K45 ; Filament gcode LA 1.0




M107
;LAYER_CHANGE
;Z:0.2
;HEIGHT:0.2
G1 E-1 F2100
G1 Z.4 F720
G1 X44.253 Y79.943 F6000
G1 Z.2 F720
G1 E1 F2100
M204 S800
;TYPE:Skirt/Brim
;WIDTH:0.42
G1 F1200
G1 X45 Y79.811 E.02378
G1 X214.5 Y79.811 E5.31455
G1 X215.748 Y80.202 E.04101
G1 X216.649 Y81.585 E.05175
G1 X219.689 Y97.529 E.50892
G1 X219.689 Y128.5 E.97107
G1 X219.298 Y129.748 E.04101
G1 X218.265 Y130.551 E.04102
G1 X217.5 Y130.689 E.02437
G1 X33 Y130.689 E5.78487
G1 X31.452 Y130.048 E.05253
G1 X30.952 Y129.548 E.02217
G1 X30.311 Y128 E.05253
G1 X30.311 Y108.1 E.62395
G1 X30.521 Y107.165 E.03005
G1 X42.521 Y81.772 E.88061
G1 X43.213 Y80.736 E.03906
G1 X44.205 Y79.979 E.03913
M204 S1000
;WIPE_START
G1 F4800
G1 X44.253 Y79.943 E-.02494
G1 X45 Y79.811 E-.31528
G1 X46.587 Y79.811 E-.65978
;WIPE_END
G1 Z.4 F720
; printing object Anchor_SKR_Bear_Long.stl id:0 copy 0
G1 X118.397 Y116.033 F6000
G1 Z.2 F720
G1 E1 F2100
M204 S800
;TYPE:Perimeter
;WIDTH:0.419999
G1 F1200
G1 X118.64 Y115.597 E.01565
G1 X118.981 Y115.163 E.01731
G1 X119.41 Y114.774 E.01816
G1 X119.875 Y114.473 E.01737
G1 X120.394 Y114.248 E.01774
G1 X120.894 Y114.118 E.0162
G1 X121.433 Y114.066 E.01698
G1 X122.015 Y114.103 E.01829
G1 X122.542 Y114.226 E.01697
G1 X123.045 Y114.431 E.01703
G1 X123.538 Y114.734 E.01814
G1 X123.956 Y115.098 E.01738
G1 X124.309 Y115.522 E.0173
G1 X124.577 Y115.972 E.01642
G1 X124.789 Y116.507 E.01804
G1 X124.906 Y117.05 E.01742
G1 X124.934 Y117.6 E.01727
G1 X124.874 Y118.149 E.01732
G1 X124.735 Y118.655 E.01645
G1 X124.498 Y119.178 E.018
G1 X124.189 Y119.639 E.0174
G1 X123.789 Y120.06 E.01821
G1 X123.375 Y120.38 E.01641
G1 X122.893 Y120.641 E.01719
G1 X122.358 Y120.827 E.01776
G1 X121.803 Y120.922 E.01765
G1 X121.241 Y120.925 E.01762
G1 X120.73 Y120.849 E.0162
G1 X120.214 Y120.685 E.01698
G1 X119.705 Y120.43 E.01785
G1 X119.256 Y120.102 E.01743
G1 X118.868 Y119.71 E.01729
G1 X118.535 Y119.234 E.01821
G1 X118.305 Y118.765 E.01638
G1 X118.144 Y118.238 E.01728
G1 X118.069 Y117.691 E.01731
G1 X118.083 Y117.14 E.01728
G1 X118.193 Y116.57 E.0182
G1 X118.37 Y116.086 E.01616
M204 S1000
G1 X118.735 Y116.192 F6000
M204 S800
;TYPE:External perimeter
G1 F1200
G1 X118.738 Y116.184 E.00027
G1 X118.984 Y115.759 E.0154
G1 X119.296 Y115.378 E.01544
G1 X119.673 Y115.045 E.01577
G1 X120.103 Y114.778 E.01587
G1 X120.566 Y114.587 E.0157
G1 X121.013 Y114.479 E.01442
G1 X121.495 Y114.441 E.01516
G1 X121.996 Y114.48 E.01576
G1 X122.48 Y114.602 E.01565
G1 X122.925 Y114.793 E.01518
G1 X123.349 Y115.062 E.01574
G1 X123.726 Y115.401 E.0159
G1 X124.033 Y115.783 E.01537
G1 X124.263 Y116.188 E.0146
G1 X124.443 Y116.661 E.01587
G1 X124.54 Y117.154 E.01575
G1 X124.556 Y117.645 E.0154
G1 X124.494 Y118.132 E.01539
G1 X124.362 Y118.578 E.01458
G1 X124.141 Y119.046 E.01623
G1 X123.858 Y119.45 E.01547
G1 X123.498 Y119.816 E.0161
G1 X123.123 Y120.094 E.01464
G1 X122.69 Y120.319 E.0153
G1 X122.212 Y120.476 E.01578
G1 X121.715 Y120.552 E.01576
G1 X121.215 Y120.545 E.01568
G1 X120.762 Y120.469 E.0144
G1 X120.304 Y120.316 E.01514
G1 X119.851 Y120.078 E.01604
G1 X119.46 Y119.781 E.0154
G1 X119.12 Y119.424 E.01546
G1 X118.833 Y118.997 E.01613
G1 X118.635 Y118.575 E.01462
G1 X118.506 Y118.132 E.01447
G1 X118.442 Y117.629 E.0159
G1 X118.464 Y117.123 E.01588
G1 X118.568 Y116.626 E.01592
G1 X118.713 Y116.248 E.01269
M204 S1000
;WIPE_START
G1 F4800
G1 X118.735 Y116.192 E-.02501
G1 X118.738 Y116.184 E-.00355
G1 X118.984 Y115.759 E-.2041
G1 X119.296 Y115.378 E-.20467
G1 X119.673 Y115.045 E-.20906
G1 X120.103 Y114.778 E-.21037
G1 X120.422 Y114.647 E-.14324
;WIPE_END
G1 Z.4 F720
G1 X91.458 Y99.333 F6000
G1 Z.2 F720
G1 E1 F2100
M204 S800
;TYPE:Perimeter
G1 F1200
G1 X91.162 Y99.739 E.01575
G1 X90.77 Y100.128 E.01732
G1 X90.296 Y100.462 E.01818
G1 X89.805 Y100.701 E.01712
G1 X89.308 Y100.852 E.01629
G1 X88.758 Y100.929 E.01741
G1 X88.196 Y100.917 E.01763
G1 X87.637 Y100.81 E.01785
G1 X87.129 Y100.626 E.01694
G1 X86.648 Y100.357 E.01728
G1 X86.215 Y100.015 E.0173
G1 X85.843 Y99.608 E.01729
G1 X85.528 Y99.121 E.01819
G1 X85.316 Y98.641 E.01645
G1 X85.179 Y98.123 E.0168
G1 X85.121 Y97.561 E.01771
G1 X85.16 Y96.983 E.01816
G1 X85.285 Y96.454 E.01704
G1 X85.498 Y95.934 E.01762
G1 X85.788 Y95.465 E.01729
G1 X86.131 Y95.067 E.01647
G1 X86.57 Y94.696 E.01802
G1 X87.048 Y94.413 E.01742
G1 X87.55 Y94.215 E.01692
G1 X88.122 Y94.093 E.01834
G1 X88.64 Y94.065 E.01627
G1 X89.178 Y94.122 E.01696
G1 X89.718 Y94.267 E.01753
G1 X90.241 Y94.506 E.01803
G1 X90.7 Y94.815 E.01735
G1 X91.102 Y95.193 E.0173
G1 X91.439 Y95.63 E.0173
G1 X91.689 Y96.092 E.01647
G1 X91.881 Y96.632 E.01797
G1 X91.978 Y97.178 E.01739
G1 X91.985 Y97.731 E.01734
G1 X91.895 Y98.305 E.01822
G1 X91.736 Y98.802 E.01636
G1 X91.492 Y99.284 E.01694
M204 S1000
G1 X91.143 Y99.133 F6000
M204 S800
;TYPE:External perimeter
G1 F1200
G1 X91.137 Y99.144 E.00039
G1 X90.84 Y99.536 E.01542
G1 X90.484 Y99.876 E.01543
G1 X90.066 Y100.161 E.01586
G1 X89.617 Y100.37 E.01553
G1 X89.175 Y100.496 E.01441
G1 X88.679 Y100.557 E.01567
G1 X88.178 Y100.536 E.01572
G1 X87.683 Y100.432 E.01586
G1 X87.236 Y100.26 E.01502
G1 X86.811 Y100.013 E.01541
G1 X86.375 Y99.638 E.01803
G1 X86.106 Y99.332 E.01277
G1 X85.839 Y98.906 E.01576
G1 X85.624 Y98.348 E.01875
G1 X85.536 Y97.988 E.01162
G1 X85.497 Y97.506 E.01516
G1 X85.538 Y96.998 E.01598
G1 X85.663 Y96.506 E.01592
G1 X85.867 Y96.044 E.01583
G1 X86.124 Y95.643 E.01493
G1 X86.603 Y95.158 E.02137
G1 X86.898 Y94.934 E.01161
G1 X87.263 Y94.727 E.01316
G1 X87.713 Y94.559 E.01506
G1 X88.225 Y94.459 E.01636
G1 X88.685 Y94.443 E.01443
G1 X89.163 Y94.502 E.0151
G1 X89.645 Y94.641 E.01573
G1 X90.106 Y94.862 E.01603
G1 X90.509 Y95.144 E.01542
G1 X90.861 Y95.487 E.01541
G1 X91.153 Y95.881 E.01538
G1 X91.367 Y96.293 E.01456
G1 X91.529 Y96.769 E.01577
G1 X91.608 Y97.269 E.01587
G1 X91.605 Y97.763 E.01549
G1 X91.52 Y98.258 E.01575
G1 X91.367 Y98.71 E.01496
G1 X91.171 Y99.08 E.01313
M204 S1000
;WIPE_START
G1 F4800
G1 X91.143 Y99.133 E-.02491
G1 X91.137 Y99.144 E-.00521
G1 X90.84 Y99.536 E-.20441
G1 X90.484 Y99.876 E-.2046
G1 X90.066 Y100.161 E-.21027
G1 X89.617 Y100.37 E-.20584
G1 X89.282 Y100.465 E-.14476
;WIPE_END
G1 Z.4 F720
G1 X80.453 Y86.497 F6000
G1 Z.2 F720
G1 E1 F2100
M204 S800
G1 F1200
G1 X80.4 Y86.567 E.00275
G1 X79.967 Y86.922 E.01756
G1 X79.636 Y87.077 E.01146
G1 X79.314 Y87.16 E.01043
G1 X78.982 Y87.187 E.01044
G1 X78.565 Y87.132 E.01319
G1 X78.057 Y86.939 E.01704
G1 X77.758 Y86.729 E.01146
G1 X77.524 Y86.492 E.01044
G1 X77.336 Y86.217 E.01044
G1 X77.198 Y85.914 E.01044
G1 X77.114 Y85.592 E.01043
G1 X77.088 Y85.26 E.01044
G1 X77.12 Y84.929 E.01043
G1 X77.209 Y84.608 E.01044
G1 X77.352 Y84.307 E.01045
G1 X77.545 Y84.036 E.01043
G1 X77.783 Y83.803 E.01044
G1 X78.057 Y83.614 E.01044
G1 X78.375 Y83.473 E.01091
;WIDTH:0.466923
G1 X78.643 Y83.399 E.0098
;WIDTH:0.513846
G1 X78.912 Y83.326 E.01091
;WIDTH:0.530621
G1 X79.36 Y83.345 E.01818
G1 X79.553 Y83.434 E.00862
;WIDTH:0.493747
G1 X79.746 Y83.524 E.00798
;WIDTH:0.456873
G1 X79.939 Y83.614 E.00733
;WIDTH:0.419999
G1 X80.238 Y83.824 E.01146
G1 X80.472 Y84.061 E.01044
G1 X80.661 Y84.336 E.01046
G1 X80.799 Y84.639 E.01044
G1 X80.882 Y84.961 E.01043
G1 X80.908 Y85.293 E.01044
G1 X80.876 Y85.624 E.01043
G1 X80.787 Y85.945 E.01044
G1 X80.644 Y86.246 E.01045
G1 X80.489 Y86.45 E.00803
M204 S1000
;WIPE_START
G1 F4800
G1 X80.453 Y86.497 E-.02461
G1 X80.4 Y86.567 E-.03649
G1 X79.967 Y86.922 E-.23272
G1 X79.636 Y87.077 E-.15191
G1 X79.314 Y87.16 E-.13821
G1 X78.982 Y87.187 E-.13844
G1 X78.565 Y87.132 E-.17482
G1 X78.334 Y87.044 E-.1028
;WIPE_END
G1 Z.4 F720
G1 X78.989 Y120.993 F6000
G1 Z.2 F720
G1 E1 F2100
M204 S800
;TYPE:Perimeter
G1 F1200
G1 X79.35 Y121.006 E.01133
G1 X79.818 Y121.133 E.0152
G1 X80.175 Y121.309 E.01248
G1 X80.496 Y121.545 E.01249
G1 X80.841 Y121.931 E.01623
G1 X81.121 Y122.436 E.0181
G1 X81.249 Y122.916 E.01558
G1 X81.275 Y123.313 E.01247
G1 X81.232 Y123.71 E.01252
G1 X81.121 Y124.092 E.01247
G1 X80.944 Y124.45 E.01252
G1 X80.709 Y124.771 E.01247
G1 X80.421 Y125.047 E.01251
G1 X80.09 Y125.268 E.01248
G1 X79.725 Y125.429 E.01251
G1 X79.338 Y125.524 E.01249
G1 X78.94 Y125.55 E.01251
G1 X78.544 Y125.507 E.01249
G1 X78.161 Y125.395 E.01251
G1 X77.804 Y125.219 E.01248
G1 X77.482 Y124.983 E.01252
G1 X77.207 Y124.696 E.01246
G1 X76.985 Y124.364 E.01252
G1 X76.825 Y124 E.01247
G1 X76.73 Y123.612 E.01252
G1 X76.704 Y123.215 E.01247
G1 X76.747 Y122.819 E.01249
G1 X76.858 Y122.436 E.0125
G1 X77.018 Y122.103 E.01158
G1 X77.27 Y121.757 E.01342
G1 X77.621 Y121.438 E.01487
G1 X77.889 Y121.26 E.01009
G1 X78.298 Y121.089 E.0139
G1 X78.847 Y120.989 E.0175
G1 X78.93 Y120.991 E.0026
M204 S1000
G1 X78.989 Y121.365 F6000
M204 S800
;TYPE:External perimeter
G1 F1200
G1 X79.337 Y121.386 E.01093
G1 X79.658 Y121.475 E.01044
G1 X79.959 Y121.618 E.01045
G1 X80.23 Y121.811 E.01043
G1 X80.532 Y122.148 E.01419
G1 X80.779 Y122.595 E.01601
G1 X80.873 Y122.949 E.01148
G1 X80.9 Y123.281 E.01044
G1 X80.868 Y123.612 E.01043
G1 X80.779 Y123.933 E.01044
G1 X80.635 Y124.233 E.01043
G1 X80.442 Y124.504 E.01043
G1 X80.205 Y124.738 E.01044
G1 X79.93 Y124.927 E.01046
G1 X79.627 Y125.065 E.01044
G1 X79.305 Y125.148 E.01043
G1 X78.973 Y125.174 E.01044
G1 X78.642 Y125.142 E.01043
G1 X78.321 Y125.053 E.01044
G1 X78.02 Y124.91 E.01045
G1 X77.749 Y124.717 E.01043
G1 X77.516 Y124.479 E.01044
G1 X77.327 Y124.205 E.01044
G1 X77.189 Y123.902 E.01044
G1 X77.105 Y123.58 E.01043
G1 X77.079 Y123.248 E.01044
G1 X77.111 Y122.916 E.01046
G1 X77.2 Y122.595 E.01044
G1 X77.338 Y122.303 E.01013
G1 X77.537 Y122.024 E.01075
G1 X77.837 Y121.746 E.01282
G1 X78.321 Y121.475 E.01739
G1 X78.912 Y121.36 E.01888
G1 X78.93 Y121.361 E.00057
M204 S1000
;WIPE_START
G1 F4800
G1 X78.989 Y121.365 E-.02458
G1 X79.337 Y121.386 E-.1449
G1 X79.658 Y121.475 E-.13845
G1 X79.959 Y121.618 E-.1385
G1 X80.23 Y121.811 E-.13828
G1 X80.532 Y122.148 E-.18808
G1 X80.779 Y122.595 E-.21226
G1 X80.788 Y122.63 E-.01495
;WIPE_END
G1 Z.4 F720
G1 X39.637 Y121.389 F6000
G1 Z.2 F720
G1 E1 F2100
M204 S800
;TYPE:Perimeter
G1 F1200
G1 X39.64 Y121.439 E.00157
G1 X39.597 Y121.835 E.01249
G1 X39.486 Y122.217 E.01247
G1 X39.309 Y122.575 E.01252
G1 X39.074 Y122.896 E.01247
G1 X38.786 Y123.172 E.01251
G1 X38.455 Y123.394 E.0125
G1 X38.09 Y123.554 E.0125
G1 X37.703 Y123.649 E.01249
G1 X37.305 Y123.675 E.01251
G1 X36.909 Y123.632 E.01249
G1 X36.526 Y123.52 E.01251
G1 X36.169 Y123.344 E.01248
G1 X35.814 Y123.072 E.01402
G1 X35.43 Y122.614 E.01874
G1 X35.19 Y122.125 E.01708
G1 X35.095 Y121.738 E.01249
G1 X35.069 Y121.34 E.01251
G1 X35.112 Y120.944 E.01249
G1 X35.223 Y120.561 E.0125
G1 X35.4 Y120.204 E.01249
G1 X35.635 Y119.882 E.0125
G1 X35.923 Y119.607 E.01249
G1 X36.254 Y119.385 E.0125
G1 X36.663 Y119.215 E.01389
G1 X37.209 Y119.115 E.0174
G1 X37.79 Y119.144 E.01824
G1 X38.183 Y119.258 E.01283
G1 X38.54 Y119.434 E.01248
G1 X38.862 Y119.67 E.01252
G1 X39.145 Y119.968 E.01289
G1 X39.359 Y120.289 E.0121
G1 X39.519 Y120.654 E.0125
G1 X39.614 Y121.041 E.01249
G1 X39.633 Y121.329 E.00905
M204 S1000
G1 X39.263 Y121.389 F6000
M204 S800
;TYPE:External perimeter
G1 F1200
G1 X39.265 Y121.406 E.00054
G1 X39.233 Y121.737 E.01043
G1 X39.144 Y122.058 E.01044
G1 X39 Y122.359 E.01046
G1 X38.807 Y122.63 E.01043
G1 X38.57 Y122.863 E.01042
G1 X38.295 Y123.052 E.01046
G1 X37.992 Y123.19 E.01044
G1 X37.67 Y123.273 E.01043
G1 X37.338 Y123.299 E.01044
G1 X37.007 Y123.268 E.01042
G1 X36.686 Y123.179 E.01044
G1 X36.385 Y123.035 E.01046
G1 X36.103 Y122.83 E.01093
G1 X35.719 Y122.372 E.01874
G1 X35.554 Y122.027 E.01199
G1 X35.471 Y121.705 E.01043
G1 X35.444 Y121.373 E.01044
G1 X35.476 Y121.041 E.01046
G1 X35.565 Y120.721 E.01041
G1 X35.708 Y120.42 E.01045
G1 X35.902 Y120.149 E.01045
G1 X36.139 Y119.916 E.01042
G1 X36.414 Y119.727 E.01046
G1 X36.731 Y119.585 E.01089
G1 X37.277 Y119.485 E.0174
G1 X37.702 Y119.511 E.01335
G1 X38.023 Y119.6 E.01044
G1 X38.324 Y119.743 E.01045
G1 X38.595 Y119.937 E.01045
G1 X38.836 Y120.185 E.01084
G1 X39.017 Y120.449 E.01004
G1 X39.155 Y120.751 E.01041
G1 X39.238 Y121.074 E.01046
G1 X39.259 Y121.329 E.00802
M204 S1000
;WIPE_START
G1 F4800
G1 X39.263 Y121.389 E-.02499
G1 X39.265 Y121.406 E-.00711
G1 X39.233 Y121.737 E-.13821
G1 X39.144 Y122.058 E-.13845
G1 X39 Y122.359 E-.13868
G1 X38.807 Y122.63 E-.13828
G1 X38.57 Y122.863 E-.13813
G1 X38.295 Y123.052 E-.13869
G1 X37.994 Y123.189 E-.13746
;WIPE_END
G1 Z.4 F720
G1 X160.228 Y98.056 F6000
G1 Z.2 F720
G1 E1 F2100
M204 S800
;TYPE:Perimeter
G1 F1200
G1 X160.184 Y97.561 E.01558
G1 X160.223 Y96.983 E.01816
G1 X160.35 Y96.443 E.01739
G1 X160.561 Y95.934 E.01728
G1 X160.851 Y95.465 E.01729
G1 X161.194 Y95.067 E.01647
G1 X161.633 Y94.696 E.01802
G1 X162.11 Y94.413 E.01739
G1 X162.612 Y94.215 E.01692
G1 X163.185 Y94.093 E.01837
G1 X163.703 Y94.065 E.01627
G1 X164.241 Y94.122 E.01696
G1 X164.781 Y94.267 E.01753
G1 X165.304 Y94.506 E.01803
G1 X165.763 Y94.815 E.01735
G1 X166.165 Y95.193 E.0173
G1 X166.501 Y95.63 E.01728
G1 X166.752 Y96.091 E.01646
G1 X166.944 Y96.632 E.018
G1 X167.04 Y97.178 E.01738
G1 X167.048 Y97.731 E.01734
G1 X166.958 Y98.305 E.01822
G1 X166.799 Y98.802 E.01636
G1 X166.55 Y99.294 E.01729
G1 X166.225 Y99.739 E.01728
G1 X165.833 Y100.128 E.01732
G1 X165.359 Y100.462 E.01818
G1 X164.867 Y100.701 E.01715
G1 X164.371 Y100.852 E.01626
G1 X163.82 Y100.929 E.01744
G1 X163.258 Y100.917 E.01763
G1 X162.749 Y100.82 E.01625
G1 X162.192 Y100.626 E.01849
G1 X161.711 Y100.357 E.01728
G1 X161.278 Y100.015 E.0173
G1 X160.906 Y99.608 E.01729
G1 X160.591 Y99.121 E.01819
G1 X160.378 Y98.641 E.01647
G1 X160.241 Y98.114 E.01707
M204 S1000
G1 X160.601 Y97.995 F6000
M204 S800
;TYPE:External perimeter
G1 F1200
G1 X160.599 Y97.988 E.00023
G1 X160.56 Y97.498 E.01541
G1 X160.602 Y96.993 E.01589
G1 X160.726 Y96.506 E.01576
G1 X160.922 Y96.056 E.01539
G1 X161.187 Y95.643 E.01539
G1 X161.497 Y95.297 E.01457
G1 X161.899 Y94.97 E.01625
G1 X162.326 Y94.727 E.0154
G1 X162.776 Y94.559 E.01506
G1 X163.288 Y94.459 E.01636
G1 X163.747 Y94.443 E.0144
G1 X164.337 Y94.533 E.01871
G1 X164.707 Y94.641 E.01209
G1 X165.164 Y94.859 E.01588
G1 X165.571 Y95.144 E.01558
G1 X165.923 Y95.487 E.01541
G1 X166.216 Y95.881 E.0154
G1 X166.43 Y96.293 E.01456
G1 X166.593 Y96.775 E.01595
G1 X166.671 Y97.269 E.01568
G1 X166.668 Y97.763 E.01549
G1 X166.583 Y98.259 E.01578
G1 X166.43 Y98.71 E.01493
G1 X166.2 Y99.144 E.0154
G1 X165.903 Y99.536 E.01542
G1 X165.547 Y99.876 E.01543
G1 X165.133 Y100.159 E.01572
G1 X164.679 Y100.37 E.0157
G1 X164.238 Y100.496 E.01438
G1 X163.741 Y100.557 E.0157
G1 X163.241 Y100.536 E.01569
G1 X162.746 Y100.432 E.01586
G1 X162.298 Y100.26 E.01505
G1 X161.874 Y100.013 E.01539
G1 X161.494 Y99.701 E.01542
G1 X161.169 Y99.332 E.01542
G1 X160.9 Y98.903 E.01588
G1 X160.717 Y98.47 E.01474
G1 X160.615 Y98.053 E.01346
