; generated by PrusaSlicer 2.9.4 on 2026-03-05 at 15:28:06 UTC


;
;

;
;
; 

; external perimeters extrusion width = 0.45mm
; perimeters extrusion width = 0.45mm
; infill extrusion width = 0.45mm
; solid infill extrusion width = 0.45mm
; top infill extrusion width = 0.40mm
; first layer extrusion width = 0.42mm

M73 P0 R3
M201 X9000 Y9000 Z500 E10000 ; sets maximum accelerations, mm/sec^2
M203 X500 Y500 Z12 E120 ; sets maximum feedrates, mm / sec
M204 S2000 T1500 ; sets acceleration (S) and retract acceleration (R), mm/sec^2
M205 X10.00 Y10.00 Z0.20 E4.50 ; sets the jerk limits, mm/sec
M205 S0 T0 ; sets the minimum extruding and travel feed rate, mm/sec

; printing object Bear_Logo_V2.stl id:0 copy 0
; stop printing object Bear_Logo_V2.stl id:0 copy 0

;TYPE:Custom
M83  ; extruder relative mode
M140 S85 ; set bed temp
M109 S160 ; Set extruder temp before bed level
M190 S85 ; wait for bed temp

G28 W ; home all without mesh bed level
G80 N7 ; mesh bed leveling

M109 S240 ; wait for extruder temp

M221 S100 ; Set flow to 100

G1 Y-3.0 F1000.0 ; go outside print area
G92 E0.0
G1 E8 ; Purge Bubble
G1 X60.0 E9.0 F1000.0 ; intro line
G1 X100.0 E12.5 F1000.0 ; intro line
M73 P2 R3
G92 E0.0
G21 ; set units to millimeters
G90 ; use absolute coordinates
M83 ; use relative distances for extrusion

M900 K0.08 ; Filament gcode LA 1.5
M900 K45 ; Filament gcode LA 1.0




M107
;LAYER_CHANGE
;Z:0.2
;HEIGHT:0.2
G1 E-1 F2100
M73 P3 R3
G1 Z.4 F720
G1 X115.124 Y88.622 F6000
G1 Z.2 F720
G1 E1 F2100
M204 S800
;TYPE:Skirt/Brim
;WIDTH:0.42
G1 F1200
G1 X116.057 Y87.48 E.04624
G1 X117.236 Y86.621 E.04574
G1 X118.558 Y86.082 E.04476
M73 P4 R3
G1 X119.909 Y85.854 E.04296
G1 X130.462 Y85.864 E.33088
G1 X131.303 Y86.031 E.02688
G1 X132.63 Y86.56 E.04479
G1 X133.816 Y87.41 E.04575
G1 X134.758 Y88.545 E.04625
G1 X135.071 Y89.106 E.02014
G1 X135.531 Y90.426 E.04383
G1 X136.875 Y103.583 E.41468
G1 X136.263 Y117.079 E.42359
G1 X136.18 Y118.097 E.03202
M73 P5 R3
G1 X135.84 Y119.522 E.04593
G1 X135.039 Y121.216 E.05875
G1 X134.197 Y122.319 E.04351
G1 X133.603 Y122.888 E.02579
G1 X132.546 Y123.6 E.03996
G1 X131.32 Y124.044 E.04088
G1 X130.63 Y124.141 E.02185
G1 X119.533 Y124.185 E.34794
G1 X118.247 Y123.929 E.04111
G1 X116.997 Y123.292 E.04399
G1 X116.551 Y122.956 E.01751
G1 X115.635 Y122.03 E.04084
G1 X114.869 Y120.905 E.04267
G1 X114.449 Y120.035 E.03029
G1 X113.936 Y118.185 E.06019
G1 X113.133 Y103.305 E.46723
G1 X114.228 Y91.467 E.37276
M73 P6 R3
G1 X114.516 Y89.946 E.04854
G1 X115.099 Y88.677 E.04379
M204 S1000
G1 X115.429 Y88.843 F6000
M204 S800
G1 F1200
G1 X116.295 Y87.773 E.04316
G1 X117.395 Y86.963 E.04283
G1 X118.635 Y86.451 E.04206
G1 X119.91 Y86.231 E.04057
G1 X130.389 Y86.234 E.32856
G1 X131.229 Y86.401 E.02685
M73 P7 R3
G1 X132.474 Y86.903 E.04209
G1 X133.58 Y87.704 E.04282
G1 X133.973 Y88.114 E.01781
G1 X134.721 Y89.247 E.04257
G1 X135.158 Y90.484 E.04113
G1 X135.286 Y91.301 E.02593
G1 X136.498 Y103.566 E.38643
G1 X135.888 Y117.048 E.42315
G1 X135.804 Y118.066 E.03203
G1 X135.476 Y119.424 E.0438
M73 P8 R3
G1 X134.732 Y120.997 E.05456
G1 X133.936 Y122.047 E.04131
G1 X133.342 Y122.616 E.02579
G1 X132.35 Y123.278 E.03739
G1 X131.217 Y123.681 E.0377
G1 X130.629 Y123.764 E.01862
G1 X119.532 Y123.808 E.34794
G1 X118.347 Y123.566 E.03792
G1 X117.19 Y122.968 E.04084
G1 X115.94 Y121.809 E.05345
G1 X115.208 Y120.741 E.0406
G1 X114.788 Y119.871 E.03029
G1 X114.311 Y118.152 E.05593
G1 X113.509 Y103.34 E.4651
G1 X114.603 Y91.502 E.37275
M73 P9 R3
G1 X114.867 Y90.084 E.04522
M73 P9 R2
G1 X115.405 Y88.898 E.04083
M204 S1000
;WIPE_START
G1 F4800
G1 X115.429 Y88.843 E-.02494
G1 X116.295 Y87.773 E-.57212
G1 X117.076 Y87.198 E-.40294
;WIPE_END
G1 Z.4 F720
; printing object Bear_Logo_V2.stl id:0 copy 0
G1 X118.833 Y100.362 F6000
G1 Z.2 F720
G1 E1 F2100
M204 S800
;TYPE:External perimeter
;WIDTH:0.419999
G1 F1200
G1 X118.888 Y100.342 E.00183
G1 X119.422 Y100.267 E.01691
G1 X120.01 Y100.314 E.0185
G1 X120.591 Y100.503 E.01916
G1 X121.143 Y100.836 E.02021
G1 X121.643 Y101.312 E.02165
G1 X122.021 Y101.858 E.02082
G1 X122.377 Y102.654 E.02734
G1 X122.539 Y103.352 E.02247
G1 X122.591 Y104.037 E.02154
G1 X122.545 Y104.714 E.02128
G1 X122.386 Y105.426 E.02287
G1 X122.118 Y106.082 E.02222
G1 X121.742 Y106.672 E.02194
G1 X121.313 Y107.129 E.01965
G1 X120.72 Y107.531 E.02246
G1 X120.208 Y107.739 E.01733
G1 X119.533 Y107.836 E.02138
G1 X119.005 Y107.786 E.01663
G1 X118.649 Y107.684 E.01161
G1 X118.122 Y107.404 E.01871
;WIDTH:0.430663
G1 X117.741 Y107.049 E.01679
G1 X117.396 Y106.55 E.01956
M73 P10 R2
;WIDTH:0.424947
G1 X116.992 Y105.782 E.02757
;WIDTH:0.414372
G1 X116.756 Y105.109 E.02203
;WIDTH:0.41799
G1 X116.644 Y104.564 E.01735
;WIDTH:0.420038
G1 X116.585 Y103.908 E.02065
;WIDTH:0.420185
G1 X116.634 Y103.183 E.02279
G1 X116.802 Y102.497 E.02216
;WIDTH:0.419223
G1 X117.103 Y101.796 E.02387
;WIDTH:0.437368
G1 X117.43 Y101.266 E.02043
G1 X117.823 Y100.878 E.01811
;WIDTH:0.419999
G1 X118.359 Y100.534 E.01997
G1 X118.777 Y100.382 E.01395
M204 S1000
;WIPE_START
G1 F4800
G1 X118.833 Y100.362 E-.02471
G1 X118.888 Y100.342 E-.02432
G1 X119.422 Y100.267 E-.22412
G1 X120.01 Y100.314 E-.24517
G1 X120.591 Y100.503 E-.25393
G1 X121.06 Y100.786 E-.22775
;WIPE_END
G1 Z.4 F720
G1 X127.961 Y101.85 F6000
G1 Z.2 F720
G1 E1 F2100
M204 S800
G1 F1200
G1 X128.175 Y101.508 E.01265
G1 X128.598 Y101.017 E.02032
G1 X129.035 Y100.677 E.01736
G1 X129.215 Y100.554 E.00684
G1 X129.767 Y100.324 E.01875
G1 X130.376 Y100.225 E.01935
G1 X130.967 Y100.267 E.01858
G1 X131.549 Y100.452 E.01915
G1 X132.038 Y100.734 E.0177
;WIDTH:0.436441
G1 X132.491 Y101.135 E.0198
G1 X132.799 Y101.578 E.01765
;WIDTH:0.426377
G1 X133.117 Y102.236 E.0233
;WIDTH:0.427083
G1 X133.317 Y102.873 E.02133
;WIDTH:0.430912
G1 X133.408 Y103.53 E.0214
;WIDTH:0.431194
G1 X133.395 Y104.221 E.02231
G1 X133.266 Y104.959 E.02419
;WIDTH:0.427805
G1 X133.174 Y105.327 E.01214
;WIDTH:0.407792
G1 X132.935 Y105.922 E.01945
;WIDTH:0.428041
G1 X132.616 Y106.5 E.02114
;WIDTH:0.457687
G1 X132.089 Y107.219 E.03074
G1 X131.635 Y107.521 E.01881
;WIDTH:0.419999
G1 X131.149 Y107.709 E.01634
G1 X130.577 Y107.792 E.01812
G1 X130.021 Y107.747 E.01749
G1 X129.485 Y107.57 E.0177
G1 X128.883 Y107.232 E.02165
G1 X128.412 Y106.791 E.02023
G1 X127.969 Y106.176 E.02376
G1 X127.649 Y105.459 E.02462
G1 X127.47 Y104.73 E.02354
G1 X127.413 Y104.045 E.02155
G1 X127.454 Y103.368 E.02127
G1 X127.608 Y102.655 E.02287
G1 X127.87 Y101.997 E.02221
G1 X127.929 Y101.901 E.00353
M204 S1000
;WIPE_START
G1 F4800
G1 X127.961 Y101.85 E-.02502
G1 X128.175 Y101.508 E-.16768
G1 X128.598 Y101.017 E-.26936
G1 X129.035 Y100.677 E-.23013
G1 X129.215 Y100.554 E-.09061
G1 X129.697 Y100.353 E-.2172
;WIPE_END
G1 Z.4 F720
G1 X128.528 Y96.581 F6000
M73 P11 R2
G1 Z.2 F720
G1 E1 F2100
M204 S800
G1 F1200
G1 X128.459 Y96.577 E.00217
G1 X128.19 Y96.503 E.00875
G1 X127.655 Y96.198 E.01931
;WIDTH:0.394603
G1 X127.265 Y95.88 E.01472
;WIDTH:0.419999
G1 X126.89 Y95.456 E.01775
G1 X126.713 Y95.088 E.0128
G1 X126.654 Y94.673 E.01314
G1 X126.663 Y94.448 E.00706
G1 X126.77 Y94.06 E.01262
G1 X126.915 Y93.781 E.00986
G1 X127.158 Y93.471 E.01235
G1 X127.421 Y93.244 E.01089
G1 X127.785 Y93.047 E.01298
G1 X128.022 Y92.961 E.00791
G1 X128.469 Y92.898 E.01415
G1 X128.846 Y92.93 E.01186
G1 X129.36 Y93.107 E.01704
G1 X129.732 Y93.357 E.01405
G1 X130.035 Y93.691 E.01414
G1 X130.201 Y93.974 E.01029
G1 X130.317 Y94.285 E.01041
G1 X130.376 Y94.62 E.01067
G1 X130.365 Y95.014 E.01236
G1 X130.216 Y95.54 E.01714
G1 X129.987 Y95.923 E.01399
G1 X129.711 Y96.209 E.01246
G1 X129.447 Y96.394 E.01011
G1 X129.136 Y96.533 E.01068
G1 X128.803 Y96.597 E.01063
G1 X128.588 Y96.584 E.00675
M204 S1000
G1 X128.448 Y96.96 F6000
M204 S800
;TYPE:Perimeter
G1 F1200
G1 X128.656 Y97.419 E.0158
G1 X128.741 Y97.917 E.01584
G1 X128.718 Y98.435 E.01626
G1 X128.561 Y98.995 E.01824
G1 X128.253 Y99.567 E.02037
G1 X127.906 Y99.974 E.01677
G1 X127.362 Y100.416 E.02198
G1 X126.689 Y100.783 E.02403
G1 X126.084 Y100.98 E.01995
G1 X125.366 Y101.097 E.02281
G1 X124.635 Y101.101 E.02292
G1 X123.904 Y100.992 E.02317
G1 X123.315 Y100.803 E.0194
G1 X122.63 Y100.46 E.02402
G1 X122.1 Y100.041 E.02118
G1 X121.692 Y99.562 E.01973
G1 X121.387 Y98.985 E.02046
G1 X121.257 Y98.453 E.01717
G1 X121.212 Y98.132 E.01016
G1 X121.248 Y97.629 E.01581
G1 X121.437 Y97.101 E.01758
G1 X121.496 Y96.988 E.004
G1 X121.06 Y96.997 E.01367
G1 X120.622 Y96.896 E.01409
G1 X120.147 Y96.649 E.01679
G1 X119.76 Y96.316 E.01601
;WIDTH:0.445342
G1 X119.41 Y95.826 E.02015
G1 X119.218 Y95.264 E.01987
;WIDTH:0.424015
G1 X119.175 Y94.744 E.01653
;WIDTH:0.419999
G1 X119.243 Y94.247 E.01573
G1 X119.405 Y93.808 E.01467
G1 X119.643 Y93.437 E.01382
G1 X119.915 Y93.135 E.01274
G1 X120.372 Y92.816 E.01747
G1 X120.719 Y92.668 E.01183
G1 X121.269 Y92.559 E.01758
G1 X121.745 Y92.572 E.01493
G1 X122.258 Y92.707 E.01663
G1 X122.553 Y92.852 E.01031
G1 X122.969 Y93.161 E.01625
G1 X123.281 Y93.526 E.01506
G1 X123.486 Y93.898 E.01332
G1 X123.647 Y94.484 E.01905
G1 X123.644 Y94.912 E.01342
G1 X123.606 Y95.215 E.00957
M73 P12 R2
G1 X124.185 Y95.036 E.019
G1 X124.853 Y94.964 E.02107
G1 X125.394 Y94.994 E.01699
G1 X125.871 Y95.064 E.01512
G1 X126.357 Y95.214 E.01595
G1 X126.275 Y94.768 E.01422
G1 X126.299 Y94.35 E.01313
G1 X126.433 Y93.892 E.01496
G1 X126.615 Y93.553 E.01206
G1 X126.909 Y93.188 E.0147
G1 X127.227 Y92.92 E.01304
G1 X127.65 Y92.694 E.01504
G1 X127.965 Y92.588 E.01042
G1 X128.473 Y92.521 E.01607
G1 X128.968 Y92.573 E.01561
G1 X129.483 Y92.75 E.01707
G1 X129.912 Y93.018 E.01586
G1 X130.288 Y93.403 E.01687
G1 X130.554 Y93.839 E.01601
G1 X130.688 Y94.216 E.01255
G1 X130.753 Y94.624 E.01295
;WIDTH:0.430877
G1 X130.733 Y95.118 E.01595
;WIDTH:0.431958
G1 X130.584 Y95.645 E.01772
G1 X130.333 Y96.087 E.01644
;WIDTH:0.419999
G1 X129.933 Y96.514 E.01835
G1 X129.606 Y96.736 E.01239
G1 X129.211 Y96.903 E.01345
G1 X128.799 Y96.974 E.01311
G1 X128.508 Y96.962 E.00913
M204 S1000
G1 X128.106 Y97.143 F6000
M204 S800
;TYPE:External perimeter
G1 F1200
G1 X128.148 Y97.198 E.00217
G1 X128.307 Y97.569 E.01266
G1 X128.365 Y97.905 E.01069
G1 X128.345 Y98.377 E.01481
G1 X128.198 Y98.892 E.01679
G1 X127.926 Y99.38 E.01752
G1 X127.56 Y99.795 E.01735
G1 X127.137 Y100.113 E.01659
G1 X126.523 Y100.445 E.02189
G1 X125.971 Y100.62 E.01816
G1 X125.309 Y100.724 E.02101
G1 X124.636 Y100.723 E.0211
G1 X123.964 Y100.619 E.02132
G1 X123.434 Y100.445 E.01749
G1 X122.809 Y100.128 E.02197
G1 X122.338 Y99.749 E.01896
G1 X121.984 Y99.323 E.01737
G1 X121.724 Y98.815 E.01789
G1 X121.592 Y98.213 E.01932
G1 X121.616 Y97.709 E.01582
G1 X121.79 Y97.232 E.01592
G1 X122.071 Y96.868 E.01442
G1 X122.473 Y96.51 E.01688
;WIDTH:0.392452
G1 X122.888 Y96.173 E.01554
;WIDTH:0.419999
G1 X123.74 Y95.567 E.03278
G1 X124.225 Y95.411 E.01597
G1 X125.004 Y95.344 E.02452
G1 X125.626 Y95.389 E.01955
G1 X126.202 Y95.557 E.01881
G1 X126.574 Y95.778 E.01357
G1 X127.001 Y96.12 E.01715
;WIDTH:0.399863
G1 X127.404 Y96.426 E.01502
;WIDTH:0.419999
G1 X127.885 Y96.853 E.02017
G1 X128.069 Y97.095 E.00953
M204 S1000
;WIPE_START
G1 F4800
G1 X128.106 Y97.143 E-.02519
G1 X128.148 Y97.198 E-.02876
G1 X128.307 Y97.569 E-.16776
G1 X128.365 Y97.905 E-.14172
G1 X128.345 Y98.377 E-.19635
G1 X128.198 Y98.892 E-.2226
G1 X127.943 Y99.349 E-.21762
;WIPE_END
G1 Z.4 F720
G1 X123.204 Y95.133 F6000
G1 Z.2 F720
M73 P13 R2
G1 E1 F2100
M204 S800
G1 F1200
G1 X123.19 Y95.193 E.00193
G1 X123.068 Y95.437 E.00855
G1 X122.7 Y95.874 E.01791
;WIDTH:0.396981
G1 X122.298 Y96.211 E.01544
;WIDTH:0.419999
G1 X121.807 Y96.506 E.01796
G1 X121.438 Y96.616 E.01207
G1 X120.997 Y96.604 E.01383
G1 X120.796 Y96.561 E.00644
G1 X120.32 Y96.314 E.01681
G1 X119.995 Y96.014 E.01387
G1 X119.76 Y95.654 E.01348
G1 X119.583 Y95.161 E.01642
G1 X119.552 Y94.682 E.01505
G1 X119.6 Y94.37 E.0099
G1 X119.732 Y93.995 E.01246
G1 X119.93 Y93.681 E.01164
G1 X120.144 Y93.435 E.01022
G1 X120.537 Y93.155 E.01513
G1 X120.902 Y93.016 E.01225
G1 X121.392 Y92.926 E.01562
G1 X121.758 Y92.955 E.01151
G1 X122.142 Y93.068 E.01255
G1 X122.383 Y93.189 E.00846
G1 X122.723 Y93.448 E.0134
G1 X123.055 Y93.883 E.01716
G1 X123.262 Y94.44 E.01863
G1 X123.274 Y94.84 E.01255
G1 X123.218 Y95.075 E.00757
M204 S1000
;WIPE_START
G1 F4800
G1 X123.204 Y95.133 E-.0248
G1 X123.19 Y95.193 E-.02561
G1 X123.068 Y95.437 E-.11338
G1 X122.7 Y95.874 E-.23745
G1 X122.298 Y96.211 E-.21802
G1 X121.807 Y96.506 E-.23807
G1 X121.478 Y96.604 E-.14267
;WIPE_END
G1 Z.4 F720
G1 X121.98 Y119.937 F6000
G1 Z.2 F720
G1 E1 F2100
M204 S800
;WIDTH:0.660062
G1 F1200
G1 X121.732 Y120.123 E.01591
;WIDTH:0.61019
G1 X121.484 Y120.31 E.01465
;WIDTH:0.59161
G1 X120.961 Y120.623 E.02781
;WIDTH:0.598798
G1 X120.907 Y120.649 E.00277
M204 S1000
;WIPE_START
G1 F4800
G1 X120.961 Y120.623 E-.02491
G1 X121.484 Y120.31 E-.25333
G1 X121.732 Y120.123 E-.12909
G1 X121.98 Y119.937 E-.12884
;WIPE_END
G1 E-.46383 F2100
G1 Z.4 F720
G1 X129.166 Y120.586 F6000
G1 Z.2 F720
G1 E1 F2100
M204 S800
;WIDTH:0.58928
G1 F1200
G1 X128.704 Y120.317 E.02429
;WIDTH:0.603929
G1 X128.446 Y120.13 E.01486
;WIDTH:0.649842
G1 X128.189 Y119.943 E.01604
M204 S1000
;WIPE_START
G1 F4800
G1 X128.446 Y120.13 E-.1321
G1 X128.704 Y120.317 E-.13244
G1 X129.166 Y120.586 E-.2222
;WIPE_END
G1 E-.51326 F2100
G1 Z.4 F720
G1 X127.006 Y118.854 F6000
G1 Z.2 F720
G1 E1 F2100
M204 S800
;TYPE:Perimeter
;WIDTH:0.419999
G1 F1200
M73 P14 R2
G1 X126.663 Y118.674 E.01215
G1 X126.237 Y118.538 E.01402
G1 X125.654 Y118.397 E.01881
G1 X124.949 Y118.343 E.02217
G1 X124.258 Y118.434 E.02185
G1 X123.561 Y118.644 E.02282
G1 X123.117 Y118.869 E.01561
G1 X123.356 Y118.121 E.02462
G1 X123.402 Y117.737 E.01213
G1 X123.448 Y117.063 E.02118
G1 X123.391 Y116.366 E.02193
G1 X123.197 Y115.571 E.02566
G1 X122.847 Y114.788 E.02689
G1 X122.463 Y114.227 E.02132
G1 X121.824 Y113.613 E.02779
G1 X121.311 Y113.299 E.01886
G1 X121.032 Y113.19 E.00939
G1 X120.528 Y113.038 E.01651
G1 X119.856 Y112.992 E.02112
G1 X119.244 Y113.086 E.01941
G1 X118.753 Y113.263 E.01636
G1 X118.458 Y113.441 E.0108
G1 X118.904 Y112.299 E.03844
G1 X119.029 Y111.705 E.01903
G1 X119.117 Y111.208 E.01583
G1 X119.09 Y110.257 E.02983
G1 X118.81 Y109.14 E.03611
G1 X118.544 Y108.513 E.02136
G1 X118.229 Y107.888 E.02194
G1 X118.472 Y108.017 E.00863
G1 X118.966 Y108.161 E.01613
G1 X119.583 Y108.21 E.01941
G1 X120.35 Y108.089 E.02435
G1 X120.862 Y107.88 E.01734
G1 X121.141 Y107.714 E.01018
G1 X121.586 Y107.389 E.01728
G1 X122.059 Y106.876 E.02188
G1 X122.467 Y106.225 E.02409
G1 X122.753 Y105.509 E.02417
G1 X122.921 Y104.741 E.02465
G1 X122.967 Y104.01 E.02297
G1 X122.907 Y103.267 E.02337
G1 X122.745 Y102.569 E.02247
G1 X122.625 Y102.268 E.01016
G1 X122.333 Y101.645 E.02157
G1 X121.905 Y101.04 E.02324
G1 X121.34 Y100.514 E.0242
G1 X120.711 Y100.146 E.02285
G1 X120.173 Y99.966 E.01779
G1 X119.943 Y99.93 E.0073
G1 X119.373 Y99.893 E.01791
G1 X118.762 Y99.987 E.01938
G1 X118.271 Y100.161 E.01633
G1 X117.922 Y100.364 E.01266
G1 X118.426 Y99.443 E.03292
G1 X118.657 Y98.931 E.01761
G1 X118.872 Y98.35 E.01942
G1 X119.042 Y97.751 E.01952
G1 X119.125 Y96.961 E.02491
G1 X119.085 Y96.467 E.01554
;WIDTH:0.445248
G1 X119.036 Y95.968 E.01677
M73 P15 R2
G1 X118.852 Y95.368 E.02099
;WIDTH:0.424015
G1 X118.664 Y94.86 E.01716
;WIDTH:0.419999
G1 X118.221 Y93.758 E.03724
G1 X117.988 Y93.074 E.02266
G1 X117.845 Y92.403 E.02151
G1 X117.813 Y91.754 E.02037
G1 X117.902 Y91.153 E.01905
G1 X118.11 Y90.623 E.01785
G1 X118.432 Y90.179 E.0172
G1 X118.865 Y89.825 E.01754
G1 X119.404 Y89.575 E.01863
G1 X120.022 Y89.447 E.01979
G1 X120.676 Y89.45 E.02051
G1 X121.328 Y89.578 E.02083
G1 X121.959 Y89.81 E.02108
G1 X123.297 Y90.486 E.047
G1 X123.878 Y90.718 E.01962
G1 X124.298 Y90.823 E.01357
G1 X125.033 Y90.906 E.02319
G1 X125.773 Y90.791 E.02348
G1 X126.105 Y90.675 E.01103
G1 X126.646 Y90.452 E.01835
G1 X127.932 Y89.786 E.04541
G1 X128.562 Y89.549 E.0211
G1 X129.212 Y89.416 E.0208
G1 X129.866 Y89.408 E.02051
G1 X130.485 Y89.531 E.01979
G1 X131.026 Y89.777 E.01863
G1 X131.462 Y90.127 E.01753
G1 X131.787 Y90.569 E.0172
G1 X132 Y91.097 E.01785
G1 X132.094 Y91.698 E.01907
G1 X132.067 Y92.346 E.02034
G1 X131.929 Y93.018 E.02151
