; generated by PrusaSlicer 2.9.4 on 2026-03-05 at 15:27:32 UTC


;
;

;
;
; 

; external perimeters extrusion width = 0.45mm
; perimeters extrusion width = 0.45mm
; infill extrusion width = 0.45mm
; solid infill extrusion width = 0.45mm
; top infill extrusion width = 0.40mm
; first layer extrusion width = 0.42mm

M73 P0 R4
M201 X9000 Y9000 Z500 E10000 ; sets maximum accelerations, mm/sec^2
M203 X500 Y500 Z12 E120 ; sets maximum feedrates, mm / sec
M204 S2000 T1500 ; sets acceleration (S) and retract acceleration (R), mm/sec^2
M205 X10.00 Y10.00 Z0.20 E4.50 ; sets the jerk limits, mm/sec
M205 S0 T0 ; sets the minimum extruding and travel feed rate, mm/sec

; printing object Bear_Logo_V1.x.stl id:0 copy 0
; stop printing object Bear_Logo_V1.x.stl id:0 copy 0

;TYPE:Custom
M83  ; extruder relative mode
M140 S85 ; set bed temp
M109 S160 ; Set extruder temp before bed level
M190 S85 ; wait for bed temp

G28 W ; home all without mesh bed level
G80 N7 ; mesh bed leveling

M109 S240 ; wait for extruder temp

M221 S100 ; Set flow to 100

G1 Y-3.0 F1000.0 ; go outside print area
G92 E0.0
G1 E8 ; Purge Bubble
G1 X60.0 E9.0 F1000.0 ; intro line
G1 X100.0 E12.5 F1000.0 ; intro line
M73 P1 R4
G92 E0.0
G21 ; set units to millimeters
G90 ; use absolute coordinates
M83 ; use relative distances for extrusion

M900 K0.08 ; Filament gcode LA 1.5
M900 K45 ; Filament gcode LA 1.0




M107
;LAYER_CHANGE
;Z:0.2
;HEIGHT:0.2
G1 E-1 F2100
M73 P2 R4
G1 Z.4 F720
G1 X112.397 Y83.059 F6000
G1 Z.2 F720
G1 E1 F2100
M204 S800
;TYPE:Skirt/Brim
;WIDTH:0.42
G1 F1200
G1 X113.448 Y81.732 E.05308
G1 X114.796 Y80.72 E.05285
G1 X116.332 Y80.071 E.05228
G1 X117.934 Y79.784 E.05103
G1 X132.318 Y79.77 E.451
G1 X133.486 Y80.003 E.03734
M73 P3 R4
G1 X135.028 Y80.64 E.05231
G1 X136.383 Y81.641 E.05282
G1 X136.776 Y82.051 E.01781
G1 X137.712 Y83.439 E.05249
G1 X138.268 Y84.971 E.0511
G1 X138.445 Y86.105 E.03599
G1 X140.12 Y102.971 E.53142
G1 X139.273 Y121.665 E.58674
G1 X139.158 Y123.079 E.04448
G1 X138.728 Y124.811 E.05595
G1 X138.02 Y126.39 E.05426
G1 X136.823 Y128.062 E.06447
G1 X135.998 Y128.851 E.03579
G1 X134.767 Y129.658 E.04615
M73 P4 R4
G1 X133.403 Y130.127 E.04522
G1 X132.814 Y130.21 E.01865
G1 X117.402 Y130.271 E.48324
G1 X115.985 Y129.965 E.04545
G1 X114.589 Y129.225 E.04954
G1 X113.106 Y127.846 E.06349
G1 X112.167 Y126.492 E.05166
G1 X111.584 Y125.284 E.04206
G1 X111.002 Y123.19 E.06814
G1 X109.881 Y103.09 E.6312
G1 X111.407 Y86.331 E.52764
G1 X111.719 Y84.595 E.0553
M73 P5 R4
G1 X112.373 Y83.114 E.05076
M204 S1000
;WIPE_START
G1 F4800
G1 X112.397 Y83.059 E-.02494
G1 X113.448 Y81.732 E-.70356
G1 X113.97 Y81.34 E-.2715
;WIPE_END
G1 Z.4 F720
; printing object Bear_Logo_V1.x.stl id:0 copy 0
G1 X131.298 Y98.814 F6000
G1 Z.2 F720
G1 E1 F2100
M204 S800
;TYPE:External perimeter
;WIDTH:0.419999
G1 F1200
G1 X131.44 Y98.753 E.00485
G1 X131.806 Y98.63 E.01211
G1 X132.481 Y98.526 E.02141
G1 X133.265 Y98.584 E.02465
G1 X133.719 Y98.705 E.01473
G1 X134.455 Y99.051 E.0255
G1 X135.124 Y99.563 E.02641
;WIDTH:0.463079
G1 X135.296 Y99.729 E.00835
;WIDTH:0.506159
G1 X135.468 Y99.895 E.00921
;WIDTH:0.549239
G1 X135.64 Y100.061 E.01006
;WIDTH:0.592319
G1 X135.812 Y100.227 E.01092
G1 X136.027 Y100.626 E.02071
;WIDTH:0.563626
G1 X136.242 Y101.024 E.01959
;WIDTH:0.534932
G1 X136.543 Y101.864 E.0365
;WIDTH:0.501953
G1 X136.732 Y102.87 E.03907
;WIDTH:0.469252
G1 X136.758 Y103.471 E.02133
;WIDTH:0.437729
G1 X136.68 Y104.375 E.02979
;WIDTH:0.423358
G1 X136.573 Y104.936 E.01807
G1 X136.417 Y105.449 E.01696
;WIDTH:0.428665
G1 X136.193 Y106.045 E.02042
G1 X135.795 Y106.87 E.02938
;WIDTH:0.420418
G1 X135.286 Y107.541 E.02644
;WIDTH:0.419999
G1 X134.897 Y107.899 E.01658
G1 X134.189 Y108.353 E.02637
G1 X133.342 Y108.648 E.02812
G1 X132.691 Y108.72 E.02054
G1 X132.182 Y108.688 E.01599
G1 X131.405 Y108.486 E.02517
G1 X130.611 Y108.062 E.02822
G1 X129.967 Y107.509 E.02662
G1 X129.406 Y106.793 E.02852
G1 X128.983 Y105.991 E.02843
G1 X128.7 Y105.146 E.02794
G1 X128.586 Y104.588 E.01786
G1 X128.511 Y103.667 E.02897
G1 X128.567 Y102.749 E.02884
G1 X128.664 Y102.202 E.01742
G1 X128.862 Y101.557 E.02115
G1 X129.183 Y100.836 E.02475
G1 X129.457 Y100.35 E.01749
G1 X129.785 Y99.929 E.01673
G1 X130.203 Y99.482 E.01919
G1 X130.888 Y98.989 E.02646
G1 X131.243 Y98.837 E.01211
M204 S1000
;WIPE_START
G1 F4800
G1 X131.298 Y98.814 E-.02478
G1 X131.44 Y98.753 E-.06423
G1 X131.806 Y98.63 E-.16048
G1 X132.481 Y98.526 E-.28386
G1 X133.265 Y98.584 E-.32674
G1 X133.59 Y98.671 E-.13991
;WIPE_END
G1 Z.4 F720
G1 X129.453 Y96.99 F6000
G1 Z.2 F720
G1 E1 F2100
M73 P6 R4
M204 S800
;TYPE:Perimeter
G1 F1200
G1 X129.439 Y97.019 E.00101
G1 X128.999 Y97.627 E.02353
G1 X128.382 Y98.202 E.02644
G1 X127.965 Y98.485 E.0158
G1 X127.033 Y98.937 E.03248
G1 X126.258 Y99.161 E.02529
G1 X125.639 Y99.261 E.01966
G1 X124.882 Y99.292 E.02376
G1 X123.963 Y99.212 E.02892
G1 X123.314 Y99.065 E.02086
G1 X122.741 Y98.876 E.01892
G1 X122.478 Y98.768 E.00891
G1 X121.804 Y98.39 E.02423
G1 X121.071 Y97.78 E.0299
G1 X120.583 Y97.162 E.02469
G1 X120.226 Y96.424 E.0257
G1 X120.102 Y95.872 E.01774
G1 X120.043 Y95.467 E.01283
G1 X120.093 Y94.754 E.02241
G1 X120.277 Y94.108 E.02106
G1 X120.563 Y93.578 E.01888
G1 X119.982 Y93.658 E.01839
G1 X119.474 Y93.606 E.01601
G1 X118.929 Y93.435 E.01791
G1 X118.44 Y93.166 E.0175
G1 X117.849 Y92.619 E.02525
G1 X117.521 Y92.076 E.01989
G1 X117.37 Y91.769 E.01073
G1 X117.245 Y91.27 E.01613
G1 X117.212 Y90.797 E.01487
G1 X117.251 Y90.373 E.01335
G1 X117.409 Y89.802 E.01858
G1 X117.672 Y89.292 E.01799
G1 X117.983 Y88.897 E.01576
G1 X118.366 Y88.56 E.016
G1 X118.795 Y88.298 E.01576
G1 X119.325 Y88.102 E.01772
G1 X119.863 Y88.019 E.01707
G1 X120.39 Y88.035 E.01653
G1 X120.961 Y88.169 E.01839
G1 X121.489 Y88.415 E.01826
G1 X121.902 Y88.716 E.01602
G1 X122.248 Y89.079 E.01572
G1 X122.559 Y89.568 E.01817
G1 X122.75 Y90.052 E.01631
G1 X122.858 Y90.763 E.02255
G1 X122.799 Y91.297 E.01685
G1 X122.719 Y91.695 E.01273
G1 X122.648 Y91.859 E.0056
G1 X123.171 Y91.632 E.01788
G1 X123.694 Y91.495 E.01695
G1 X124.301 Y91.398 E.01927
G1 X124.854 Y91.364 E.01737
G1 X125.646 Y91.398 E.02486
G1 X126.302 Y91.511 E.02087
G1 X127.244 Y91.782 E.03073
G1 X127.132 Y91.482 E.01004
G1 X127.046 Y90.914 E.01801
G1 X127.068 Y90.408 E.01588
G1 X127.199 Y89.873 E.01727
G1 X127.446 Y89.345 E.01828
G1 X127.746 Y88.933 E.01598
G1 X128.11 Y88.587 E.01575
G1 X128.598 Y88.275 E.01816
G1 X129.083 Y88.085 E.01633
G1 X129.694 Y87.98 E.01944
G1 X130.22 Y87.996 E.0165
G1 X130.792 Y88.13 E.01842
G1 X131.302 Y88.368 E.01765
G1 X131.733 Y88.677 E.01663
G1 X132.078 Y89.04 E.0157
G1 X132.39 Y89.529 E.01819
G1 X132.581 Y90.014 E.01634
G1 X132.682 Y90.568 E.01766
G1 X132.67 Y91.145 E.0181
G1 X132.536 Y91.723 E.0186
G1 X132.301 Y92.226 E.01741
G1 X131.988 Y92.664 E.01688
G1 X131.625 Y93.009 E.0157
G1 X131.136 Y93.321 E.01819
G1 X130.651 Y93.512 E.01634
G1 X130.095 Y93.611 E.01771
G1 X129.594 Y93.602 E.01571
G1 X129.37 Y93.549 E.00722
G1 X129.67 Y94.113 E.02003
G1 X129.825 Y94.62 E.01662
G1 X129.897 Y95.118 E.01578
G1 X129.847 Y95.905 E.02473
G1 X129.663 Y96.554 E.02115
G1 X129.479 Y96.936 E.01329
M204 S1000
G1 X129.125 Y96.805 F6000
M204 S800
;TYPE:External perimeter
G1 F1200
G1 X129.116 Y96.824 E.00066
G1 X128.694 Y97.405 E.02251
G1 X128.128 Y97.923 E.02406
G1 X127.684 Y98.219 E.01673
G1 X126.957 Y98.564 E.02523
G1 X126.338 Y98.745 E.02022
G1 X125.798 Y98.855 E.01728
M73 P7 R4
G1 X124.795 Y98.918 E.03151
G1 X124.001 Y98.837 E.02502
G1 X123.407 Y98.699 E.01912
G1 X122.878 Y98.524 E.01747
G1 X122.02 Y98.079 E.0303
G1 X121.316 Y97.493 E.02872
G1 X120.883 Y96.933 E.02219
G1 X120.568 Y96.265 E.02316
G1 X120.422 Y95.542 E.02313
G1 X120.469 Y94.78 E.02394
G1 X120.637 Y94.22 E.01833
G1 X120.923 Y93.709 E.01836
;WIDTH:0.428982
G1 X121.321 Y93.277 E.01886
;WIDTH:0.430647
G1 X122.188 Y92.562 E.03623
G1 X122.582 Y92.303 E.0152
;WIDTH:0.419999
G1 X123.238 Y92.007 E.02257
G1 X123.79 Y91.859 E.01792
G1 X124.358 Y91.771 E.01802
G1 X124.875 Y91.741 E.01624
G1 X125.629 Y91.774 E.02366
G1 X126.235 Y91.882 E.0193
G1 X126.782 Y92.039 E.01784
G1 X127.231 Y92.235 E.01536
;WIDTH:0.437826
G1 X127.666 Y92.489 E.01654
G1 X128.478 Y93.153 E.03444
;WIDTH:0.441866
G1 X128.714 Y93.336 E.00991
G1 X129.165 Y93.926 E.02463
;WIDTH:0.419999
G1 X129.347 Y94.324 E.01372
G1 X129.485 Y94.878 E.0179
G1 X129.51 Y95.317 E.01379
G1 X129.471 Y95.879 E.01766
G1 X129.303 Y96.443 E.01845
G1 X129.152 Y96.751 E.01076
M204 S1000
;WIPE_START
G1 F4800
G1 X129.125 Y96.805 E-.02509
G1 X129.116 Y96.824 E-.00874
G1 X128.694 Y97.405 E-.29845
G1 X128.128 Y97.923 E-.31889
G1 X127.684 Y98.219 E-.22179
G1 X127.408 Y98.35 E-.12704
;WIPE_END
G1 Z.4 F720
G1 X118.655 Y98.849 F6000
G1 Z.2 F720
G1 E1 F2100
M204 S800
G1 F1200
G1 X118.839 Y98.911 E.00609
G1 X119.553 Y99.348 E.02625
G1 X120.207 Y99.972 E.02834
G1 X120.663 Y100.624 E.02495
G1 X120.919 Y101.08 E.0164
G1 X121.174 Y101.758 E.02271
G1 X121.324 Y102.21 E.01493
G1 X121.427 Y102.747 E.01714
G1 X121.495 Y103.668 E.02896
G1 X121.432 Y104.585 E.02882
G1 X121.33 Y105.132 E.01745
G1 X121.069 Y105.958 E.02716
G1 X120.646 Y106.798 E.02949
G1 X120.111 Y107.497 E.0276
G1 X119.447 Y108.094 E.028
G1 X118.717 Y108.503 E.02624
G1 X117.851 Y108.747 E.02821
G1 X117.35 Y108.781 E.01574
G1 X116.59 Y108.688 E.02401
G1 X115.852 Y108.424 E.02458
G1 X115.102 Y107.942 E.02795
;WIDTH:0.44954
G1 X114.516 Y107.379 E.02748
G1 X114.23 Y106.944 E.0176
;WIDTH:0.419939
G1 X113.844 Y106.189 E.02658
;WIDTH:0.418509
G1 X113.617 Y105.581 E.02027
;WIDTH:0.43215
G1 X113.374 Y104.701 E.02955
;WIDTH:0.442684
G1 X113.248 Y103.669 E.03456
;WIDTH:0.475295
G1 X113.272 Y103.012 E.02364
;WIDTH:0.491847
G1 X113.382 Y102.225 E.02966
;WIDTH:0.518212
G1 X113.631 Y101.39 E.03444
;WIDTH:0.564208
G1 X114.036 Y100.533 E.04109
;WIDTH:0.564918
G1 X114.16 Y100.398 E.00796
;WIDTH:0.516612
G1 X114.283 Y100.263 E.00719
;WIDTH:0.468306
G1 X114.406 Y100.129 E.00643
;WIDTH:0.419999
G1 X114.905 Y99.599 E.02282
G1 X115.666 Y99.035 E.0297
G1 X116.453 Y98.71 E.0267
G1 X117.262 Y98.585 E.02567
G1 X117.913 Y98.638 E.02048
M73 P8 R4
G1 X118.348 Y98.746 E.01405
G1 X118.598 Y98.83 E.00827
M204 S1000
;WIPE_START
G1 F4800
G1 X118.655 Y98.849 E-.02497
G1 X118.839 Y98.911 E-.0807
G1 X119.553 Y99.348 E-.34793
G1 X120.207 Y99.972 E-.3757
G1 X120.442 Y100.309 E-.1707
;WIPE_END
G1 Z.4 F720
G1 X119.941 Y93.269 F6000
G1 Z.2 F720
G1 E1 F2100
M204 S800
G1 F1200
G1 X119.536 Y93.233 E.01275
G1 X119.048 Y93.077 E.01606
G1 X118.598 Y92.818 E.01628
G1 X118.111 Y92.348 E.02122
G1 X117.734 Y91.671 E.0243
G1 X117.614 Y91.16 E.01646
G1 X117.588 Y90.824 E.01057
G1 X117.616 Y90.466 E.01126
G1 X117.747 Y89.969 E.01612
G1 X117.972 Y89.52 E.01575
G1 X118.381 Y89.044 E.01968
G1 X118.748 Y88.769 E.01438
G1 X119.006 Y88.617 E.00939
G1 X119.407 Y88.47 E.01339
G1 X119.919 Y88.392 E.01624
G1 X120.408 Y88.417 E.01535
G1 X120.893 Y88.542 E.0157
G1 X121.353 Y88.773 E.01614
G1 X121.699 Y89.039 E.01368
G1 X121.992 Y89.363 E.0137
G1 X122.254 Y89.798 E.01592
G1 X122.419 Y90.316 E.01705
G1 X122.484 Y90.812 E.01568
G1 X122.373 Y91.546 E.02328
;WIDTH:0.422613
G1 X122.14 Y91.993 E.01591
;WIDTH:0.430647
G1 X121.941 Y92.263 E.01081
G1 X121.103 Y92.957 E.03508
;WIDTH:0.42898
G1 X120.652 Y93.18 E.01615
;WIDTH:0.419999
G1 X120.069 Y93.281 E.01855
G1 X120.001 Y93.275 E.00214
M204 S1000
;WIPE_START
G1 F4800
G1 X119.941 Y93.269 E-.02506
G1 X119.536 Y93.233 E-.16899
G1 X119.048 Y93.077 E-.21294
G1 X118.598 Y92.818 E-.2158
G1 X118.111 Y92.348 E-.2813
G1 X117.999 Y92.146 E-.09591
;WIPE_END
G1 Z.4 F720
G1 X127.512 Y91.439 F6000
G1 Z.2 F720
G1 E1 F2100
M204 S800
G1 F1200
G1 X127.504 Y91.417 E.00073
G1 X127.423 Y90.929 E.01551
G1 X127.447 Y90.427 E.01576
G1 X127.574 Y89.938 E.01584
G1 X127.802 Y89.482 E.01599
G1 X128.134 Y89.076 E.01644
G1 X128.394 Y88.843 E.01095
G1 X128.829 Y88.581 E.01592
G1 X129.251 Y88.429 E.01406
G1 X129.75 Y88.353 E.01583
G1 X130.238 Y88.378 E.01532
G1 X130.726 Y88.504 E.0158
G1 X131.184 Y88.734 E.01607
G1 X131.529 Y89 E.01366
G1 X131.822 Y89.324 E.0137
G1 X132.085 Y89.759 E.01594
G1 X132.237 Y90.18 E.01403
G1 X132.312 Y90.667 E.01545
G1 X132.288 Y91.169 E.01576
G1 X132.158 Y91.664 E.01605
G1 X131.932 Y92.115 E.01582
G1 X131.557 Y92.56 E.01825
G1 X131.341 Y92.753 E.00908
G1 X130.912 Y93.013 E.01573
G1 X130.448 Y93.173 E.01539
G1 X130.003 Y93.241 E.01411
G1 X129.658 Y93.23 E.01082
;WIDTH:0.429589
G1 X129.142 Y93.103 E.01709
G1 X128.716 Y92.852 E.0159
;WIDTH:0.437826
G1 X127.918 Y92.184 E.03417
G1 X127.676 Y91.836 E.01392
;WIDTH:0.419999
G1 X127.535 Y91.494 E.0116
M204 S1000
;WIPE_START
G1 F4800
G1 X127.512 Y91.439 E-.02478
G1 X127.504 Y91.417 E-.00973
G1 X127.423 Y90.929 E-.2056
G1 X127.447 Y90.427 E-.20888
G1 X127.574 Y89.938 E-.20998
G1 X127.802 Y89.482 E-.2119
G1 X127.999 Y89.242 E-.12913
;WIPE_END
G1 Z.4 F720
G1 X131.579 Y116.782 F6000
G1 Z.2 F720
M73 P9 R4
G1 E1 F2100
M204 S800
G1 F1200
G1 X131.953 Y116.724 E.01187
G1 X132.607 Y116.772 E.02056
G1 X132.78 Y116.791 E.00546
G1 X133.511 Y117.029 E.0241
G1 X134.249 Y117.468 E.02692
G1 X134.95 Y118.132 E.03027
;WIDTH:0.444056
G1 X135.436 Y118.819 E.02807
G1 X135.705 Y119.489 E.02408
;WIDTH:0.429244
G1 X135.933 Y120.272 E.0262
G1 X136.028 Y120.88 E.01977
;WIDTH:0.436055
G1 X136.077 Y121.515 E.02082
G1 X136.042 Y122.457 E.03081
;WIDTH:0.418202
G1 X135.907 Y123.2 E.02356
;WIDTH:0.434175
G1 X135.693 Y123.911 E.02416
G1 X135.191 Y124.956 E.03772
;WIDTH:0.429427
G1 X134.544 Y125.801 E.0342
;WIDTH:0.427889
G1 X133.917 Y126.34 E.02647
;WIDTH:0.430557
G1 X133.273 Y126.7 E.02378
;WIDTH:0.436855
G1 X132.801 Y126.844 E.01616
;WIDTH:0.439186
G1 X132.151 Y126.881 E.02145
G1 X131.568 Y126.755 E.01965
;WIDTH:0.436321
G1 X130.92 Y126.501 E.02277
;WIDTH:0.419208
G1 X130.169 Y126.066 E.02715
;WIDTH:0.422866
G1 X129.56 Y125.613 E.02398
;WIDTH:0.466348
G1 X128.98 Y125.086 E.02759
G1 X128.639 Y124.57 E.02178
;WIDTH:0.419999
G1 X128.299 Y123.776 E.02708
G1 X128.077 Y122.898 E.0284
G1 X128.009 Y122.28 E.01949
G1 X127.999 Y121.687 E.0186
G1 X128.013 Y121.173 E.01612
G1 X128.091 Y120.618 E.01757
G1 X128.316 Y119.774 E.02739
G1 X128.711 Y118.909 E.02982
G1 X129.048 Y118.37 E.01993
G1 X129.703 Y117.655 E.0304
G1 X130.36 Y117.187 E.02529
G1 X131.188 Y116.842 E.02812
G1 X131.52 Y116.791 E.01053
M204 S1000
;WIPE_START
G1 F4800
G1 X131.579 Y116.782 E-.02481
G1 X131.953 Y116.724 E-.1573
G1 X132.607 Y116.772 E-.27255
G1 X132.78 Y116.791 E-.07234
G1 X133.511 Y117.029 E-.31952
G1 X133.829 Y117.218 E-.15348
;WIPE_END
G1 Z.4 F720
G1 X119.327 Y117.041 F6000
G1 Z.2 F720
G1 E1 F2100
M204 S800
G1 F1200
G1 X119.491 Y117.096 E.00542
G1 X120.217 Y117.536 E.02662
G1 X120.92 Y118.209 E.03051
G1 X121.442 Y118.974 E.02904
G1 X121.676 Y119.446 E.01652
G1 X121.996 Y120.403 E.03164
G1 X122.099 Y120.94 E.01714
G1 X122.168 Y121.886 E.02974
G1 X122.12 Y122.659 E.02428
G1 X121.962 Y123.466 E.02578
G1 X121.656 Y124.348 E.02927
;WIDTH:0.447668
G1 X121.3 Y124.994 E.02482
G1 X120.612 Y125.656 E.03213
;WIDTH:0.423529
G1 X119.984 Y126.13 E.0249
;WIDTH:0.430127
G1 X119.319 Y126.507 E.02461
G1 X118.675 Y126.795 E.02271
;WIDTH:0.443426
G1 X118.038 Y126.931 E.02169
;WIDTH:0.454103
G1 X117.544 Y126.916 E.0169
G1 X117.003 Y126.792 E.01898
;WIDTH:0.442317
G1 X116.438 Y126.52 E.02082
;WIDTH:0.424237
G1 X115.745 Y125.976 E.02793
;WIDTH:0.420212
G1 X115.134 Y125.254 E.02967
;WIDTH:0.416903
G1 X114.703 Y124.516 E.02658
;WIDTH:0.434661
G1 X114.47 Y123.981 E.01901
G1 X114.147 Y122.811 E.03954
M73 P10 R4
;WIDTH:0.429161
G1 X114.086 Y122.221 E.01905
;WIDTH:0.439275
G1 X114.075 Y121.595 E.02063
G1 X114.168 Y120.556 E.03438
;WIDTH:0.419231
G1 X114.344 Y119.832 E.02331
;WIDTH:0.44009
G1 X114.607 Y119.101 E.02566
;WIDTH:0.441849
G1 X114.681 Y118.916 E.00661
G1 X115.074 Y118.328 E.02346
;WIDTH:0.419999
G1 X115.65 Y117.717 E.02633
G1 X116.338 Y117.228 E.02647
G1 X117.126 Y116.903 E.02673
G1 X117.935 Y116.779 E.02566
G1 X118.762 Y116.852 E.02603
G1 X119.27 Y117.022 E.0168
M204 S1000
;WIPE_START
G1 F4800
G1 X119.327 Y117.041 E-.02497
G1 X119.491 Y117.096 E-.07189
G1 X120.217 Y117.536 E-.35284
G1 X120.92 Y118.209 E-.40449
G1 X121.118 Y118.499 E-.14581
;WIPE_END
G1 Z.4 F720
