; generated by PrusaSlicer 2.2.0+ on 2020-04-22 at 22:11:02 UTC


;
;

;
;
; 

; external perimeters extrusion width = 0.45mm
; perimeters extrusion width = 0.45mm
; infill extrusion width = 0.45mm
; solid infill extrusion width = 0.45mm
; top infill extrusion width = 0.40mm
; first layer extrusion width = 0.42mm

M73 P0 R58
M201 X9000 Y9000 Z500 E10000 ; sets maximum accelerations, mm/sec^2
M203 X500 Y500 Z12 E120 ; sets maximum feedrates, mm/sec
M204 P2000 R1500 T2000 ; sets acceleration (P, T) and retract acceleration (R), mm/sec^2
M205 X10.00 Y10.00 Z0.20 E2.50 ; sets the jerk limits, mm/sec
M205 S0 T0 ; sets the minimum extruding and travel feed rate, mm/sec
M107
M83  ; extruder relative mode
M140 S75 ; set bed temp
M109 S160 ; Set extruder temp before bed level
M190 S75 ; wait for bed temp

G28 W ; home all without mesh bed level
G80 N7 ; mesh bed leveling

M109 S240 ; wait for extruder temp

M221 S100 ; Set flow to 100

G1 Y-3.0 F1000.0 ; go outside print area
G92 E0.0
G1 E8 ; Purge Bubble
M73 P0 R58
G1 X60.0 E9.0 F1000.0 ; intro line
G1 X100.0 E12.5 F1000.0 ; intro line
G92 E0.0
G21 ; set units to millimeters
G90 ; use absolute coordinates
M83 ; use relative distances for extrusion
M900 K45; Filament gcode
;BEFORE_LAYER_CHANGE
G92 E0.0
;0.2


G1 E-0.80000 F2100.00000
G1 Z0.600 F10800.000
;AFTER_LAYER_CHANGE
;0.2
G1 X112.377 Y94.518
G1 Z0.200
G1 E0.80000 F2100.00000
M204 S1000
G1 F1200.000
G1 X112.840 Y93.730 E0.02637
G1 X113.585 Y92.973 E0.03063
G1 X114.017 Y92.648 E0.01559
G1 X114.616 Y92.375 E0.01900
G1 X115.263 Y92.252 E0.01900
G1 X134.554 Y92.246 E0.55646
G1 X135.548 Y92.433 E0.02916
G1 X136.410 Y92.969 E0.02928
G1 X137.393 Y94.053 E0.04223
G1 X137.656 Y94.608 E0.01770
G1 X137.788 Y95.203 E0.01759
G1 X137.803 Y114.582 E0.55901
G1 X137.623 Y115.482 E0.02649
G1 X137.160 Y116.270 E0.02637
G1 X136.403 Y117.038 E0.03110
G1 X135.948 Y117.373 E0.01629
G1 X135.321 Y117.644 E0.01970
G1 X134.647 Y117.752 E0.01970
G1 X115.364 Y117.753 E0.55623
G1 X114.468 Y117.573 E0.02637
G1 X113.680 Y117.110 E0.02637
G1 X112.912 Y116.353 E0.03110
G1 X112.579 Y115.901 E0.01617
G1 X112.307 Y115.275 E0.01970
G1 X112.198 Y114.601 E0.01970
G1 X112.197 Y95.414 E0.55346
G1 X112.365 Y94.576 E0.02464
G1 X112.731 Y94.649 F10800.000
G1 F1200.000
G1 X113.142 Y93.957 E0.02324
G1 X114.205 Y92.975 E0.04172
G1 X114.733 Y92.734 E0.01677
G1 X115.301 Y92.628 E0.01666
G1 X134.554 Y92.623 E0.55537
G1 X135.421 Y92.788 E0.02545
G1 X136.165 Y93.255 E0.02534
G1 X137.069 Y94.245 E0.03866
G1 X137.301 Y94.736 E0.01568
G1 X137.416 Y95.267 E0.01568
G1 X137.426 Y114.565 E0.55665
G1 X137.269 Y115.353 E0.02318
G1 X136.858 Y116.043 E0.02318
G1 X135.769 Y117.041 E0.04258
G1 X135.223 Y117.280 E0.01720
G1 X134.631 Y117.376 E0.01731
G1 X115.385 Y117.376 E0.55515
G1 X114.597 Y117.219 E0.02318
G1 X113.907 Y116.808 E0.02318
G1 X112.909 Y115.719 E0.04258
G1 X112.670 Y115.173 E0.01720
G1 X112.574 Y114.581 E0.01731
G1 X112.574 Y95.435 E0.55226
G1 X112.719 Y94.708 E0.02138
@Object Bear_Cam_Double.stl id:0 copy 0
G1 F8640.000
G1 X113.142 Y93.957 E-0.19918
G1 X114.205 Y92.975 E-0.33395
G1 X114.733 Y92.734 E-0.13423
G1 X115.128 Y92.660 E-0.09264
G1 E-0.04000 F2100.00000
G1 Z0.800 F10800.000
G1 X123.288 Y103.332
G1 Z0.200
G1 E0.80000 F2100.00000
G1 F1200.000
G1 X123.666 Y103.017 E0.01418
G1 X124.099 Y102.786 E0.01418
G1 X124.571 Y102.648 E0.01416
G1 X125.026 Y102.612 E0.01318
G1 X125.319 Y102.632 E0.00847
G1 X125.785 Y102.742 E0.01381
G1 X126.231 Y102.951 E0.01418
G1 X126.624 Y103.246 E0.01418
G1 X126.948 Y103.615 E0.01418
G1 X127.190 Y104.043 E0.01418
G1 X127.340 Y104.511 E0.01418
G1 X127.389 Y104.985 E0.01374
G1 X127.375 Y105.261 E0.00797
G1 X127.277 Y105.727 E0.01374
G1 X127.080 Y106.177 E0.01418
G1 X126.796 Y106.578 E0.01418
G1 X126.435 Y106.912 E0.01418
G1 X126.013 Y107.165 E0.01418
G1 X125.549 Y107.327 E0.01418
G1 X125.062 Y107.390 E0.01418
G1 X124.571 Y107.352 E0.01418
G1 X124.114 Y107.219 E0.01374
G1 X123.864 Y107.102 E0.00797
G1 X123.469 Y106.836 E0.01374
G1 X123.126 Y106.484 E0.01418
G1 X122.862 Y106.069 E0.01418
G1 X122.688 Y105.609 E0.01418
G1 X122.613 Y105.123 E0.01418
G1 X122.638 Y104.632 E0.01418
G1 X122.763 Y104.157 E0.01418
G1 X122.983 Y103.717 E0.01418
G1 X123.251 Y103.379 E0.01245
G1 X123.546 Y103.613 F10800.000
G1 F1200.000
G1 X123.877 Y103.331 E0.01253
G1 X124.242 Y103.137 E0.01193
G1 X124.639 Y103.021 E0.01192
G1 X125.028 Y102.990 E0.01126
G1 X125.263 Y103.006 E0.00678
G1 X125.661 Y103.100 E0.01180
G1 X126.035 Y103.276 E0.01193
G1 X126.366 Y103.524 E0.01193
G1 X126.639 Y103.835 E0.01193
G1 X126.843 Y104.195 E0.01193
G1 X126.969 Y104.589 E0.01193
G1 X127.011 Y104.995 E0.01177
G1 X127.000 Y105.212 E0.00628
G1 X126.916 Y105.612 E0.01177
G1 X126.750 Y105.991 E0.01193
G1 X126.511 Y106.328 E0.01193
G1 X126.207 Y106.609 E0.01193
G1 X125.853 Y106.822 E0.01193
G1 X125.462 Y106.958 E0.01193
G1 X125.052 Y107.011 E0.01193
G1 X124.639 Y106.979 E0.01193
G1 X124.247 Y106.865 E0.01177
G1 X124.050 Y106.772 E0.00628
G1 X123.712 Y106.545 E0.01177
G1 X123.423 Y106.248 E0.01193
G1 X123.201 Y105.899 E0.01193
G1 X123.055 Y105.512 E0.01193
G1 X122.991 Y105.104 E0.01193
G1 X123.013 Y104.690 E0.01193
G1 X123.118 Y104.290 E0.01193
G1 X123.303 Y103.920 E0.01193
G1 X123.509 Y103.660 E0.00959
G1 X123.435 Y103.228 F10800.000
G1 F8640.000
G1 X123.877 Y103.331 E-0.11388
G1 X124.242 Y103.137 E-0.09551
G1 X124.639 Y103.021 E-0.09545
G1 X125.028 Y102.990 E-0.09014
G1 X125.263 Y103.006 E-0.05425
G1 X125.661 Y103.100 E-0.09446
G1 X126.035 Y103.276 E-0.09551
G1 X126.366 Y103.524 E-0.09551
G1 X126.439 Y103.606 E-0.02530
G1 E-0.04000 F2100.00000
G1 Z0.800 F10800.000
G1 X115.737 Y95.826
G1 Z0.200
G1 E0.80000 F2100.00000
G1 F1200.000
G1 X115.776 Y95.787 E0.00159
G1 X134.224 Y95.787 E0.53215
G1 X134.263 Y95.826 E0.00159
G1 X134.263 Y114.174 E0.52926
G1 X134.224 Y114.213 E0.00159
G1 X115.776 Y114.213 E0.53215
G1 X115.737 Y114.174 E0.00159
G1 X115.737 Y95.886 E0.52753
G1 X115.360 Y95.670 F10800.000
G1 F1200.000
G1 X115.620 Y95.410 E0.01060
G1 X134.380 Y95.410 E0.54116
G1 X134.640 Y95.670 E0.01060
G1 X134.640 Y114.330 E0.53828
G1 X134.380 Y114.590 E0.01060
G1 X115.620 Y114.590 E0.54116
G1 X115.360 Y114.330 E0.01060
G1 X115.360 Y95.730 E0.53654
G1 X115.727 Y95.668 F10800.000
G1 F8640.000
G1 X115.620 Y95.410 E-0.09515
G1 X118.499 Y95.410 E-0.66485
G1 E-0.04000 F2100.00000
G1 Z0.800 F10800.000
G1 X119.396 Y95.900
G1 Z0.200
G1 E0.80000 F2100.00000
G1 F1200.000
G1 X126.050 Y102.554 E0.27376
G1 X125.879 Y102.474 E0.00549
G1 X125.306 Y102.348 E0.01706
G1 X119.028 Y96.070 E0.25831
G1 X118.490 Y96.070 E0.01565
G1 X124.769 Y102.349 E0.25835
G1 X124.519 Y102.369 E0.00729
G1 X124.312 Y102.429 E0.00629
G1 X117.952 Y96.070 E0.26166
G1 X117.414 Y96.070 E0.01565
G1 X123.910 Y102.566 E0.26728
G1 X123.559 Y102.753 E0.01157
G1 X116.877 Y96.070 E0.27497
G1 X116.339 Y96.070 E0.01565
G1 X123.258 Y102.989 E0.28468
G1 X123.084 Y103.133 E0.00656
G1 X122.987 Y103.256 E0.00456
G1 X116.020 Y96.289 E0.28667
G1 X116.020 Y96.827 E0.01565
G1 X122.749 Y103.556 E0.27689
G1 X122.569 Y103.913 E0.01164
G1 X116.020 Y97.365 E0.26945
G1 X116.020 Y97.902 E0.01565
G1 X122.430 Y104.312 E0.26374
G1 X122.357 Y104.588 E0.00830
G1 X122.348 Y104.768 E0.00524
G1 X116.020 Y98.440 E0.26037
G1 X116.020 Y98.978 E0.01565
G1 X122.356 Y105.315 E0.26072
G1 X122.413 Y105.681 E0.01079
G1 X122.552 Y106.048 E0.01140
G1 X116.020 Y99.516 E0.26875
G1 X116.020 Y100.054 E0.01565
G1 X129.896 Y113.930 E0.57094
G1 X130.434 Y113.930 E0.01565
G1 X123.965 Y107.461 E0.26618
G1 X124.520 Y107.631 E0.01691
G1 X124.686 Y107.644 E0.00483
G1 X130.972 Y113.930 E0.25864
G1 X131.510 Y113.930 E0.01565
G1 X125.232 Y107.653 E0.25829
G1 X125.614 Y107.603 E0.01121
G1 X125.693 Y107.576 E0.00243
G1 X132.048 Y113.930 E0.26145
G1 X132.585 Y113.930 E0.01565
G1 X126.092 Y107.437 E0.26716
G1 X126.435 Y107.242 E0.01147
G1 X133.123 Y113.930 E0.27520
G1 X133.661 Y113.930 E0.01565
G1 X126.743 Y107.012 E0.28465
G1 X127.020 Y106.751 E0.01107
G1 X133.980 Y113.711 E0.28639
G1 X133.980 Y113.173 E0.01565
G1 X127.243 Y106.436 E0.27719
G1 X127.328 Y106.317 E0.00425
G1 X127.429 Y106.085 E0.00738
G1 X133.980 Y112.636 E0.26953
G1 X133.980 Y112.098 E0.01565
G1 X127.574 Y105.691 E0.26360
G1 X127.659 Y105.239 E0.01340
G1 X133.980 Y111.560 E0.26009
G1 X133.980 Y111.022 E0.01565
G1 X127.642 Y104.684 E0.26078
G1 X127.618 Y104.453 E0.00676
G1 X127.463 Y103.967 E0.01484
G1 X133.980 Y110.484 E0.26814
G1 X133.980 Y109.946 E0.01565
G1 X120.104 Y96.070 E0.57095
G1 X120.642 Y96.070 E0.01565
G1 X133.980 Y109.408 E0.54882
G1 X133.980 Y108.870 E0.01565
G1 X121.180 Y96.070 E0.52669
G1 X121.717 Y96.070 E0.01565
G1 X133.980 Y108.333 E0.50456
G1 X133.980 Y107.795 E0.01565
G1 X122.255 Y96.070 E0.48243
G1 X122.793 Y96.070 E0.01565
G1 X133.980 Y107.257 E0.46030
G1 X133.980 Y106.719 E0.01565
G1 X123.331 Y96.070 E0.43817
G1 X123.869 Y96.070 E0.01565
G1 X133.980 Y106.181 E0.41604
G1 X133.980 Y105.643 E0.01565
G1 X124.407 Y96.070 E0.39390
G1 X124.945 Y96.070 E0.01565
G1 X133.980 Y105.105 E0.37177
G1 X133.980 Y104.568 E0.01565
G1 X125.482 Y96.070 E0.34964
G1 X126.020 Y96.070 E0.01565
G1 X133.980 Y104.030 E0.32751
G1 X133.980 Y103.492 E0.01565
G1 X126.558 Y96.070 E0.30538
G1 X127.096 Y96.070 E0.01565
G1 X133.980 Y102.954 E0.28325
G1 X133.980 Y102.416 E0.01565
G1 X127.634 Y96.070 E0.26112
G1 X128.172 Y96.070 E0.01565
G1 X133.980 Y101.878 E0.23899
G1 X133.980 Y101.340 E0.01565
G1 X128.710 Y96.070 E0.21686
G1 X129.247 Y96.070 E0.01565
G1 X133.980 Y100.803 E0.19473
G1 X133.980 Y100.265 E0.01565
G1 X129.785 Y96.070 E0.17260
G1 X130.323 Y96.070 E0.01565
G1 X133.980 Y99.727 E0.15047
G1 X133.980 Y99.189 E0.01565
G1 X130.861 Y96.070 E0.12834
G1 X131.399 Y96.070 E0.01565
G1 X133.980 Y98.651 E0.10621
G1 X133.980 Y98.113 E0.01565
G1 X131.937 Y96.070 E0.08408
G1 X132.475 Y96.070 E0.01565
G1 X133.980 Y97.575 E0.06195
G1 X133.980 Y97.038 E0.01565
G1 X133.012 Y96.070 E0.03981
G1 X133.550 Y96.070 E0.01565
G1 X134.150 Y96.669 E0.02467
G1 F8640.000
G1 X133.550 Y96.070 E-0.19576
G1 X133.012 Y96.070 E-0.12419
G1 X133.980 Y97.038 E-0.31598
G1 X133.980 Y97.575 E-0.12407
G1 E-0.04000 F2100.00000
G1 Z0.800 F10800.000
G1 X129.528 Y114.100
G1 Z0.200
G1 E0.80000 F2100.00000
G1 F1200.000
G1 X116.020 Y100.592 E0.55580
G1 X116.020 Y101.130 E0.01565
G1 X128.820 Y113.930 E0.52668
G1 X128.283 Y113.930 E0.01565
G1 X116.020 Y101.667 E0.50455
G1 X116.020 Y102.205 E0.01565
G1 X127.745 Y113.930 E0.48242
G1 X127.207 Y113.930 E0.01565
M73 P1 R57
G1 X116.020 Y102.743 E0.46029
G1 X116.020 Y103.281 E0.01565
G1 X126.669 Y113.930 E0.43816
G1 X126.131 Y113.930 E0.01565
G1 X116.020 Y103.819 E0.41603
G1 X116.020 Y104.357 E0.01565
G1 X125.593 Y113.930 E0.39390
G1 X125.055 Y113.930 E0.01565
G1 X116.020 Y104.895 E0.37177
G1 X116.020 Y105.433 E0.01565
G1 X124.517 Y113.930 E0.34964
G1 X123.980 Y113.930 E0.01565
G1 X116.020 Y105.970 E0.32751
G1 X116.020 Y106.508 E0.01565
G1 X123.442 Y113.930 E0.30538
G1 X122.904 Y113.930 E0.01565
G1 X116.020 Y107.046 E0.28325
G1 X116.020 Y107.584 E0.01565
G1 X122.366 Y113.930 E0.26112
G1 X121.828 Y113.930 E0.01565
G1 X116.020 Y108.122 E0.23898
G1 X116.020 Y108.660 E0.01565
G1 X121.290 Y113.930 E0.21685
G1 X120.752 Y113.930 E0.01565
G1 X116.020 Y109.198 E0.19472
G1 X116.020 Y109.735 E0.01565
G1 X120.215 Y113.930 E0.17259
G1 X119.677 Y113.930 E0.01565
G1 X116.020 Y110.273 E0.15046
G1 X116.020 Y110.811 E0.01565
G1 X119.139 Y113.930 E0.12833
G1 X118.601 Y113.930 E0.01565
G1 X116.020 Y111.349 E0.10620
G1 X116.020 Y111.887 E0.01565
G1 X118.063 Y113.930 E0.08407
G1 X117.525 Y113.930 E0.01565
G1 X116.020 Y112.425 E0.06194
G1 X116.020 Y112.963 E0.01565
G1 X116.987 Y113.930 E0.03981
G1 X116.450 Y113.930 E0.01565
G1 X115.850 Y113.331 E0.02466
; stop printing object Bear_Cam_Double.stl id:0 copy 0
;BEFORE_LAYER_CHANGE
G92 E0.0
;0.4


G1 F8640.000
G1 X116.450 Y113.930 E-0.19571
G1 X116.987 Y113.930 E-0.12419
G1 X116.020 Y112.963 E-0.31594
G1 X116.020 Y112.425 E-0.12415
G1 E-0.04000 F2100.00000
G1 Z0.800 F10800.000
;AFTER_LAYER_CHANGE
;0.4
M104 S235 ; set temperature
M140 S80 ; set bed temperature
G1 X114.468 Y117.573
G1 Z0.400
G1 E0.80000 F2100.00000
G1 F3600.000
G1 X113.680 Y117.110 E0.02637
G1 X112.912 Y116.353 E0.03110
G1 X112.579 Y115.901 E0.01617
G1 X112.307 Y115.275 E0.01970
G1 X112.198 Y114.601 E0.01970
G1 X112.197 Y95.414 E0.55346
G1 X112.377 Y94.518 E0.02637
G1 X112.840 Y93.730 E0.02637
G1 X113.585 Y92.973 E0.03063
G1 X114.017 Y92.648 E0.01559
G1 X114.616 Y92.375 E0.01900
G1 X115.263 Y92.252 E0.01900
G1 X134.554 Y92.246 E0.55646
G1 X135.548 Y92.433 E0.02916
G1 X136.410 Y92.969 E0.02928
G1 X137.393 Y94.053 E0.04223
G1 X137.656 Y94.608 E0.01770
G1 X137.788 Y95.203 E0.01759
G1 X137.803 Y114.582 E0.55901
G1 X137.623 Y115.482 E0.02649
G1 X137.160 Y116.270 E0.02637
G1 X136.403 Y117.038 E0.03110
G1 X135.948 Y117.373 E0.01629
G1 X135.321 Y117.644 E0.01970
G1 X134.647 Y117.752 E0.01970
G1 X115.364 Y117.753 E0.55623
G1 X114.526 Y117.585 E0.02464
G1 X114.599 Y117.219 F10800.000
G1 F3600.000
G1 X113.907 Y116.808 E0.02324
G1 X112.909 Y115.719 E0.04258
G1 X112.670 Y115.173 E0.01720
G1 X112.574 Y114.581 E0.01731
G1 X112.574 Y95.435 E0.55226
G1 X112.731 Y94.647 E0.02318
G1 X113.142 Y93.957 E0.02318
G1 X114.205 Y92.975 E0.04172
G1 X114.733 Y92.734 E0.01677
G1 X115.301 Y92.628 E0.01666
G1 X134.554 Y92.623 E0.55537
G1 X135.421 Y92.788 E0.02545
G1 X136.165 Y93.255 E0.02534
G1 X137.069 Y94.245 E0.03866
G1 X137.301 Y94.736 E0.01568
G1 X137.416 Y95.267 E0.01568
G1 X137.426 Y114.565 E0.55665
G1 X137.269 Y115.353 E0.02318
G1 X136.858 Y116.043 E0.02318
G1 X135.769 Y117.041 E0.04258
G1 X135.223 Y117.280 E0.01720
G1 X134.631 Y117.376 E0.01731
G1 X115.385 Y117.376 E0.55515
G1 X114.658 Y117.231 E0.02138
@Object Bear_Cam_Double.stl id:0 copy 0
G1 F8640.000
G1 X113.907 Y116.808 E-0.19918
G1 X112.909 Y115.719 E-0.34085
G1 X112.670 Y115.173 E-0.13772
G1 X112.613 Y114.821 E-0.08225
G1 E-0.04000 F2100.00000
G1 Z1.000 F10800.000
G1 X123.568 Y106.717
G1 Z0.400
G1 E0.80000 F2100.00000
M204 S800
G1 F1800.000
G1 X123.247 Y106.387 E0.01432
G1 X123.000 Y105.999 E0.01432
G1 X122.838 Y105.569 E0.01432
G1 X122.768 Y105.115 E0.01432
G1 X122.791 Y104.656 E0.01432
G1 X122.908 Y104.211 E0.01432
G1 X123.114 Y103.800 E0.01432
G1 X123.399 Y103.440 E0.01432
G1 X123.752 Y103.145 E0.01432
G1 X124.158 Y102.929 E0.01432
G1 X124.598 Y102.801 E0.01428
G1 X125.017 Y102.767 E0.01308
G1 X125.300 Y102.786 E0.00882
G1 X125.734 Y102.889 E0.01391
G1 X126.151 Y103.084 E0.01432
G1 X126.518 Y103.359 E0.01432
G1 X126.822 Y103.705 E0.01432
G1 X127.048 Y104.105 E0.01432
G1 X127.188 Y104.543 E0.01432
G1 X127.234 Y104.984 E0.01380
G1 X127.220 Y105.246 E0.00818
G1 X127.130 Y105.680 E0.01380
G1 X126.945 Y106.101 E0.01432
G1 X126.679 Y106.476 E0.01432
G1 X126.342 Y106.788 E0.01432
G1 X125.948 Y107.025 E0.01432
G1 X125.513 Y107.176 E0.01432
G1 X125.058 Y107.235 E0.01432
G1 X124.599 Y107.199 E0.01432
G1 X124.174 Y107.075 E0.01380
G1 X123.936 Y106.964 E0.00818
G1 X123.618 Y106.750 E0.01194
M204 S1000
G1 X124.137 Y106.609 F10800.000
M204 S800
G1 F1800.000
G1 X123.830 Y106.402 E0.01151
G1 X123.568 Y106.133 E0.01169
G1 X123.366 Y105.816 E0.01169
G1 X123.234 Y105.465 E0.01169
G1 X123.176 Y105.094 E0.01169
G1 X123.196 Y104.719 E0.01169
G1 X123.291 Y104.356 E0.01169
G1 X123.459 Y104.020 E0.01169
G1 X123.692 Y103.725 E0.01169
G1 X123.981 Y103.485 E0.01169
G1 X124.312 Y103.308 E0.01169
G1 X124.672 Y103.203 E0.01168
G1 X125.020 Y103.175 E0.01086
G1 X125.239 Y103.190 E0.00684
G1 X125.600 Y103.275 E0.01155
G1 X125.940 Y103.434 E0.01169
G1 X126.240 Y103.660 E0.01169
G1 X126.488 Y103.942 E0.01169
G1 X126.673 Y104.269 E0.01169
G1 X126.788 Y104.626 E0.01169
G1 X126.826 Y104.994 E0.01151
G1 X126.815 Y105.193 E0.00621
G1 X126.740 Y105.555 E0.01151
G1 X126.589 Y105.899 E0.01169
G1 X126.372 Y106.206 E0.01169
G1 X126.096 Y106.461 E0.01169
G1 X125.774 Y106.654 E0.01169
G1 X125.419 Y106.777 E0.01169
G1 X125.047 Y106.826 E0.01169
G1 X124.673 Y106.797 E0.01169
G1 X124.318 Y106.693 E0.01151
G1 X124.191 Y106.634 E0.00435
M204 S1000
G1 X123.820 Y106.799 F10800.000
G1 F8640.000
G1 X123.830 Y106.402 E-0.09908
G1 X123.568 Y106.133 E-0.08671
