; generated by PrusaSlicer 2.2.0+ on 2020-04-22 at 22:12:02 UTC


;
;

;
;
; 

; external perimeters extrusion width = 0.45mm
; perimeters extrusion width = 0.45mm
; infill extrusion width = 0.45mm
; solid infill extrusion width = 0.45mm
; top infill extrusion width = 0.40mm
; first layer extrusion width = 0.42mm

M73 P0 R26
M201 X9000 Y9000 Z500 E10000 ; sets maximum accelerations, mm/sec^2
M203 X500 Y500 Z12 E120 ; sets maximum feedrates, mm/sec
M204 P2000 R1500 T2000 ; sets acceleration (P, T) and retract acceleration (R), mm/sec^2
M205 X10.00 Y10.00 Z0.20 E2.50 ; sets the jerk limits, mm/sec
M205 S0 T0 ; sets the minimum extruding and travel feed rate, mm/sec
M107
M83  ; extruder relative mode
M140 S75 ; set bed temp
M109 S160 ; Set extruder temp before bed level
M190 S75 ; wait for bed temp

G28 W ; home all without mesh bed level
G80 N7 ; mesh bed leveling

M109 S240 ; wait for extruder temp

M221 S100 ; Set flow to 100

G1 Y-3.0 F1000.0 ; go outside print area
G92 E0.0
G1 E8 ; Purge Bubble
M73 P0 R26
G1 X60.0 E9.0 F1000.0 ; intro line
G1 X100.0 E12.5 F1000.0 ; intro line
G92 E0.0
G21 ; set units to millimeters
G90 ; use absolute coordinates
M83 ; use relative distances for extrusion
M900 K45; Filament gcode
;BEFORE_LAYER_CHANGE
G92 E0.0
;0.2


G1 E-0.80000 F2100.00000
G1 Z0.600 F10800.000
;AFTER_LAYER_CHANGE
;0.2
G1 X103.118 Y92.792
G1 Z0.200
G1 E0.80000 F2100.00000
M204 S1000
G1 F1200.000
G1 X103.992 Y92.623 E0.02567
G1 X146.004 Y92.623 E1.21188
G1 X146.906 Y92.802 E0.02653
G1 X147.670 Y93.308 E0.02642
G1 X151.820 Y97.471 E0.16956
G1 X152.219 Y98.147 E0.02264
G1 X152.376 Y98.916 E0.02264
G1 X152.377 Y111.019 E0.34913
G1 X152.277 Y111.683 E0.01938
G1 X152.049 Y112.206 E0.01644
G1 X151.700 Y112.662 E0.01655
G1 X147.632 Y116.729 E0.16594
G1 X146.882 Y117.208 E0.02567
G1 X146.008 Y117.377 E0.02567
G1 X103.745 Y117.363 E1.21911
G1 X103.017 Y117.164 E0.02177
G1 X102.391 Y116.750 E0.02166
G1 X98.271 Y112.632 E0.16803
G1 X97.792 Y111.882 E0.02567
G1 X97.623 Y111.016 E0.02545
G1 X97.623 Y98.985 E0.34705
G1 X97.711 Y98.360 E0.01819
G1 X97.940 Y97.814 E0.01710
G1 X98.295 Y97.344 E0.01699
G1 X102.368 Y93.271 E0.16616
G1 X103.068 Y92.825 E0.02394
@Object Bear_Cam_Thick_Base.stl id:0 copy 0
G1 F8640.000
G1 X103.992 Y92.623 E-0.21841
G1 X106.337 Y92.623 E-0.54159
G1 E-0.04000 F2100.00000
G1 Z0.800 F10800.000
G1 X121.463 Y102.958
G1 Z0.200
G1 E0.80000 F2100.00000
G1 F1200.000
G1 X125.000 Y100.916 E0.11781
G1 X128.537 Y102.958 E0.11781
G1 X128.537 Y107.042 E0.11781
G1 X125.000 Y109.084 E0.11781
G1 X121.463 Y107.042 E0.11781
G1 X121.463 Y103.018 E0.11608
G1 X121.840 Y103.176 F10800.000
G1 F1200.000
G1 X125.000 Y101.351 E0.10525
G1 X128.160 Y103.176 E0.10525
G1 X128.160 Y106.824 E0.10525
G1 X125.000 Y108.649 E0.10525
G1 X121.840 Y106.824 E0.10525
G1 X121.840 Y103.236 E0.10352
G1 X121.640 Y102.829 F10800.000
G1 F8640.000
G1 X124.667 Y101.550 E-0.76000
G1 E-0.04000 F2100.00000
G1 Z0.800 F10800.000
G1 X109.386 Y104.846
G1 Z0.200
G1 E0.80000 F2100.00000
G1 F1200.000
G1 X109.358 Y105.462 E0.01778
G1 X109.219 Y106.062 E0.01778
G1 X108.973 Y106.628 E0.01778
G1 X108.629 Y107.139 E0.01778
G1 X108.199 Y107.580 E0.01778
G1 X107.695 Y107.936 E0.01778
G1 X107.147 Y108.188 E0.01740
G1 X106.827 Y108.286 E0.00967
G1 X106.231 Y108.382 E0.01740
G1 X105.615 Y108.368 E0.01778
G1 X105.011 Y108.242 E0.01778
G1 X104.453 Y108.015 E0.01740
G1 X104.163 Y107.847 E0.00966
G1 X103.712 Y107.498 E0.01645
G1 X103.473 Y107.257 E0.00980
G1 X103.269 Y107.006 E0.00933
G1 X102.956 Y106.491 E0.01740
G1 X102.736 Y105.915 E0.01778
G1 X102.624 Y105.308 E0.01778
G1 X102.624 Y104.692 E0.01778
G1 X102.736 Y104.085 E0.01778
G1 X102.956 Y103.509 E0.01778
G1 X103.269 Y102.994 E0.01740
G1 X103.480 Y102.734 E0.00967
G1 X103.921 Y102.323 E0.01740
G1 X104.441 Y101.990 E0.01778
G1 X104.999 Y101.763 E0.01740
G1 X105.323 Y101.680 E0.00966
G1 X105.890 Y101.614 E0.01645
G1 X106.229 Y101.620 E0.00980
G1 X106.551 Y101.657 E0.00933
G1 X107.135 Y101.806 E0.01740
G1 X107.695 Y102.064 E0.01778
G1 X108.199 Y102.420 E0.01778
G1 X108.620 Y102.851 E0.01740
G1 X108.819 Y103.120 E0.00966
G1 X109.094 Y103.620 E0.01645
G1 X109.217 Y103.937 E0.00980
G1 X109.304 Y104.248 E0.00933
G1 X109.378 Y104.786 E0.01566
G1 X109.004 Y104.838 F10800.000
G1 F1200.000
G1 X108.983 Y105.410 E0.01652
G1 X108.859 Y105.944 E0.01580
G1 X108.641 Y106.446 E0.01580
G1 X108.336 Y106.900 E0.01580
G1 X107.953 Y107.292 E0.01580
G1 X107.506 Y107.608 E0.01580
G1 X107.013 Y107.835 E0.01566
G1 X106.741 Y107.918 E0.00818
G1 X106.205 Y108.004 E0.01566
G1 X105.658 Y107.992 E0.01580
G1 X105.122 Y107.880 E0.01580
G1 X104.619 Y107.675 E0.01566
G1 X104.374 Y107.534 E0.00818
G1 X103.963 Y107.215 E0.01500
G1 X103.754 Y107.005 E0.00855
G1 X103.578 Y106.788 E0.00806
G1 X103.296 Y106.324 E0.01566
G1 X103.101 Y105.812 E0.01580
G1 X103.001 Y105.274 E0.01580
G1 X103.001 Y104.726 E0.01580
G1 X103.101 Y104.188 E0.01580
G1 X103.296 Y103.676 E0.01580
G1 X103.578 Y103.212 E0.01566
G1 X103.757 Y102.992 E0.00818
G1 X104.153 Y102.622 E0.01566
G1 X104.615 Y102.327 E0.01580
G1 X105.117 Y102.122 E0.01566
G1 X105.392 Y102.051 E0.00818
G1 X105.908 Y101.992 E0.01500
G1 X106.205 Y101.997 E0.00855
G1 X106.482 Y102.028 E0.00806
G1 X107.008 Y102.163 E0.01566
G1 X107.506 Y102.392 E0.01580
G1 X107.953 Y102.708 E0.01580
G1 X108.332 Y103.096 E0.01566
G1 X108.501 Y103.324 E0.00818
G1 X108.751 Y103.780 E0.01500
G1 X108.859 Y104.056 E0.00855
G1 X108.934 Y104.325 E0.00806
G1 X108.996 Y104.778 E0.01319
G1 X109.358 Y105.025 F10800.000
G1 F8640.000
G1 X108.983 Y105.410 E-0.14592
G1 X108.859 Y105.944 E-0.12645
G1 X108.641 Y106.446 E-0.12645
G1 X108.336 Y106.900 E-0.12645
G1 X107.953 Y107.292 E-0.12645
G1 X107.570 Y107.562 E-0.10829
G1 E-0.04000 F2100.00000
G1 Z0.800 F10800.000
G1 X140.624 Y105.308
G1 Z0.200
G1 E0.80000 F2100.00000
G1 F1200.000
G1 X140.624 Y104.705 E0.01740
G1 X140.670 Y104.374 E0.00966
G1 X140.823 Y103.824 E0.01645
G1 X140.956 Y103.512 E0.00980
G1 X141.112 Y103.228 E0.00933
G1 X141.471 Y102.743 E0.01740
G1 X141.921 Y102.323 E0.01778
G1 X142.441 Y101.990 E0.01778
G1 X142.999 Y101.763 E0.01740
G1 X143.323 Y101.680 E0.00966
G1 X143.890 Y101.614 E0.01645
G1 X144.229 Y101.620 E0.00980
G1 X144.551 Y101.657 E0.00933
G1 X145.135 Y101.806 E0.01740
G1 X145.695 Y102.064 E0.01778
G1 X146.199 Y102.420 E0.01778
G1 X146.629 Y102.861 E0.01778
G1 X146.966 Y103.361 E0.01740
G1 X147.113 Y103.662 E0.00967
G1 X147.302 Y104.235 E0.01740
G1 X147.386 Y104.846 E0.01778
G1 X147.359 Y105.448 E0.01740
G1 X147.298 Y105.778 E0.00967
G1 X147.109 Y106.350 E0.01740
G1 X146.813 Y106.891 E0.01778
G1 X146.424 Y107.369 E0.01778
G1 X145.955 Y107.769 E0.01778
G1 X145.421 Y108.078 E0.01778
G1 X144.840 Y108.284 E0.01778
G1 X144.231 Y108.382 E0.01778
G1 X143.615 Y108.368 E0.01778
G1 X143.011 Y108.242 E0.01778
G1 X142.441 Y108.010 E0.01778
G1 X141.933 Y107.685 E0.01740
G1 X141.677 Y107.467 E0.00967
G1 X141.276 Y107.017 E0.01740
G1 X140.956 Y106.491 E0.01778
G1 X140.736 Y105.915 E0.01778
G1 X140.635 Y105.367 E0.01605
G1 X141.006 Y105.299 F10800.000
G1 F1200.000
G1 X141.001 Y104.731 E0.01638
G1 X141.040 Y104.450 E0.00818
G1 X141.179 Y103.949 E0.01500
G1 X141.296 Y103.677 E0.00855
G1 X141.430 Y103.432 E0.00806
G1 X141.753 Y102.995 E0.01566
G1 X142.153 Y102.622 E0.01580
G1 X142.615 Y102.327 E0.01580
G1 X143.117 Y102.122 E0.01566
G1 X143.392 Y102.051 E0.00818
G1 X143.908 Y101.992 E0.01500
G1 X144.205 Y101.997 E0.00855
G1 X144.482 Y102.028 E0.00806
G1 X145.008 Y102.163 E0.01566
G1 X145.506 Y102.392 E0.01580
G1 X145.953 Y102.708 E0.01580
G1 X146.336 Y103.100 E0.01580
G1 X146.639 Y103.550 E0.01566
G1 X146.763 Y103.805 E0.00818
G1 X146.933 Y104.320 E0.01566
G1 X147.008 Y104.863 E0.01580
G1 X146.983 Y105.405 E0.01566
G1 X146.932 Y105.684 E0.00818
G1 X146.762 Y106.200 E0.01566
G1 X146.499 Y106.680 E0.01580
G1 X146.153 Y107.105 E0.01580
G1 X145.736 Y107.460 E0.01580
G1 X145.262 Y107.734 E0.01580
G1 X144.746 Y107.917 E0.01580
G1 X144.205 Y108.004 E0.01580
G1 X143.658 Y107.992 E0.01580
G1 X143.122 Y107.880 E0.01580
G1 X142.615 Y107.673 E0.01580
G1 X142.157 Y107.381 E0.01566
G1 X141.942 Y107.197 E0.00818
G1 X141.580 Y106.792 E0.01566
G1 X141.296 Y106.324 E0.01580
G1 X141.101 Y105.812 E0.01580
G1 X141.017 Y105.358 E0.01333
G1 X140.642 Y105.134 F10800.000
G1 F8640.000
G1 X141.001 Y104.731 E-0.14481
G1 X141.040 Y104.450 E-0.06545
G1 X141.179 Y103.949 E-0.12003
G1 X141.296 Y103.677 E-0.06846
G1 X141.430 Y103.432 E-0.06453
G1 X141.753 Y102.995 E-0.12534
G1 X142.153 Y102.622 E-0.12645
G1 X142.317 Y102.517 E-0.04493
G1 E-0.04000 F2100.00000
G1 Z0.800 F10800.000
G1 X149.213 Y110.674
G1 Z0.200
G1 E0.80000 F2100.00000
G1 F1200.000
G1 X145.674 Y114.213 E0.14437
G1 X104.326 Y114.213 E1.19272
G1 X100.787 Y110.674 E0.14437
G1 X100.787 Y99.326 E0.32734
G1 X104.326 Y95.787 E0.14437
G1 X145.674 Y95.787 E1.19272
G1 X149.213 Y99.326 E0.14437
G1 X149.213 Y110.614 E0.32561
G1 X149.590 Y110.830 F10800.000
G1 F1200.000
G1 X145.830 Y114.590 E0.15338
G1 X104.170 Y114.590 E1.20173
G1 X100.410 Y110.830 E0.15338
G1 X100.410 Y99.170 E0.33635
G1 X104.170 Y95.410 E0.15338
G1 X145.830 Y95.410 E1.20173
G1 X149.590 Y99.170 E0.15338
G1 X149.590 Y110.770 E0.33462
G1 X149.191 Y110.862 F10800.000
G1 F8640.000
G1 X147.281 Y113.116 E-0.76000
G1 E-0.04000 F2100.00000
G1 Z0.800 F10800.000
G1 X146.565 Y113.162
G1 Z0.200
G1 E0.80000 F2100.00000
G1 F1200.000
G1 X129.472 Y96.070 E0.70097
G1 X128.936 Y96.070 E0.01555
G1 X146.177 Y113.310 E0.70704
G1 X145.909 Y113.578 E0.01099
G1 X128.400 Y96.070 E0.71804
G1 X127.864 Y96.070 E0.01555
G1 X145.641 Y113.846 E0.72903
G1 X145.557 Y113.930 E0.00343
G1 X145.188 Y113.930 E0.01069
G1 X127.328 Y96.070 E0.73246
G1 X126.792 Y96.070 E0.01555
G1 X144.652 Y113.930 E0.73246
G1 X144.116 Y113.930 E0.01555
G1 X126.256 Y96.070 E0.73246
G1 X125.720 Y96.070 E0.01555
G1 X143.580 Y113.930 E0.73246
G1 X143.044 Y113.930 E0.01555
G1 X125.184 Y96.070 E0.73246
G1 X124.647 Y96.070 E0.01555
G1 X142.508 Y113.930 E0.73246
G1 X141.972 Y113.930 E0.01555
G1 X124.111 Y96.070 E0.73246
G1 X123.575 Y96.070 E0.01555
G1 X141.436 Y113.930 E0.73246
G1 X140.899 Y113.930 E0.01555
G1 X123.039 Y96.070 E0.73246
G1 X122.503 Y96.070 E0.01555
G1 X140.363 Y113.930 E0.73246
G1 X139.827 Y113.930 E0.01555
G1 X121.967 Y96.070 E0.73246
G1 X121.431 Y96.070 E0.01555
G1 X127.248 Y101.887 E0.23857
G1 X125.980 Y101.155 E0.04247
G1 X120.895 Y96.070 E0.20854
G1 X120.359 Y96.070 E0.01555
G1 X124.923 Y100.634 E0.18717
G1 X124.583 Y100.830 E0.01138
G1 X119.823 Y96.070 E0.19522
G1 X119.286 Y96.070 E0.01555
G1 X124.243 Y101.026 E0.20327
G1 X123.903 Y101.223 E0.01138
G1 X118.750 Y96.070 E0.21131
G1 X118.214 Y96.070 E0.01555
G1 X123.563 Y101.419 E0.21936
G1 X123.223 Y101.615 E0.01138
G1 X117.678 Y96.070 E0.22741
G1 X117.142 Y96.070 E0.01555
G1 X122.883 Y101.811 E0.23546
G1 X122.544 Y102.007 E0.01138
G1 X116.606 Y96.070 E0.24350
G1 X116.070 Y96.070 E0.01555
G1 X122.204 Y102.204 E0.25155
G1 X121.864 Y102.400 E0.01138
G1 X115.534 Y96.070 E0.25960
M73 P3 R25
G1 X114.998 Y96.070 E0.01555
G1 X121.524 Y102.596 E0.26765
G1 X121.184 Y102.792 E0.01138
G1 X114.462 Y96.070 E0.27569
G1 X113.925 Y96.070 E0.01555
G1 X121.180 Y103.325 E0.29752
G1 X121.180 Y103.861 E0.01555
G1 X113.389 Y96.070 E0.31951
G1 X112.853 Y96.070 E0.01555
G1 X121.180 Y104.397 E0.34149
G1 X121.180 Y104.933 E0.01555
G1 X112.317 Y96.070 E0.36348
G1 X111.781 Y96.070 E0.01555
G1 X121.180 Y105.469 E0.38546
G1 X121.180 Y106.005 E0.01555
G1 X111.245 Y96.070 E0.40745
G1 X110.709 Y96.070 E0.01555
G1 X121.350 Y106.711 E0.43639
G1 F8640.000
G1 X119.022 Y104.383 E-0.76000
G1 E-0.04000 F2100.00000
G1 Z0.800 F10800.000
G1 X122.288 Y107.649
G1 Z0.200
G1 E0.80000 F2100.00000
G1 F1200.000
G1 X128.569 Y113.930 E0.25759
G1 X129.105 Y113.930 E0.01555
G1 X124.020 Y108.845 E0.20854
G1 X125.000 Y109.411 E0.03281
G1 X125.077 Y109.366 E0.00259
G1 X129.641 Y113.930 E0.18717
G1 X130.177 Y113.930 E0.01555
G1 X125.417 Y109.170 E0.19522
G1 X125.757 Y108.974 E0.01138
G1 X130.714 Y113.930 E0.20327
G1 X131.250 Y113.930 E0.01555
G1 X126.097 Y108.777 E0.21131
G1 X126.437 Y108.581 E0.01138
G1 X131.786 Y113.930 E0.21936
G1 X132.322 Y113.930 E0.01555
G1 X126.777 Y108.385 E0.22741
G1 X127.117 Y108.189 E0.01138
G1 X132.858 Y113.930 E0.23546
G1 X133.394 Y113.930 E0.01555
G1 X127.456 Y107.993 E0.24350
G1 X127.796 Y107.796 E0.01138
G1 X133.930 Y113.930 E0.25155
G1 X134.466 Y113.930 E0.01555
G1 X128.136 Y107.600 E0.25960
G1 X128.476 Y107.404 E0.01138
G1 X135.002 Y113.930 E0.26765
G1 X135.538 Y113.930 E0.01555
G1 X128.816 Y107.208 E0.27569
G1 X128.820 Y106.675 E0.01543
G1 X136.075 Y113.930 E0.29752
G1 X136.611 Y113.930 E0.01555
G1 X128.820 Y106.139 E0.31950
G1 X128.820 Y105.603 E0.01555
G1 X137.147 Y113.930 E0.34149
G1 X137.683 Y113.930 E0.01555
G1 X128.820 Y105.067 E0.36348
G1 X128.820 Y104.531 E0.01555
G1 X138.219 Y113.930 E0.38546
G1 X138.755 Y113.930 E0.01555
G1 X128.820 Y103.995 E0.40745
G1 X128.820 Y103.459 E0.01555
G1 X139.461 Y114.100 E0.43639
G1 F8640.000
G1 X137.133 Y111.772 E-0.76000
G1 E-0.04000 F2100.00000
G1 Z0.800 F10800.000
G1 X128.203 Y114.100
G1 Z0.200
G1 E0.80000 F2100.00000
G1 F1200.000
G1 X110.173 Y96.070 E0.73942
G1 X109.637 Y96.070 E0.01555
G1 X127.497 Y113.930 E0.73246
G1 X126.961 Y113.930 E0.01555
G1 X109.101 Y96.070 E0.73246
G1 X108.564 Y96.070 E0.01555
G1 X126.425 Y113.930 E0.73246
G1 X125.889 Y113.930 E0.01555
G1 X108.028 Y96.070 E0.73246
G1 X107.492 Y96.070 E0.01555
G1 X125.353 Y113.930 E0.73246
G1 X124.816 Y113.930 E0.01555
G1 X106.956 Y96.070 E0.73246
G1 X106.420 Y96.070 E0.01555
G1 X124.280 Y113.930 E0.73246
G1 X123.744 Y113.930 E0.01555
G1 X105.884 Y96.070 E0.73246
G1 X105.348 Y96.070 E0.01555
G1 X123.208 Y113.930 E0.73246
G1 X122.672 Y113.930 E0.01555
G1 X104.812 Y96.070 E0.73246
G1 X104.443 Y96.070 E0.01069
G1 X104.359 Y96.154 E0.00343
G1 X122.136 Y113.930 E0.72903
G1 X121.600 Y113.930 E0.01555
G1 X104.091 Y96.422 E0.71804
G1 X103.823 Y96.690 E0.01099
G1 X121.064 Y113.930 E0.70704
G1 X120.528 Y113.930 E0.01555
G1 X103.555 Y96.958 E0.69605
G1 X103.287 Y97.226 E0.01099
G1 X119.992 Y113.930 E0.68506
G1 X119.455 Y113.930 E0.01555
G1 X109.529 Y104.004 E0.40708
G1 X109.582 Y104.191 E0.00562
G1 X109.646 Y104.656 E0.01364
G1 X118.919 Y113.930 E0.38032
G1 X118.383 Y113.930 E0.01555
G1 X109.653 Y105.200 E0.35803
G1 X109.639 Y105.500 E0.00871
G1 X109.598 Y105.681 E0.00537
G1 X117.847 Y113.930 E0.33832
G1 X117.311 Y113.930 E0.01555
G1 X109.497 Y106.116 E0.32047
G1 X109.339 Y106.495 E0.01189
G1 X116.775 Y113.930 E0.30493
G1 X116.239 Y113.930 E0.01555
G1 X109.162 Y106.854 E0.29022
G1 X108.947 Y107.174 E0.01120
G1 X115.703 Y113.930 E0.27707
G1 X115.167 Y113.930 E0.01555
G1 X108.704 Y107.468 E0.26504
G1 X108.439 Y107.739 E0.01099
G1 X114.631 Y113.930 E0.25392
G1 X114.094 Y113.930 E0.01555
G1 X108.135 Y107.971 E0.24439
G1 X107.818 Y108.190 E0.01117
G1 X113.558 Y113.930 E0.23540
G1 X113.022 Y113.930 E0.01555
G1 X107.452 Y108.359 E0.22846
G1 X107.248 Y108.453 E0.00649
G1 X107.065 Y108.509 E0.00556
G1 X112.486 Y113.930 E0.22232
G1 X111.950 Y113.930 E0.01555
G1 X106.625 Y108.605 E0.21839
G1 X106.251 Y108.665 E0.01099
G1 X106.147 Y108.663 E0.00302
G1 X111.414 Y113.930 E0.21602
G1 X110.878 Y113.930 E0.01555
G1 X105.598 Y108.650 E0.21653
G1 X104.923 Y108.512 E0.01997
G1 X110.342 Y113.930 E0.22221
G1 X109.806 Y113.930 E0.01555
G1 X101.070 Y105.194 E0.35826
G1 X101.070 Y104.658 E0.01555
G1 X102.499 Y106.088 E0.05863
G1 X102.463 Y105.991 E0.00300
G1 X102.355 Y105.407 E0.01721
G1 X101.070 Y104.122 E0.05271
G1 X101.070 Y103.586 E0.01555
G1 X102.342 Y104.858 E0.05215
G1 X102.342 Y104.666 E0.00556
G1 X102.395 Y104.375 E0.00857
G1 X101.070 Y103.050 E0.05435
G1 X101.070 Y102.514 E0.01555
G1 X102.491 Y103.935 E0.05827
G1 X102.639 Y103.547 E0.01205
G1 X101.070 Y101.978 E0.06434
G1 X101.070 Y101.442 E0.01555
G1 X102.819 Y103.190 E0.07172
G1 X103.021 Y102.857 E0.01131
G1 X101.070 Y100.906 E0.08003
G1 X101.070 Y100.369 E0.01555
G1 X103.259 Y102.558 E0.08977
G1 X103.534 Y102.297 E0.01100
G1 X101.070 Y99.833 E0.10105
G1 X101.070 Y99.443 E0.01132
G1 X101.143 Y99.370 E0.00299
G1 X103.823 Y102.050 E0.10990
G1 X104.149 Y101.841 E0.01126
