; generated by PrusaSlicer 2.0.0+ on 2019-06-05 at 10:30:11

; 

; external perimeters extrusion width = 0.45mm
; perimeters extrusion width = 0.45mm
; infill extrusion width = 0.45mm
; solid infill extrusion width = 0.45mm
; top infill extrusion width = 0.40mm
; first layer extrusion width = 0.42mm

M73 P0 R20
M201 X9000 Y9000 Z500 E10000 ; sets maximum accelerations, mm/sec^2
M203 X500 Y500 Z12 E120 ; sets maximum feedrates, mm/sec
M204 P2000 R1500 T2000 ; sets acceleration (P, T) and retract acceleration (R), mm/sec^2
M205 X10.00 Y10.00 Z0.20 E2.50 ; sets the jerk limits, mm/sec
M205 S0 T0 ; sets the minimum extruding and travel feed rate, mm/sec
M107
M83  ; extruder relative mode
M140 S65 ; set bed temp
M109 S160 ; Set extruder temp before bed level
M190 S65 ; wait for bed temp

G28 W ; home all without mesh bed level
G80 N7 ; mesh bed leveling

M109 S215 ; wait for extruder temp

M221 S100 ; Set flow to 100

G1 Y-3.0 F1000.0 ; go outside print area
G92 E0.0
G1 E8 ; Purge Bubble
M73 P0 R20
G1 X60.0 E9.0 F1000.0 ; intro line
G1 X100.0 E12.5 F1000.0 ; intro line
G92 E0.0
M900 K30; Filament gcode
G21 ; set units to millimeters
G90 ; use absolute coordinates
M83 ; use relative distances for extrusion
;BEFORE_LAYER_CHANGE
G92 E0.0
;0.2


G1 E-0.80000 F2100.00000
G1 Z0.600 F10800.000
;AFTER_LAYER_CHANGE
;0.2
G1 X112.651 Y94.540
G1 Z0.200
G1 E0.80000 F2100.00000
M204 S1000
G1 F1200
G1 X113.083 Y93.803 E0.02546
G1 X114.207 Y92.764 E0.04558
G1 X114.770 Y92.506 E0.01846
G1 X115.383 Y92.390 E0.01858
G1 X134.554 Y92.384 E0.57103
G1 X135.486 Y92.561 E0.02824
G1 X136.286 Y93.061 E0.02813
G1 X137.232 Y94.100 E0.04184
G1 X137.478 Y94.621 E0.01717
G1 X137.602 Y95.185 E0.01717
G1 X137.615 Y114.621 E0.57895
G1 X137.449 Y115.460 E0.02546
G1 X137.017 Y116.197 E0.02546
G1 X136.281 Y116.943 E0.03121
G1 X135.863 Y117.254 E0.01553
G1 X135.277 Y117.511 E0.01905
G1 X134.642 Y117.614 E0.01916
G1 X115.475 Y117.615 E0.57092
G1 X114.640 Y117.449 E0.02534
G1 X113.903 Y117.017 E0.02546
G1 X113.157 Y116.281 E0.03121
G1 X112.846 Y115.863 E0.01553
G1 X112.589 Y115.277 E0.01905
G1 X112.486 Y114.642 E0.01916
G1 X112.485 Y95.375 E0.57390
G1 X112.639 Y94.599 E0.02356
G1 X113.005 Y94.672 F10800.000
G1 F1200
G1 X113.385 Y94.029 E0.02222
G1 X114.394 Y93.092 E0.04102
G1 X114.887 Y92.864 E0.01618
G1 X115.421 Y92.765 E0.01618
G1 X134.554 Y92.761 E0.56989
G1 X135.353 Y92.914 E0.02424
G1 X136.039 Y93.346 E0.02414
G1 X136.906 Y94.291 E0.03820
G1 X137.123 Y94.749 E0.01510
G1 X137.229 Y95.248 E0.01521
G1 X137.238 Y114.605 E0.57657
G1 X137.094 Y115.333 E0.02210
G1 X136.715 Y115.971 E0.02210
G1 X135.681 Y116.923 E0.04187
G1 X135.171 Y117.149 E0.01661
G1 X134.621 Y117.237 E0.01661
G1 X115.495 Y117.238 E0.56968
G1 X114.767 Y117.094 E0.02210
G1 X114.129 Y116.715 E0.02210
G1 X113.177 Y115.681 E0.04187
G1 X112.951 Y115.171 E0.01661
G1 X112.863 Y114.621 E0.01661
G1 X112.862 Y95.395 E0.57266
G1 X112.994 Y94.730 E0.02018
G1 F8640
G1 X113.385 Y94.029 E-0.18539
G1 X114.394 Y93.092 E-0.31797
G1 X114.887 Y92.864 E-0.12542
G1 X115.421 Y92.765 E-0.12542
G1 X115.446 Y92.765 E-0.00580
G1 E-0.04000 F2100.00000
G1 Z0.800 F10800.000
G1 X123.414 Y103.545
G1 Z0.200
G1 E0.80000 F2100.00000
G1 F1200
G1 X123.714 Y103.265 E0.01222
G1 X124.060 Y103.047 E0.01222
G1 X124.429 Y102.901 E0.01180
G1 X124.655 Y102.847 E0.00692
G1 X125.043 Y102.811 E0.01161
G1 X125.458 Y102.849 E0.01239
G1 X125.852 Y102.963 E0.01224
G1 X126.218 Y103.148 E0.01222
G1 X126.543 Y103.398 E0.01222
G1 X126.815 Y103.705 E0.01222
G1 X127.026 Y104.057 E0.01222
G1 X127.167 Y104.442 E0.01222
G1 X127.234 Y104.846 E0.01222
G1 X127.225 Y105.242 E0.01180
G1 X127.187 Y105.472 E0.00692
G1 X127.070 Y105.844 E0.01161
G1 X126.875 Y106.211 E0.01239
G1 X126.616 Y106.530 E0.01224
G1 X126.304 Y106.795 E0.01222
G1 X125.947 Y106.998 E0.01222
G1 X125.559 Y107.130 E0.01222
G1 X125.153 Y107.187 E0.01222
G1 X124.743 Y107.168 E0.01222
G1 X124.344 Y107.073 E0.01221
G1 X123.983 Y106.910 E0.01180
G1 X123.786 Y106.786 E0.00693
G1 X123.484 Y106.530 E0.01180
G1 X123.226 Y106.211 E0.01222
G1 X123.032 Y105.850 E0.01222
G1 X122.909 Y105.459 E0.01222
G1 X122.861 Y105.051 E0.01222
G1 X122.890 Y104.642 E0.01222
G1 X122.994 Y104.246 E0.01222
G1 X123.171 Y103.876 E0.01222
G1 X123.378 Y103.593 E0.01043
G1 X123.682 Y103.816 F10800.000
G1 F1200
G1 X123.945 Y103.565 E0.01082
G1 X124.232 Y103.385 E0.01010
G1 X124.543 Y103.262 E0.00995
G1 X124.717 Y103.220 E0.00535
G1 X125.044 Y103.189 E0.00978
G1 X125.387 Y103.221 E0.01027
G1 X125.713 Y103.315 E0.01011
G1 X126.016 Y103.468 E0.01010
G1 X126.285 Y103.675 E0.01010
G1 X126.510 Y103.929 E0.01010
G1 X126.684 Y104.220 E0.01010
G1 X126.801 Y104.538 E0.01010
G1 X126.856 Y104.873 E0.01010
G1 X126.849 Y105.207 E0.00995
G1 X126.819 Y105.384 E0.00535
G1 X126.721 Y105.697 E0.00978
G1 X126.559 Y106.001 E0.01027
G1 X126.345 Y106.265 E0.01011
G1 X126.087 Y106.485 E0.01010
G1 X125.792 Y106.652 E0.01010
G1 X125.471 Y106.761 E0.01010
G1 X125.135 Y106.809 E0.01010
G1 X124.796 Y106.793 E0.01010
G1 X124.466 Y106.714 E0.01010
G1 X124.161 Y106.577 E0.00995
G1 X124.009 Y106.482 E0.00535
G1 X123.755 Y106.265 E0.00995
G1 X123.541 Y106.002 E0.01010
G1 X123.381 Y105.703 E0.01010
G1 X123.279 Y105.379 E0.01010
G1 X123.240 Y105.042 E0.01010
G1 X123.263 Y104.704 E0.01010
G1 X123.350 Y104.376 E0.01010
G1 X123.496 Y104.070 E0.01010
G1 X123.647 Y103.865 E0.00758
G1 X123.564 Y103.473 F10800.000
G1 F8640
G1 X123.945 Y103.565 E-0.09756
G1 X124.232 Y103.385 E-0.07831
G1 X124.543 Y103.262 E-0.07717
G1 X124.717 Y103.220 E-0.04144
G1 X125.044 Y103.189 E-0.07581
G1 X125.387 Y103.221 E-0.07962
G1 X125.713 Y103.315 E-0.07837
G1 X126.016 Y103.468 E-0.07831
G1 X126.285 Y103.675 E-0.07831
G1 X126.501 Y103.918 E-0.07509
G1 E-0.04000 F2100.00000
G1 Z0.800 F10800.000
G1 X115.637 Y95.693
G1 Z0.200
G1 E0.80000 F2100.00000
G1 F1200
G1 X115.793 Y95.537 E0.00658
G1 X134.307 Y95.537 E0.55146
G1 X134.463 Y95.693 E0.00658
G1 X134.463 Y114.307 E0.55444
G1 X134.307 Y114.463 E0.00658
G1 X115.793 Y114.463 E0.55146
G1 X115.637 Y114.307 E0.00658
G1 X115.637 Y95.753 E0.55265
G1 X115.260 Y95.537 F10800.000
G1 F1200
G1 X115.637 Y95.160 E0.01588
G1 X134.463 Y95.160 E0.56076
G1 X134.840 Y95.537 E0.01588
G1 X134.840 Y114.463 E0.56374
G1 X134.463 Y114.840 E0.01588
G1 X115.637 Y114.840 E0.56076
G1 X115.260 Y114.463 E0.01588
G1 X115.260 Y95.597 E0.56195
G1 X115.660 Y95.534 F10800.000
G1 F8640
G1 X115.637 Y95.160 E-0.13326
G1 X118.351 Y95.160 E-0.62674
G1 E-0.04000 F2100.00000
G1 Z0.800 F10800.000
G1 X122.767 Y105.949
G1 Z0.200
G1 E0.80000 F2100.00000
G1 F1200
G1 X115.920 Y99.102 E0.29138
G1 X115.920 Y98.564 E0.01621
G1 X122.599 Y105.242 E0.28423
G1 X122.577 Y105.058 E0.00559
G1 X122.602 Y104.707 E0.01060
G1 X115.920 Y98.025 E0.28436
G1 X115.920 Y97.486 E0.01621
G1 X122.697 Y104.263 E0.28842
G1 X122.728 Y104.148 E0.00360
G1 X122.855 Y103.882 E0.00886
G1 X115.920 Y96.947 E0.29512
G1 X115.920 Y96.409 E0.01621
G1 X123.060 Y103.549 E0.30386
G1 X123.201 Y103.356 E0.00719
G1 X123.307 Y103.257 E0.00436
G1 X115.920 Y95.870 E0.31439
G1 X115.920 Y95.820 E0.00151
G1 X116.409 Y95.820 E0.01471
G1 X123.595 Y103.006 E0.30582
G1 X123.925 Y102.798 E0.01175
G1 X116.947 Y95.820 E0.29695
G1 X117.486 Y95.820 E0.01621
G1 X124.310 Y102.644 E0.29042
G1 X124.609 Y102.568 E0.00927
G1 X124.759 Y102.554 E0.00453
G1 X118.025 Y95.820 E0.28656
G1 X118.563 Y95.820 E0.01621
G1 X125.293 Y102.550 E0.28639
G1 X125.510 Y102.569 E0.00656
G1 X126.006 Y102.723 E0.01561
G1 X119.102 Y95.820 E0.29379
G1 X119.641 Y95.820 E0.01621
G1 X134.180 Y110.359 E0.61873
G1 X134.180 Y109.820 E0.01621
G1 X120.180 Y95.820 E0.59581
G1 X120.718 Y95.820 E0.01621
G1 X134.180 Y109.282 E0.57288
G1 X134.180 Y108.743 E0.01621
G1 X121.257 Y95.820 E0.54995
G1 X121.796 Y95.820 E0.01621
G1 X134.180 Y108.204 E0.52703
G1 X134.180 Y107.665 E0.01621
G1 X122.335 Y95.820 E0.50410
G1 X122.873 Y95.820 E0.01621
G1 X134.180 Y107.127 E0.48117
G1 X134.180 Y106.588 E0.01621
G1 X123.412 Y95.820 E0.45825
G1 X123.951 Y95.820 E0.01621
G1 X134.180 Y106.049 E0.43532
G1 X134.180 Y105.510 E0.01621
G1 X124.490 Y95.820 E0.41239
G1 X125.028 Y95.820 E0.01621
G1 X134.180 Y104.972 E0.38947
G1 X134.180 Y104.433 E0.01621
G1 X125.567 Y95.820 E0.36654
G1 X126.106 Y95.820 E0.01621
G1 X134.180 Y103.894 E0.34361
G1 X134.180 Y103.355 E0.01621
G1 X126.645 Y95.820 E0.32069
G1 X127.183 Y95.820 E0.01621
G1 X134.180 Y102.817 E0.29776
G1 X134.180 Y102.278 E0.01621
G1 X127.722 Y95.820 E0.27483
G1 X128.261 Y95.820 E0.01621
G1 X134.180 Y101.739 E0.25191
G1 X134.180 Y101.200 E0.01621
G1 X128.800 Y95.820 E0.22898
G1 X129.338 Y95.820 E0.01621
G1 X134.180 Y100.662 E0.20605
G1 X134.180 Y100.123 E0.01621
G1 X129.877 Y95.820 E0.18313
G1 X130.416 Y95.820 E0.01621
G1 X134.180 Y99.584 E0.16020
G1 X134.180 Y99.046 E0.01621
G1 X130.954 Y95.820 E0.13727
G1 X131.493 Y95.820 E0.01621
G1 X134.180 Y98.507 E0.11435
G1 X134.180 Y97.968 E0.01621
G1 X132.032 Y95.820 E0.09142
G1 X132.571 Y95.820 E0.01621
G1 X134.180 Y97.429 E0.06849
G1 X134.180 Y96.891 E0.01621
G1 X133.109 Y95.820 E0.04557
G1 X133.648 Y95.820 E0.01621
G1 X134.350 Y96.522 E0.02986
G1 F8640
G1 X133.648 Y95.820 E-0.22913
G1 X133.109 Y95.820 E-0.12440
G1 X134.180 Y96.891 E-0.34964
G1 X134.180 Y97.137 E-0.05683
G1 E-0.04000 F2100.00000
G1 Z0.800 F10800.000
G1 X134.350 Y111.067
G1 Z0.200
G1 E0.80000 F2100.00000
G1 F1200
G1 X127.320 Y104.038 E0.29915
G1 X127.442 Y104.369 E0.01061
G1 X127.507 Y104.764 E0.01203
G1 X134.180 Y111.437 E0.28397
G1 X134.180 Y111.975 E0.01621
G1 X127.502 Y105.298 E0.28418
G1 X127.463 Y105.537 E0.00731
G1 X127.401 Y105.735 E0.00623
G1 X134.180 Y112.514 E0.28850
G1 X134.180 Y113.053 E0.01621
G1 X127.245 Y106.117 E0.29514
G1 X127.112 Y106.367 E0.00853
G1 X127.042 Y106.453 E0.00333
G1 X134.180 Y113.591 E0.30377
G1 X134.180 Y114.130 E0.01621
G1 X126.797 Y106.747 E0.31419
G1 X126.506 Y106.995 E0.01150
G1 X133.691 Y114.180 E0.30579
G1 X133.153 Y114.180 E0.01621
G1 X126.169 Y107.197 E0.29719
G1 X126.063 Y107.257 E0.00366
G1 X125.785 Y107.351 E0.00884
G1 X132.614 Y114.180 E0.29061
G1 X132.075 Y114.180 E0.01621
G1 X125.341 Y107.446 E0.28657
G1 X125.166 Y107.471 E0.00533
G1 X124.811 Y107.454 E0.01071
G1 X131.536 Y114.180 E0.28623
G1 X130.998 Y114.180 E0.01621
G1 X124.083 Y107.266 E0.29426
G1 F8640
G1 X126.410 Y109.593 E-0.76000
G1 E-0.04000 F2100.00000
G1 Z0.800 F10800.000
G1 X130.629 Y114.350
G1 Z0.200
G1 E0.80000 F2100.00000
G1 F1200
G1 X115.920 Y99.641 E0.62595
G1 X115.920 Y100.180 E0.01621
G1 X129.920 Y114.180 E0.59580
G1 X129.381 Y114.180 E0.01621
G1 X115.920 Y100.719 E0.57288
G1 X115.920 Y101.257 E0.01621
G1 X128.843 Y114.180 E0.54995
M73 P5 R19
G1 X128.304 Y114.180 E0.01621
G1 X115.920 Y101.796 E0.52702
G1 X115.920 Y102.335 E0.01621
G1 X127.765 Y114.180 E0.50410
G1 X127.226 Y114.180 E0.01621
G1 X115.920 Y102.874 E0.48117
G1 X115.920 Y103.412 E0.01621
G1 X126.688 Y114.180 E0.45824
G1 X126.149 Y114.180 E0.01621
G1 X115.920 Y103.951 E0.43532
G1 X115.920 Y104.490 E0.01621
G1 X125.610 Y114.180 E0.41239
G1 X125.072 Y114.180 E0.01621
G1 X115.920 Y105.028 E0.38946
G1 X115.920 Y105.567 E0.01621
G1 X124.533 Y114.180 E0.36654
G1 X123.994 Y114.180 E0.01621
G1 X115.920 Y106.106 E0.34361
G1 X115.920 Y106.645 E0.01621
G1 X123.455 Y114.180 E0.32068
G1 X122.917 Y114.180 E0.01621
G1 X115.920 Y107.183 E0.29776
G1 X115.920 Y107.722 E0.01621
G1 X122.378 Y114.180 E0.27483
G1 X121.839 Y114.180 E0.01621
G1 X115.920 Y108.261 E0.25190
G1 X115.920 Y108.800 E0.01621
G1 X121.300 Y114.180 E0.22897
G1 X120.762 Y114.180 E0.01621
G1 X115.920 Y109.338 E0.20605
G1 X115.920 Y109.877 E0.01621
G1 X120.223 Y114.180 E0.18312
G1 X119.684 Y114.180 E0.01621
G1 X115.920 Y110.416 E0.16019
G1 X115.920 Y110.955 E0.01621
G1 X119.145 Y114.180 E0.13727
G1 X118.607 Y114.180 E0.01621
G1 X115.920 Y111.493 E0.11434
G1 X115.920 Y112.032 E0.01621
G1 X118.068 Y114.180 E0.09141
G1 X117.529 Y114.180 E0.01621
G1 X115.920 Y112.571 E0.06849
G1 X115.920 Y113.110 E0.01621
G1 X116.990 Y114.180 E0.04556
G1 X116.452 Y114.180 E0.01621
G1 X115.750 Y113.479 E0.02986
M106 S255
;BEFORE_LAYER_CHANGE
G92 E0.0
;0.4


G1 F8640
G1 X116.452 Y114.180 E-0.22909
G1 X116.990 Y114.180 E-0.12440
G1 X115.920 Y113.110 E-0.34960
G1 X115.920 Y112.863 E-0.05691
G1 E-0.04000 F2100.00000
G1 Z0.800 F10800.000
;AFTER_LAYER_CHANGE
;0.4
M104 S210 ; set temperature
G1 X114.640 Y117.449
G1 Z0.400
G1 E0.80000 F2100.00000
G1 F3600
G1 X113.903 Y117.017 E0.02546
G1 X113.157 Y116.281 E0.03121
G1 X112.846 Y115.863 E0.01553
G1 X112.589 Y115.277 E0.01905
G1 X112.486 Y114.642 E0.01916
G1 X112.485 Y95.375 E0.57390
G1 X112.651 Y94.540 E0.02534
G1 X113.083 Y93.803 E0.02546
G1 X114.207 Y92.764 E0.04558
G1 X114.770 Y92.506 E0.01846
G1 X115.383 Y92.390 E0.01858
G1 X134.554 Y92.384 E0.57103
G1 X135.486 Y92.561 E0.02824
G1 X136.286 Y93.061 E0.02813
G1 X137.232 Y94.100 E0.04184
G1 X137.478 Y94.621 E0.01717
G1 X137.602 Y95.185 E0.01717
G1 X137.615 Y114.621 E0.57895
G1 X137.449 Y115.460 E0.02546
G1 X137.017 Y116.197 E0.02546
G1 X136.281 Y116.943 E0.03121
G1 X135.863 Y117.254 E0.01553
G1 X135.277 Y117.511 E0.01905
G1 X134.642 Y117.614 E0.01916
G1 X115.475 Y117.615 E0.57092
G1 X114.699 Y117.461 E0.02356
G1 F8640
G1 X113.903 Y117.017 E-0.21049
G1 X113.157 Y116.281 E-0.24197
G1 X112.846 Y115.863 E-0.12040
G1 X112.589 Y115.277 E-0.14764
G1 X112.562 Y115.108 E-0.03949
G1 E-0.04000 F2100.00000
G1 Z1.000 F10800.000
G1 X123.466 Y106.575
G1 Z0.400
G1 E0.80000 F2100.00000
M204 S800
G1 F1800
G1 X123.189 Y106.238 E0.01403
G1 X122.990 Y105.867 E0.01354
G1 X122.865 Y105.468 E0.01346
G1 X122.816 Y105.052 E0.01346
G1 X122.845 Y104.635 E0.01346
G1 X122.952 Y104.230 E0.01346
G1 X123.132 Y103.852 E0.01346
G1 X123.380 Y103.515 E0.01346
G1 X123.686 Y103.230 E0.01346
G1 X124.040 Y103.006 E0.01346
G1 X124.416 Y102.858 E0.01298
G1 X124.647 Y102.803 E0.00766
G1 X125.030 Y102.766 E0.01236
G1 X125.464 Y102.804 E0.01403
G1 X125.869 Y102.921 E0.01354
G1 X126.242 Y103.110 E0.01346
G1 X126.574 Y103.365 E0.01346
G1 X126.852 Y103.678 E0.01346
G1 X127.067 Y104.037 E0.01346
G1 X127.211 Y104.430 E0.01346
G1 X127.279 Y104.843 E0.01346
G1 X127.270 Y105.246 E0.01298
G1 X127.231 Y105.481 E0.00766
G1 X127.117 Y105.848 E0.01236
G1 X126.913 Y106.234 E0.01403
G1 X126.649 Y106.562 E0.01354
G1 X126.329 Y106.832 E0.01346
G1 X125.965 Y107.039 E0.01346
G1 X125.569 Y107.174 E0.01346
G1 X125.155 Y107.232 E0.01346
G1 X124.737 Y107.213 E0.01346
G1 X124.330 Y107.116 E0.01346
G1 X123.961 Y106.950 E0.01298
G1 X123.760 Y106.823 E0.00766
G1 X123.512 Y106.614 E0.01043
M204 S1000
G1 X124.001 Y106.494 F10800.000
M204 S800
G1 F1800
G1 X123.757 Y106.288 E0.01026
G1 X123.529 Y106.011 E0.01154
G1 X123.367 Y105.709 E0.01102
G1 X123.265 Y105.382 E0.01100
G1 X123.225 Y105.043 E0.01100
G1 X123.249 Y104.702 E0.01100
G1 X123.336 Y104.371 E0.01100
G1 X123.483 Y104.062 E0.01100
G1 X123.685 Y103.787 E0.01100
G1 X123.936 Y103.554 E0.01100
G1 X124.225 Y103.371 E0.01100
G1 X124.538 Y103.248 E0.01083
G1 X124.715 Y103.206 E0.00583
G1 X125.032 Y103.175 E0.01026
G1 X125.390 Y103.206 E0.01154
G1 X125.719 Y103.301 E0.01102
G1 X126.024 Y103.456 E0.01100
G1 X126.295 Y103.664 E0.01100
G1 X126.522 Y103.920 E0.01100
G1 X126.698 Y104.213 E0.01100
G1 X126.816 Y104.534 E0.01100
G1 X126.871 Y104.872 E0.01100
G1 X126.864 Y105.208 E0.01083
G1 X126.834 Y105.387 E0.00583
G1 X126.739 Y105.692 E0.01026
G1 X126.572 Y106.009 E0.01154
G1 X126.356 Y106.276 E0.01102
G1 X126.095 Y106.497 E0.01100
G1 X125.798 Y106.666 E0.01100
G1 X125.474 Y106.776 E0.01100
G1 X125.136 Y106.824 E0.01100
G1 X124.794 Y106.808 E0.01100
G1 X124.461 Y106.729 E0.01100
G1 X124.154 Y106.591 E0.01083
G1 X124.052 Y106.526 E0.00390
M204 S1000
G1 X123.710 Y106.625 F10800.000
G1 F8640
G1 X123.757 Y106.288 E-0.08739
G1 X123.529 Y106.011 E-0.08290
G1 X123.367 Y105.709 E-0.07916
G1 X123.265 Y105.382 E-0.07896
G1 X123.225 Y105.043 E-0.07896
G1 X123.249 Y104.702 E-0.07896
G1 X123.336 Y104.371 E-0.07896
G1 X123.483 Y104.062 E-0.07896
G1 X123.685 Y103.787 E-0.07896
G1 X123.802 Y103.678 E-0.03677
G1 E-0.04000 F2100.00000
G1 Z1.000 F10800.000
G1 X115.812 Y114.418
G1 Z0.400
G1 E0.80000 F2100.00000
M204 S800
G1 F3600
G1 X115.682 Y114.288 E0.00590
G1 X115.682 Y95.712 E0.59735
