; generated by PrusaSlicer 2.9.5 on 2026-06-26 at 07:22:12 UTC


;
;

;
;
; 

; external perimeters extrusion width = 0.45mm
; perimeters extrusion width = 0.45mm
; infill extrusion width = 0.45mm
; solid infill extrusion width = 0.45mm
; top infill extrusion width = 0.40mm
; first layer extrusion width = 0.42mm

M73 P0 R98
M201 X9000 Y9000 Z500 E10000 ; sets maximum accelerations, mm/sec^2
M203 X500 Y500 Z12 E120 ; sets maximum feedrates, mm / sec
M204 S2000 T1500 ; sets acceleration (S) and retract acceleration (R), mm/sec^2
M205 X10.00 Y10.00 Z0.20 E4.50 ; sets the jerk limits, mm/sec
M205 S0 T0 ; sets the minimum extruding and travel feed rate, mm/sec

; printing object Eschenbach 33213 Barlow Lens Adapter.stl id:0 copy 0
; stop printing object Eschenbach 33213 Barlow Lens Adapter.stl id:0 copy 0

;TYPE:Custom
M83  ; extruder relative mode
M140 S85 ; set bed temp
M109 S160 ; Set extruder temp before bed level
M190 S85 ; wait for bed temp

G28 W ; home all without mesh bed level
G80 N7 ; mesh bed leveling

M109 S240 ; wait for extruder temp

M221 S100 ; Set flow to 100

G1 Y-3.0 F1000.0 ; go outside print area
G92 E0.0
G1 E8 ; Purge Bubble
G1 X60.0 E9.0 F1000.0 ; intro line
G1 X100.0 E12.5 F1000.0 ; intro line
G92 E0.0
G21 ; set units to millimeters
G90 ; use absolute coordinates
M83 ; use relative distances for extrusion

M900 K0.08 ; Filament gcode LA 1.5
M900 K45 ; Filament gcode LA 1.0




M107
;LAYER_CHANGE
;Z:0.2
;HEIGHT:0.2
G1 E-1 F2100
G1 Z.4 F720
G1 X101.013 Y85.068 F6000
G1 Z.2 F720
G1 E1 F2100
M204 S800
;TYPE:Skirt/Brim
;WIDTH:0.42
G1 F1200
G1 X102.312 Y83.601 E.06144
G1 X103.601 Y82.312 E.05716
G1 X105.173 Y80.926 E.06571
G1 X106.724 Y79.729 E.06143
G1 X108.347 Y78.631 E.06144
G1 X110.035 Y77.637 E.06142
G1 X111.659 Y76.81 E.05714
G1 X113.583 Y75.977 E.06574
G1 X115.297 Y75.36 E.05712
G1 X117.177 Y74.809 E.06143
G1 X119.223 Y74.352 E.06573
G1 X121.159 Y74.05 E.06144
G1 X122.973 Y73.878 E.05713
G1 X125.091 Y73.813 E.06644
G1 X127.027 Y73.878 E.06074
G1 X128.977 Y74.067 E.06143
G1 X130.911 Y74.378 E.06142
G1 X132.689 Y74.775 E.05712
G1 X134.703 Y75.36 E.06576
G1 X136.417 Y75.977 E.05712
G1 X138.217 Y76.751 E.06143
G1 X140.085 Y77.703 E.06574
G1 X141.653 Y78.631 E.05713
G1 X143.276 Y79.728 E.06142
G1 X144.933 Y81.013 E.06575
G1 X146.299 Y82.218 E.05711
G1 X147.688 Y83.601 E.06146
G1 X149.074 Y85.173 E.06571
G1 X150.272 Y86.724 E.06145
G1 X151.35 Y88.314 E.06023
G1 X152.368 Y90.046 E.06299
G1 X153.2 Y91.678 E.05744
G1 X153.981 Y93.475 E.06143
G1 X154.64 Y95.297 E.06075
G1 X155.191 Y97.177 E.06143
G1 X155.648 Y99.224 E.06576
G1 X155.933 Y101.023 E.05711
G1 X156.122 Y102.973 E.06143
G1 X156.187 Y105.069 E.06575
G1 X156.13 Y106.89 E.05712
G1 X155.95 Y108.841 E.06143
G1 X155.622 Y110.911 E.06571
G1 X155.225 Y112.689 E.05712
G1 X154.682 Y114.572 E.06145
G1 X153.972 Y116.545 E.06575
G1 X153.19 Y118.341 E.06142
G1 X152.363 Y119.964 E.05711
G1 X151.296 Y121.769 E.06574
G1 X150.272 Y123.276 E.05713
G1 X149.074 Y124.827 E.06145
G1 X147.782 Y126.299 E.06141
G1 X146.399 Y127.688 E.06146
G1 X144.827 Y129.074 E.06571
G1 X143.387 Y130.191 E.05714
G1 X141.769 Y131.296 E.06143
G1 X139.964 Y132.363 E.06574
G1 X138.341 Y133.19 E.05711
G1 X136.545 Y133.972 E.06142
G1 X134.572 Y134.682 E.06575
G1 X132.823 Y135.191 E.05711
G1 X130.911 Y135.622 E.06145
G1 X128.827 Y135.951 E.06615
G1 X126.941 Y136.128 E.05939
G1 X124.971 Y136.188 E.0618
G1 X123.089 Y136.13 E.05904
G1 X121.175 Y135.952 E.06027
G1 X119.089 Y135.622 E.06622
G1 X117.311 Y135.225 E.05712
G1 X115.428 Y134.682 E.06145
G1 X113.455 Y133.972 E.06575
G1 X111.783 Y133.249 E.05712
G1 X110.036 Y132.363 E.06142
G1 X108.231 Y131.296 E.06574
G1 X106.613 Y130.191 E.06143
G1 X105.068 Y128.987 E.06141
G1 X103.601 Y127.688 E.06144
G1 X102.312 Y126.399 E.05716
G1 X100.926 Y124.827 E.06571
G1 X99.728 Y123.276 E.06145
G1 X98.631 Y121.653 E.06142
G1 X97.637 Y119.965 E.06142
G1 X96.81 Y118.341 E.05714
G1 X95.977 Y116.417 E.06574
G1 X95.318 Y114.572 E.06143
G1 X94.809 Y112.823 E.05711
G1 X94.352 Y110.777 E.06573
G1 X94.05 Y108.841 E.06144
G1 X93.878 Y107.027 E.05713
G1 X93.813 Y104.931 E.06575
G1 X93.878 Y102.973 E.06143
G1 X94.05 Y101.159 E.05713
G1 X94.378 Y99.089 E.06571
G1 X94.809 Y97.177 E.06145
G1 X95.318 Y95.428 E.05711
G1 X96.028 Y93.455 E.06575
G1 X96.792 Y91.694 E.06019
G1 X97.632 Y90.046 E.058
G1 X98.71 Y88.222 E.06643
G1 X99.745 Y86.7 E.05771
G1 X100.976 Y85.115 E.06292
M204 S1000
;WIPE_START
G1 F4800
G1 X101.013 Y85.068 E-.02486
G1 X102.312 Y83.601 E-.8144
G1 X102.585 Y83.328 E-.16074
;WIPE_END
G1 Z.4 F720
; printing object Eschenbach 33213 Barlow Lens Adapter.stl id:0 copy 0
G1 X105.908 Y89.193 F6000
G1 Z.2 F720
G1 E1 F2100
M204 S800
;TYPE:Perimeter
;WIDTH:0.419999
G1 F1200
G1 X107.025 Y87.932 E.05282
G1 X108.245 Y86.733 E.05363
G1 X109.545 Y85.62 E.05366
G1 X110.903 Y84.612 E.05303
G1 X112.344 Y83.688 E.05367
G1 X113.844 Y82.866 E.05363
G1 X114.439 Y82.59 E.02057
G1 X115.415 Y82.14 E.0337
G1 X117.015 Y81.534 E.05364
G1 X118.653 Y81.039 E.05365
G1 X120.322 Y80.658 E.05368
G1 X122.012 Y80.393 E.05364
G1 X123.717 Y80.246 E.05366
G1 X125.253 Y80.219 E.04817
G1 X127.113 Y80.304 E.05838
G1 X128.816 Y80.509 E.05378
G1 X130.497 Y80.83 E.05366
G1 X131.148 Y81.001 E.0211
G1 X132.151 Y81.267 E.03254
G1 X133.79 Y81.823 E.05427
G1 X135.368 Y82.485 E.05365
G1 X136.896 Y83.254 E.05363
G1 X138.368 Y84.126 E.05364
G1 X139.777 Y85.098 E.05367
G1 X141.114 Y86.165 E.05363
G1 X142.361 Y87.309 E.05306
G1 X143.54 Y88.549 E.05365
G1 X144.631 Y89.867 E.05365
G1 X145.035 Y90.429 E.0217
G1 X145.628 Y91.257 E.03193
G1 X146.538 Y92.73 E.05429
G1 X147.333 Y94.245 E.05364
G1 X148.022 Y95.811 E.05364
G1 X148.601 Y97.422 E.05367
G1 X149.067 Y99.068 E.05364
G1 X149.419 Y100.743 E.05367
G1 X149.655 Y102.437 E.05363
G1 X149.771 Y104.125 E.05305
G1 X149.773 Y105.836 E.05365
G1 X149.725 Y106.545 E.02228
G1 X149.656 Y107.543 E.03137
G1 X149.419 Y109.257 E.05425
G1 X149.067 Y110.932 E.05367
G1 X148.601 Y112.578 E.05364
G1 X148.022 Y114.189 E.05367
G1 X147.333 Y115.755 E.05364
G1 X146.538 Y117.27 E.05364
G1 X145.635 Y118.733 E.05391
G1 X144.655 Y120.102 E.05279
G1 X143.566 Y121.422 E.05365
G1 X143.065 Y121.952 E.02287
G1 X142.389 Y122.664 E.03078
G1 X141.115 Y123.835 E.05426
G1 X139.777 Y124.902 E.05366
G1 X138.368 Y125.874 E.05367
G1 X136.896 Y126.746 E.05364
G1 X135.368 Y127.515 E.05363
G1 X133.79 Y128.177 E.05365
G1 X132.634 Y128.57 E.03828
G1 X132.151 Y128.733 E.01598
G1 X130.535 Y129.161 E.05242
G1 X128.855 Y129.485 E.05365
G1 X127.156 Y129.693 E.05367
G1 X126.575 Y129.724 E.01824
G1 X125.428 Y129.784 E.03601
G1 X123.717 Y129.754 E.05366
G1 X122.012 Y129.607 E.05366
G1 X120.322 Y129.342 E.05364
G1 X118.653 Y128.961 E.05368
G1 X117.015 Y128.466 E.05365
G1 X115.415 Y127.86 E.05364
G1 X113.879 Y127.152 E.05303
G1 X112.377 Y126.332 E.05366
G1 X111.732 Y125.92 E.024
G1 X110.936 Y125.41 E.02964
G1 X109.545 Y124.38 E.05427
G1 X108.245 Y123.267 E.05366
G1 X107.025 Y122.068 E.05363
G1 X105.89 Y120.787 E.05366
G1 X104.846 Y119.431 E.05366
G1 X103.899 Y118.006 E.05365
G1 X103.052 Y116.519 E.05366
G1 X102.318 Y114.995 E.05304
G1 X101.965 Y114.115 E.02973
G1 X101.682 Y113.407 E.02391
G1 X101.158 Y111.778 E.05365
G1 X100.742 Y110.098 E.05427
G1 X100.448 Y108.412 E.05366
G1 X100.272 Y106.71 E.05365
G1 X100.212 Y105 E.05365
G1 X100.272 Y103.29 E.05365
G1 X100.448 Y101.588 E.05365
G1 X100.742 Y99.902 E.05366
G1 X101.147 Y98.26 E.05303
G1 X101.669 Y96.63 E.05366
G1 X102.302 Y95.04 E.05366
G1 X102.577 Y94.466 E.01996
G1 X103.052 Y93.481 E.03429
G1 X103.899 Y91.994 E.05366
G1 X104.846 Y90.569 E.05365
G1 X105.87 Y89.239 E.05263
M204 S1000
G1 X106.169 Y89.469 F6000
M204 S800
;TYPE:External perimeter
G1 F1200
G1 X106.181 Y89.453 E.00063
G1 X107.298 Y88.192 E.05282
G1 X108.5 Y87.011 E.05284
G1 X109.78 Y85.915 E.05284
G1 X111.128 Y84.915 E.05263
G1 X112.547 Y84.005 E.05285
G1 X114.025 Y83.196 E.05283
G1 X114.597 Y82.933 E.01974
G1 X115.561 Y82.488 E.03329
G1 X117.137 Y81.891 E.05284
G1 X118.75 Y81.403 E.05284
G1 X120.393 Y81.028 E.05284
G1 X122.058 Y80.768 E.05284
G1 X123.736 Y80.622 E.05281
G1 X125.248 Y80.596 E.04741
G1 X127.096 Y80.68 E.058
G1 X128.771 Y80.883 E.0529
G1 X130.425 Y81.201 E.05281
G1 X131.052 Y81.366 E.02033
G1 X132.061 Y81.633 E.03273
G1 X133.656 Y82.176 E.05283
G1 X135.21 Y82.828 E.05284
G1 X136.715 Y83.585 E.05282
G1 X138.165 Y84.444 E.05284
G1 X139.552 Y85.401 E.05284
G1 X140.869 Y86.452 E.05283
G1 X142.106 Y87.587 E.05264
G1 X143.267 Y88.808 E.05283
G1 X144.34 Y90.107 E.05283
G1 X144.729 Y90.648 E.02089
G1 X145.322 Y91.477 E.03196
G1 X146.21 Y92.917 E.05304
G1 X146.993 Y94.409 E.05283
G1 X147.671 Y95.951 E.05282
G1 X148.241 Y97.537 E.05284
G1 X148.701 Y99.158 E.05283
G1 X149.047 Y100.807 E.05283
G1 X149.279 Y102.476 E.05283
G1 X149.395 Y104.151 E.05264
G1 X149.396 Y105.836 E.05283
G1 X149.349 Y106.519 E.02147
G1 X149.28 Y107.517 E.03137
G1 X149.047 Y109.193 E.05306
G1 X148.701 Y110.842 E.05283
G1 X148.241 Y112.463 E.05283
G1 X147.671 Y114.049 E.05284
G1 X146.993 Y115.591 E.05282
G1 X146.21 Y117.083 E.05283
G1 X145.322 Y118.523 E.05304
G1 X144.348 Y119.883 E.05245
G1 X143.275 Y121.182 E.05283
G1 X142.792 Y121.692 E.02202
G1 X142.116 Y122.404 E.03078
G1 X140.869 Y123.548 E.05306
G1 X139.552 Y124.599 E.05283
G1 X138.165 Y125.556 E.05284
G1 X136.715 Y126.415 E.05284
G1 X135.21 Y127.172 E.05282
G1 X133.656 Y127.824 E.05284
G1 X132.061 Y128.367 E.05283
G1 X130.438 Y128.797 E.05264
G1 X129.568 Y128.964 E.02778
G1 X128.783 Y129.115 E.02506
G1 X127.111 Y129.319 E.05281
G1 X125.421 Y129.407 E.05306
G1 X123.737 Y129.378 E.05281
G1 X122.058 Y129.232 E.05284
G1 X120.393 Y128.972 E.05284
G1 X118.75 Y128.597 E.05284
G1 X117.137 Y128.109 E.05284
G1 X115.561 Y127.512 E.05284
G1 X114.037 Y126.81 E.05261
G1 X112.558 Y126.001 E.05286
G1 X111.139 Y125.093 E.05282
G1 X109.78 Y124.085 E.05305
G1 X108.5 Y122.989 E.05284
G1 X107.298 Y121.808 E.05284
G1 X106.181 Y120.547 E.05282
G1 X105.153 Y119.211 E.05285
G1 X104.22 Y117.808 E.05283
G1 X103.386 Y116.344 E.05283
G1 X102.657 Y114.832 E.05263
G1 X102.315 Y113.975 E.02893
G1 X102.032 Y113.267 E.02391
G1 X101.517 Y111.663 E.05282
G1 X101.112 Y110.02 E.05306
G1 X100.822 Y108.36 E.05284
G1 X100.648 Y106.684 E.05283
G1 X100.59 Y105 E.05283
G1 X100.648 Y103.316 E.05283
G1 X100.822 Y101.64 E.05283
G1 X101.112 Y99.98 E.05284
G1 X101.513 Y98.35 E.05263
G1 X102.028 Y96.745 E.05285
G1 X102.315 Y96.025 E.0243
G1 X102.652 Y95.18 E.02852
G1 X103.386 Y93.656 E.05304
G1 X104.22 Y92.192 E.05283
G1 X105.153 Y90.789 E.05283
G1 X106.132 Y89.517 E.05033
M204 S1000
;WIPE_START
G1 F4800
G1 X106.169 Y89.469 E-.02519
G1 X106.181 Y89.453 E-.00831
G1 X107.298 Y88.192 E-.70015
G1 X107.755 Y87.743 E-.26635
;WIPE_END
G1 Z.4 F720
G1 X103.129 Y87.187 F6000
G1 Z.2 F720
G1 E1 F2100
M204 S800
;TYPE:Perimeter
G1 F1200
G1 X103.262 Y87.017 E.00677
G1 X104.434 Y85.687 E.05558
G1 X105.687 Y84.434 E.05556
G1 X107.017 Y83.262 E.05558
G1 X108.417 Y82.176 E.05555
G1 X109.883 Y81.179 E.05559
G1 X111.409 Y80.277 E.05558
G1 X112.988 Y79.473 E.05556
G1 X114.614 Y78.769 E.05556
G1 X116.282 Y78.168 E.05559
G1 X117.984 Y77.674 E.05557
G1 X119.713 Y77.287 E.05555
G1 X121.464 Y77.01 E.05558
G1 X123.229 Y76.843 E.05559
G1 X125 Y76.787 E.05556
G1 X126.771 Y76.843 E.05556
G1 X128.536 Y77.01 E.05559
G1 X130.287 Y77.287 E.05558
G1 X132.016 Y77.674 E.05555
G1 X133.718 Y78.168 E.05557
G1 X135.386 Y78.769 E.05559
G1 X137.012 Y79.473 E.05556
G1 X138.591 Y80.277 E.05556
G1 X140.117 Y81.179 E.05558
G1 X141.583 Y82.176 E.05559
G1 X142.983 Y83.262 E.05555
G1 X144.313 Y84.434 E.05558
G1 X145.566 Y85.687 E.05556
M73 P0 R97
G1 X146.738 Y87.017 E.05558
G1 X147.824 Y88.417 E.05555
G1 X148.821 Y89.883 E.05559
G1 X149.723 Y91.408 E.05555
G1 X150.527 Y92.988 E.05558
G1 X151.231 Y94.614 E.05556
G1 X151.832 Y96.282 E.05559
G1 X152.326 Y97.984 E.05557
G1 X152.713 Y99.713 E.05555
G1 X152.99 Y101.464 E.05558
G1 X153.157 Y103.229 E.05559
G1 X153.213 Y105 E.05556
G1 X153.157 Y106.771 E.05556
G1 X152.99 Y108.536 E.05559
G1 X152.713 Y110.287 E.05558
G1 X152.326 Y112.016 E.05555
G1 X151.832 Y113.718 E.05557
G1 X151.231 Y115.386 E.05559
G1 X150.527 Y117.012 E.05556
G1 X149.723 Y118.591 E.05556
G1 X148.821 Y120.117 E.05558
G1 X147.824 Y121.583 E.05559
G1 X146.738 Y122.983 E.05555
G1 X145.566 Y124.313 E.05558
G1 X144.313 Y125.566 E.05556
G1 X142.983 Y126.738 E.05558
G1 X141.583 Y127.824 E.05555
G1 X140.117 Y128.821 E.05559
G1 X138.591 Y129.723 E.05558
G1 X137.012 Y130.527 E.05556
G1 X135.386 Y131.231 E.05556
G1 X133.718 Y131.832 E.05559
G1 X132.016 Y132.326 E.05557
G1 X130.287 Y132.713 E.05555
G1 X128.536 Y132.99 E.05558
G1 X126.772 Y133.157 E.05556
G1 X125 Y133.213 E.05559
G1 X123.228 Y133.157 E.05559
G1 X121.464 Y132.99 E.05556
G1 X119.713 Y132.713 E.05558
G1 X117.984 Y132.326 E.05555
G1 X116.282 Y131.832 E.05557
G1 X114.614 Y131.231 E.05559
G1 X112.988 Y130.527 E.05556
G1 X111.409 Y129.723 E.05556
G1 X109.883 Y128.821 E.05558
G1 X108.417 Y127.824 E.05559
G1 X107.017 Y126.738 E.05555
G1 X105.687 Y125.566 E.05558
G1 X104.434 Y124.313 E.05556
G1 X103.262 Y122.983 E.05558
G1 X102.176 Y121.583 E.05555
G1 X101.179 Y120.117 E.05559
G1 X100.277 Y118.592 E.05555
G1 X99.473 Y117.012 E.05558
G1 X98.769 Y115.386 E.05556
G1 X98.168 Y113.718 E.05559
G1 X97.674 Y112.016 E.05557
G1 X97.287 Y110.287 E.05555
G1 X97.01 Y108.536 E.05558
G1 X96.843 Y106.771 E.05559
G1 X96.787 Y105 E.05556
G1 X96.843 Y103.229 E.05556
G1 X97.01 Y101.464 E.05559
G1 X97.287 Y99.713 E.05558
G1 X97.674 Y97.984 E.05555
G1 X98.168 Y96.282 E.05557
G1 X98.769 Y94.614 E.05559
G1 X99.473 Y92.988 E.05556
G1 X100.277 Y91.409 E.05556
G1 X101.179 Y89.883 E.05558
G1 X102.175 Y88.418 E.05554
G1 X103.093 Y87.235 E.04695
M204 S1000
G1 X102.795 Y87.004 F6000
M204 S800
;TYPE:External perimeter
G1 F1200
G1 X102.971 Y86.776 E.00903
G1 X104.159 Y85.429 E.05631
G1 X105.429 Y84.159 E.05631
G1 X106.776 Y82.971 E.05631
G1 X108.195 Y81.87 E.05631
G1 X109.681 Y80.861 E.05632
G1 X111.227 Y79.947 E.05631
G1 X112.827 Y79.131 E.05631
G1 X114.475 Y78.418 E.0563
G1 X116.165 Y77.809 E.05632
G1 X117.89 Y77.308 E.05632
G1 X119.643 Y76.917 E.05631
G1 X121.417 Y76.636 E.05632
G1 X123.205 Y76.467 E.05631
G1 X125 Y76.41 E.05631
G1 X126.795 Y76.467 E.05631
G1 X128.583 Y76.636 E.05631
G1 X130.357 Y76.917 E.05632
G1 X132.11 Y77.308 E.05631
G1 X133.835 Y77.809 E.05632
G1 X135.525 Y78.418 E.05632
G1 X137.173 Y79.131 E.0563
G1 X138.773 Y79.947 E.05631
G1 X140.319 Y80.861 E.05631
G1 X141.805 Y81.87 E.05632
G1 X143.224 Y82.971 E.05631
G1 X144.571 Y84.159 E.05631
G1 X145.841 Y85.429 E.05631
G1 X147.029 Y86.776 E.05631
G1 X148.13 Y88.195 E.05631
G1 X149.139 Y89.681 E.05632
G1 X150.053 Y91.227 E.05631
G1 X150.869 Y92.827 E.05631
G1 X151.582 Y94.475 E.0563
G1 X152.191 Y96.165 E.05632
G1 X152.692 Y97.89 E.05632
G1 X153.083 Y99.643 E.05631
G1 X153.364 Y101.417 E.05632
G1 X153.533 Y103.205 E.05631
G1 X153.59 Y105 E.05631
G1 X153.533 Y106.795 E.05631
G1 X153.364 Y108.583 E.05631
G1 X153.083 Y110.357 E.05632
G1 X152.692 Y112.11 E.05631
G1 X152.191 Y113.835 E.05632
G1 X151.582 Y115.525 E.05632
G1 X150.869 Y117.173 E.0563
G1 X150.053 Y118.773 E.05631
G1 X149.139 Y120.319 E.05631
G1 X148.13 Y121.805 E.05632
G1 X147.029 Y123.224 E.05631
G1 X145.841 Y124.571 E.05631
G1 X144.571 Y125.841 E.05631
G1 X143.224 Y127.029 E.05631
G1 X141.805 Y128.13 E.05631
G1 X140.319 Y129.139 E.05632
G1 X138.773 Y130.053 E.05631
G1 X137.173 Y130.869 E.05631
G1 X135.525 Y131.582 E.0563
G1 X133.835 Y132.191 E.05632
G1 X132.11 Y132.692 E.05632
G1 X130.357 Y133.083 E.05631
G1 X128.583 Y133.364 E.05632
G1 X126.796 Y133.533 E.05628
G1 X125 Y133.59 E.05634
G1 X123.205 Y133.533 E.05631
G1 X121.417 Y133.364 E.05631
G1 X119.643 Y133.083 E.05632
G1 X117.89 Y132.692 E.05631
G1 X116.165 Y132.191 E.05632
G1 X114.475 Y131.582 E.05632
G1 X112.827 Y130.869 E.0563
G1 X111.227 Y130.053 E.05631
G1 X109.681 Y129.139 E.05631
G1 X108.195 Y128.13 E.05632
G1 X106.776 Y127.029 E.05631
G1 X105.429 Y125.841 E.05631
G1 X104.159 Y124.571 E.05631
G1 X102.971 Y123.224 E.05631
G1 X101.87 Y121.805 E.05631
G1 X100.861 Y120.319 E.05632
G1 X99.947 Y118.773 E.05631
G1 X99.131 Y117.173 E.05631
