; generated by Slic3r Prusa Edition 1.41.1-beta+ on 2018-10-03 at 11:07:57

; 

; external perimeters extrusion width = 0.45mm
; perimeters extrusion width = 0.45mm
; infill extrusion width = 0.45mm
; solid infill extrusion width = 0.45mm
; top infill extrusion width = 0.40mm
; support material extrusion width = 0.35mm
; first layer extrusion width = 0.42mm

M73 P0 R11
M201 X9000 Y9000 Z500 E10000 ; sets maximum accelerations, mm/sec^2
M203 X500 Y500 Z12 E120 ; sets maximum feedrates, mm/sec
M204 P2000 R1500 T2000 ; sets acceleration (P, T) and retract acceleration (R), mm/sec^2
M205 X10.00 Y10.00 Z0.20 E2.50 ; sets the jerk limits, mm/sec
M205 S0 T0 ; sets the minimum extruding and travel feed rate, mm/sec
M107
G21 ; set units to millimeters
G90 ; use absolute positioning
M82 ; absolute extrusion mode
M104 S160 ; set extruder temp no wait
M140 S75 ; set bed temp no wait
M190 S75 ; wait for bed temp

G28 W ; home all without mesh bed level
G80 ; mesh bed leveling

M109 S240 ; wait for extruder temp

M900 K30 ; Linear Advance Value
M205 X8 ; jerk x standard 15
M205 Y8 ; jerk y standard 15
M205 E0.33 ; jerk e axis
M201 E180 ; e axis acceleration

G92 E0.0 ; reset extruder distance position
G1 Y-3.0 F1000.0 ; go outside print area
G1 X60.0 E9.0 F1000.0 ; intro line
M73 P0 R11
G1 X100.0 E21.5 F1000.0 ; intro line
G92 E0.0 ; reset extruder distance position
M900 K45; Filament gcode
G21 ; set units to millimeters
G90 ; use absolute coordinates
M83 ; use relative distances for extrusion
;BEFORE_LAYER_CHANGE
G92 E0.0
;0.2


G1 E-0.80000 F2100.00000
G1 Z0.600 F10800.000
;AFTER_LAYER_CHANGE
;0.2
; PURGING FINISHED
G1 X131.354 Y88.365
G1 Z0.200
G1 E0.80000 F2100.00000
M204 S1000
G1 F1200
G1 X131.354 Y89.012 E0.01864
G1 X132.108 Y89.766 E0.03077
G1 X132.108 Y88.535 E0.03550
G1 X132.862 Y88.535 E0.02175
G1 X132.862 Y90.520 E0.05726
G1 X133.429 Y91.086 E0.02311
G1 X133.616 Y91.086 E0.00541
G1 X133.616 Y88.535 E0.07360
G1 X134.371 Y88.535 E0.02175
G1 X134.371 Y91.086 E0.07360
G1 X135.125 Y91.086 E0.02175
G1 X135.125 Y88.535 E0.07360
G1 X135.879 Y88.535 E0.02175
G1 X135.879 Y91.086 E0.07360
G1 X136.633 Y91.086 E0.02175
G1 X136.633 Y88.535 E0.07360
G1 X137.387 Y88.535 E0.02175
G1 X137.387 Y91.086 E0.07360
G1 X137.671 Y91.086 E0.00819
G1 X137.914 Y91.329 E0.00988
G1 X137.914 Y96.772 E0.15702
G1 X138.141 Y96.772 E0.00657
G1 X138.141 Y88.535 E0.23760
G1 X138.896 Y88.535 E0.02175
G1 X138.896 Y96.772 E0.23760
G1 X139.650 Y96.772 E0.02175
G1 X139.650 Y88.535 E0.23760
G1 X140.404 Y88.535 E0.02175
G1 X140.404 Y96.942 E0.24250
G1 F8640
G1 X140.404 Y93.650 E-0.76000
G1 E-0.04000 F2100.00000
G1 Z0.800 F10800.000
G1 X136.913 Y92.087
G1 Z0.200
G1 E0.80000 F2100.00000
G1 F1200
G1 X136.913 Y117.913 E0.74497
G1 X113.087 Y117.913 E0.68728
G1 X113.087 Y92.087 E0.74497
G1 X136.853 Y92.087 E0.68555
G1 X137.290 Y91.710 F10800.000
G1 F1200
G1 X137.290 Y118.290 E0.76673
G1 X112.710 Y118.290 E0.70903
G1 X112.710 Y91.710 E0.76673
G1 X137.230 Y91.710 E0.70730
G1 X137.192 Y92.098 F10800.000
G1 F8640
G1 X137.237 Y95.001 E-0.76000
G1 E-0.04000 F2100.00000
G1 Z0.800 F10800.000
G1 X136.800 Y92.966
G1 Z0.200
G1 E0.80000 F2100.00000
G1 F1200
G1 X136.204 Y92.370 E0.02442
G1 X135.668 Y92.370 E0.01552
G1 X136.630 Y93.332 E0.03941
G1 X136.630 Y93.867 E0.01552
G1 X135.133 Y92.370 E0.06136
G1 X134.597 Y92.370 E0.01552
G1 X136.630 Y94.403 E0.08330
G1 X136.630 Y94.939 E0.01552
G1 X134.061 Y92.370 E0.10525
G1 X133.526 Y92.370 E0.01552
G1 X136.630 Y95.474 E0.12719
G1 X136.630 Y96.010 E0.01552
G1 X132.990 Y92.370 E0.14914
G1 X132.455 Y92.370 E0.01552
G1 X136.630 Y96.545 E0.17108
G1 X136.630 Y97.081 E0.01552
G1 X131.919 Y92.370 E0.19302
G1 X131.383 Y92.370 E0.01552
G1 X136.630 Y97.617 E0.21497
G1 X136.630 Y98.152 E0.01552
G1 X130.848 Y92.370 E0.23691
G1 X130.312 Y92.370 E0.01552
G1 X136.630 Y98.688 E0.25886
G1 X136.630 Y99.223 E0.01552
G1 X129.777 Y92.370 E0.28080
G1 X129.241 Y92.370 E0.01552
G1 X136.630 Y99.759 E0.30275
G1 X136.630 Y100.295 E0.01552
G1 X128.705 Y92.370 E0.32469
G1 X128.170 Y92.370 E0.01552
G1 X136.630 Y100.830 E0.34664
G1 X136.630 Y101.366 E0.01552
G1 X127.634 Y92.370 E0.36858
G1 X127.099 Y92.370 E0.01552
G1 X136.630 Y101.901 E0.39052
G1 X136.630 Y102.437 E0.01552
G1 X126.563 Y92.370 E0.41247
G1 X126.027 Y92.370 E0.01552
G1 X136.630 Y102.973 E0.43441
G1 X136.630 Y103.508 E0.01552
G1 X125.492 Y92.370 E0.45636
G1 X124.956 Y92.370 E0.01552
G1 X136.630 Y104.044 E0.47830
G1 X136.630 Y104.579 E0.01552
G1 X124.421 Y92.370 E0.50025
G1 X123.885 Y92.370 E0.01552
G1 X136.630 Y105.115 E0.52219
G1 X136.630 Y105.651 E0.01552
G1 X123.349 Y92.370 E0.54413
G1 X122.814 Y92.370 E0.01552
G1 X136.630 Y106.186 E0.56608
G1 X136.630 Y106.722 E0.01552
G1 X122.278 Y92.370 E0.58802
G1 X121.743 Y92.370 E0.01552
G1 X136.630 Y107.257 E0.60997
G1 X136.630 Y107.793 E0.01552
G1 X121.207 Y92.370 E0.63191
G1 X120.672 Y92.370 E0.01552
G1 X136.630 Y108.328 E0.65386
G1 X136.630 Y108.864 E0.01552
G1 X120.136 Y92.370 E0.67580
G1 X119.600 Y92.370 E0.01552
G1 X136.630 Y109.400 E0.69774
G1 X136.630 Y109.935 E0.01552
G1 X119.065 Y92.370 E0.71969
G1 X118.529 Y92.370 E0.01552
G1 X136.630 Y110.471 E0.74163
G1 X136.630 Y111.006 E0.01552
G1 X117.994 Y92.370 E0.76358
G1 X117.458 Y92.370 E0.01552
G1 X136.630 Y111.542 E0.78552
G1 X136.630 Y112.078 E0.01552
G1 X116.922 Y92.370 E0.80747
G1 X116.387 Y92.370 E0.01552
G1 X136.630 Y112.613 E0.82941
G1 X136.630 Y113.149 E0.01552
G1 X115.851 Y92.370 E0.85136
G1 X115.316 Y92.370 E0.01552
G1 X136.630 Y113.684 E0.87330
G1 X136.630 Y114.220 E0.01552
G1 X114.780 Y92.370 E0.89524
G1 X114.244 Y92.370 E0.01552
G1 X136.630 Y114.756 E0.91719
G1 X136.630 Y115.291 E0.01552
G1 X113.709 Y92.370 E0.93913
G1 X113.370 Y92.370 E0.00982
G1 X113.370 Y92.567 E0.00570
G1 X136.630 Y115.827 E0.95302
G1 X136.630 Y116.362 E0.01552
G1 X113.370 Y93.102 E0.95302
G1 X113.370 Y93.638 E0.01552
G1 X136.630 Y116.898 E0.95302
M73 P9 R10
G1 X136.630 Y117.434 E0.01552
G1 X113.370 Y94.173 E0.95302
G1 X113.370 Y94.709 E0.01552
G1 X136.291 Y117.630 E0.93913
G1 X135.756 Y117.630 E0.01552
G1 X113.370 Y95.244 E0.91719
G1 X113.370 Y95.780 E0.01552
G1 X135.220 Y117.630 E0.89524
G1 X134.684 Y117.630 E0.01552
G1 X113.370 Y96.316 E0.87330
G1 X113.370 Y96.851 E0.01552
G1 X134.149 Y117.630 E0.85135
G1 X133.613 Y117.630 E0.01552
G1 X113.370 Y97.387 E0.82941
G1 X113.370 Y97.922 E0.01552
G1 X133.078 Y117.630 E0.80746
G1 X132.542 Y117.630 E0.01552
G1 X113.370 Y98.458 E0.78552
G1 X113.370 Y98.994 E0.01552
G1 X132.006 Y117.630 E0.76357
G1 X131.471 Y117.630 E0.01552
G1 X113.370 Y99.529 E0.74163
G1 X113.370 Y100.065 E0.01552
G1 X130.935 Y117.630 E0.71969
G1 X130.400 Y117.630 E0.01552
G1 X113.370 Y100.600 E0.69774
G1 X113.370 Y101.136 E0.01552
G1 X129.864 Y117.630 E0.67580
G1 X129.328 Y117.630 E0.01552
G1 X113.370 Y101.672 E0.65385
G1 X113.370 Y102.207 E0.01552
G1 X128.793 Y117.630 E0.63191
G1 X128.257 Y117.630 E0.01552
G1 X113.370 Y102.743 E0.60996
G1 X113.370 Y103.278 E0.01552
G1 X127.722 Y117.630 E0.58802
G1 X127.186 Y117.630 E0.01552
G1 X113.370 Y103.814 E0.56608
G1 X113.370 Y104.350 E0.01552
G1 X126.650 Y117.630 E0.54413
G1 X126.115 Y117.630 E0.01552
G1 X113.370 Y104.885 E0.52219
G1 X113.370 Y105.421 E0.01552
G1 X125.579 Y117.630 E0.50024
G1 X125.044 Y117.630 E0.01552
G1 X113.370 Y105.956 E0.47830
G1 X113.370 Y106.492 E0.01552
G1 X124.508 Y117.630 E0.45635
G1 X123.972 Y117.630 E0.01552
G1 X113.370 Y107.028 E0.43441
G1 X113.370 Y107.563 E0.01552
G1 X123.437 Y117.630 E0.41246
G1 X122.901 Y117.630 E0.01552
G1 X113.370 Y108.099 E0.39052
G1 X113.370 Y108.634 E0.01552
G1 X122.366 Y117.630 E0.36858
G1 X121.830 Y117.630 E0.01552
G1 X113.370 Y109.170 E0.34663
G1 X113.370 Y109.706 E0.01552
G1 X121.294 Y117.630 E0.32469
G1 X120.759 Y117.630 E0.01552
G1 X113.370 Y110.241 E0.30274
G1 X113.370 Y110.777 E0.01552
G1 X120.223 Y117.630 E0.28080
G1 X119.688 Y117.630 E0.01552
G1 X113.370 Y111.312 E0.25885
G1 X113.370 Y111.848 E0.01552
G1 X119.152 Y117.630 E0.23691
G1 X118.617 Y117.630 E0.01552
G1 X113.370 Y112.383 E0.21497
G1 X113.370 Y112.919 E0.01552
G1 X118.081 Y117.630 E0.19302
G1 X117.545 Y117.630 E0.01552
G1 X113.370 Y113.455 E0.17108
G1 X113.370 Y113.990 E0.01552
G1 X117.010 Y117.630 E0.14913
G1 X116.474 Y117.630 E0.01552
G1 X113.370 Y114.526 E0.12719
G1 X113.370 Y115.061 E0.01552
G1 X115.939 Y117.630 E0.10524
G1 X115.403 Y117.630 E0.01552
G1 X113.370 Y115.597 E0.08330
G1 X113.370 Y116.133 E0.01552
G1 X114.867 Y117.630 E0.06136
G1 X114.332 Y117.630 E0.01552
G1 X113.370 Y116.668 E0.03941
G1 X113.370 Y117.204 E0.01552
G1 X113.966 Y117.800 E0.02442
;BEFORE_LAYER_CHANGE
G92 E0.0
;0.4


G1 F8640
G1 X113.370 Y117.204 E-0.19462
G1 X113.370 Y116.668 E-0.12367
G1 X114.332 Y117.630 E-0.31410
G1 X114.867 Y117.630 E-0.12367
G1 X114.855 Y117.618 E-0.00394
G1 E-0.04000 F2100.00000
G1 Z0.800 F10800.000
;AFTER_LAYER_CHANGE
;0.4
M104 S235 ; set temperature
M140 S80 ; set bed temperature
; PURGING FINISHED
G1 X113.132 Y117.868
G1 Z0.400
G1 E0.80000 F2100.00000
M204 S800
G1 F3600
G1 X113.132 Y92.132 E0.80144
G1 X136.868 Y92.132 E0.73916
G1 X136.868 Y117.868 E0.80144
G1 X113.192 Y117.868 E0.73729
M204 S1000
G1 X112.725 Y118.275 F10800.000
M204 S800
G1 F3000
G1 X112.725 Y91.725 E0.82679
G1 X137.275 Y91.725 E0.76451
G1 X137.275 Y118.275 E0.82679
G1 X112.785 Y118.275 E0.76264
M204 S1000
G1 X112.823 Y117.887 F10800.000
G1 F8640
G1 X112.778 Y114.984 E-0.76000
G1 E-0.04000 F2100.00000
G1 Z1.000 F10800.000
G1 X135.921 Y117.746
G1 Z0.400
G1 E0.80000 F2100.00000
M204 S1250
G1 F5677
G1 X136.563 Y117.104 E0.02835
G1 X136.563 Y116.527 E0.01802
G1 X135.527 Y117.563 E0.04575
G1 X134.949 Y117.563 E0.01802
G1 X136.563 Y115.949 E0.07124
G1 X136.563 Y115.372 E0.01802
G1 X134.372 Y117.563 E0.09673
G1 X133.795 Y117.563 E0.01802
G1 X136.563 Y114.795 E0.12222
G1 X136.563 Y114.218 E0.01802
G1 X133.218 Y117.563 E0.14771
G1 X132.640 Y117.563 E0.01802
G1 X136.563 Y113.640 E0.17319
G1 X136.563 Y113.063 E0.01802
G1 X132.063 Y117.563 E0.19868
G1 X131.486 Y117.563 E0.01802
G1 X136.563 Y112.486 E0.22417
G1 X136.563 Y111.909 E0.01802
G1 X130.909 Y117.563 E0.24966
G1 X130.331 Y117.563 E0.01802
G1 X136.563 Y111.331 E0.27515
G1 X136.563 Y110.754 E0.01802
G1 X129.754 Y117.563 E0.30064
G1 X129.177 Y117.563 E0.01802
G1 X136.563 Y110.177 E0.32613
G1 X136.563 Y109.600 E0.01802
G1 X128.600 Y117.563 E0.35162
G1 X128.023 Y117.563 E0.01802
G1 X136.563 Y109.023 E0.37711
G1 X136.563 Y108.445 E0.01802
G1 X127.445 Y117.563 E0.40259
G1 X126.868 Y117.563 E0.01802
G1 X136.563 Y107.868 E0.42808
G1 X136.563 Y107.291 E0.01802
G1 X126.291 Y117.563 E0.45357
G1 X125.714 Y117.563 E0.01802
G1 X136.563 Y106.714 E0.47906
G1 X136.563 Y106.136 E0.01802
G1 X125.136 Y117.563 E0.50455
G1 X124.559 Y117.563 E0.01802
G1 X136.563 Y105.559 E0.53004
G1 X136.563 Y104.982 E0.01802
G1 X123.982 Y117.563 E0.55553
G1 X123.405 Y117.563 E0.01802
G1 X136.563 Y104.405 E0.58102
G1 X136.563 Y103.827 E0.01802
G1 X122.827 Y117.563 E0.60651
G1 X122.250 Y117.563 E0.01802
G1 X136.563 Y103.250 E0.63199
G1 X136.563 Y102.673 E0.01802
G1 X121.673 Y117.563 E0.65748
G1 X121.096 Y117.563 E0.01802
G1 X136.563 Y102.096 E0.68297
G1 X136.563 Y101.519 E0.01802
G1 X120.519 Y117.563 E0.70846
G1 X119.941 Y117.563 E0.01802
G1 X136.563 Y100.941 E0.73395
G1 X136.563 Y100.364 E0.01802
G1 X119.364 Y117.563 E0.75944
G1 X118.787 Y117.563 E0.01802
G1 X136.563 Y99.787 E0.78493
G1 X136.563 Y99.210 E0.01802
G1 X118.210 Y117.563 E0.81042
G1 X117.632 Y117.563 E0.01802
G1 X136.563 Y98.632 E0.83591
G1 X136.563 Y98.055 E0.01802
G1 X117.055 Y117.563 E0.86140
G1 X116.478 Y117.563 E0.01802
G1 X136.563 Y97.478 E0.88688
G1 X136.563 Y96.901 E0.01802
G1 X115.901 Y117.563 E0.91237
G1 X115.323 Y117.563 E0.01802
G1 X136.563 Y96.323 E0.93786
G1 X136.563 Y95.746 E0.01802
G1 X114.746 Y117.563 E0.96335
G1 X114.169 Y117.563 E0.01802
G1 X136.563 Y95.169 E0.98884
G1 X136.563 Y94.592 E0.01802
G1 X113.592 Y117.563 E1.01433
G1 X113.437 Y117.563 E0.00482
G1 X113.437 Y117.140 E0.01320
G1 X136.563 Y94.015 E1.02115
G1 X136.563 Y93.437 E0.01802
G1 X113.437 Y116.563 E1.02115
G1 X113.437 Y115.985 E0.01802
G1 X136.563 Y92.860 E1.02115
G1 X136.563 Y92.437 E0.01320
G1 X136.408 Y92.437 E0.00482
G1 X113.437 Y115.408 E1.01432
G1 X113.437 Y114.831 E0.01802
G1 X135.831 Y92.437 E0.98883
G1 X135.254 Y92.437 E0.01802
G1 X113.437 Y114.254 E0.96334
G1 X113.437 Y113.676 E0.01802
G1 X134.676 Y92.437 E0.93786
G1 X134.099 Y92.437 E0.01802
G1 X113.437 Y113.099 E0.91237
G1 X113.437 Y112.522 E0.01802
G1 X133.522 Y92.437 E0.88688
G1 X132.945 Y92.437 E0.01802
G1 X113.437 Y111.945 E0.86139
G1 X113.437 Y111.367 E0.01802
G1 X132.367 Y92.437 E0.83590
G1 X131.790 Y92.437 E0.01802
G1 X113.437 Y110.790 E0.81041
M73 P18 R9
G1 X113.437 Y110.213 E0.01802
G1 X131.213 Y92.437 E0.78492
G1 X130.636 Y92.437 E0.01802
G1 X113.437 Y109.636 E0.75943
G1 X113.437 Y109.059 E0.01802
G1 X130.059 Y92.437 E0.73394
G1 X129.481 Y92.437 E0.01802
G1 X113.437 Y108.481 E0.70846
G1 X113.437 Y107.904 E0.01802
G1 X128.904 Y92.437 E0.68297
G1 X128.327 Y92.437 E0.01802
G1 X113.437 Y107.327 E0.65748
G1 X113.437 Y106.750 E0.01802
G1 X127.750 Y92.437 E0.63199
G1 X127.172 Y92.437 E0.01802
G1 X113.437 Y106.172 E0.60650
G1 X113.437 Y105.595 E0.01802
G1 X126.595 Y92.437 E0.58101
G1 X126.018 Y92.437 E0.01802
G1 X113.437 Y105.018 E0.55552
G1 X113.437 Y104.441 E0.01802
G1 X125.441 Y92.437 E0.53003
G1 X124.863 Y92.437 E0.01802
G1 X113.437 Y103.863 E0.50454
G1 X113.437 Y103.286 E0.01802
G1 X124.286 Y92.437 E0.47906
G1 X123.709 Y92.437 E0.01802
G1 X113.437 Y102.709 E0.45357
G1 X113.437 Y102.132 E0.01802
G1 X123.132 Y92.437 E0.42808
G1 X122.555 Y92.437 E0.01802
G1 X113.437 Y101.555 E0.40259
G1 X113.437 Y100.977 E0.01802
G1 X121.977 Y92.437 E0.37710
G1 X121.400 Y92.437 E0.01802
G1 X113.437 Y100.400 E0.35161
G1 X113.437 Y99.823 E0.01802
G1 X120.823 Y92.437 E0.32612
G1 X120.246 Y92.437 E0.01802
G1 X113.437 Y99.246 E0.30063
G1 X113.437 Y98.668 E0.01802
G1 X119.668 Y92.437 E0.27514
G1 X119.091 Y92.437 E0.01802
G1 X113.437 Y98.091 E0.24966
G1 X113.437 Y97.514 E0.01802
G1 X118.514 Y92.437 E0.22417
G1 X117.937 Y92.437 E0.01802
G1 X113.437 Y96.937 E0.19868
G1 X113.437 Y96.359 E0.01802
G1 X117.359 Y92.437 E0.17319
G1 X116.782 Y92.437 E0.01802
G1 X113.437 Y95.782 E0.14770
G1 X113.437 Y95.205 E0.01802
G1 X116.205 Y92.437 E0.12221
G1 X115.628 Y92.437 E0.01802
G1 X113.437 Y94.628 E0.09672
G1 X113.437 Y94.051 E0.01802
G1 X115.051 Y92.437 E0.07123
G1 X114.473 Y92.437 E0.01802
G1 X113.437 Y93.473 E0.04574
G1 X113.437 Y92.896 E0.01802
G1 X114.079 Y92.254 E0.02834
M204 S1000
;BEFORE_LAYER_CHANGE
G92 E0.0
;0.6


G1 F8640
G1 X113.437 Y92.896 E-0.20961
G1 X113.437 Y93.473 E-0.13328
G1 X114.473 Y92.437 E-0.33828
G1 X114.815 Y92.437 E-0.07883
G1 E-0.04000 F2100.00000
G1 Z1.000 F10800.000
;AFTER_LAYER_CHANGE
;0.6
; PURGING FINISHED
G1 X113.132 Y92.132
G1 Z0.600
G1 E0.80000 F2100.00000
M204 S800
G1 F3600
G1 X136.868 Y92.132 E0.73916
G1 X136.868 Y117.868 E0.80144
G1 X113.132 Y117.868 E0.73916
G1 X113.132 Y92.192 E0.79957
M204 S1000
G1 X112.725 Y91.725 F10800.000
M204 S800
G1 F3000
G1 X137.275 Y91.725 E0.76451
G1 X137.275 Y118.275 E0.82679
G1 X112.725 Y118.275 E0.76451
G1 X112.725 Y91.785 E0.82492
M204 S1000
G1 X113.110 Y91.834 F10800.000
G1 F8640
G1 X116.016 Y91.777 E-0.76000
G1 E-0.04000 F2100.00000
G1 Z1.200 F10800.000
G1 X136.746 Y93.079
G1 Z0.600
G1 E0.80000 F2100.00000
M204 S1250
G1 F5674
G1 X136.104 Y92.437 E0.02835
G1 X135.527 Y92.437 E0.01802
G1 X136.563 Y93.473 E0.04575
G1 X136.563 Y94.051 E0.01802
G1 X134.949 Y92.437 E0.07124
G1 X134.372 Y92.437 E0.01802
G1 X136.563 Y94.628 E0.09673
G1 X136.563 Y95.205 E0.01802
G1 X133.795 Y92.437 E0.12222
G1 X133.218 Y92.437 E0.01802
G1 X136.563 Y95.782 E0.14771
G1 X136.563 Y96.360 E0.01802
G1 X132.640 Y92.437 E0.17319
G1 X132.063 Y92.437 E0.01802
G1 X136.563 Y96.937 E0.19868
G1 X136.563 Y97.514 E0.01802
G1 X131.486 Y92.437 E0.22417
G1 X130.909 Y92.437 E0.01802
G1 X136.563 Y98.091 E0.24966
G1 X136.563 Y98.669 E0.01802
G1 X130.331 Y92.437 E0.27515
G1 X129.754 Y92.437 E0.01802
G1 X136.563 Y99.246 E0.30064
G1 X136.563 Y99.823 E0.01802
G1 X129.177 Y92.437 E0.32613
G1 X128.600 Y92.437 E0.01802
G1 X136.563 Y100.400 E0.35162
