; generated by PrusaSlicer 2.2.0+ on 2020-04-22 at 23:35:30 UTC


;
;

;
;
; 

; external perimeters extrusion width = 0.45mm
; perimeters extrusion width = 0.45mm
; infill extrusion width = 0.45mm
; solid infill extrusion width = 0.45mm
; top infill extrusion width = 0.40mm
; first layer extrusion width = 0.42mm

M73 P0 R42
M201 X9000 Y9000 Z500 E10000 ; sets maximum accelerations, mm/sec^2
M203 X500 Y500 Z12 E120 ; sets maximum feedrates, mm/sec
M204 P2000 R1500 T2000 ; sets acceleration (P, T) and retract acceleration (R), mm/sec^2
M205 X10.00 Y10.00 Z0.20 E2.50 ; sets the jerk limits, mm/sec
M205 S0 T0 ; sets the minimum extruding and travel feed rate, mm/sec
M107
M83  ; extruder relative mode
M140 S75 ; set bed temp
M109 S160 ; Set extruder temp before bed level
M190 S75 ; wait for bed temp

G28 W ; home all without mesh bed level
G80 N7 ; mesh bed leveling

M109 S240 ; wait for extruder temp

M221 S100 ; Set flow to 100

G1 Y-3.0 F1000.0 ; go outside print area
G92 E0.0
G1 E8 ; Purge Bubble
M73 P0 R42
G1 X60.0 E9.0 F1000.0 ; intro line
G1 X100.0 E12.5 F1000.0 ; intro line
G92 E0.0
G21 ; set units to millimeters
G90 ; use absolute coordinates
M83 ; use relative distances for extrusion
M900 K45; Filament gcode
;BEFORE_LAYER_CHANGE
G92 E0.0
;0.2


G1 E-0.80000 F2100.00000
G1 Z0.600 F10800.000
;AFTER_LAYER_CHANGE
;0.2
G1 X109.657 Y47.681
G1 Z0.200
G1 E0.80000 F2100.00000
M204 S1000
G1 F1200.000
G1 X110.499 Y47.432 E0.02533
G1 X111.303 Y47.360 E0.02328
G1 X139.331 Y47.507 E0.80850
G1 X140.113 Y47.695 E0.02319
G1 X140.719 Y47.957 E0.01907
G1 X141.661 Y48.618 E0.03318
G1 X142.097 Y49.080 E0.01832
G1 X142.526 Y49.718 E0.02218
G1 X142.825 Y50.384 E0.02106
G1 X143.023 Y51.184 E0.02377
G1 X143.033 Y52.391 E0.03484
G1 X135.567 Y134.748 E2.38541
G1 X135.103 Y138.723 E0.11543
G1 X134.134 Y144.262 E0.16221
G1 X133.245 Y148.065 E0.11264
G1 X132.182 Y151.827 E0.11278
G1 X130.286 Y157.334 E0.16800
G1 X129.006 Y160.473 E0.09778
G1 X128.506 Y161.247 E0.02660
G1 X127.871 Y161.867 E0.02561
G1 X127.246 Y162.271 E0.02145
G1 X126.723 Y162.488 E0.01635
G1 X126.081 Y162.600 E0.01879
G1 X125.124 Y162.551 E0.02766
G1 X124.437 Y162.335 E0.02077
G1 X123.659 Y161.840 E0.02658
G1 X122.900 Y161.040 E0.03182
G1 X122.165 Y159.616 E0.04623
G1 X121.219 Y157.511 E0.06658
G1 X119.734 Y153.866 E0.11352
G1 X117.823 Y148.309 E0.16952
G1 X116.411 Y143.127 E0.15493
G1 X115.500 Y138.866 E0.12568
G1 X114.641 Y133.182 E0.16585
G1 X106.929 Y51.822 E2.35741
G1 X106.989 Y50.994 E0.02396
G1 X107.198 Y50.212 E0.02334
G1 X107.544 Y49.492 E0.02303
G1 X108.072 Y48.785 E0.02545
G1 X108.778 Y48.167 E0.02706
G1 X109.605 Y47.710 E0.02726
@Object Articulated_Slug-round_tail.stl id:0 copy 0
G1 F8640.000
G1 X110.499 Y47.432 E-0.21632
G1 X111.303 Y47.360 E-0.18636
G1 X112.851 Y47.368 E-0.35732
G1 E-0.04000 F2100.00000
G1 Z0.800 F10800.000
G1 X124.531 Y134.913
G1 Z0.200
G1 E0.80000 F2100.00000
G1 F1200.000
G1 X125.459 Y134.913 E0.02676
G1 X125.459 Y139.728 E0.13887
G1 X127.357 Y139.884 E0.05493
G1 X128.107 Y139.988 E0.02185
G1 X129.081 Y140.163 E0.02856
G1 X129.778 Y140.320 E0.02059
G1 X130.685 Y140.562 E0.02706
G1 X131.562 Y140.845 E0.02660
G1 X131.394 Y141.810 E0.02826
G1 X131.031 Y143.638 E0.05377
G1 X130.627 Y145.457 E0.05373
G1 X130.182 Y147.272 E0.05393
G1 X129.694 Y149.076 E0.05390
G1 X129.165 Y150.873 E0.05403
G1 X128.593 Y152.662 E0.05419
G1 X127.982 Y154.442 E0.05427
G1 X127.328 Y156.211 E0.05442
G1 X126.633 Y157.968 E0.05449
G1 X126.150 Y159.106 E0.03567
G1 X126.052 Y159.245 E0.00488
G1 X125.895 Y159.391 E0.00621
G1 X125.780 Y159.447 E0.00368
G1 X125.666 Y159.391 E0.00366
G1 X125.474 Y159.198 E0.00785
G1 X124.890 Y157.978 E0.03902
G1 X124.116 Y156.239 E0.05490
G1 X123.380 Y154.489 E0.05477
G1 X122.686 Y152.726 E0.05468
G1 X122.032 Y150.953 E0.05450
G1 X121.418 Y149.170 E0.05439
G1 X120.847 Y147.378 E0.05426
G1 X120.316 Y145.576 E0.05419
G1 X119.828 Y143.769 E0.05398
G1 X119.484 Y142.375 E0.04143
G1 X119.090 Y140.631 E0.05159
G1 X119.991 Y140.375 E0.02702
G1 X120.742 Y140.200 E0.02223
G1 X121.450 Y140.060 E0.02081
G1 X122.791 Y139.869 E0.03909
G1 X124.531 Y139.727 E0.05035
G1 X124.531 Y134.973 E0.13713
G1 F8640.000
G1 X125.459 Y134.913 E-0.21469
G1 X125.459 Y137.275 E-0.54531
G1 E-0.04000 F2100.00000
G1 Z0.800 F10800.000
G1 X125.836 Y139.381
G1 Z0.200
G1 E0.80000 F2100.00000
G1 F1200.000
G1 X127.398 Y139.509 E0.04521
G1 X128.166 Y139.615 E0.02237
G1 X129.156 Y139.794 E0.02903
G1 X129.868 Y139.954 E0.02104
G1 X130.789 Y140.200 E0.02750
G1 X131.989 Y140.595 E0.03643
G1 X131.765 Y141.879 E0.03760
G1 X131.400 Y143.716 E0.05402
G1 X130.995 Y145.542 E0.05397
G1 X130.547 Y147.366 E0.05417
G1 X130.057 Y149.179 E0.05415
G1 X129.525 Y150.984 E0.05428
G1 X128.951 Y152.781 E0.05443
G1 X128.337 Y154.568 E0.05451
G1 X127.680 Y156.346 E0.05467
G1 X126.982 Y158.111 E0.05475
G1 X126.481 Y159.291 E0.03697
G1 X126.338 Y159.494 E0.00717
G1 X126.124 Y159.693 E0.00844
G1 X125.937 Y159.807 E0.00631
G1 X125.780 Y159.828 E0.00456
G1 X125.624 Y159.807 E0.00455
G1 X125.437 Y159.693 E0.00631
G1 X125.222 Y159.493 E0.00847
G1 X125.149 Y159.392 E0.00360
G1 X124.547 Y158.136 E0.04016
G1 X123.770 Y156.389 E0.05516
G1 X123.031 Y154.631 E0.05500
G1 X122.333 Y152.860 E0.05492
G1 X121.676 Y151.080 E0.05473
G1 X121.060 Y149.289 E0.05464
G1 X120.487 Y147.488 E0.05451
G1 X119.953 Y145.678 E0.05443
G1 X119.463 Y143.864 E0.05422
G1 X119.117 Y142.462 E0.04165
G1 X118.646 Y140.376 E0.06169
G1 X119.898 Y140.009 E0.03762
G1 X120.662 Y139.831 E0.02265
G1 X121.386 Y139.688 E0.02129
G1 X122.749 Y139.494 E0.03971
G1 X124.154 Y139.380 E0.04065
G1 X124.154 Y134.536 E0.13970
G1 X125.836 Y134.536 E0.04852
G1 X125.836 Y139.321 E0.13800
G1 X125.859 Y139.780 F10800.000
G1 F8640.000
G1 X127.398 Y139.509 E-0.36325
G1 X128.166 Y139.615 E-0.17908
G1 X129.094 Y139.783 E-0.21767
G1 E-0.04000 F2100.00000
G1 Z0.800 F10800.000
G1 X124.768 Y135.027
G1 Z0.200
G1 E0.80000 F2100.00000
G1 F1200.000
G1 X125.176 Y135.435 E0.01675
G1 X125.176 Y135.971 E0.01556
G1 X124.814 Y135.609 E0.01486
G1 X124.814 Y136.145 E0.01556
G1 X125.176 Y136.507 E0.01486
G1 X125.176 Y137.044 E0.01556
G1 X124.814 Y136.682 E0.01486
G1 X124.814 Y137.218 E0.01556
G1 X125.176 Y137.580 E0.01486
G1 X125.176 Y138.117 E0.01556
G1 X124.814 Y137.754 E0.01486
G1 X124.814 Y138.291 E0.01556
G1 X125.176 Y138.653 E0.01486
G1 X125.176 Y139.189 E0.01556
G1 X124.814 Y138.827 E0.01486
G1 X124.814 Y139.364 E0.01556
G1 X130.441 Y144.991 E0.23091
G1 X130.539 Y144.552 E0.01304
G1 X126.047 Y140.060 E0.18432
G1 X126.631 Y140.108 E0.01702
G1 X130.636 Y144.113 E0.16433
G1 X130.734 Y143.674 E0.01304
G1 X127.216 Y140.157 E0.14434
G1 X127.831 Y140.235 E0.01798
G1 X130.824 Y143.229 E0.12283
G1 X130.913 Y142.781 E0.01324
G1 X128.473 Y140.341 E0.10011
G1 X129.134 Y140.465 E0.01950
G1 X131.002 Y142.333 E0.07665
G1 X131.091 Y141.886 E0.01324
G1 X129.833 Y140.628 E0.05162
G1 X130.564 Y140.823 E0.02196
G1 X131.320 Y141.578 E0.03100
G1 F8640.000
G1 X130.564 Y140.823 E-0.24673
G1 X129.833 Y140.628 E-0.17474
G1 X130.869 Y141.664 E-0.33853
G1 E-0.04000 F2100.00000
G1 Z0.800 F10800.000
G1 X130.483 Y145.569
G1 Z0.200
G1 E0.80000 F2100.00000
G1 F1200.000
G1 X124.814 Y139.900 E0.23263
G1 X124.814 Y139.988 E0.00256
G1 X124.399 Y140.022 E0.01207
G1 X130.237 Y145.860 E0.23955
G1 X130.132 Y146.290 E0.01287
G1 X123.903 Y140.062 E0.25557
G1 X123.407 Y140.102 E0.01444
G1 X130.026 Y146.721 E0.27158
G1 X129.920 Y147.152 E0.01287
G1 X122.911 Y140.143 E0.28760
G1 X122.437 Y140.205 E0.01388
G1 X129.807 Y147.575 E0.30241
G1 X129.693 Y147.997 E0.01269
G1 X121.967 Y140.272 E0.31699
G1 X121.498 Y140.339 E0.01376
G1 X129.579 Y148.419 E0.33157
G1 X129.464 Y148.842 E0.01269
G1 X121.050 Y140.427 E0.34527
G1 X120.608 Y140.521 E0.01312
G1 X129.345 Y149.259 E0.35853
G1 X129.223 Y149.673 E0.01253
G1 X120.173 Y140.623 E0.37137
G1 X119.751 Y140.737 E0.01269
G1 X129.101 Y150.088 E0.38368
G1 X128.979 Y150.502 E0.01253
G1 X119.460 Y140.982 E0.39062
G1 X119.616 Y141.675 E0.02061
G1 X128.855 Y150.914 E0.37909
G1 X128.725 Y151.320 E0.01238
G1 X119.774 Y142.370 E0.36726
G1 X119.950 Y143.082 E0.02128
G1 X128.595 Y151.727 E0.35473
G1 X128.465 Y152.133 E0.01238
G1 X120.129 Y143.797 E0.34206
G1 X120.327 Y144.532 E0.02208
G1 X128.335 Y152.540 E0.32859
G1 X128.199 Y152.940 E0.01226
G1 X120.525 Y145.266 E0.31486
G1 X120.741 Y146.019 E0.02271
G1 X128.061 Y153.339 E0.30037
G1 X127.924 Y153.738 E0.01225
G1 X120.965 Y146.779 E0.28554
G1 X121.198 Y147.548 E0.02331
G1 X127.787 Y154.137 E0.27037
G1 X127.647 Y154.533 E0.01218
G1 X121.449 Y148.335 E0.25432
G1 X121.701 Y149.123 E0.02401
G1 X127.502 Y154.925 E0.23804
G1 X127.357 Y155.316 E0.01211
G1 X121.982 Y149.942 E0.22054
G1 X122.264 Y150.760 E0.02511
G1 X127.212 Y155.708 E0.20304
G1 X127.068 Y156.100 E0.01211
G1 X122.574 Y151.606 E0.18439
G1 X122.888 Y152.456 E0.02630
G1 X126.916 Y156.484 E0.16527
G1 X126.764 Y156.868 E0.01199
G1 X123.229 Y153.334 E0.14503
G1 X123.577 Y154.218 E0.02758
G1 X126.612 Y157.253 E0.12451
G1 X126.459 Y157.637 E0.01199
G1 X123.959 Y155.137 E0.10260
G1 X124.349 Y156.063 E0.02915
G1 X126.304 Y158.018 E0.08024
G1 X126.144 Y158.395 E0.01187
G1 X124.776 Y157.026 E0.05616
G1 X125.214 Y158.001 E0.03102
G1 X125.985 Y158.771 E0.03160
G1 X125.901 Y158.968 E0.00620
G1 X125.784 Y159.108 E0.00528
G1 X125.347 Y158.670 E0.01796
G1 F8640.000
G1 X125.784 Y159.108 E-0.14295
G1 X125.901 Y158.968 E-0.04200
G1 X125.985 Y158.771 E-0.04934
G1 X125.214 Y158.001 E-0.25147
G1 X124.776 Y157.026 E-0.24690
G1 X124.859 Y157.110 E-0.02734
G1 E-0.04000 F2100.00000
G1 Z0.800 F10800.000
G1 X132.027 Y137.804
G1 Z0.200
G1 E0.80000 F2100.00000
G1 F1200.000
G1 X131.362 Y137.577 E0.02026
G1 X129.903 Y137.185 E0.04358
G1 X128.614 Y136.929 E0.03790
G1 X127.785 Y136.817 E0.02413
G1 X127.785 Y130.727 E0.17566
G1 X122.207 Y130.727 E0.16091
G1 X122.207 Y136.815 E0.17560
G1 X121.549 Y136.901 E0.01913
G1 X120.407 Y137.117 E0.03353
G1 X119.178 Y137.419 E0.03650
G1 X118.498 Y137.630 E0.02055
G1 X118.274 Y136.330 E0.03804
G1 X118.018 Y134.631 E0.04957
G1 X117.780 Y132.787 E0.05362
G1 X117.588 Y130.942 E0.05353
G1 X117.439 Y129.093 E0.05350
G1 X117.353 Y127.589 E0.04346
G1 X118.536 Y127.151 E0.03637
G1 X119.396 Y126.883 E0.02598
G1 X120.597 Y126.575 E0.03578
G1 X121.340 Y126.425 E0.02187
G1 X122.411 Y126.256 E0.03126
G1 X123.083 Y126.180 E0.01951
G1 X124.531 Y126.068 E0.04190
G1 X124.531 Y121.323 E0.13685
G1 X125.459 Y121.323 E0.02676
G1 X125.459 Y126.062 E0.13668
G1 X127.005 Y126.174 E0.04473
G1 X127.815 Y126.266 E0.02350
G1 X128.859 Y126.436 E0.03051
G1 X129.859 Y126.648 E0.02949
G1 X130.818 Y126.902 E0.02861
G1 X131.740 Y127.194 E0.02790
G1 X132.751 Y127.580 E0.03122
G1 X132.737 Y128.910 E0.03835
G1 X132.677 Y130.627 E0.04958
G1 X132.564 Y132.610 E0.05728
G1 X132.416 Y134.458 E0.05347
G1 X132.224 Y136.301 E0.05345
G1 X132.034 Y137.744 E0.04200
G1 F8640.000
G1 X131.362 Y137.577 E-0.16005
G1 X129.903 Y137.185 E-0.34888
G1 X128.836 Y136.974 E-0.25108
G1 E-0.04000 F2100.00000
G1 Z0.800 F10800.000
G1 X125.836 Y125.711
G1 Z0.200
G1 E0.80000 F2100.00000
G1 F1200.000
G1 X127.040 Y125.798 E0.03483
G1 X127.867 Y125.892 E0.02399
G1 X128.928 Y126.065 E0.03103
G1 X129.947 Y126.281 E0.03003
G1 X130.923 Y126.540 E0.02915
G1 X131.865 Y126.838 E0.02848
G1 X133.131 Y127.322 E0.03911
G1 X133.114 Y128.918 E0.04605
G1 X133.053 Y130.645 E0.04983
G1 X132.941 Y132.636 E0.05753
G1 X132.792 Y134.492 E0.05372
G1 X132.598 Y136.345 E0.05373
G1 X132.341 Y138.310 E0.05717
G1 X131.252 Y137.938 E0.03319
G1 X129.817 Y137.553 E0.04286
G1 X128.552 Y137.302 E0.03720
G1 X127.408 Y137.146 E0.03330
G1 X127.408 Y131.104 E0.17428
G1 X122.584 Y131.104 E0.13915
G1 X122.584 Y137.145 E0.17427
G1 X121.609 Y137.273 E0.02836
G1 X120.487 Y137.486 E0.03293
G1 X119.279 Y137.782 E0.03588
G1 X118.199 Y138.117 E0.03262
G1 X117.902 Y136.390 E0.05055
G1 X117.644 Y134.683 E0.04981
G1 X117.406 Y132.831 E0.05387
G1 X117.213 Y130.976 E0.05379
G1 X117.063 Y129.119 E0.05375
G1 X116.962 Y127.343 E0.05132
G1 X117.476 Y127.130 E0.01605
G1 X118.416 Y126.793 E0.02880
G1 X119.293 Y126.520 E0.02649
G1 X120.513 Y126.208 E0.03633
G1 X121.273 Y126.053 E0.02238
G1 X122.360 Y125.882 E0.03174
G1 X123.047 Y125.804 E0.01994
G1 X124.154 Y125.719 E0.03203
G1 X124.154 Y120.946 E0.13766
G1 X125.836 Y120.946 E0.04852
G1 X125.836 Y125.651 E0.13571
G1 X125.862 Y126.110 F10800.000
G1 X125.346 Y126.049
G1 F1200.000
G1 X124.814 Y125.517 E0.02215
G1 X124.814 Y124.973 E0.01602
G1 X125.176 Y125.335 E0.01508
G1 X125.176 Y124.791 E0.01602
G1 X124.814 Y124.429 E0.01508
G1 X124.814 Y123.885 E0.01602
G1 X125.176 Y124.247 E0.01508
G1 X125.176 Y123.703 E0.01602
G1 X124.814 Y123.340 E0.01508
G1 X124.814 Y122.796 E0.01602
G1 X125.176 Y123.158 E0.01508
G1 X125.176 Y122.614 E0.01602
G1 X124.814 Y122.252 E0.01508
G1 X124.814 Y121.708 E0.01602
G1 X125.346 Y122.240 E0.02215
G1 F8640.000
G1 X124.814 Y121.708 E-0.17371
G1 X124.814 Y122.252 E-0.12566
G1 X125.176 Y122.614 E-0.11830
G1 X125.176 Y123.158 E-0.12566
G1 X124.814 Y122.796 E-0.11830
G1 X124.814 Y123.222 E-0.09837
G1 E-0.04000 F2100.00000
G1 Z0.800 F10800.000
G1 X127.898 Y136.221
G1 Z0.200
G1 E0.80000 F2100.00000
G1 F1200.000
G1 X128.275 Y136.598 E0.01569
G1 X128.924 Y136.703 E0.01935
G1 X128.068 Y135.846 E0.03565
G1 X128.068 Y135.302 E0.01602
G1 X129.603 Y136.837 E0.06392
G1 X130.312 Y137.002 E0.02143
G1 X128.068 Y134.758 E0.09344
G1 X128.068 Y134.214 E0.01602
G1 X131.056 Y137.202 E0.12441
G1 X131.444 Y137.306 E0.01183
G1 X131.791 Y137.425 E0.01079
G1 X131.795 Y137.397 E0.00084
G1 X128.068 Y133.669 E0.15517
G1 X128.068 Y133.125 E0.01602
G1 X131.858 Y136.915 E0.15780
G1 X131.921 Y136.434 E0.01428
G1 X128.068 Y132.581 E0.16042
G1 X128.068 Y132.037 E0.01602
G1 X131.977 Y135.946 E0.16273
G1 X132.028 Y135.453 E0.01459
G1 X128.068 Y131.493 E0.16487
G1 X128.068 Y130.948 E0.01602
G1 X132.234 Y135.114 E0.17344
M73 P2 R41
G1 F8640.000
G1 X129.906 Y132.787 E-0.76000
G1 E-0.04000 F2100.00000
G1 Z0.800 F10800.000
G1 X132.629 Y128.434
G1 Z0.200
G1 E0.80000 F2100.00000
G1 F1200.000
G1 X131.661 Y127.466 E0.04029
G1 X130.863 Y127.213 E0.02464
G1 X132.455 Y128.805 E0.06627
G1 X132.439 Y129.333 E0.01556
G1 X130.114 Y127.008 E0.09680
G1 X129.402 Y126.840 E0.02154
G1 X132.421 Y129.859 E0.12568
G1 X132.402 Y130.385 E0.01549
G1 X128.717 Y126.699 E0.15344
G1 X128.067 Y126.593 E0.01939
G1 X132.378 Y130.904 E0.17948
G1 X132.349 Y131.419 E0.01519
G1 X127.437 Y126.508 E0.20450
G1 X126.830 Y126.445 E0.01797
G1 X132.319 Y131.934 E0.22856
G1 X132.290 Y132.450 E0.01519
G1 X126.243 Y126.402 E0.25177
G1 X125.656 Y126.360 E0.01732
G1 X132.253 Y132.956 E0.27464
G1 X132.212 Y133.460 E0.01488
G1 X124.814 Y126.062 E0.30802
G1 X124.814 Y126.330 E0.00789
G1 X124.557 Y126.349 E0.00757
G1 X132.172 Y133.964 E0.31702
G1 X132.131 Y134.467 E0.01486
G1 X124.052 Y126.388 E0.33634
G1 X123.547 Y126.427 E0.01492
G1 X127.564 Y130.444 E0.16723
G1 X127.019 Y130.444 E0.01602
G1 X123.044 Y126.469 E0.16551
G1 X122.555 Y126.524 E0.01448
G1 X126.475 Y130.444 E0.16319
G1 X125.931 Y130.444 E0.01602
G1 X122.081 Y126.594 E0.16028
G1 X121.611 Y126.668 E0.01401
G1 X125.387 Y130.444 E0.15720
G1 X124.843 Y130.444 E0.01602
G1 X121.150 Y126.752 E0.15372
G1 X120.698 Y126.844 E0.01359
G1 X124.298 Y130.444 E0.14990
G1 X123.754 Y130.444 E0.01602
G1 X120.263 Y126.953 E0.14534
G1 X119.830 Y127.064 E0.01317
G1 X123.210 Y130.444 E0.14073
G1 X122.666 Y130.444 E0.01602
G1 X119.400 Y127.178 E0.13597
G1 X118.984 Y127.307 E0.01280
G1 X122.121 Y130.444 E0.13060
G1 X121.924 Y130.444 E0.00581
G1 X121.924 Y130.791 E0.01022
G1 X118.572 Y127.439 E0.13957
G1 X118.175 Y127.586 E0.01247
G1 X121.924 Y131.335 E0.15610
G1 X121.924 Y131.880 E0.01602
G1 X117.778 Y127.733 E0.17263
G1 X117.648 Y127.781 E0.00408
G1 X117.670 Y128.170 E0.01145
G1 X121.924 Y132.424 E0.17712
G1 X121.924 Y132.968 E0.01602
G1 X117.703 Y128.747 E0.17575
G1 X117.742 Y129.330 E0.01722
G1 X121.924 Y133.512 E0.17411
G1 X121.924 Y134.057 E0.01602
G1 X117.790 Y129.922 E0.17212
G1 X117.838 Y130.514 E0.01748
G1 X121.924 Y134.601 E0.17014
G1 X121.924 Y135.145 E0.01602
G1 X117.890 Y131.111 E0.16794
G1 X117.953 Y131.719 E0.01798
G1 X121.924 Y135.689 E0.16531
