; generated by PrusaSlicer 2.2.0+ on 2020-04-22 at 23:57:35 UTC


;
;

;
;
; 

; external perimeters extrusion width = 0.45mm
; perimeters extrusion width = 0.45mm
; infill extrusion width = 0.45mm
; solid infill extrusion width = 0.45mm
; top infill extrusion width = 0.40mm
; first layer extrusion width = 0.42mm

M73 P0 R41
M201 X9000 Y9000 Z500 E10000 ; sets maximum accelerations, mm/sec^2
M203 X500 Y500 Z12 E120 ; sets maximum feedrates, mm/sec
M204 P2000 R1500 T2000 ; sets acceleration (P, T) and retract acceleration (R), mm/sec^2
M205 X10.00 Y10.00 Z0.20 E2.50 ; sets the jerk limits, mm/sec
M205 S0 T0 ; sets the minimum extruding and travel feed rate, mm/sec
M107
M83  ; extruder relative mode
M140 S75 ; set bed temp
M109 S160 ; Set extruder temp before bed level
M190 S75 ; wait for bed temp

G28 W ; home all without mesh bed level
G80 N7 ; mesh bed leveling

M109 S240 ; wait for extruder temp

M221 S100 ; Set flow to 100

G1 Y-3.0 F1000.0 ; go outside print area
G92 E0.0
G1 E8 ; Purge Bubble
M73 P0 R41
G1 X60.0 E9.0 F1000.0 ; intro line
G1 X100.0 E12.5 F1000.0 ; intro line
G92 E0.0
G21 ; set units to millimeters
G90 ; use absolute coordinates
M83 ; use relative distances for extrusion
M900 K45; Filament gcode
;BEFORE_LAYER_CHANGE
G92 E0.0
;0.2


G1 E-0.80000 F2100.00000
G1 Z0.600 F10800.000
;AFTER_LAYER_CHANGE
;0.2
G1 X115.227 Y89.070
G1 Z0.200
G1 E0.80000 F2100.00000
M204 S1000
G1 F1200.000
G1 X115.761 Y88.490 E0.02275
G1 X116.441 Y88.083 E0.02286
G1 X117.205 Y87.887 E0.02275
G1 X132.504 Y87.871 E0.44133
G1 X133.486 Y88.053 E0.02882
G1 X134.339 Y88.574 E0.02882
G1 X134.949 Y89.365 E0.02882
G1 X135.237 Y90.322 E0.02882
G1 X135.254 Y110.641 E0.58615
G1 X135.121 Y111.472 E0.02427
G1 X134.726 Y112.247 E0.02509
G1 X134.109 Y112.860 E0.02509
G1 X127.899 Y116.672 E0.21021
G1 X127.382 Y116.843 E0.01570
G1 X126.841 Y116.909 E0.01570
G1 X123.918 Y116.907 E0.08433
G1 X123.169 Y116.776 E0.02193
G1 X116.008 Y112.940 E0.23433
G1 X115.305 Y112.289 E0.02765
G1 X114.867 Y111.432 E0.02777
G1 X114.746 Y110.640 E0.02310
G1 X114.746 Y90.625 E0.57735
G1 X114.879 Y89.778 E0.02474
G1 X115.200 Y89.124 E0.02102
G1 X115.240 Y89.887 F10800.000
G1 F1200.000
G1 X115.546 Y89.272 E0.01982
G1 X116.014 Y88.769 E0.01982
G1 X116.607 Y88.422 E0.01982
G1 X117.275 Y88.259 E0.01982
G1 X132.504 Y88.248 E0.43930
G1 X133.360 Y88.409 E0.02513
G1 X134.101 Y88.868 E0.02513
G1 X134.626 Y89.562 E0.02513
G1 X134.866 Y90.396 E0.02502
G1 X134.877 Y110.636 E0.58386
G1 X134.760 Y111.363 E0.02123
G1 X134.414 Y112.034 E0.02177
G1 X133.873 Y112.565 E0.02188
G1 X127.741 Y116.330 E0.20756
G1 X126.828 Y116.532 E0.02696
G1 X123.936 Y116.531 E0.08342
G1 X123.278 Y116.415 E0.01927
G1 X116.227 Y112.632 E0.23083
G1 X115.607 Y112.063 E0.02426
G1 X115.225 Y111.314 E0.02426
G1 X115.123 Y110.638 E0.01971
G1 X115.123 Y90.625 E0.57730
G1 X115.231 Y89.946 E0.01982
@Object Crimping_Tool.stl id:0 copy 0
G1 F8640.000
G1 X115.546 Y89.272 E-0.17191
G1 X116.014 Y88.769 E-0.15863
G1 X116.607 Y88.422 E-0.15863
G1 X117.275 Y88.259 E-0.15863
G1 X117.760 Y88.258 E-0.11219
G1 E-0.04000 F2100.00000
G1 Z0.800 F10800.000
G1 X125.296 Y111.105
G1 Z0.200
G1 E0.80000 F2100.00000
G1 F1200.000
G1 X125.503 Y111.105 E0.00595
G1 X125.503 Y113.568 E0.07104
G1 X125.296 Y113.568 E0.00597
G1 X125.296 Y111.165 E0.06931
G1 X124.919 Y110.728 F10800.000
G1 F1200.000
G1 X125.880 Y110.728 E0.02771
G1 X125.880 Y113.945 E0.09280
G1 X124.919 Y113.945 E0.02772
G1 X124.919 Y110.788 E0.09107
G1 X125.283 Y110.894 F10800.000
; stop printing object Crimping_Tool.stl id:0 copy 0
;BEFORE_LAYER_CHANGE
G92 E0.0
;0.4


G1 F8640.000
G1 X125.880 Y110.728 E-0.22222
G1 X125.880 Y113.057 E-0.53778
G1 E-0.04000 F2100.00000
G1 Z0.800 F10800.000
;AFTER_LAYER_CHANGE
;0.4
M104 S235 ; set temperature
M140 S80 ; set bed temperature
G1 X123.169 Y116.776
G1 Z0.400
G1 E0.80000 F2100.00000
G1 F3600.000
G1 X116.008 Y112.940 E0.23433
G1 X115.305 Y112.289 E0.02765
G1 X114.867 Y111.432 E0.02777
G1 X114.746 Y110.640 E0.02310
G1 X114.746 Y90.625 E0.57735
G1 X114.879 Y89.778 E0.02474
G1 X115.227 Y89.070 E0.02275
G1 X115.761 Y88.490 E0.02275
G1 X116.441 Y88.083 E0.02286
G1 X117.205 Y87.887 E0.02275
G1 X132.504 Y87.871 E0.44133
G1 X133.486 Y88.053 E0.02882
G1 X134.339 Y88.574 E0.02882
G1 X134.949 Y89.365 E0.02882
G1 X135.237 Y90.322 E0.02882
G1 X135.254 Y110.641 E0.58615
G1 X135.121 Y111.472 E0.02427
G1 X134.726 Y112.247 E0.02509
G1 X134.109 Y112.860 E0.02509
G1 X127.899 Y116.672 E0.21021
G1 X127.382 Y116.843 E0.01570
G1 X126.841 Y116.909 E0.01570
G1 X123.918 Y116.907 E0.08433
G1 X123.228 Y116.786 E0.02020
G1 X123.293 Y116.417 F10800.000
G1 F3600.000
G1 X116.227 Y112.632 E0.23125
G1 X115.607 Y112.063 E0.02426
G1 X115.225 Y111.314 E0.02426
G1 X115.123 Y110.638 E0.01971
G1 X115.123 Y90.625 E0.57730
G1 X115.240 Y89.887 E0.02156
G1 X115.546 Y89.272 E0.01982
G1 X116.014 Y88.769 E0.01982
G1 X116.607 Y88.422 E0.01982
G1 X117.275 Y88.259 E0.01982
G1 X132.504 Y88.248 E0.43930
G1 X133.360 Y88.409 E0.02513
G1 X134.101 Y88.868 E0.02513
G1 X134.626 Y89.562 E0.02513
G1 X134.866 Y90.396 E0.02502
G1 X134.877 Y110.636 E0.58386
G1 X134.760 Y111.363 E0.02123
G1 X134.414 Y112.034 E0.02177
G1 X133.873 Y112.565 E0.02188
G1 X127.741 Y116.330 E0.20756
G1 X126.828 Y116.532 E0.02696
G1 X123.936 Y116.531 E0.08342
G1 X123.352 Y116.428 E0.01710
@Object Crimping_Tool.stl id:0 copy 0
G1 F8640.000
G1 X120.447 Y114.880 E-0.76000
G1 E-0.04000 F2100.00000
G1 Z1.000 F10800.000
G1 X123.352 Y109.179
G1 Z0.400
G1 E0.80000 F2100.00000
M204 S800
G1 F3600.000
G1 X118.946 Y109.179 E0.13721
G1 X118.946 Y92.071 E0.53274
G1 X131.054 Y92.071 E0.37704
G1 X131.054 Y109.179 E0.53274
G1 X123.412 Y109.179 E0.23796
M204 S1000
G1 X123.412 Y109.586 F10800.000
M204 S800
G1 F3600.000
G1 X118.539 Y109.586 E0.15176
G1 X118.539 Y91.664 E0.55810
G1 X131.461 Y91.664 E0.40239
G1 X131.461 Y109.586 E0.55810
G1 X123.472 Y109.586 E0.24877
M204 S1000
G1 F8640.000
G1 X120.181 Y109.586 E-0.76000
G1 E-0.04000 F2100.00000
G1 Z1.000 F10800.000
G1 X124.995 Y113.523
G1 Z0.400
G1 E0.80000 F2100.00000
M204 S800
G1 F3600.000
G1 X124.995 Y109.993 E0.10993
G1 X118.132 Y109.993 E0.21371
G1 X118.132 Y91.257 E0.58345
G1 X131.868 Y91.257 E0.42775
G1 X131.868 Y109.993 E0.58345
G1 X125.804 Y109.993 E0.18885
G1 X125.804 Y113.523 E0.10993
G1 X125.055 Y113.523 E0.02333
M204 S1000
G1 X125.055 Y113.930 F10800.000
M204 S800
G1 F3000.000
G1 X124.588 Y113.930 E0.01455
G1 X124.588 Y110.400 E0.10993
G1 X117.725 Y110.400 E0.21371
G1 X117.725 Y90.850 E0.60880
G1 X132.275 Y90.850 E0.45310
G1 X132.275 Y110.400 E0.60880
G1 X126.211 Y110.400 E0.18885
G1 X126.211 Y113.930 E0.10993
G1 X125.115 Y113.930 E0.03414
M204 S1000
G1 X124.731 Y113.695 F10800.000
G1 X125.399 Y113.319
G1 F2400.000
G1 X125.399 Y109.789 E0.10858
G1 F8640.000
G1 X125.399 Y113.081 E-0.76000
G1 E-0.04000 F2100.00000
G1 Z1.000 F10800.000
G1 X130.035 Y109.055
G1 Z0.400
G1 E0.80000 F2100.00000
G1 F1200.000
G1 X130.732 Y108.357 E0.04573
G1 X130.732 Y107.731 E0.02903
G1 X129.606 Y108.857 E0.07381
G1 X128.980 Y108.857 E0.02903
G1 X130.732 Y107.105 E0.11487
G1 X130.732 Y106.479 E0.02903
G1 X128.354 Y108.857 E0.15593
G1 X127.727 Y108.857 E0.02903
G1 X130.732 Y105.852 E0.19699
G1 X130.732 Y105.226 E0.02903
G1 X127.101 Y108.857 E0.23804
G1 X126.475 Y108.857 E0.02903
G1 X130.732 Y104.600 E0.27910
G1 X130.732 Y103.974 E0.02903
G1 X125.849 Y108.857 E0.32016
G1 X125.222 Y108.857 E0.02903
G1 X130.732 Y103.347 E0.36122
G1 X130.732 Y102.721 E0.02903
G1 X124.596 Y108.857 E0.40228
G1 X123.970 Y108.857 E0.02903
G1 X130.732 Y102.095 E0.44333
G1 X130.732 Y101.469 E0.02903
G1 X123.344 Y108.857 E0.48439
G1 X122.717 Y108.857 E0.02903
G1 X130.732 Y100.842 E0.52545
G1 X130.732 Y100.216 E0.02903
G1 X122.091 Y108.857 E0.56651
G1 X121.465 Y108.857 E0.02903
G1 X130.732 Y99.590 E0.60757
G1 X130.732 Y98.964 E0.02903
G1 X120.839 Y108.857 E0.64862
G1 X120.212 Y108.857 E0.02903
G1 X130.732 Y98.337 E0.68968
G1 X130.732 Y97.711 E0.02903
G1 X119.586 Y108.857 E0.73074
G1 X119.268 Y108.857 E0.01475
G1 X119.268 Y108.549 E0.01429
G1 X130.732 Y97.085 E0.75160
G1 X130.732 Y96.459 E0.02903
G1 X119.268 Y107.923 E0.75160
G1 X119.268 Y107.296 E0.02903
G1 X130.732 Y95.832 E0.75160
G1 X130.732 Y95.206 E0.02903
G1 X119.268 Y106.670 E0.75160
G1 X119.268 Y106.044 E0.02903
G1 X130.732 Y94.580 E0.75160
G1 X130.732 Y93.953 E0.02903
G1 X119.268 Y105.418 E0.75160
G1 X119.268 Y104.791 E0.02903
G1 X130.732 Y93.327 E0.75160
G1 X130.732 Y92.701 E0.02903
G1 X119.268 Y104.165 E0.75160
G1 X119.268 Y103.539 E0.02903
G1 X130.414 Y92.393 E0.73073
G1 X129.788 Y92.393 E0.02903
G1 X119.268 Y102.913 E0.68967
G1 X119.268 Y102.286 E0.02903
G1 X129.161 Y92.393 E0.64862
G1 X128.535 Y92.393 E0.02903
G1 X119.268 Y101.660 E0.60756
G1 X119.268 Y101.034 E0.02903
G1 X127.909 Y92.393 E0.56650
G1 X127.283 Y92.393 E0.02903
G1 X119.268 Y100.408 E0.52544
G1 X119.268 Y99.781 E0.02903
G1 X126.656 Y92.393 E0.48438
G1 X126.030 Y92.393 E0.02903
G1 X119.268 Y99.155 E0.44333
G1 X119.268 Y98.529 E0.02903
G1 X125.404 Y92.393 E0.40227
G1 X124.777 Y92.393 E0.02903
G1 X119.268 Y97.902 E0.36121
G1 X119.268 Y97.276 E0.02903
G1 X124.151 Y92.393 E0.32015
G1 X123.525 Y92.393 E0.02903
G1 X119.268 Y96.650 E0.27909
G1 X119.268 Y96.024 E0.02903
G1 X122.899 Y92.393 E0.23804
G1 X122.272 Y92.393 E0.02903
G1 X119.268 Y95.397 E0.19698
G1 X119.268 Y94.771 E0.02903
G1 X121.646 Y92.393 E0.15592
G1 X121.020 Y92.393 E0.02903
G1 X119.268 Y94.145 E0.11486
G1 X119.268 Y93.519 E0.02903
G1 X120.394 Y92.393 E0.07380
G1 X119.767 Y92.393 E0.02903
G1 X119.070 Y93.090 E0.04572
; stop printing object Crimping_Tool.stl id:0 copy 0
;BEFORE_LAYER_CHANGE
G92 E0.0
;0.6


G1 F8640.000
G1 X119.767 Y92.393 E-0.22774
G1 X120.394 Y92.393 E-0.14461
G1 X119.268 Y93.519 E-0.36761
G1 X119.268 Y93.605 E-0.02005
G1 E-0.04000 F2100.00000
G1 Z1.000 F10800.000
;AFTER_LAYER_CHANGE
;0.6
G1 X114.879 Y89.778
G1 Z0.600
G1 E0.80000 F2100.00000
G1 F2926
G1 X115.227 Y89.070 E0.02275
G1 X115.761 Y88.490 E0.02275
G1 X116.441 Y88.083 E0.02286
G1 X117.205 Y87.887 E0.02275
G1 X132.504 Y87.871 E0.44133
G1 X133.486 Y88.053 E0.02882
G1 X134.339 Y88.574 E0.02882
G1 X134.949 Y89.365 E0.02882
G1 X135.237 Y90.322 E0.02882
G1 X135.254 Y110.641 E0.58615
G1 X135.121 Y111.472 E0.02427
G1 X134.726 Y112.247 E0.02509
G1 X134.109 Y112.860 E0.02509
G1 X127.899 Y116.672 E0.21021
G1 X127.382 Y116.843 E0.01570
G1 X126.841 Y116.909 E0.01570
G1 X123.918 Y116.907 E0.08433
G1 X123.169 Y116.776 E0.02193
G1 X116.008 Y112.940 E0.23433
G1 X115.305 Y112.289 E0.02765
G1 X114.867 Y111.432 E0.02777
G1 X114.746 Y110.640 E0.02310
G1 X114.746 Y90.625 E0.57735
G1 X114.870 Y89.837 E0.02300
G1 X115.239 Y89.896 F10800.000
G1 F2926
G1 X115.546 Y89.272 E0.02007
G1 X116.014 Y88.769 E0.01982
G1 X116.607 Y88.422 E0.01982
G1 X117.275 Y88.259 E0.01982
G1 X132.504 Y88.248 E0.43930
G1 X133.360 Y88.409 E0.02513
G1 X134.101 Y88.868 E0.02513
G1 X134.626 Y89.562 E0.02513
G1 X134.866 Y90.396 E0.02502
G1 X134.877 Y110.636 E0.58386
G1 X134.760 Y111.363 E0.02123
G1 X134.414 Y112.034 E0.02177
G1 X133.873 Y112.565 E0.02188
G1 X127.741 Y116.330 E0.20756
G1 X126.828 Y116.532 E0.02696
G1 X123.936 Y116.531 E0.08342
G1 X123.278 Y116.415 E0.01927
G1 X116.227 Y112.632 E0.23083
G1 X115.607 Y112.063 E0.02426
G1 X115.225 Y111.314 E0.02426
G1 X115.123 Y110.638 E0.01971
G1 X115.123 Y90.625 E0.57730
G1 X115.230 Y89.955 E0.01956
@Object Crimping_Tool.stl id:0 copy 0
G1 F8640.000
G1 X115.546 Y89.272 E-0.17391
G1 X116.014 Y88.769 E-0.15863
G1 X116.607 Y88.422 E-0.15863
G1 X117.275 Y88.259 E-0.15863
G1 X117.752 Y88.258 E-0.11018
G1 E-0.04000 F2100.00000
G1 Z1.200 F10800.000
G1 X118.946 Y92.071
G1 Z0.600
G1 E0.80000 F2100.00000
M204 S800
G1 F2926
G1 X131.054 Y92.071 E0.37704
G1 X131.054 Y109.179 E0.53274
G1 X118.946 Y109.179 E0.37704
G1 X118.946 Y92.131 E0.53088
M204 S1000
G1 F8640.000
G1 X122.238 Y92.115 E-0.76000
G1 E-0.04000 F2100.00000
G1 Z1.200 F10800.000
G1 X125.743 Y109.586
G1 Z0.600
G1 E0.80000 F2100.00000
M204 S800
G1 F2926
G1 X125.743 Y113.116 E0.10993
G1 X125.055 Y113.116 E0.02141
G1 X125.055 Y109.586 E0.10993
G1 X118.539 Y109.586 E0.20292
G1 X118.539 Y91.664 E0.55810
G1 X131.461 Y91.664 E0.40239
G1 X131.461 Y109.586 E0.55810
G1 X125.803 Y109.586 E0.17620
M204 S1000
G1 X126.150 Y109.993 F10800.000
M204 S800
G1 F2926
G1 X126.150 Y113.523 E0.10993
G1 X124.648 Y113.523 E0.04676
G1 X124.648 Y109.993 E0.10993
G1 X118.132 Y109.993 E0.20292
M73 P2 R40
G1 X118.132 Y91.257 E0.58345
G1 X131.868 Y91.257 E0.42775
G1 X131.868 Y109.993 E0.58345
G1 X126.210 Y109.993 E0.17620
M204 S1000
G1 X126.557 Y110.400 F10800.000
M204 S800
G1 F2926
G1 X126.557 Y113.930 E0.10993
G1 X124.241 Y113.930 E0.07211
G1 X124.241 Y110.400 E0.10993
G1 X117.725 Y110.400 E0.20292
G1 X117.725 Y90.850 E0.60880
G1 X132.275 Y90.850 E0.45310
G1 X132.275 Y110.400 E0.60880
G1 X126.617 Y110.400 E0.17620
M204 S1000
G1 X126.193 Y110.566 F10800.000
G1 F8640.000
G1 X126.561 Y113.691 E-0.76000
G1 E-0.04000 F2100.00000
G1 Z1.200 F10800.000
G1 X125.399 Y109.382
G1 Z0.600
G1 E0.80000 F2100.00000
G1 F2400.000
G1 X125.399 Y112.912 E0.07569
G1 F8640.000
G1 X125.399 Y109.621 E-0.76000
G1 E-0.04000 F2100.00000
G1 Z1.200 F10800.000
G1 X119.892 Y109.057
G1 Z0.600
G1 E0.80000 F2100.00000
M204 S2000
G1 F2926
G1 X119.252 Y108.416 E0.02822
G1 X119.252 Y107.840 E0.01796
G1 X120.285 Y108.873 E0.04554
G1 X120.861 Y108.873 E0.01796
G1 X119.252 Y107.264 E0.07094
G1 X119.252 Y106.688 E0.01796
G1 X121.437 Y108.873 E0.09633
G1 X122.013 Y108.873 E0.01796
G1 X119.252 Y106.112 E0.12172
G1 X119.252 Y105.536 E0.01796
G1 X122.589 Y108.873 E0.14712
G1 X123.166 Y108.873 E0.01796
G1 X119.252 Y104.959 E0.17251
G1 X119.252 Y104.383 E0.01796
G1 X123.742 Y108.873 E0.19791
G1 X124.318 Y108.873 E0.01796
G1 X119.252 Y103.807 E0.22330
G1 X119.252 Y103.231 E0.01796
G1 X124.894 Y108.873 E0.24870
G1 X125.470 Y108.873 E0.01796
G1 X119.252 Y102.655 E0.27409
G1 X119.252 Y102.079 E0.01796
G1 X126.046 Y108.873 E0.29948
G1 X126.623 Y108.873 E0.01796
G1 X119.252 Y101.502 E0.32488
G1 X119.252 Y100.926 E0.01796
G1 X127.199 Y108.873 E0.35027
G1 X127.775 Y108.873 E0.01796
G1 X119.252 Y100.350 E0.37567
G1 X119.252 Y99.774 E0.01796
G1 X128.351 Y108.873 E0.40106
G1 X128.927 Y108.873 E0.01796
G1 X119.252 Y99.198 E0.42646
G1 X119.252 Y98.622 E0.01796
G1 X129.503 Y108.873 E0.45185
G1 X130.080 Y108.873 E0.01796
G1 X119.252 Y98.045 E0.47725
G1 X119.252 Y97.469 E0.01796
G1 X130.656 Y108.873 E0.50264
G1 X130.748 Y108.873 E0.00289
G1 X130.748 Y108.390 E0.01507
G1 X119.252 Y96.893 E0.50673
G1 X119.252 Y96.317 E0.01796
G1 X130.748 Y107.814 E0.50673
G1 X130.748 Y107.238 E0.01796
G1 X119.252 Y95.741 E0.50673
G1 X119.252 Y95.165 E0.01796
G1 X130.748 Y106.662 E0.50673
G1 X130.748 Y106.085 E0.01796
G1 X119.252 Y94.589 E0.50673
G1 X119.252 Y94.012 E0.01796
G1 X130.748 Y105.509 E0.50673
G1 X130.748 Y104.933 E0.01796
G1 X119.252 Y93.436 E0.50673
G1 X119.252 Y92.860 E0.01796
G1 X130.748 Y104.357 E0.50673
G1 X130.748 Y103.781 E0.01796
G1 X119.344 Y92.377 E0.50264
G1 X119.920 Y92.377 E0.01796
G1 X130.748 Y103.205 E0.47725
G1 X130.748 Y102.628 E0.01796
G1 X120.497 Y92.377 E0.45186
G1 X121.073 Y92.377 E0.01796
G1 X130.748 Y102.052 E0.42646
G1 X130.748 Y101.476 E0.01796
G1 X121.649 Y92.377 E0.40107
G1 X122.225 Y92.377 E0.01796
G1 X130.748 Y100.900 E0.37567
G1 X130.748 Y100.324 E0.01796
G1 X122.801 Y92.377 E0.35028
G1 X123.377 Y92.377 E0.01796
G1 X130.748 Y99.748 E0.32488
G1 X130.748 Y99.172 E0.01796
G1 X123.953 Y92.377 E0.29949
G1 X124.530 Y92.377 E0.01796
G1 X130.748 Y98.595 E0.27410
G1 X130.748 Y98.019 E0.01796
G1 X125.106 Y92.377 E0.24870
G1 X125.682 Y92.377 E0.01796
G1 X130.748 Y97.443 E0.22331
G1 X130.748 Y96.867 E0.01796
G1 X126.258 Y92.377 E0.19791
G1 X126.834 Y92.377 E0.01796
G1 X130.748 Y96.291 E0.17252
G1 X130.748 Y95.715 E0.01796
G1 X127.410 Y92.377 E0.14712
G1 X127.987 Y92.377 E0.01796
G1 X130.748 Y95.138 E0.12173
G1 X130.748 Y94.562 E0.01796
G1 X128.563 Y92.377 E0.09634
G1 X129.139 Y92.377 E0.01796
G1 X130.748 Y93.986 E0.07094
G1 X130.748 Y93.410 E0.01796
G1 X129.715 Y92.377 E0.04555
G1 X130.291 Y92.377 E0.01796
G1 X130.932 Y93.017 E0.02823
M204 S1000
