; generated by PrusaSlicer 2.2.0+ on 2020-04-23 at 00:10:35 UTC


;
;

;
;
; 

; external perimeters extrusion width = 0.45mm
; perimeters extrusion width = 0.45mm
; infill extrusion width = 0.45mm
; solid infill extrusion width = 0.45mm
; top infill extrusion width = 0.40mm
; first layer extrusion width = 0.42mm

M73 P0 R8
M201 X9000 Y9000 Z500 E10000 ; sets maximum accelerations, mm/sec^2
M203 X500 Y500 Z12 E120 ; sets maximum feedrates, mm/sec
M204 P2000 R1500 T2000 ; sets acceleration (P, T) and retract acceleration (R), mm/sec^2
M205 X10.00 Y10.00 Z0.20 E2.50 ; sets the jerk limits, mm/sec
M205 S0 T0 ; sets the minimum extruding and travel feed rate, mm/sec
M107
M83  ; extruder relative mode
M140 S75 ; set bed temp
M109 S160 ; Set extruder temp before bed level
M190 S75 ; wait for bed temp

G28 W ; home all without mesh bed level
G80 N7 ; mesh bed leveling

M109 S240 ; wait for extruder temp

M221 S100 ; Set flow to 100

G1 Y-3.0 F1000.0 ; go outside print area
G92 E0.0
G1 E8 ; Purge Bubble
M73 P0 R8
G1 X60.0 E9.0 F1000.0 ; intro line
G1 X100.0 E12.5 F1000.0 ; intro line
G92 E0.0
G21 ; set units to millimeters
G90 ; use absolute coordinates
M83 ; use relative distances for extrusion
M900 K45; Filament gcode
;BEFORE_LAYER_CHANGE
G92 E0.0
;0.2


G1 E-0.80000 F2100.00000
G1 Z0.600 F10800.000
;AFTER_LAYER_CHANGE
;0.2
G1 X111.741 Y79.576
G1 Z0.200
G1 E0.80000 F2100.00000
M204 S1000
G1 F1200.000
G1 X112.604 Y79.084 E0.02864
G1 X113.525 Y78.839 E0.02749
G1 X135.929 Y76.806 E0.64893
G1 X136.689 Y76.874 E0.02202
G1 X137.621 Y77.183 E0.02832
G1 X138.225 Y77.548 E0.02034
G1 X138.864 Y78.166 E0.02566
G1 X139.277 Y78.789 E0.02156
G1 X139.582 Y79.605 E0.02513
G1 X139.692 Y80.401 E0.02318
G1 X139.611 Y81.269 E0.02517
G1 X122.459 Y130.797 E1.51192
G1 X122.071 Y131.558 E0.02463
G1 X121.402 Y132.309 E0.02903
G1 X120.671 Y132.796 E0.02533
G1 X119.648 Y133.132 E0.03106
G1 X118.940 Y133.192 E0.02050
G1 X113.826 Y133.190 E0.14752
G1 X113.113 Y133.084 E0.02078
G1 X112.486 Y132.868 E0.01914
G1 X111.623 Y132.325 E0.02940
G1 X110.905 Y131.510 E0.03133
G1 X110.478 Y130.599 E0.02903
G1 X110.304 Y129.520 E0.03152
G1 X110.303 Y82.644 E1.35217
G1 X110.406 Y81.690 E0.02769
G1 X110.637 Y80.982 E0.02147
G1 X111.081 Y80.240 E0.02496
G1 X111.699 Y79.619 E0.02527
@Object Hooks.stl id:0 copy 0
G1 F8640.000
G1 X112.604 Y79.084 E-0.24268
G1 X113.525 Y78.839 E-0.22004
G1 X114.807 Y78.722 E-0.29729
G1 E-0.04000 F2100.00000
G1 Z0.800 F10800.000
G1 X132.815 Y85.343
G1 Z0.200
G1 E0.80000 F2100.00000
G1 F1200.000
G1 X132.839 Y85.318 E0.00099
G1 F8640.000
G1 X132.839 Y85.318 E0.00000
G1 E-0.80000 F2100.00000
G1 Z0.800 F10800.000
G1 X114.262 Y85.671
G1 Z0.200
G1 E0.80000 F2100.00000
G1 F1200.000
G1 X114.169 Y85.763 E0.00377
G1 X114.169 Y85.616 E0.00422
G1 X114.202 Y85.671 E0.00183
G1 F8640.000
G1 X114.169 Y85.763 E-0.02256
G1 X114.169 Y85.616 E-0.03380
G1 X114.202 Y85.671 E-0.01464
G1 E-0.72899 F2100.00000
G1 Z0.800 F10800.000
G1 X114.490 Y129.294
G1 Z0.200
G1 E0.80000 F2100.00000
G1 F1200.000
G1 X119.056 Y129.305 E0.13172
G1 X119.125 Y129.342 E0.00225
G1 X119.170 Y129.397 E0.00205
G1 X119.202 Y129.481 E0.00259
G1 X119.197 Y129.555 E0.00214
G1 X119.147 Y129.642 E0.00290
G1 X119.075 Y129.677 E0.00232
G1 X118.927 Y129.698 E0.00431
G1 X114.014 Y129.697 E0.14170
G1 X113.881 Y129.653 E0.00405
G1 X113.803 Y129.568 E0.00332
G1 X113.792 Y82.660 E1.35312
G1 X113.811 Y82.427 E0.00673
G1 X113.890 Y82.327 E0.00368
G1 X114.025 Y82.298 E0.00400
G1 X114.111 Y82.326 E0.00260
G1 X114.169 Y82.391 E0.00253
G1 X114.215 Y82.498 E0.00334
G1 X114.215 Y84.783 E0.06591
G1 X114.439 Y85.293 E0.01609
G1 X131.387 Y85.289 E0.48888
G1 X132.360 Y85.270 E0.02807
G1 X132.794 Y84.824 E0.01796
G1 X132.800 Y83.434 E0.04009
G1 X132.864 Y82.853 E0.01685
G1 X133.021 Y82.361 E0.01490
G1 X133.275 Y81.822 E0.01719
G1 X133.723 Y81.246 E0.02105
G1 X134.367 Y80.729 E0.02382
G1 X134.864 Y80.516 E0.01560
G1 X135.227 Y80.388 E0.01111
G1 X135.677 Y80.322 E0.01312
G1 X136.058 Y80.303 E0.01101
G1 X136.109 Y80.323 E0.00156
G1 X136.206 Y80.490 E0.00559
G1 X136.204 Y80.533 E0.00122
G1 X136.134 Y80.648 E0.00390
G1 X136.024 Y80.711 E0.00365
G1 X135.854 Y80.743 E0.00499
G1 X135.323 Y80.798 E0.01538
G1 X135.009 Y80.911 E0.00963
G1 X134.719 Y81.051 E0.00932
G1 X134.425 Y81.228 E0.00989
G1 X134.137 Y81.443 E0.01036
G1 X133.965 Y81.613 E0.00697
G1 X133.744 Y81.904 E0.01056
G1 X133.564 Y82.198 E0.00994
G1 X133.426 Y82.485 E0.00917
G1 X133.307 Y82.800 E0.00971
G1 X133.219 Y83.642 E0.02444
G1 X133.219 Y85.391 E0.05044
G1 X133.204 Y85.531 E0.00407
G1 X133.134 Y85.649 E0.00395
G1 X133.038 Y85.703 E0.00317
G1 X132.897 Y85.720 E0.00409
G1 X114.745 Y85.722 E0.52361
G1 X114.228 Y86.236 E0.02102
G1 X114.226 Y128.783 E1.22733
G1 X114.463 Y129.240 E0.01484
G1 X114.490 Y129.694 F10800.000
G1 X114.092 Y129.509
G1 F1200.000
G1 X114.009 Y128.829 E0.00309
G1 X114.010 Y86.186 E0.19207
G1 X114.694 Y85.508 F10800.000
G1 F1200.000
G1 X131.390 Y85.505 E0.06955
G1 X132.405 Y85.495 E0.00563
G1 F8640.000
G1 X131.390 Y85.505 E-0.23450
G1 E-0.56550 F2100.00000
G1 Z0.800 F10800.000
G1 X133.012 Y83.577
G1 Z0.200
G1 E0.80000 F2100.00000
G1 F1200.000
G1 X133.095 Y82.782 E0.00353
G1 X133.391 Y82.073 F10800.000
G1 F1200.000
G1 X133.551 Y81.812 E0.00151
G1 F8640.000
G1 X133.391 Y82.073 E-0.07074
G1 E-0.72926 F2100.00000
G1 Z0.800 F10800.000
G1 X134.293 Y81.060
G1 Z0.200
G1 E0.80000 F2100.00000
G1 F1200.000
G1 X134.485 Y80.926 E0.00105
G1 X134.803 Y80.774 E0.00158
G1 X135.455 Y80.570 F10800.000
G1 F1200.000
G1 X135.870 Y80.524 E0.00171
; stop printing object Hooks.stl id:0 copy 0
;BEFORE_LAYER_CHANGE
G92 E0.0
;0.4


G1 F8640.000
G1 X135.455 Y80.570 E-0.09624
G1 E-0.70376 F2100.00000
G1 Z0.800 F10800.000
;AFTER_LAYER_CHANGE
;0.4
M104 S235 ; set temperature
M140 S80 ; set bed temperature
G1 X136.689 Y76.874
G1 Z0.400
G1 E0.80000 F2100.00000
G1 F1931
G1 X137.621 Y77.183 E0.02832
G1 X138.225 Y77.548 E0.02034
G1 X138.864 Y78.166 E0.02566
G1 X139.277 Y78.789 E0.02156
G1 X139.582 Y79.605 E0.02513
G1 X139.692 Y80.401 E0.02318
G1 X139.611 Y81.269 E0.02517
G1 X122.459 Y130.797 E1.51192
G1 X122.071 Y131.558 E0.02463
G1 X121.402 Y132.309 E0.02903
G1 X120.671 Y132.796 E0.02533
G1 X119.648 Y133.132 E0.03106
G1 X118.940 Y133.192 E0.02050
G1 X113.826 Y133.190 E0.14752
G1 X113.113 Y133.084 E0.02078
G1 X112.486 Y132.868 E0.01914
G1 X111.623 Y132.325 E0.02940
G1 X110.905 Y131.510 E0.03133
G1 X110.478 Y130.599 E0.02903
G1 X110.304 Y129.520 E0.03152
G1 X110.303 Y82.644 E1.35217
G1 X110.406 Y81.690 E0.02769
G1 X110.637 Y80.982 E0.02147
G1 X111.081 Y80.240 E0.02496
G1 X111.741 Y79.576 E0.02700
G1 X112.604 Y79.084 E0.02864
G1 X113.525 Y78.839 E0.02749
G1 X135.929 Y76.806 E0.64893
G1 X136.629 Y76.869 E0.02029
@Object Hooks.stl id:0 copy 0
G1 F8640.000
G1 X137.621 Y77.183 E-0.24024
G1 X138.225 Y77.548 E-0.16282
G1 X138.864 Y78.166 E-0.20538
G1 X139.227 Y78.713 E-0.15157
G1 E-0.04000 F2100.00000
G1 Z1.000 F10800.000
G1 X114.317 Y85.491
G1 Z0.400
G1 E0.80000 F2100.00000
M204 S800
G1 F1931
G1 X131.838 Y85.488 E0.54564
G1 X132.664 Y85.240 E0.02683
G1 X132.780 Y84.790 E0.01447
G1 X132.982 Y84.575 E0.00919
G1 X133.002 Y83.378 E0.03727
G1 X133.084 Y82.824 E0.01745
G1 X133.146 Y82.606 E0.00707
G1 X133.395 Y82.000 E0.02038
G1 X133.764 Y81.511 E0.01909
G1 X134.063 Y81.222 E0.01294
G1 X134.312 Y81.033 E0.00976
G1 X134.619 Y80.841 E0.01124
G1 X135.162 Y80.615 E0.01831
G1 X135.979 Y80.501 E0.02569
G1 X135.465 Y80.569 E0.01614
G1 X134.729 Y80.804 E0.02406
G1 X134.299 Y81.068 E0.01570
G1 X133.916 Y81.375 E0.01529
G1 X133.512 Y81.871 E0.01993
G1 X133.317 Y82.254 E0.01336
G1 X133.127 Y82.743 E0.01636
G1 X133.014 Y83.434 E0.02180
G1 X133.007 Y85.346 E0.05953
G1 X132.990 Y85.494 E0.00463
G1 X114.748 Y85.510 E0.56806
G1 X114.046 Y86.154 E0.02968
G1 X114.007 Y87.139 E0.03070
G1 X114.007 Y128.574 E1.29034
G1 X114.347 Y129.181 E0.02166
G1 X114.937 Y129.492 E0.02078
G1 X118.921 Y129.498 E0.12405
G1 X114.069 Y129.504 E0.15109
G1 X114.015 Y129.502 E0.00168
G1 X113.995 Y129.472 E0.00113
G1 X113.988 Y82.579 E1.46031
G1 X114.001 Y82.526 E0.00170
G1 X114.007 Y84.411 E0.05873
G1 X114.300 Y85.434 E0.03312
M204 S1000
G1 X114.624 Y85.084 F10800.000
M204 S800
G1 F1931
G1 X131.779 Y85.080 E0.53422
G1 X132.327 Y84.916 E0.01782
G1 X132.412 Y84.587 E0.01058
G1 X132.578 Y84.411 E0.00754
G1 X132.596 Y83.345 E0.03319
G1 X132.685 Y82.738 E0.01910
G1 X132.761 Y82.472 E0.00862
G1 X133.038 Y81.797 E0.02274
G1 X133.451 Y81.249 E0.02136
G1 X133.628 Y81.059 E0.00808
G1 X134.081 Y80.697 E0.01807
G1 X134.441 Y80.473 E0.01320
G1 X135.044 Y80.222 E0.02035
G1 X135.944 Y80.092 E0.02833
G1 X136.068 Y80.098 E0.00386
G1 X136.195 Y80.140 E0.00415
G1 X136.273 Y80.193 E0.00294
G1 X136.339 Y80.268 E0.00312
G1 X136.386 Y80.362 E0.00327
G1 X136.416 Y80.491 E0.00411
G1 X136.416 Y80.546 E0.00172
G1 X136.342 Y80.734 E0.00629
G1 X136.197 Y80.861 E0.00602
G1 X136.070 Y80.900 E0.00413
G1 X135.554 Y80.968 E0.01620
G1 X134.900 Y81.176 E0.02139
G1 X134.534 Y81.401 E0.01337
G1 X134.204 Y81.665 E0.01315
G1 X133.855 Y82.095 E0.01723
G1 X133.689 Y82.420 E0.01137
G1 X133.522 Y82.851 E0.01440
G1 X133.421 Y83.468 E0.01948
G1 X133.414 Y85.369 E0.05920
G1 X133.385 Y85.627 E0.00807
G1 X133.361 Y85.699 E0.00237
G1 X133.263 Y85.819 E0.00482
G1 X133.072 Y85.897 E0.00642
G1 X114.909 Y85.915 E0.56562
G1 X114.446 Y86.339 E0.01956
G1 X114.414 Y87.147 E0.02517
G1 X114.414 Y128.468 E1.28677
G1 X114.644 Y128.877 E0.01461
G1 X115.039 Y129.086 E0.01391
G1 X118.922 Y129.090 E0.12094
G1 X119.087 Y129.103 E0.00515
G1 X119.184 Y129.131 E0.00313
G1 X119.255 Y129.174 E0.00259
G1 X119.335 Y129.259 E0.00363
G1 X119.393 Y129.385 E0.00434
G1 X119.414 Y129.492 E0.00338
G1 X119.404 Y129.589 E0.00307
G1 X119.325 Y129.755 E0.00572
G1 X119.177 Y129.872 E0.00587
G1 X119.048 Y129.905 E0.00416
G1 X113.952 Y129.907 E0.15868
G1 X113.839 Y129.880 E0.00361
G1 X113.670 Y129.735 E0.00697
G1 X113.590 Y129.552 E0.00620
G1 X113.581 Y82.528 E1.46438
G1 X113.668 Y82.257 E0.00886
G1 X113.745 Y82.182 E0.00337
G1 X113.862 Y82.119 E0.00411
G1 X113.968 Y82.095 E0.00340
G1 X114.167 Y82.126 E0.00627
G1 X114.285 Y82.203 E0.00438
G1 X114.347 Y82.273 E0.00290
G1 X114.380 Y82.348 E0.00257
G1 X114.408 Y82.477 E0.00411
G1 X114.414 Y84.354 E0.05844
G1 X114.607 Y85.027 E0.02180
M204 S1000
G1 F8640.000
G1 X117.898 Y85.037 E-0.76000
G1 E-0.04000 F2100.00000
G1 Z1.000 F10800.000
G1 X132.044 Y84.384
G1 Z0.400
G1 E0.80000 F2100.00000
M204 S800
G1 F1931
G1 X132.173 Y84.246 E0.00589
G1 X132.189 Y83.312 E0.02910
G1 X132.286 Y82.653 E0.02075
G1 X132.375 Y82.339 E0.01016
G1 X132.682 Y81.593 E0.02509
G1 X133.139 Y80.988 E0.02363
G1 X133.345 Y80.765 E0.00945
G1 X133.850 Y80.362 E0.02014
G1 X134.263 Y80.104 E0.01515
G1 X134.498 Y80.020 E0.00779
G1 X134.926 Y79.829 E0.01461
G1 X135.930 Y79.684 E0.03158
G1 X136.143 Y79.695 E0.00665
G1 X136.376 Y79.770 E0.00762
G1 X136.546 Y79.886 E0.00640
G1 X136.679 Y80.040 E0.00633
G1 X136.771 Y80.222 E0.00635
G1 X136.823 Y80.443 E0.00708
G1 X136.823 Y80.608 E0.00514
G1 X136.770 Y80.779 E0.00558
G1 X136.678 Y80.977 E0.00679
G1 X136.453 Y81.187 E0.00959
G1 X136.351 Y81.240 E0.00359
G1 X136.156 Y81.299 E0.00634
G1 X135.643 Y81.367 E0.01612
G1 X135.071 Y81.549 E0.01871
G1 X134.769 Y81.735 E0.01103
G1 X134.492 Y81.956 E0.01101
G1 X134.198 Y82.318 E0.01453
G1 X134.061 Y82.586 E0.00939
G1 X133.917 Y82.959 E0.01245
G1 X133.827 Y83.502 E0.01715
G1 X133.821 Y85.393 E0.05887
G1 X133.785 Y85.715 E0.01010
G1 X133.730 Y85.877 E0.00534
G1 X133.638 Y86.020 E0.00528
G1 X133.512 Y86.146 E0.00556
G1 X133.336 Y86.246 E0.00630
G1 X133.139 Y86.301 E0.00636
G1 X132.917 Y86.313 E0.00693
G1 X115.069 Y86.320 E0.55578
G1 X114.846 Y86.525 E0.00944
G1 X114.821 Y87.155 E0.01964
G1 X114.821 Y128.361 E1.28321
G1 X114.940 Y128.573 E0.00756
G1 X115.140 Y128.679 E0.00703
G1 X118.938 Y128.683 E0.11827
G1 X119.160 Y128.700 E0.00694
G1 X119.350 Y128.755 E0.00616
G1 X119.513 Y128.855 E0.00596
G1 X119.676 Y129.027 E0.00739
G1 X119.784 Y129.259 E0.00796
G1 X119.825 Y129.472 E0.00677
G1 X119.805 Y129.672 E0.00625
G1 X119.767 Y129.793 E0.00395
G1 X119.718 Y129.903 E0.00375
G1 X119.629 Y130.031 E0.00485
G1 X119.448 Y130.185 E0.00740
G1 X119.334 Y130.252 E0.00412
G1 X119.100 Y130.312 E0.00753
G1 X114.054 Y130.319 E0.15714
G1 X113.897 Y130.313 E0.00490
G1 X113.680 Y130.261 E0.00693
G1 X113.534 Y130.169 E0.00538
G1 X113.343 Y129.985 E0.00826
G1 X113.263 Y129.841 E0.00514
G1 X113.185 Y129.632 E0.00693
G1 X113.178 Y129.417 E0.00672
G1 X113.174 Y82.477 E1.46173
G1 X113.238 Y82.221 E0.00824
G1 X113.328 Y82.020 E0.00684
G1 X113.503 Y81.850 E0.00759
G1 X113.717 Y81.735 E0.00759
G1 X113.930 Y81.686 E0.00679
G1 X114.140 Y81.694 E0.00656
G1 X114.339 Y81.752 E0.00646
G1 X114.547 Y81.888 E0.00771
G1 X114.655 Y82.001 E0.00488
G1 X114.769 Y82.221 E0.00773
G1 X114.815 Y82.432 E0.00673
G1 X114.821 Y84.296 E0.05803
G1 X114.930 Y84.677 E0.01235
G1 X131.719 Y84.673 E0.52280
G1 X131.990 Y84.592 E0.00882
G1 X132.029 Y84.442 E0.00482
M204 S1000
G1 X132.226 Y84.433 F10800.000
G1 F8640.000
G1 X132.173 Y84.246 E-0.05624
G1 X132.189 Y83.312 E-0.21580
G1 X132.286 Y82.653 E-0.15385
G1 X132.375 Y82.339 E-0.07536
G1 X132.682 Y81.593 E-0.18602
G1 X132.871 Y81.342 E-0.07273
G1 E-0.04000 F2100.00000
G1 Z1.000 F10800.000
G1 X119.149 Y129.391
G1 Z0.400
G1 E0.80000 F2100.00000
G1 F1931
G1 X119.166 Y129.503 E0.00064
G1 X119.155 Y129.585 E0.00047
G1
G1 X119.132 Y129.652 E0.00036
; stop printing object Hooks.stl id:0 copy 0
;BEFORE_LAYER_CHANGE
G92 E0.0
;0.6


G1 F8640.000
G1 X119.155 Y129.585 E-0.01616
G1 E-0.78384 F2100.00000
G1 Z1.000 F10800.000
;AFTER_LAYER_CHANGE
;0.6
G1 X120.671 Y132.796
G1 Z0.600
G1 E0.80000 F2100.00000
G1 F2352
G1 X119.648 Y133.132 E0.03106
G1 X118.940 Y133.192 E0.02050
G1 X113.826 Y133.190 E0.14752
G1 X113.113 Y133.084 E0.02078
G1 X112.486 Y132.868 E0.01914
G1 X111.623 Y132.325 E0.02940
G1 X110.905 Y131.510 E0.03133
G1 X110.478 Y130.599 E0.02903
G1 X110.304 Y129.520 E0.03152
G1 X110.303 Y82.644 E1.35217
G1 X110.406 Y81.690 E0.02769
G1 X110.637 Y80.982 E0.02147
G1 X111.081 Y80.240 E0.02496
G1 X111.741 Y79.576 E0.02700
G1 X112.604 Y79.084 E0.02864
G1 X113.525 Y78.839 E0.02749
G1 X135.929 Y76.806 E0.64893
G1 X136.689 Y76.874 E0.02202
G1 X137.621 Y77.183 E0.02832
G1 X138.225 Y77.548 E0.02034
G1 X138.864 Y78.166 E0.02566
G1 X139.277 Y78.789 E0.02156
G1 X139.582 Y79.605 E0.02513
G1 X139.692 Y80.401 E0.02318
G1 X139.611 Y81.269 E0.02517
G1 X122.459 Y130.797 E1.51192
G1 X122.071 Y131.558 E0.02463
G1 X121.402 Y132.309 E0.02903
G1 X120.721 Y132.762 E0.02360
@Object Hooks.stl id:0 copy 0
G1 F8640.000
G1 X119.648 Y133.132 E-0.26201
G1 X118.940 Y133.192 E-0.16409
G1 X117.494 Y133.191 E-0.33390
G1 E-0.04000 F2100.00000
G1 Z1.200 F10800.000
G1 X132.597 Y85.361
G1 Z0.600
G1 E0.80000 F2100.00000
M204 S800
G1 F1800.000
G1 X132.877 Y85.288 E0.00900
G1 X132.877 Y85.361 E0.00228
G1 X132.657 Y85.361 E0.00683
M204 S1000
G1 F8640.000
G1 X132.877 Y85.288 E-0.05342
G1 X132.877 Y85.361 E-0.01689
G1 X132.657 Y85.361 E-0.05068
G1 E-0.67901 F2100.00000
G1 Z1.200 F10800.000
G1 X114.613 Y85.618
G1 Z0.600
G1 E0.80000 F2100.00000
M204 S800
G1 F1800.000
G1 X114.127 Y85.769 E0.01586
G1 X114.127 Y84.743 E0.03194
G1 X114.584 Y85.566 E0.02931
M204 S1000
G1 F8640.000
G1 X114.127 Y85.769 E-0.11555
G1 X114.127 Y84.743 E-0.23684
G1 X114.584 Y85.566 E-0.21732
G1 E-0.23029 F2100.00000
G1 Z1.200 F10800.000
G1 X114.126 Y128.762
G1 Z0.600
G1 E0.80000 F2100.00000
M204 S800
G1 F1800.000
G1 X114.456 Y129.367 E0.02146
G1 X114.126 Y129.368 E0.01026
G1 X114.126 Y128.822 E0.01699
M204 S1000
G1 F8640.000
G1 X114.456 Y129.367 E-0.14707
G1 X114.126 Y129.368 E-0.07608
G1 X114.126 Y128.822 E-0.12600
G1 E-0.45085 F2100.00000
G1 Z1.200 F10800.000
G1 X114.285 Y86.146
G1 Z0.600
G1 E0.80000 F2100.00000
M204 S800
G1 F2352
G1 X114.285 Y128.203 E1.30969
G1 X114.838 Y129.217 E0.03597
G1 X119.035 Y129.235 E0.13070
G1 X119.151 Y129.271 E0.00379
G1 X119.231 Y129.351 E0.00352
G1 X119.278 Y129.509 E0.00513
G1 X119.243 Y129.629 E0.00388
G1 X119.200 Y129.685 E0.00220
G1 X119.122 Y129.746 E0.00310
G1 X119.055 Y129.766 E0.00218
G1 X114.001 Y129.775 E0.15736
G1 X113.831 Y129.712 E0.00565
