; generated by PrusaSlicer 2.2.0+ on 2020-04-23 at 00:17:07 UTC


;
;

;
;
; 

; external perimeters extrusion width = 0.45mm
; perimeters extrusion width = 0.45mm
; infill extrusion width = 0.45mm
; solid infill extrusion width = 0.45mm
; top infill extrusion width = 0.40mm
; support material extrusion width = 0.35mm
; first layer extrusion width = 0.42mm

M73 P0 R102
M201 X9000 Y9000 Z500 E10000 ; sets maximum accelerations, mm/sec^2
M203 X500 Y500 Z12 E120 ; sets maximum feedrates, mm/sec
M204 P2000 R1500 T2000 ; sets acceleration (P, T) and retract acceleration (R), mm/sec^2
M205 X10.00 Y10.00 Z0.20 E2.50 ; sets the jerk limits, mm/sec
M205 S0 T0 ; sets the minimum extruding and travel feed rate, mm/sec
M107
M83  ; extruder relative mode
M140 S75 ; set bed temp
M109 S160 ; Set extruder temp before bed level
M190 S75 ; wait for bed temp

G28 W ; home all without mesh bed level
G80 N7 ; mesh bed leveling

M109 S240 ; wait for extruder temp

M221 S100 ; Set flow to 100

G1 Y-3.0 F1000.0 ; go outside print area
G92 E0.0
G1 E8 ; Purge Bubble
M73 P0 R102
G1 X60.0 E9.0 F1000.0 ; intro line
G1 X100.0 E12.5 F1000.0 ; intro line
G92 E0.0
G21 ; set units to millimeters
G90 ; use absolute coordinates
M83 ; use relative distances for extrusion
M900 K45; Filament gcode
;BEFORE_LAYER_CHANGE
G92 E0.0
;0.2


G1 E-0.80000 F2100.00000
G1 Z0.600 F10800.000
;AFTER_LAYER_CHANGE
;0.2
G1 X101.732 Y50.065
G1 Z0.200
G1 E0.80000 F2100.00000
M204 S1000
G1 F1200.000
G1 X102.184 Y49.414 E0.02286
G1 X104.616 Y47.119 E0.09647
G1 X105.207 Y46.755 E0.02004
G1 X105.878 Y46.577 E0.02004
G1 X132.542 Y46.561 E0.76912
G1 X144.579 Y48.914 E0.35381
G1 X145.048 Y49.059 E0.01415
G1 X145.818 Y49.588 E0.02696
G1 X147.973 Y52.068 E0.09475
G1 X148.327 Y52.678 E0.02036
G1 X148.486 Y53.362 E0.02025
G1 X148.489 Y101.328 E1.38362
G1 X143.954 Y159.122 E1.67225
G1 X143.725 Y159.904 E0.02351
G1 X143.246 Y160.563 E0.02351
G1 X142.572 Y161.022 E0.02351
G1 X141.783 Y161.226 E0.02351
G1 X127.004 Y161.220 E0.42633
G1 X110.305 Y159.081 E0.48564
G1 X109.584 Y158.884 E0.02155
G1 X108.668 Y158.452 E0.02921
G1 X108.059 Y158.021 E0.02154
G1 X107.517 Y157.492 E0.02185
G1 X106.953 Y156.716 E0.02766
G1 X106.660 Y156.137 E0.01871
G1 X106.305 Y154.836 E0.03891
G1 X101.514 Y112.738 E1.22219
G1 X101.506 Y51.068 E1.77893
G1 X101.564 Y50.555 E0.01491
G1 X101.712 Y50.122 E0.01318
@Object Pliers.stl id:0 copy 0
G1 F8640.000
G1 X102.184 Y49.414 E-0.19632
G1 X103.959 Y47.739 E-0.56368
G1 E-0.04000 F2100.00000
G1 Z0.800 F10800.000
G1 X103.884 Y51.076
G1 Z0.200
G1 E0.80000 F2100.00000
G1 F1200.000
G1 X103.884 Y112.545 E1.77314
G1 X104.638 Y112.545 E0.02175
G1 X104.638 Y51.246 E1.76825
G1 X105.392 Y51.246 E0.02175
G1 X105.392 Y112.715 E1.77314
G1 F8640.000
G1 X105.392 Y109.424 E-0.76000
G1 E-0.04000 F2100.00000
G1 Z0.800 F10800.000
G1 X127.262 Y158.857
G1 Z0.200
G1 E0.80000 F2100.00000
G1 F1200.000
G1 X127.262 Y156.302 E0.07369
G1 X128.017 Y155.903 E0.02461
G1 X128.017 Y158.687 E0.08029
G1 X128.771 Y158.687 E0.02175
G1 X128.771 Y155.496 E0.09205
G1 X129.525 Y155.088 E0.02473
G1 X129.525 Y158.687 E0.10381
G1 X130.279 Y158.687 E0.02175
G1 X130.279 Y154.681 E0.11556
G1 X131.033 Y154.273 E0.02473
G1 X131.033 Y158.687 E0.12732
G1 X131.787 Y158.687 E0.02175
G1 X131.787 Y153.866 E0.13907
G1 X132.542 Y153.458 E0.02473
G1 X132.542 Y158.687 E0.15083
G1 X133.296 Y158.687 E0.02175
G1 X133.296 Y145.836 E0.37070
G1 X134.050 Y145.836 E0.02175
G1 X134.050 Y158.687 E0.37070
G1 X134.804 Y158.687 E0.02175
G1 X134.804 Y145.836 E0.37070
G1 X135.558 Y145.836 E0.02175
G1 X135.558 Y158.687 E0.37070
G1 X136.312 Y158.687 E0.02175
G1 X136.312 Y145.836 E0.37070
G1 X137.067 Y145.836 E0.02175
G1 X137.067 Y158.857 E0.37560
G1 F8640.000
G1 X137.067 Y155.565 E-0.76000
G1 E-0.04000 F2100.00000
G1 Z0.800 F10800.000
G1 X141.591 Y151.913
G1 Z0.200
G1 E0.80000 F2100.00000
G1 F1200.000
G1 X141.591 Y158.857 E0.20031
G1 X140.837 Y158.857 F10800.000
G1 F1200.000
G1 X140.837 Y154.145 E0.13591
G1 X140.636 Y154.332 E0.00791
G1 X140.083 Y154.614 E0.01791
G1 X140.083 Y158.687 E0.11750
G1 X139.329 Y158.687 E0.02175
G1 X139.329 Y154.754 E0.11344
G1 X138.575 Y154.637 E0.02202
G1 X138.575 Y158.687 E0.11683
G1 X137.821 Y158.687 E0.02175
G1 X137.821 Y145.836 E0.37070
G1 X138.575 Y145.836 E0.02175
G1 X138.575 Y152.027 E0.17858
G1 X139.329 Y152.027 E0.02175
G1 X139.329 Y145.836 E0.17858
G1 X139.500 Y145.836 E0.00494
G1 X139.500 Y148.143 E0.06655
G1 X140.083 Y148.143 E0.01681
G1 X140.083 Y152.027 E0.11203
G1 X140.837 Y152.027 E0.02175
G1 X140.837 Y147.973 E0.11693
G1 F8640.000
G1 X140.837 Y151.265 E-0.76000
G1 E-0.04000 F2100.00000
G1 Z0.800 F10800.000
G1 X141.591 Y133.972
G1 Z0.200
G1 E0.80000 F2100.00000
G1 F1200.000
G1 X141.591 Y127.379 E0.19017
G1 X140.837 Y127.379 E0.02175
G1 X140.837 Y137.923 E0.30415
G1 X140.083 Y137.923 E0.02175
G1 X140.083 Y127.379 E0.30415
G1 X139.329 Y127.379 E0.02175
G1 X139.329 Y137.923 E0.30415
G1 X138.575 Y137.923 E0.02175
G1 X138.575 Y127.379 E0.30415
G1 X137.821 Y127.379 E0.02175
G1 X137.821 Y137.923 E0.30415
G1 X137.067 Y137.923 E0.02175
G1 X137.067 Y127.379 E0.30415
G1 X136.312 Y127.379 E0.02175
G1 X136.312 Y137.923 E0.30415
G1 X135.558 Y137.923 E0.02175
G1 X135.558 Y127.379 E0.30415
G1 X134.804 Y127.379 E0.02175
G1 X134.804 Y137.923 E0.30415
G1 X134.050 Y137.923 E0.02175
G1 X134.050 Y127.379 E0.30415
G1 X133.296 Y127.379 E0.02175
G1 X133.296 Y137.923 E0.30415
G1 X132.854 Y137.923 E0.01276
G1 X132.854 Y130.252 E0.22128
G1 X132.611 Y130.010 E0.00988
G1 X132.542 Y130.010 E0.00201
G1 X132.542 Y127.379 E0.07589
G1 X131.787 Y127.379 E0.02175
G1 X131.787 Y130.010 E0.07589
G1 X131.033 Y130.010 E0.02175
G1 X131.033 Y127.379 E0.07589
G1 X130.279 Y127.379 E0.02175
G1 X130.279 Y130.433 E0.08808
G1 F8640.000
G1 X130.279 Y127.379 E-0.70505
G1 X130.517 Y127.379 E-0.05495
G1 E-0.04000 F2100.00000
G1 Z0.800 F10800.000
G1 X130.279 Y119.636
G1 Z0.200
G1 E0.80000 F2100.00000
G1 F1200.000
G1 X130.279 Y108.923 E0.30905
G1 X131.033 Y108.923 E0.02175
G1 X131.033 Y119.467 E0.30415
G1 X131.787 Y119.467 E0.02175
G1 X131.787 Y108.923 E0.30415
G1 X132.542 Y108.923 E0.02175
G1 X132.542 Y119.467 E0.30415
G1 X133.296 Y119.467 E0.02175
G1 X133.296 Y108.923 E0.30415
G1 X134.050 Y108.923 E0.02175
G1 X134.050 Y119.467 E0.30415
G1 X134.804 Y119.467 E0.02175
G1 X134.804 Y108.923 E0.30415
G1 X135.558 Y108.923 E0.02175
G1 X135.558 Y119.467 E0.30415
G1 X136.312 Y119.467 E0.02175
G1 X136.312 Y108.923 E0.30415
G1 X137.067 Y108.923 E0.02175
G1 X137.067 Y119.467 E0.30415
G1 X137.821 Y119.467 E0.02175
G1 X137.821 Y108.923 E0.30415
G1 X138.575 Y108.923 E0.02175
G1 X138.575 Y119.467 E0.30415
G1 X139.329 Y119.467 E0.02175
G1 X139.329 Y108.923 E0.30415
G1 X140.083 Y108.923 E0.02175
G1 X140.083 Y119.467 E0.30415
G1 X140.837 Y119.467 E0.02175
G1 X140.837 Y108.923 E0.30415
G1 X141.591 Y108.923 E0.02175
G1 X141.591 Y119.636 E0.30905
M73 P0 R101
G1 F8640.000
G1 X141.591 Y116.345 E-0.76000
G1 E-0.04000 F2100.00000
G1 Z0.800 F10800.000
G1 X146.116 Y101.180
G1 Z0.200
G1 E0.80000 F2100.00000
G1 F1200.000
G1 X146.116 Y90.466 E0.30905
G1 X145.362 Y90.466 E0.02175
G1 X145.362 Y101.010 E0.30415
G1 X144.608 Y101.010 E0.02175
G1 X144.608 Y90.466 E0.30415
G1 X143.854 Y90.466 E0.02175
G1 X143.854 Y101.010 E0.30415
G1 X143.100 Y101.010 E0.02175
G1 X143.100 Y98.387 E0.07566
G1 X142.346 Y98.387 E0.02175
G1 X142.346 Y101.010 E0.07566
G1 X141.591 Y101.010 E0.02175
G1 X141.591 Y98.387 E0.07566
G1 X140.837 Y98.387 E0.02175
G1 X140.837 Y101.010 E0.07566
G1 X140.083 Y101.010 E0.02175
G1 X140.083 Y98.387 E0.07566
G1 X139.329 Y98.387 E0.02175
G1 X139.329 Y101.010 E0.07566
G1 X138.575 Y101.010 E0.02175
G1 X138.575 Y98.387 E0.07566
G1 X137.821 Y98.387 E0.02175
G1 X137.821 Y101.010 E0.07566
G1 X137.067 Y101.010 E0.02175
G1 X137.067 Y98.217 E0.08055
G1 X136.663 Y98.183 F10800.000
G1 F1200.000
G1 X136.663 Y93.431 E0.11164
G1 X137.170 Y93.431 E0.01191
G1 X137.170 Y98.045 E0.10839
G1 X137.677 Y98.045 E0.01191
G1 X137.677 Y93.431 E0.10839
G1 X138.184 Y93.431 E0.01191
G1 X138.184 Y98.045 E0.10839
G1 X138.691 Y98.045 E0.01191
G1 X138.691 Y93.431 E0.10839
G1 X139.198 Y93.431 E0.01191
G1 X139.198 Y98.045 E0.10839
G1 X139.705 Y98.045 E0.01191
G1 X139.705 Y93.431 E0.10839
G1 X140.212 Y93.431 E0.01191
G1 X140.212 Y98.045 E0.10839
G1 X140.719 Y98.045 E0.01191
G1 X140.719 Y93.431 E0.10839
G1 X141.227 Y93.431 E0.01191
G1 X141.227 Y98.045 E0.10839
G1 X141.734 Y98.045 E0.01191
G1 X141.734 Y93.431 E0.10839
G1 X142.241 Y93.431 E0.01191
G1 X142.241 Y98.045 E0.10839
G1 X142.748 Y98.045 E0.01191
G1 X142.748 Y93.431 E0.10839
G1 X143.255 Y93.431 E0.01191
G1 X143.255 Y98.183 E0.11164
G1 X143.100 Y93.258 F10800.000
G1 F1200.000
G1 X143.100 Y90.466 E0.08055
G1 X142.346 Y90.466 E0.02175
G1 X142.346 Y93.089 E0.07566
G1 X141.591 Y93.089 E0.02175
G1 X141.591 Y90.466 E0.07566
G1 X140.837 Y90.466 E0.02175
G1 X140.837 Y93.089 E0.07566
G1 X140.083 Y93.089 E0.02175
G1 X140.083 Y90.466 E0.07566
G1 X139.329 Y90.466 E0.02175
G1 X139.329 Y93.089 E0.07566
G1 X138.575 Y93.089 E0.02175
G1 X138.575 Y90.466 E0.07566
G1 X137.821 Y90.466 E0.02175
G1 X137.821 Y93.089 E0.07566
G1 X137.067 Y93.089 E0.02175
G1 X137.067 Y90.466 E0.07566
G1 X136.312 Y90.466 E0.02175
G1 X136.312 Y101.010 E0.30415
G1 X135.558 Y101.010 E0.02175
G1 X135.558 Y90.466 E0.30415
G1 X134.804 Y90.466 E0.02175
G1 X134.804 Y101.010 E0.30415
G1 X134.050 Y101.010 E0.02175
G1 X134.050 Y90.466 E0.30415
G1 X133.296 Y90.466 E0.02175
G1 X133.296 Y101.010 E0.30415
G1 X132.542 Y101.010 E0.02175
G1 X132.542 Y90.466 E0.30415
G1 X131.787 Y90.466 E0.02175
G1 X131.787 Y101.010 E0.30415
G1 X131.033 Y101.010 E0.02175
G1 X131.033 Y90.466 E0.30415
G1 X130.279 Y90.466 E0.02175
G1 X130.279 Y101.180 E0.30905
G1 F8640.000
G1 X130.279 Y97.888 E-0.76000
G1 E-0.04000 F2100.00000
G1 Z0.800 F10800.000
G1 X146.116 Y80.416
G1 Z0.200
G1 E0.80000 F2100.00000
G1 F1200.000
G1 X146.116 Y72.009 E0.24250
G1 X145.362 Y72.009 E0.02175
G1 X145.362 Y80.246 E0.23760
G1 X144.608 Y80.246 E0.02175
G1 X144.608 Y72.009 E0.23760
G1 X144.114 Y72.009 E0.01424
G1 X144.114 Y69.702 E0.06655
G1 X143.854 Y69.702 E0.00751
G1 X143.854 Y82.553 E0.37070
G1 X143.100 Y82.553 E0.02175
G1 X143.100 Y77.623 E0.14221
G1 X142.346 Y77.623 E0.02175
G1 X142.346 Y82.553 E0.14221
G1 X141.591 Y82.553 E0.02175
G1 X141.591 Y77.623 E0.14221
G1 X141.492 Y77.623 E0.00288
G1 X141.492 Y79.931 E0.06655
G1 X140.837 Y79.931 E0.01887
G1 X140.837 Y82.553 E0.07566
G1 X140.083 Y82.553 E0.02175
G1 X140.083 Y79.931 E0.07566
G1 X139.329 Y79.931 E0.02175
G1 X139.329 Y82.553 E0.07566
G1 X138.575 Y82.553 E0.02175
G1 X138.575 Y79.931 E0.07566
G1 X137.821 Y79.931 E0.02175
G1 X137.821 Y82.553 E0.07566
G1 X137.193 Y82.553 E0.01810
G1 X137.193 Y89.475 E0.19965
G1 X137.067 Y89.475 E0.00365
G1 X137.067 Y79.761 E0.28020
G1 X136.663 Y79.727 F10800.000
G1 F1200.000
G1 X136.663 Y72.667 E0.16583
G1 X137.170 Y72.667 E0.01191
G1 X137.170 Y79.588 E0.16259
G1 X137.677 Y79.588 E0.01191
G1 X137.677 Y72.667 E0.16259
G1 X138.184 Y72.667 E0.01191
G1 X138.184 Y79.588 E0.16259
G1 X138.691 Y79.588 E0.01191
G1 X138.691 Y72.667 E0.16259
G1 X139.198 Y72.667 E0.01191
G1 X139.198 Y79.588 E0.16259
G1 X139.705 Y79.588 E0.01191
G1 X139.705 Y72.667 E0.16259
G1 X140.212 Y72.667 E0.01191
G1 X140.212 Y79.588 E0.16259
G1 X140.719 Y79.588 E0.01191
G1 X140.719 Y72.667 E0.16259
G1 X141.150 Y72.667 E0.01010
G1 X141.150 Y74.974 E0.05420
G1 X141.227 Y74.974 E0.00181
G1 X141.227 Y77.281 E0.05420
G1 X141.734 Y77.281 E0.01191
G1 X141.734 Y74.974 E0.05420
G1 X142.241 Y74.974 E0.01191
G1 X142.241 Y77.281 E0.05420
G1 X142.748 Y77.281 E0.01191
G1 X142.748 Y74.974 E0.05420
G1 X143.255 Y74.974 E0.01191
G1 X143.255 Y77.420 E0.05744
G1 F8640.000
G1 X143.255 Y74.974 E-0.56463
G1 X142.748 Y74.974 E-0.11709
G1 X142.748 Y75.313 E-0.07828
G1 E-0.04000 F2100.00000
G1 Z0.800 F10800.000
G1 X134.127 Y86.648
G1 Z0.200
G1 E0.80000 F2100.00000
G1 F1200.000
G1 X134.127 Y54.211 E0.76199
G1 X133.620 Y54.211 E0.01191
G1 X133.620 Y86.510 E0.75874
G1 X133.113 Y86.510 E0.01191
G1 X133.113 Y54.211 E0.75874
G1 X132.606 Y54.211 E0.01191
G1 X132.606 Y56.653 E0.05738
G1 X132.099 Y56.387 E0.01345
G1 X132.099 Y54.211 E0.05113
G1 X131.592 Y54.211 E0.01191
G1 X131.592 Y56.121 E0.04489
G1 X131.085 Y55.855 E0.01345
G1 X131.085 Y54.211 E0.03864
G1 X130.578 Y54.211 E0.01191
G1 X130.578 Y55.589 E0.03239
G1 X130.071 Y55.335 E0.01332
G1 X130.071 Y54.211 E0.02642
G1 X129.614 Y54.211 E0.01073
G1 X129.614 Y51.903 E0.05420
G1 X129.564 Y51.903 E0.00119
G1 X129.564 Y55.112 E0.07538
G1 X129.057 Y54.889 E0.01301
G1 X129.057 Y51.903 E0.07014
G1 X128.550 Y51.903 E0.01191
G1 X128.550 Y54.674 E0.06509
G1 X128.180 Y54.611 E0.00881
G1 X128.042 Y54.607 E0.00323
G1 X128.042 Y51.903 E0.06350
G1 X127.535 Y51.903 E0.01191
G1 X127.535 Y54.607 E0.06350
G1 X127.028 Y54.607 E0.01191
G1 X127.028 Y51.903 E0.06351
G1 X126.521 Y51.903 E0.01191
G1 X126.521 Y54.607 E0.06351
G1 X126.014 Y54.607 E0.01191
G1 X126.014 Y51.903 E0.06351
G1 X125.507 Y51.903 E0.01191
G1 X125.507 Y54.607 E0.06351
G1 X125.000 Y54.607 E0.01191
G1 X125.000 Y51.903 E0.06351
G1 X124.493 Y51.903 E0.01191
G1 X124.493 Y54.607 E0.06351
G1 X124.021 Y54.607 E0.01109
G1 X123.986 Y54.715 E0.00266
G1 X123.986 Y51.903 E0.06604
G1 X123.479 Y51.903 E0.01191
G1 X123.479 Y56.518 E0.10839
G1 X123.986 Y56.518 E0.01191
G1 X123.986 Y55.561 E0.02247
G1 X124.325 Y55.807 E0.00984
G1 X124.493 Y55.965 E0.00542
G1 X124.493 Y56.656 E0.01622
G1 X124.246 Y55.537 F10800.000
G1 F1200.000
G1 X124.246 Y55.021 E0.01487
G1 X124.269 Y54.949 E0.00220
G1 X125.000 Y54.949 E0.02108
G1 X125.000 Y56.352 E0.04048
G1 X125.000 Y56.425 F10800.000
G1 F1200.000
G1 X125.000 Y93.569 E0.87255
G1 X125.000 Y93.603 F10800.000
G1 F1200.000
G1 X125.000 Y96.396 E0.08055
G1 X124.246 Y96.396 E0.02175
G1 X124.246 Y56.860 E1.14046
G1 X123.492 Y56.860 E0.02175
G1 X123.492 Y96.396 E1.14046
G1 X122.738 Y96.396 E0.02175
G1 X122.738 Y56.860 E1.14046
G1 X121.983 Y56.860 E0.02175
G1 X121.983 Y59.483 E0.07566
G1 X121.229 Y59.483 E0.02175
G1 X121.229 Y56.860 E0.07566
G1 X120.475 Y56.860 E0.02175
G1 X120.475 Y59.483 E0.07566
G1 X119.721 Y59.483 E0.02175
G1 X119.721 Y56.860 E0.07566
G1 X118.967 Y56.860 E0.02175
G1 X118.967 Y59.483 E0.07566
G1 X118.213 Y59.483 E0.02175
G1 X118.213 Y56.860 E0.07566
G1 X117.458 Y56.860 E0.02175
G1 X117.458 Y59.483 E0.07566
G1 X116.704 Y59.483 E0.02175
G1 X116.704 Y56.860 E0.07566
G1 X115.950 Y56.860 E0.02175
G1 X115.950 Y59.483 E0.07566
G1 X115.196 Y59.483 E0.02175
G1 X115.196 Y56.860 E0.07566
G1 X114.442 Y56.860 E0.02175
G1 X114.442 Y59.483 E0.07566
G1 X114.122 Y59.483 E0.00921
G1 X114.122 Y112.545 E1.53065
G1 X113.688 Y112.545 E0.01254
G1 X113.688 Y56.860 E1.60631
G1 X112.933 Y56.860 E0.02175
G1 X112.933 Y112.545 E1.60631
G1 X112.179 Y112.545 E0.02175
G1 X112.179 Y56.860 E1.60631
G1 X111.500 Y56.860 E0.01961
G1 X111.500 Y109.923 E1.53065
G1 X111.425 Y109.923 E0.00215
G1 X111.425 Y112.545 E0.07566
G1 X110.671 Y112.545 E0.02175
G1 X110.671 Y109.923 E0.07566
G1 X110.526 Y109.923 E0.00417
G1 X110.526 Y108.391 E0.04417
G1 X110.153 Y108.018 E0.01523
G1 X110.496 Y108.018 E0.00990
G1 X110.496 Y64.502 E1.25526
M73 P1 R99
G1 X110.361 Y64.366 E0.00553
G1 X109.917 Y64.366 E0.01281
G1 X109.917 Y112.545 E1.38977
G1 X109.163 Y112.545 E0.02175
G1 X109.163 Y64.366 E1.38977
G1 X108.769 Y64.366 E0.01135
G1 X108.634 Y64.502 E0.00553
G1 X108.634 Y108.018 E1.25526
G1 X108.977 Y108.018 E0.00990
G1 X108.604 Y108.391 E0.01523
G1 X108.604 Y109.923 E0.04417
G1 X108.409 Y109.923 E0.00563
G1 X108.409 Y112.545 E0.07566
G1 X107.654 Y112.545 E0.02175
G1 X107.654 Y109.923 E0.07566
G1 X106.900 Y109.923 E0.02175
G1 X106.900 Y112.545 E0.07566
G1 X106.146 Y112.545 E0.02175
G1 X106.146 Y48.939 E1.83480
G1 X106.900 Y48.939 E0.02175
G1 X106.900 Y53.868 E0.14221
G1 X107.654 Y53.868 E0.02175
G1 X107.654 Y48.939 E0.14221
G1 X108.409 Y48.939 E0.02175
G1 X108.409 Y53.868 E0.14221
G1 X108.508 Y53.868 E0.00288
G1 X108.508 Y51.561 E0.06655
G1 X109.163 Y51.561 E0.01887
G1 X109.163 Y48.939 E0.07566
G1 X109.917 Y48.939 E0.02175
G1 X109.917 Y51.561 E0.07566
G1 X110.671 Y51.561 E0.02175
G1 X110.671 Y48.939 E0.07566
G1 X111.425 Y48.939 E0.02175
