; generated by PrusaSlicer 2.2.0+ on 2020-04-23 at 00:22:40 UTC


;
;

;
;
; 

; external perimeters extrusion width = 0.45mm
; perimeters extrusion width = 0.45mm
; infill extrusion width = 0.45mm
; solid infill extrusion width = 0.45mm
; top infill extrusion width = 0.40mm
; support material extrusion width = 0.35mm
; first layer extrusion width = 0.42mm

M73 P0 R49
M201 X9000 Y9000 Z500 E10000 ; sets maximum accelerations, mm/sec^2
M203 X500 Y500 Z12 E120 ; sets maximum feedrates, mm/sec
M204 P2000 R1500 T2000 ; sets acceleration (P, T) and retract acceleration (R), mm/sec^2
M205 X10.00 Y10.00 Z0.20 E2.50 ; sets the jerk limits, mm/sec
M205 S0 T0 ; sets the minimum extruding and travel feed rate, mm/sec
M107
M83  ; extruder relative mode
M140 S75 ; set bed temp
M109 S160 ; Set extruder temp before bed level
M190 S75 ; wait for bed temp

G28 W ; home all without mesh bed level
G80 N7 ; mesh bed leveling

M109 S240 ; wait for extruder temp

M221 S100 ; Set flow to 100

G1 Y-3.0 F1000.0 ; go outside print area
G92 E0.0
G1 E8 ; Purge Bubble
M73 P0 R49
G1 X60.0 E9.0 F1000.0 ; intro line
G1 X100.0 E12.5 F1000.0 ; intro line
G92 E0.0
G21 ; set units to millimeters
G90 ; use absolute coordinates
M83 ; use relative distances for extrusion
M900 K45; Filament gcode
;BEFORE_LAYER_CHANGE
G92 E0.0
;0.2


G1 E-0.80000 F2100.00000
G1 Z0.600 F10800.000
;AFTER_LAYER_CHANGE
;0.2
G1 X105.008 Y77.461
G1 Z0.200
G1 E0.80000 F2100.00000
M204 S1000
G1 F1200.000
G1 X105.731 Y76.789 E0.02846
G1 X106.523 Y76.293 E0.02697
G1 X121.820 Y69.681 E0.48070
G1 X122.740 Y69.496 E0.02707
G1 X145.529 Y69.672 E0.65738
G1 X146.196 Y69.817 E0.01971
G1 X146.795 Y70.146 E0.01971
G1 X147.275 Y70.632 E0.01971
G1 X147.598 Y71.234 E0.01971
G1 X147.738 Y71.957 E0.02123
G1 X150.002 Y137.672 E1.89675
G1 X149.958 Y138.581 E0.02623
G1 X149.679 Y139.323 E0.02286
G1 X149.149 Y139.951 E0.02372
G1 X148.436 Y140.361 E0.02372
G1 X147.633 Y140.504 E0.02351
G1 X122.734 Y140.504 E0.71826
G1 X122.246 Y140.452 E0.01415
G1 X106.511 Y133.690 E0.49402
G1 X105.825 Y133.267 E0.02326
G1 X104.991 Y132.495 E0.03279
G1 X104.470 Y131.777 E0.02558
G1 X104.074 Y130.955 E0.02632
G1 X103.867 Y130.204 E0.02249
G1 X103.768 Y129.171 E0.02993
G1 X103.768 Y80.963 E1.39061
G1 X103.826 Y80.017 E0.02734
G1 X103.991 Y79.287 E0.02159
G1 X104.396 Y78.325 E0.03012
G1 X104.974 Y77.510 E0.02880
@Object Scraper.stl id:0 copy 0
G1 F8640.000
G1 X105.731 Y76.789 E-0.24140
G1 X106.523 Y76.293 E-0.21587
G1 X107.727 Y75.772 E-0.30274
G1 E-0.04000 F2100.00000
G1 Z0.800 F10800.000
G1 X122.738 Y71.873
G1 Z0.200
G1 E0.80000 F2100.00000
G1 F1200.000
G1 X122.738 Y76.865 E0.14399
G1 X123.105 Y76.757 E0.01106
G1 X123.492 Y76.736 E0.01116
G1 X123.492 Y72.043 E0.13538
G1 X124.246 Y72.043 E0.02175
G1 X124.246 Y76.685 E0.13391
G1 X124.849 Y76.631 E0.01745
G1 X125.000 Y76.601 E0.00446
G1 X125.000 Y72.043 E0.13147
G1 X125.754 Y72.043 E0.02175
G1 X125.754 Y76.464 E0.12753
G1 X125.894 Y76.417 E0.00425
G1 X126.508 Y76.372 E0.01778
G1 X126.508 Y72.043 E0.12487
G1 X127.262 Y72.043 E0.02175
G1 X127.262 Y76.320 E0.12336
G1 X128.017 Y76.241 E0.02187
G1 X128.017 Y72.043 E0.12111
G1 X128.771 Y72.043 E0.02175
G1 X128.771 Y76.284 E0.12234
G1 F8640.000
G1 X128.771 Y72.993 E-0.76000
G1 E-0.04000 F2100.00000
G1 Z0.800 F10800.000
G1 X130.071 Y74.870
G1 Z0.200
G1 E0.80000 F2100.00000
G1 F1200.000
G1 X130.071 Y75.500 E0.01480
G1 X130.578 Y75.446 E0.01198
G1 X130.578 Y75.008 E0.01029
G1 X131.085 Y75.008 E0.01191
G1 X131.085 Y75.376 E0.00864
G1 X131.592 Y75.313 E0.01200
G1 X131.592 Y75.008 E0.00717
G1 X132.099 Y75.008 E0.01191
G1 X132.099 Y75.268 E0.00612
G1 X132.606 Y75.199 E0.01202
G1 X132.606 Y75.008 E0.00448
G1 X133.113 Y75.008 E0.01191
G1 X133.113 Y75.149 E0.00332
G1 X133.620 Y75.146 E0.01191
G1 X133.620 Y75.008 E0.00323
G1 X134.127 Y75.008 E0.01191
G1 X134.127 Y75.146 E0.00323
G1 X134.635 Y75.143 E0.01191
G1 X134.635 Y75.008 E0.00318
G1 X135.142 Y75.008 E0.01191
G1 X135.142 Y75.317 E0.00725
G1 X135.287 Y75.602 E0.00752
G1 X135.307 Y75.683 E0.00196
G1 X135.322 Y77.315 E0.03834
G1 X135.649 Y77.315 E0.00767
G1 X135.649 Y75.008 E0.05420
G1 X136.156 Y75.008 E0.01191
G1 X136.156 Y77.453 E0.05744
G1 X134.804 Y75.316 F10800.000
G1 F1200.000
G1 X134.804 Y75.601 E0.00821
G1 X134.050 Y75.606 E0.02176
G1 X134.050 Y75.488 E0.00342
G1 X133.296 Y75.489 E0.02175
G1 X133.296 Y75.608 E0.00342
G1 X133.018 Y75.610 E0.00800
G1 X132.542 Y75.662 E0.01383
G1 X132.542 Y75.555 E0.00308
G1 X131.787 Y75.635 E0.02187
G1 X131.787 Y75.762 E0.00368
G1 X131.073 Y75.881 E0.02089
G1 X131.033 Y75.883 E0.00114
G1 X131.033 Y75.731 E0.00439
G1 X130.279 Y75.823 E0.02192
G1 X130.279 Y75.953 E0.00376
G1 X129.525 Y76.004 E0.02180
G1 X129.525 Y75.901 E0.00298
G1 X129.272 Y75.931 E0.00735
G1 X129.272 Y74.666 E0.03649
G1 X129.525 Y74.666 E0.00730
G1 X129.525 Y72.043 E0.07566
G1 X130.279 Y72.043 E0.02175
G1 X130.279 Y74.666 E0.07566
G1 X131.033 Y74.666 E0.02175
G1 X131.033 Y72.043 E0.07566
G1 X131.787 Y72.043 E0.02175
G1 X131.787 Y74.666 E0.07566
G1 X132.542 Y74.666 E0.02175
G1 X132.542 Y72.043 E0.07566
G1 X133.296 Y72.043 E0.02175
G1 X133.296 Y74.666 E0.07566
G1 X134.050 Y74.666 E0.02175
G1 X134.050 Y72.043 E0.07566
G1 X134.804 Y72.043 E0.02175
G1 X134.804 Y74.666 E0.07566
G1 X135.558 Y74.666 E0.02175
G1 X135.558 Y72.043 E0.07566
G1 X136.312 Y72.043 E0.02175
G1 X136.312 Y74.836 E0.08055
G1 X135.558 Y82.757 F10800.000
G1 F1200.000
G1 X135.558 Y77.657 E0.14710
G1 X136.312 Y77.657 E0.02175
G1 X136.312 Y82.587 E0.14221
G1 X137.067 Y82.587 E0.02175
G1 X137.067 Y72.043 E0.30415
G1 X137.821 Y72.043 E0.02175
G1 X137.821 Y82.587 E0.30415
G1 X138.575 Y82.587 E0.02175
G1 X138.575 Y72.043 E0.30415
G1 X139.329 Y72.043 E0.02175
G1 X139.329 Y82.587 E0.30415
G1 X140.083 Y82.587 E0.02175
G1 X140.083 Y72.043 E0.30415
G1 X140.837 Y72.043 E0.02175
G1 X140.837 Y82.587 E0.30415
G1 X141.591 Y82.587 E0.02175
G1 X141.592 Y72.043 E0.30415
G1 X142.346 Y72.043 E0.02175
G1 X142.346 Y82.757 E0.30905
G1 X143.854 Y76.152 F10800.000
G1 F1200.000
G1 X143.854 Y82.587 E0.18563
G1 X143.100 Y82.587 E0.02175
G1 X143.100 Y72.043 E0.30415
G1 X143.854 Y72.043 E0.02175
G1 X143.854 Y74.951 E0.08387
G1 X144.608 Y73.676 E0.04271
G1 X144.608 Y72.043 E0.04712
G1 X145.362 Y72.043 E0.02175
G1 X145.362 Y72.735 E0.01997
G1 F8640.000
G1 X145.362 Y72.043 E-0.15984
G1 X144.608 Y72.043 E-0.17414
G1 X144.608 Y73.676 E-0.37715
G1 X144.500 Y73.858 E-0.04887
G1 E-0.04000 F2100.00000
G1 Z0.800 F10800.000
G1 X143.854 Y101.213
G1 Z0.200
G1 E0.80000 F2100.00000
G1 F1200.000
G1 X143.854 Y90.500 E0.30905
G1 X143.100 Y90.500 E0.02175
G1 X143.100 Y101.044 E0.30415
G1 X142.346 Y101.044 E0.02175
G1 X142.346 Y90.500 E0.30415
G1 X141.591 Y90.500 E0.02175
G1 X141.591 Y101.044 E0.30415
G1 X140.837 Y101.044 E0.02175
G1 X140.837 Y90.500 E0.30415
G1 X140.083 Y90.500 E0.02175
G1 X140.083 Y101.044 E0.30415
G1 X139.329 Y101.044 E0.02175
G1 X139.329 Y90.500 E0.30415
G1 X138.575 Y90.500 E0.02175
G1 X138.575 Y101.044 E0.30415
G1 X137.821 Y101.044 E0.02175
G1 X137.821 Y90.500 E0.30415
G1 X137.067 Y90.500 E0.02175
G1 X137.067 Y101.044 E0.30415
G1 X136.312 Y101.044 E0.02175
G1 X136.312 Y90.500 E0.30415
G1 X135.558 Y90.500 E0.02175
G1 X135.558 Y101.213 E0.30905
G1 F8640.000
G1 X135.558 Y97.922 E-0.76000
G1 E-0.04000 F2100.00000
G1 Z0.800 F10800.000
G1 X135.558 Y119.670
G1 Z0.200
G1 E0.80000 F2100.00000
G1 F1200.000
G1 X135.558 Y108.956 E0.30905
G1 X136.312 Y108.956 E0.02175
G1 X136.312 Y119.500 E0.30414
G1 X137.067 Y119.500 E0.02175
G1 X137.067 Y108.956 E0.30414
G1 X137.821 Y108.956 E0.02175
G1 X137.821 Y119.500 E0.30414
G1 X138.575 Y119.500 E0.02175
G1 X138.575 Y108.956 E0.30415
G1 X139.329 Y108.956 E0.02175
G1 X139.329 Y119.500 E0.30415
G1 X140.083 Y119.500 E0.02175
G1 X140.083 Y108.956 E0.30415
G1 X140.837 Y108.956 E0.02175
G1 X140.837 Y119.500 E0.30415
G1 X141.591 Y119.500 E0.02175
G1 X141.591 Y108.956 E0.30415
G1 X142.346 Y108.956 E0.02175
G1 X142.346 Y119.500 E0.30415
G1 X143.100 Y119.500 E0.02175
G1 X143.100 Y108.956 E0.30415
G1 X143.854 Y108.956 E0.02175
G1 X143.854 Y119.670 E0.30905
G1 F8640.000
G1 X143.854 Y116.379 E-0.76000
G1 E-0.04000 F2100.00000
G1 Z0.800 F10800.000
G1 X147.625 Y138.127
G1 Z0.200
G1 E0.80000 F2100.00000
G1 F1200.000
G1 X147.625 Y137.701 E0.01228
G1 X146.871 Y137.008 E0.02954
G1 X146.871 Y137.957 E0.02736
G1 X146.116 Y137.957 E0.02175
G1 X146.116 Y136.316 E0.04735
G1 X145.362 Y135.623 E0.02954
G1 X145.362 Y137.957 E0.06733
G1 X144.608 Y137.957 E0.02175
G1 X144.608 Y134.930 E0.08731
G1 X143.869 Y134.251 E0.02897
G1 X143.854 Y134.367 E0.00339
G1 X143.854 Y137.957 E0.10355
G1 X143.100 Y137.957 E0.02175
G1 X143.100 Y135.201 E0.07950
G1 X143.028 Y135.301 E0.00355
G1 X142.847 Y135.388 E0.00579
G1 X142.606 Y135.428 E0.00705
G1 X142.571 Y135.449 E0.00119
G1 X142.346 Y135.455 E0.00649
G1 X142.346 Y137.957 E0.07217
G1 X141.591 Y137.957 E0.02175
G1 X141.591 Y135.742 E0.06388
G1 X141.434 Y135.675 E0.00494
G1 X141.258 Y135.488 E0.00741
G1 X141.091 Y135.508 E0.00485
G1 X140.926 Y135.458 E0.00499
G1 X140.837 Y135.382 E0.00336
G1 X140.837 Y137.957 E0.07426
G1 X140.083 Y137.957 E0.02175
G1 X140.083 Y127.413 E0.30415
G1 X140.837 Y127.413 E0.02175
G1 X140.837 Y132.959 E0.15999
G1 X140.904 Y132.893 E0.00272
G1 X141.591 Y132.894 E0.01983
G1 X141.591 Y127.413 E0.15811
G1 X142.346 Y127.413 E0.02175
G1 X142.346 Y132.894 E0.15810
G1 X143.100 Y132.893 E0.02175
G1 X143.100 Y127.413 E0.15807
G1 X143.854 Y127.413 E0.02175
G1 X143.854 Y133.843 E0.18548
G1 F8640.000
G1 X143.854 Y130.551 E-0.76000
G1 E-0.04000 F2100.00000
G1 Z0.800 F10800.000
G1 X139.329 Y138.127
G1 Z0.200
G1 E0.80000 F2100.00000
G1 F1200.000
G1 X139.329 Y127.413 E0.30905
G1 X138.575 Y127.413 E0.02175
G1 X138.575 Y137.957 E0.30415
G1 X137.821 Y137.957 E0.02175
G1 X137.821 Y127.413 E0.30415
G1 X137.067 Y127.413 E0.02175
G1 X137.067 Y137.957 E0.30415
G1 X136.312 Y137.957 E0.02175
G1 X136.312 Y127.413 E0.30415
G1 X135.558 Y127.413 E0.02175
G1 X135.558 Y137.957 E0.30415
G1 X134.804 Y137.957 E0.02175
G1 X134.804 Y134.496 E0.09984
G1 X134.534 Y134.495 E0.00780
G1 X134.050 Y134.498 E0.01396
G1 X134.050 Y137.957 E0.09977
G1 X133.296 Y137.957 E0.02175
G1 X133.296 Y134.497 E0.09980
G1 X132.987 Y134.486 E0.00890
G1 X132.542 Y134.435 E0.01294
G1 X132.542 Y137.957 E0.10160
G1 X131.787 Y137.957 E0.02175
G1 X131.787 Y135.334 E0.07566
G1 X131.033 Y135.334 E0.02175
G1 X131.033 Y137.957 E0.07566
G1 X130.279 Y137.957 E0.02175
G1 X130.279 Y135.334 E0.07566
G1 X129.525 Y135.334 E0.02175
G1 X129.525 Y137.957 E0.07566
G1 X128.771 Y137.957 E0.02175
G1 X128.771 Y134.003 E0.11404
G1 X129.525 Y134.088 E0.02189
G1 X129.525 Y134.144 E0.00164
G1 X129.659 Y134.165 E0.00391
G1 X130.279 Y134.224 E0.01798
G1 X130.279 Y134.180 E0.00127
G1 X131.033 Y134.266 E0.02190
G1 X131.033 Y134.307 E0.00117
G1 X131.787 Y134.414 E0.02197
G1 X131.787 Y134.177 E0.00685
G1 X131.592 Y135.130 F10800.000
G1 F1200.000
G1 X131.592 Y134.731 E0.00938
G1 X131.085 Y134.662 E0.01202
G1 X131.085 Y134.992 E0.00776
G1 X130.578 Y134.992 E0.01191
G1 X130.578 Y134.600 E0.00922
G1 X130.071 Y134.549 E0.01197
G1 X130.071 Y135.130 E0.01366
G1 X128.017 Y138.127 F10800.000
G1 F1200.000
G1 X128.017 Y133.915 E0.12147
G1 X127.557 Y133.869 E0.01334
G1 X127.262 Y133.813 E0.00864
G1 X127.262 Y137.957 E0.11953
G1 X126.508 Y137.957 E0.02175
G1 X126.508 Y133.739 E0.12168
G1 X126.112 Y133.707 E0.01147
G1 X125.754 Y133.648 E0.01046
G1 X125.754 Y137.957 E0.12429
G1 X125.000 Y137.957 E0.02175
G1 X125.000 Y133.549 E0.12715
G1 X124.246 Y133.466 E0.02188
G1 X124.246 Y137.957 E0.12953
G1 X123.492 Y137.957 E0.02175
G1 X123.492 Y133.392 E0.13168
G1 X122.738 Y133.319 E0.02186
G1 X122.738 Y138.127 E0.13868
G1 F8640.000
G1 X122.738 Y134.835 E-0.76000
G1 E-0.04000 F2100.00000
G1 Z0.800 F10800.000
G1 X141.656 Y134.452
G1 Z0.200
G1 E0.80000 F2100.00000
G1 F1200.000
G1 X141.661 Y133.893 E0.01611
G1 X142.710 Y133.893 E0.03025
G1 X142.636 Y134.120 E0.00686
G1 X142.297 Y134.168 E0.00988
G1 X142.245 Y134.456 E0.00845
G1 X141.709 Y134.467 E0.01546
G1 F8640.000
G1 X141.661 Y133.893 E-0.13302
G1 X142.710 Y133.893 E-0.24213
G1 X142.636 Y134.120 E-0.05494
G1 X142.297 Y134.168 E-0.07908
G1 X142.245 Y134.456 E-0.06760
G1 X141.709 Y134.467 E-0.12378
G1 E-0.09945 F2100.00000
G1 Z0.800 F10800.000
G1 X143.009 Y134.194
G1 Z0.200
G1 E0.80000 F2100.00000
G1 F1200.000
G1 X142.922 Y134.460 E0.00806
M73 P2 R48
G1 X142.619 Y134.503 E0.00883
G1 X142.564 Y134.805 E0.00885
G1 X142.429 Y134.829 E0.00395
G1 X141.608 Y134.847 E0.02370
G1 X141.587 Y134.929 E0.00243
G1 X141.496 Y134.832 E0.00383
G1 X141.292 Y134.856 E0.00594
G1 X141.261 Y134.718 E0.00408
G1 X141.283 Y134.370 E0.01008
G1 X141.285 Y133.516 E0.02462
G1 X143.279 Y133.516 E0.05752
G1 X143.274 Y133.977 E0.01329
G1 X143.257 Y134.119 E0.00413
G1 X143.066 Y134.177 E0.00574
G1 X142.729 Y134.199 F10800.000
G1 F8640.000
G1 X142.922 Y134.460 E-0.07334
G1 X142.619 Y134.503 E-0.07071
G1 X142.564 Y134.805 E-0.07082
G1 X142.429 Y134.829 E-0.03160
G1 X141.608 Y134.847 E-0.18969
G1 X141.587 Y134.929 E-0.01949
G1 X141.496 Y134.832 E-0.03068
G1 X141.292 Y134.856 E-0.04752
G1 X141.261 Y134.718 E-0.03268
G1 X141.283 Y134.370 E-0.08067
G1 X141.284 Y133.881 E-0.11279
G1 E-0.04000 F2100.00000
G1 Z0.800 F10800.000
G1 X134.065 Y133.292
G1 Z0.200
G1 E0.80000 F2100.00000
G1 F1200.000
G1 X133.077 Y133.288 E0.02849
G1 X127.722 Y132.678 E0.15546
G1 X127.506 Y132.631 E0.00639
G1 X126.255 Y132.514 E0.03625
G1 X125.778 Y132.435 E0.01395
G1 X124.732 Y132.303 E0.03039
G1 X122.925 Y132.134 E0.05236
G1 X121.600 Y131.930 E0.03867
G1 X120.193 Y131.820 E0.04070
G1 X119.994 Y131.794 E0.00580
G1 X119.677 Y131.606 E0.01063
G1 X119.346 Y131.605 E0.00954
G1 X119.233 Y131.569 E0.00342
G1 X118.948 Y131.564 E0.00824
G1 X118.882 Y131.543 E0.00200
G1 X117.396 Y131.484 E0.04289
G1 X117.242 Y131.372 E0.00549
G1 X117.188 Y131.372 E0.00155
G1 X117.140 Y131.258 E0.00357
G1 X116.126 Y131.139 E0.02943
G1 X116.093 Y131.118 E0.00113
G1 X114.582 Y131.086 E0.04359
G1 X114.572 Y130.955 E0.00380
G1 X125.663 Y130.912 E0.31994
G1 X126.547 Y130.874 E0.02552
G1 X126.639 Y130.825 E0.00301
G1 X127.357 Y130.820 E0.02071
G1 X127.430 Y130.357 E0.01350
G1 X127.686 Y130.319 E0.00747
G1 X127.683 Y130.173 E0.00423
G1 X128.073 Y130.128 E0.01131
G1 X128.137 Y129.779 E0.01025
G1 X128.437 Y129.734 E0.00875
G1 X128.556 Y128.812 E0.02682
G1 X128.579 Y128.775 E0.00125
G1 X128.638 Y128.340 E0.01268
G1 X128.735 Y127.934 E0.01205
G1 X128.775 Y127.529 E0.01173
G1 X128.782 Y127.128 E0.01156
G1 X128.782 Y92.131 E1.00954
G1 X128.802 Y82.802 E0.26910
G1 X128.794 Y82.405 E0.01144
G1 X128.750 Y81.965 E0.01277
G1 X128.680 Y81.700 E0.00789
G1 X128.680 Y81.413 E0.00827
G1 X128.615 Y81.354 E0.00254
G1 X128.602 Y81.175 E0.00517
G1 X128.553 Y81.100 E0.00257
G1 X128.475 Y80.464 E0.01850
G1 X128.172 Y80.368 E0.00918
G1 X128.131 Y80.102 E0.00778
G1 X127.789 Y79.995 E0.01031
G1 X127.685 Y79.642 E0.01064
G1 X127.453 Y79.612 E0.00674
G1 X127.409 Y79.316 E0.00864
G1 X126.418 Y79.170 E0.02892
G1 X126.001 Y79.147 E0.01203
G1 X120.575 Y79.136 E0.15652
G1 X120.653 Y78.475 E0.01921
G1 X120.836 Y78.419 E0.00552
G1 X120.943 Y78.285 E0.00492
G1 X121.898 Y78.235 E0.02760
G1 X122.655 Y78.165 E0.02193
G1 X122.770 Y78.119 E0.00356
G1 X122.997 Y78.104 E0.00657
G1 X123.231 Y77.968 E0.00781
G1 X123.316 Y77.945 E0.00256
G1 X124.198 Y77.911 E0.02544
G1 X124.241 Y77.885 E0.00146
G1 X125.009 Y77.823 E0.02222
G1 X125.468 Y77.748 E0.01342
G1 X125.647 Y77.742 E0.00516
G1 X125.864 Y77.677 E0.00655
G1 X125.968 Y77.672 E0.00299
G1 X126.142 Y77.602 E0.00542
G1 X127.444 Y77.512 E0.03765
G1 X128.102 Y77.445 E0.01907
G1 X128.759 Y77.348 E0.01915
G1 X129.133 Y77.258 E0.01109
G1 X129.641 Y77.200 E0.01477
G1 X130.559 Y77.141 E0.02654
G1 X131.226 Y77.073 E0.01933
G1 X132.128 Y76.916 E0.02642
G1 X132.793 Y76.841 E0.01929
G1 X133.098 Y76.809 E0.00885
G1 X134.044 Y76.805 E0.02730
G1 X134.065 Y133.232 E1.62769
G1 F8640.000
G1 X133.077 Y133.288 E-0.22842
G1 X130.790 Y133.027 E-0.53158
G1 E-0.04000 F2100.00000
G1 Z0.800 F10800.000
G1 X127.034 Y130.445
G1 Z0.200
G1 E0.80000 F2100.00000
G1 F1200.000
G1 X127.100 Y130.025 E0.01227
G1 X127.303 Y129.995 E0.00593
