; generated by PrusaSlicer 2.0.0+ on 2019-06-04 at 10:51:01

; 

; external perimeters extrusion width = 0.45mm
; perimeters extrusion width = 0.45mm
; infill extrusion width = 0.45mm
; solid infill extrusion width = 0.45mm
; top infill extrusion width = 0.40mm
; first layer extrusion width = 0.42mm

M73 P0 R76
M201 X9000 Y9000 Z500 E10000 ; sets maximum accelerations, mm/sec^2
M203 X500 Y500 Z12 E120 ; sets maximum feedrates, mm/sec
M204 P2000 R1500 T2000 ; sets acceleration (P, T) and retract acceleration (R), mm/sec^2
M205 X10.00 Y10.00 Z0.20 E2.50 ; sets the jerk limits, mm/sec
M205 S0 T0 ; sets the minimum extruding and travel feed rate, mm/sec
M107
M83  ; extruder relative mode
M140 S75 ; set bed temp
M109 S160 ; Set extruder temp before bed level
M190 S75 ; wait for bed temp

G28 W ; home all without mesh bed level
G80 ; mesh bed leveling

M109 S240 ; wait for extruder temp

M221 S100 ; Set flow to 100

G1 Y-3.0 F1000.0 ; go outside print area
G92 E0.0
G1 E8 ; Purge Bubble
M73 P0 R76
G1 X60.0 E9.0 F1000.0 ; intro line
G1 X100.0 E12.5 F1000.0 ; intro line
G92 E0.0
M900 K45; Filament gcode
G21 ; set units to millimeters
G90 ; use absolute coordinates
M83 ; use relative distances for extrusion
;BEFORE_LAYER_CHANGE
G92 E0.0
;0.2


G1 E-0.80000 F2100.00000
G1 Z0.600 F10800.000
;AFTER_LAYER_CHANGE
;0.2
G1 X101.275 Y101.583
G1 Z0.200
G1 E0.80000 F2100.00000
M204 S1000
G1 F1200
G1 X102.266 Y100.719 E0.03790
G1 X103.303 Y100.122 E0.03454
G1 X104.443 Y99.723 E0.03483
G1 X116.004 Y96.848 E0.34366
G1 X122.774 Y95.284 E0.20043
G1 X123.897 Y95.094 E0.03284
G1 X125.028 Y95.032 E0.03268
G1 X126.175 Y95.102 E0.03314
G1 X127.276 Y95.296 E0.03227
G1 X145.557 Y99.723 E0.54256
G1 X146.701 Y100.124 E0.03499
G1 X147.740 Y100.723 E0.03459
G1 X148.729 Y101.588 E0.03790
G1 X149.529 Y102.644 E0.03822
G1 X150.094 Y103.833 E0.03796
G1 X150.409 Y105.131 E0.03853
G1 X150.468 Y108.523 E0.09787
G1 X150.389 Y109.505 E0.02843
G1 X149.993 Y110.931 E0.04268
G1 X149.277 Y112.239 E0.04302
G1 X148.314 Y113.319 E0.04174
G1 X147.136 Y114.157 E0.04170
G1 X145.823 Y114.705 E0.04105
G1 X144.404 Y114.955 E0.04155
G1 X106.000 Y114.968 E1.10781
G1 X104.480 Y114.786 E0.04416
G1 X103.035 Y114.248 E0.04448
G1 X101.747 Y113.373 E0.04490
G1 X100.719 Y112.233 E0.04429
G1 X100.004 Y110.924 E0.04301
G1 X99.610 Y109.501 E0.04261
G1 X99.532 Y108.522 E0.02831
G1 X99.592 Y105.127 E0.09795
G1 X99.907 Y103.831 E0.03848
G1 X100.474 Y102.640 E0.03803
G1 X101.239 Y101.631 E0.03654
G1 X101.540 Y101.863 F10800.000
G1 F1200
G1 X101.583 Y101.807 E0.00204
G1 X102.540 Y100.988 E0.03633
G1 X103.423 Y100.481 E0.02936
G1 X104.377 Y100.130 E0.02933
G1 X116.061 Y97.222 E0.34733
G1 X123.101 Y95.599 E0.20838
G1 X125.024 Y95.409 E0.05574
G1 X126.132 Y95.477 E0.03204
G1 X127.193 Y95.664 E0.03106
G1 X145.461 Y100.087 E0.54220
G1 X146.515 Y100.453 E0.03218
G1 X147.465 Y100.991 E0.03150
G1 X148.418 Y101.807 E0.03617
G1 X149.182 Y102.800 E0.03616
G1 X149.727 Y103.926 E0.03608
G1 X150.031 Y105.147 E0.03630
G1 X150.091 Y108.511 E0.09705
G1 X150.023 Y109.401 E0.02576
G1 X149.663 Y110.741 E0.04002
G1 X149.009 Y111.965 E0.04002
G1 X148.098 Y113.006 E0.03991
G1 X147.000 Y113.800 E0.03909
G1 X145.729 Y114.340 E0.03983
G1 X144.367 Y114.579 E0.03988
G1 X106.000 Y114.591 E1.10675
G1 X104.549 Y114.415 E0.04216
G1 X103.160 Y113.888 E0.04284
G1 X101.957 Y113.055 E0.04223
G1 X100.987 Y111.959 E0.04221
G1 X100.336 Y110.740 E0.03986
G1 X99.976 Y109.397 E0.04011
G1 X99.909 Y108.508 E0.02573
G1 X99.970 Y105.143 E0.09706
G1 X100.274 Y103.924 E0.03625
G1 X100.820 Y102.796 E0.03614
G1 X101.503 Y101.910 E0.03227
G1 F8640
G1 X101.583 Y101.807 E-0.03021
G1 X102.540 Y100.988 E-0.29082
G1 X103.423 Y100.481 E-0.23502
G1 X104.252 Y100.176 E-0.20395
G1 E-0.04000 F2100.00000
G1 Z0.800 F10800.000
G1 X132.905 Y100.287
G1 Z0.200
G1 E0.80000 F2100.00000
G1 F1200
G1 X144.137 Y100.287 E0.32400
G1 X145.466 Y100.478 E0.03876
G1 X146.702 Y100.967 E0.03834
G1 X147.742 Y101.683 E0.03642
G1 X148.612 Y102.628 E0.03706
G1 X149.242 Y103.729 E0.03659
G1 X149.613 Y104.935 E0.03639
G1 X149.714 Y105.898 E0.02794
G1 X149.699 Y108.868 E0.08567
G1 X149.528 Y109.944 E0.03143
G1 X149.232 Y110.796 E0.02602
G1 X148.830 Y111.551 E0.02467
G1 X148.380 Y112.168 E0.02202
G1 X147.849 Y112.723 E0.02217
G1 X147.025 Y113.348 E0.02983
G1 X146.380 Y113.694 E0.02112
G1 X145.674 Y113.962 E0.02177
G1 X144.939 Y114.136 E0.02180
G1 X144.207 Y114.208 E0.02122
G1 X128.779 Y114.210 E0.44503
G1 X127.500 Y113.972 E0.03751
G1 X127.313 Y113.903 E0.00575
G1 X126.810 Y114.034 E0.01501
G1 X126.045 Y114.154 E0.02235
G1 X125.229 Y114.211 E0.02360
G1 X105.855 Y114.213 E0.55884
G1 X105.083 Y114.139 E0.02236
G1 X104.319 Y113.960 E0.02265
G1 X103.569 Y113.670 E0.02320
G1 X102.872 Y113.286 E0.02296
G1 X101.776 Y112.342 E0.04173
G1 X101.128 Y111.483 E0.03101
G1 X100.750 Y110.753 E0.02373
G1 X100.472 Y109.947 E0.02459
G1 X100.303 Y108.901 E0.03054
G1 X100.286 Y105.901 E0.08654
G1 X100.393 Y104.908 E0.02881
G1 X100.770 Y103.701 E0.03650
G1 X101.386 Y102.631 E0.03561
G1 X102.260 Y101.681 E0.03723
G1 X103.298 Y100.967 E0.03633
G1 X104.531 Y100.479 E0.03826
G1 X105.834 Y100.288 E0.03798
G1 X112.968 Y100.280 E0.20579
G1 X113.241 Y99.712 E0.01820
G1 X114.029 Y98.732 E0.03627
G1 X115.131 Y97.940 E0.03915
G1 X115.754 Y97.694 E0.01932
G1 X123.142 Y95.975 E0.21878
G1 X124.164 Y95.825 E0.02980
G1 X125.197 Y95.789 E0.02983
G1 X126.008 Y95.842 E0.02345
G1 X126.797 Y95.963 E0.02301
G1 X127.876 Y96.247 E0.03220
G1 X128.729 Y96.575 E0.02634
G1 X129.564 Y96.997 E0.02699
G1 X130.354 Y97.502 E0.02705
G1 X131.150 Y98.140 E0.02944
G1 X131.800 Y98.784 E0.02639
G1 X132.409 Y99.524 E0.02764
G1 X132.872 Y100.236 E0.02451
G1 X132.700 Y100.664 F10800.000
G1 F1200
G1 X144.124 Y100.664 E0.32954
G1 X145.350 Y100.838 E0.03573
G1 X146.508 Y101.291 E0.03587
G1 X147.481 Y101.955 E0.03398
G1 X148.297 Y102.836 E0.03463
G1 X148.888 Y103.861 E0.03414
G1 X149.247 Y105.028 E0.03522
G1 X149.336 Y105.907 E0.02548
G1 X149.324 Y108.825 E0.08417
G1 X149.166 Y109.838 E0.02958
G1 X148.891 Y110.633 E0.02428
G1 X148.518 Y111.340 E0.02307
G1 X148.083 Y111.935 E0.02125
G1 X147.587 Y112.451 E0.02064
G1 X146.833 Y113.022 E0.02729
G1 X146.212 Y113.356 E0.02034
G1 X145.553 Y113.605 E0.02033
G1 X144.866 Y113.766 E0.02036
G1 X144.180 Y113.832 E0.01988
G1 X128.797 Y113.833 E0.44374
G1 X127.590 Y113.605 E0.03542
G1 X127.339 Y113.506 E0.00779
G1 X126.742 Y113.663 E0.01780
G1 X125.994 Y113.780 E0.02183
G1 X125.222 Y113.834 E0.02233
G1 X105.864 Y113.836 E0.55839
G1 X105.133 Y113.765 E0.02121
G1 X104.419 Y113.597 E0.02116
G1 X103.718 Y113.323 E0.02170
G1 X103.072 Y112.966 E0.02130
G1 X102.038 Y112.071 E0.03944
G1 X101.440 Y111.271 E0.02881
G1 X101.092 Y110.593 E0.02197
G1 X100.834 Y109.841 E0.02295
G1 X100.678 Y108.857 E0.02873
G1 X100.663 Y105.910 E0.08499
G1 X100.765 Y104.968 E0.02735
G1 X101.123 Y103.834 E0.03428
G1 X101.701 Y102.839 E0.03321
G1 X102.522 Y101.953 E0.03481
G1 X103.492 Y101.291 E0.03389
G1 X104.647 Y100.838 E0.03579
G1 X105.873 Y100.664 E0.03572
G1 X113.209 Y100.657 E0.21160
G1 X113.551 Y99.928 E0.02324
G1 X114.271 Y99.023 E0.03337
G1 X115.331 Y98.260 E0.03767
G1 X115.877 Y98.050 E0.01686
G1 X123.219 Y96.344 E0.21745
G1 X124.208 Y96.200 E0.02883
G1 X125.182 Y96.166 E0.02812
G1 X125.960 Y96.216 E0.02247
G1 X126.730 Y96.334 E0.02248
G1 X127.770 Y96.609 E0.03103
G1 X128.584 Y96.923 E0.02518
G1 X129.369 Y97.320 E0.02536
G1 X130.126 Y97.803 E0.02591
G1 X130.892 Y98.415 E0.02829
G1 X131.515 Y99.031 E0.02527
G1 X132.111 Y99.755 E0.02704
G1 X132.667 Y100.613 E0.02949
G1 X132.465 Y101.041 F10800.000
G1 F1200
G1 X144.110 Y101.041 E0.33590
G1 X145.275 Y101.208 E0.03394
G1 X146.314 Y101.615 E0.03220
G1 X147.220 Y102.229 E0.03156
G1 X147.982 Y103.044 E0.03220
G1 X148.535 Y103.994 E0.03169
G1 X148.874 Y105.086 E0.03298
G1 X148.959 Y105.916 E0.02407
G1 X148.949 Y108.782 E0.08268
G1 X148.804 Y109.732 E0.02773
G1 X148.551 Y110.471 E0.02254
G1 X148.204 Y111.130 E0.02148
G1 X147.802 Y111.683 E0.01972
G1 X147.326 Y112.179 E0.01983
G1 X146.641 Y112.698 E0.02478
G1 X146.066 Y113.008 E0.01885
G1 X145.454 Y113.241 E0.01889
G1 X144.816 Y113.391 E0.01890
G1 X144.152 Y113.456 E0.01924
G1 X128.815 Y113.456 E0.44243
G1 X127.682 Y113.239 E0.03328
G1 X127.367 Y113.109 E0.00983
G1 X126.674 Y113.292 E0.02069
G1 X125.944 Y113.406 E0.02131
G1 X125.215 Y113.457 E0.02107
G1 X105.874 Y113.459 E0.55793
G1 X105.182 Y113.391 E0.02003
G1 X104.519 Y113.233 E0.01966
G1 X103.868 Y112.977 E0.02020
G1 X103.273 Y112.646 E0.01964
G1 X102.302 Y111.800 E0.03714
G1 X101.753 Y111.059 E0.02660
G1 X101.434 Y110.435 E0.02023
G1 X101.197 Y109.735 E0.02131
G1 X101.053 Y108.813 E0.02693
G1 X101.041 Y105.919 E0.08348
G1 X101.131 Y105.062 E0.02487
G1 X101.460 Y104.005 E0.03192
G1 X102.017 Y103.047 E0.03197
G1 X102.782 Y102.227 E0.03236
G1 X103.686 Y101.615 E0.03147
G1 X104.723 Y101.208 E0.03213
G1 X105.887 Y101.041 E0.03393
G1 X113.451 Y101.034 E0.21820
G1 X113.862 Y100.142 E0.02832
G1 X114.513 Y99.313 E0.03043
G1 X115.530 Y98.582 E0.03612
G1 X115.996 Y98.408 E0.01434
G1 X123.297 Y96.713 E0.21621
G1 X124.232 Y96.576 E0.02726
G1 X125.168 Y96.542 E0.02700
G1 X125.911 Y96.590 E0.02148
G1 X126.663 Y96.705 E0.02194
G1 X127.663 Y96.971 E0.02985
G1 X128.439 Y97.272 E0.02402
G1 X129.175 Y97.643 E0.02376
G1 X129.899 Y98.104 E0.02476
G1 X130.649 Y98.703 E0.02770
G1 X131.243 Y99.292 E0.02412
G1 X131.804 Y99.974 E0.02545
G1 X132.242 Y100.628 E0.02272
G1 X132.437 Y100.988 E0.01181
G1 X132.240 Y101.418 F10800.000
G1 F1200
G1 X144.097 Y101.418 E0.34203
G1 X145.159 Y101.567 E0.03094
G1 X146.121 Y101.940 E0.02974
G1 X146.990 Y102.529 E0.03030
G1 X147.690 Y103.284 E0.02972
G1 X148.197 Y104.164 E0.02927
G1 X148.501 Y105.143 E0.02958
G1 X148.582 Y105.925 E0.02267
G1 X148.574 Y108.740 E0.08121
G1 X148.442 Y109.626 E0.02585
G1 X148.199 Y110.335 E0.02161
G1 X147.891 Y110.919 E0.01905
G1 X147.505 Y111.451 E0.01895
G1 X147.065 Y111.906 E0.01827
G1 X146.449 Y112.373 E0.02229
G1 X145.898 Y112.670 E0.01807
G1 X145.333 Y112.884 E0.01743
G1 X144.744 Y113.021 E0.01745
G1 X144.126 Y113.079 E0.01789
G1 X128.833 Y113.079 E0.44114
G1 X127.776 Y112.873 E0.03108
G1 X127.398 Y112.710 E0.01186
G1 X126.605 Y112.921 E0.02366
G1 X125.909 Y113.031 E0.02032
G1 X125.209 Y113.080 E0.02026
G1 X105.883 Y113.082 E0.55747
G1 X105.233 Y113.017 E0.01884
G1 X104.621 Y112.870 E0.01815
G1 X104.018 Y112.631 E0.01870
G1 X103.474 Y112.327 E0.01798
G1 X102.566 Y111.531 E0.03483
G1 X102.066 Y110.849 E0.02440
G1 X101.787 Y110.301 E0.01774
G1 X101.559 Y109.630 E0.02043
G1 X101.428 Y108.770 E0.02509
G1 X101.418 Y105.928 E0.08198
G1 X101.504 Y105.121 E0.02343
G1 X101.813 Y104.139 E0.02968
G1 X102.331 Y103.256 E0.02953
G1 X103.042 Y102.501 E0.02992
G1 X103.878 Y101.940 E0.02904
G1 X104.838 Y101.568 E0.02971
G1 X105.900 Y101.418 E0.03094
G1 X113.769 Y101.411 E0.22698
G1 X113.857 Y101.055 E0.01056
G1 X114.173 Y100.357 E0.02211
G1 X114.793 Y99.567 E0.02898
G1 X115.686 Y98.926 E0.03170
G1 X116.094 Y98.773 E0.01256
G1 X123.375 Y97.082 E0.21562
G1 X124.256 Y96.952 E0.02571
G1 X125.153 Y96.919 E0.02588
G1 X125.878 Y96.966 E0.02096
G1 X126.595 Y97.076 E0.02092
G1 X127.556 Y97.333 E0.02868
G1 X128.278 Y97.613 E0.02235
G1 X128.981 Y97.967 E0.02270
G1 X129.672 Y98.405 E0.02360
G1 X130.406 Y98.992 E0.02710
G1 X130.970 Y99.553 E0.02297
G1 X131.496 Y100.191 E0.02384
G1 X131.923 Y100.830 E0.02218
G1 X132.211 Y101.365 E0.01753
G1 X132.014 Y101.795 F10800.000
G1 F1200
G1 X144.084 Y101.795 E0.34818
G1 X145.045 Y101.927 E0.02798
G1 X145.929 Y102.265 E0.02729
G1 X146.730 Y102.802 E0.02783
G1 X147.376 Y103.493 E0.02727
G1 X147.844 Y104.297 E0.02684
G1 X148.128 Y105.202 E0.02735
G1 X148.205 Y105.934 E0.02124
G1 X148.199 Y108.699 E0.07975
G1 X148.079 Y109.521 E0.02396
G1 X147.847 Y110.198 E0.02066
G1 X147.565 Y110.730 E0.01737
G1 X147.209 Y111.217 E0.01740
G1 X146.805 Y111.633 E0.01672
G1 X146.257 Y112.048 E0.01984
G1 X145.752 Y112.323 E0.01657
G1 X145.235 Y112.520 E0.01596
G1 X144.671 Y112.651 E0.01670
G1 X144.101 Y112.703 E0.01652
G1 X128.852 Y112.702 E0.43986
G1 X127.871 Y112.508 E0.02884
G1 X127.431 Y112.311 E0.01391
G1 X126.536 Y112.550 E0.02672
G1 X125.875 Y112.655 E0.01932
G1 X125.202 Y112.703 E0.01945
G1 X105.892 Y112.704 E0.55702
G1 X105.307 Y112.647 E0.01694
G1 X104.746 Y112.514 E0.01664
G1 X104.191 Y112.296 E0.01720
G1 X103.676 Y112.008 E0.01701
G1 X102.832 Y111.262 E0.03250
G1 X102.395 Y110.664 E0.02137
G1 X102.140 Y110.166 E0.01613
G1 X101.922 Y109.525 E0.01953
G1 X101.803 Y108.728 E0.02324
G1 X101.795 Y105.937 E0.08052
G1 X101.870 Y105.214 E0.02097
G1 X102.150 Y104.311 E0.02726
G1 X102.645 Y103.466 E0.02825
G1 X103.300 Y102.777 E0.02743
G1 X104.068 Y102.266 E0.02662
G1 X104.952 Y101.928 E0.02730
G1 X105.913 Y101.795 E0.02798
G1 X114.072 Y101.788 E0.23535
G1 X114.209 Y101.192 E0.01762
G1 X114.506 Y100.534 E0.02084
G1 X115.072 Y99.822 E0.02622
G1 X115.843 Y99.269 E0.02737
G1 X116.192 Y99.137 E0.01076
G1 X123.452 Y97.451 E0.21502
G1 X124.301 Y97.327 E0.02474
G1 X125.139 Y97.296 E0.02418
G1 X125.829 Y97.340 E0.01995
G1 X126.527 Y97.447 E0.02038
G1 X127.448 Y97.694 E0.02749
G1 X128.133 Y97.961 E0.02120
G1 X128.787 Y98.290 E0.02113
G1 X129.444 Y98.706 E0.02244
G1 X130.162 Y99.280 E0.02650
G1 X130.698 Y99.813 E0.02181
G1 X131.187 Y100.408 E0.02223
G1 X131.605 Y101.032 E0.02164
G1 X131.986 Y101.742 E0.02325
G1 X131.750 Y102.172 F10800.000
G1 F1200
G1 X144.072 Y102.172 E0.35543
G1 X144.933 Y102.288 E0.02507
G1 X145.739 Y102.591 E0.02484
G1 X146.471 Y103.077 E0.02535
G1 X147.062 Y103.704 E0.02483
G1 X147.492 Y104.432 E0.02440
G1 X147.755 Y105.261 E0.02509
G1 X147.828 Y105.944 E0.01981
G1 X147.824 Y108.659 E0.07832
G1 X147.716 Y109.416 E0.02204
G1 X147.495 Y110.061 E0.01969
G1 X147.239 Y110.540 E0.01565
G1 X146.913 Y110.983 E0.01587
G1 X146.545 Y111.359 E0.01518
G1 X146.063 Y111.724 E0.01745
G1 X145.605 Y111.975 E0.01506
G1 X145.113 Y112.162 E0.01520
G1 X144.600 Y112.281 E0.01519
G1 X144.076 Y112.327 E0.01517
G1 X128.871 Y112.325 E0.43860
G1 X127.969 Y112.143 E0.02656
G1 X127.445 Y111.901 E0.01664
G1 X127.106 Y112.019 E0.01034
G1 X126.470 Y112.179 E0.01894
G1 X125.839 Y112.280 E0.01841
G1 X125.195 Y112.326 E0.01863
G1 X105.901 Y112.327 E0.55657
G1 X105.382 Y112.278 E0.01503
G1 X104.847 Y112.150 E0.01587
G1 X104.342 Y111.950 E0.01566
G1 X103.879 Y111.690 E0.01532
G1 X103.098 Y110.994 E0.03016
G1 X102.723 Y110.478 E0.01841
G1 X102.492 Y110.031 E0.01450
G1 X102.285 Y109.420 E0.01861
G1 X102.178 Y108.687 E0.02137
G1 X102.172 Y105.945 E0.07910
G1 X102.236 Y105.305 E0.01856
G1 X102.487 Y104.481 E0.02487
G1 X102.935 Y103.708 E0.02576
G1 X103.527 Y103.079 E0.02492
G1 X104.259 Y102.592 E0.02535
G1 X105.065 Y102.289 E0.02484
G1 X105.926 Y102.172 E0.02507
G1 X114.472 Y102.165 E0.24651
G1 X114.485 Y101.658 E0.01463
G1 X114.561 Y101.328 E0.00975
G1 X114.819 Y100.747 E0.01834
G1 X115.316 Y100.111 E0.02328
G1 X116.002 Y99.612 E0.02448
G1 X116.290 Y99.501 E0.00889
G1 X123.530 Y97.820 E0.21441
G1 X124.326 Y97.703 E0.02319
G1 X125.125 Y97.673 E0.02307
G1 X125.797 Y97.716 E0.01943
G1 X126.459 Y97.819 E0.01934
G1 X127.321 Y98.049 E0.02574
G1 X127.971 Y98.302 E0.02012
G1 X128.609 Y98.623 E0.02059
G1 X129.233 Y99.019 E0.02133
G1 X129.918 Y99.567 E0.02531
G1 X130.413 Y100.061 E0.02015
G1 X130.879 Y100.626 E0.02115
G1 X131.286 Y101.234 E0.02110
G1 X131.613 Y101.844 E0.01995
G1 X131.727 Y102.117 E0.00854
G1 X131.498 Y102.549 F10800.000
G1 F1200
G1 X144.059 Y102.549 E0.36234
G1 X144.861 Y102.659 E0.02335
G1 X145.550 Y102.918 E0.02125
G1 X146.214 Y103.354 E0.02290
G1 X146.750 Y103.916 E0.02239
G1 X147.140 Y104.569 E0.02196
G1 X147.382 Y105.322 E0.02280
G1 X147.451 Y105.954 E0.01835
G1 X147.449 Y108.621 E0.07693
G1 X147.354 Y109.311 E0.02010
G1 X147.144 Y109.924 E0.01868
G1 X146.914 Y110.348 E0.01391
G1 X146.618 Y110.747 E0.01434
G1 X146.287 Y111.084 E0.01364
G1 X145.869 Y111.401 E0.01512
G1 X145.458 Y111.627 E0.01352
G1 X144.991 Y111.805 E0.01441
G1 X144.530 Y111.910 E0.01365
G1 X144.052 Y111.950 E0.01382
G1 X128.891 Y111.948 E0.43735
G1 X128.068 Y111.778 E0.02422
G1 X127.467 Y111.493 E0.01919
G1 X127.005 Y111.655 E0.01411
G1 X126.402 Y111.808 E0.01797
