; generated by PrusaSlicer 2.2.0+ on 2020-04-22 at 22:11:19 UTC


;
;

;
;
; 

; external perimeters extrusion width = 0.45mm
; perimeters extrusion width = 0.45mm
; infill extrusion width = 0.45mm
; solid infill extrusion width = 0.45mm
; top infill extrusion width = 0.40mm
; first layer extrusion width = 0.42mm

M73 P0 R35
M201 X9000 Y9000 Z500 E10000 ; sets maximum accelerations, mm/sec^2
M203 X500 Y500 Z12 E120 ; sets maximum feedrates, mm/sec
M204 P2000 R1500 T2000 ; sets acceleration (P, T) and retract acceleration (R), mm/sec^2
M205 X10.00 Y10.00 Z0.20 E2.50 ; sets the jerk limits, mm/sec
M205 S0 T0 ; sets the minimum extruding and travel feed rate, mm/sec
M107
M83  ; extruder relative mode
M140 S75 ; set bed temp
M109 S160 ; Set extruder temp before bed level
M190 S75 ; wait for bed temp

G28 W ; home all without mesh bed level
G80 N7 ; mesh bed leveling

M109 S240 ; wait for extruder temp

M221 S100 ; Set flow to 100

G1 Y-3.0 F1000.0 ; go outside print area
G92 E0.0
G1 E8 ; Purge Bubble
M73 P0 R35
G1 X60.0 E9.0 F1000.0 ; intro line
G1 X100.0 E12.5 F1000.0 ; intro line
G92 E0.0
G21 ; set units to millimeters
G90 ; use absolute coordinates
M83 ; use relative distances for extrusion
M900 K45; Filament gcode
;BEFORE_LAYER_CHANGE
G92 E0.0
;0.2


G1 E-0.80000 F2100.00000
G1 Z0.600 F10800.000
;AFTER_LAYER_CHANGE
;0.2
G1 X115.327 Y96.689
G1 Z0.200
G1 E0.80000 F2100.00000
M204 S1000
G1 F1200.000
G1 X116.069 Y95.894 E0.03137
G1 X117.158 Y94.943 E0.04170
G1 X118.041 Y94.312 E0.03131
G1 X118.961 Y93.767 E0.03084
G1 X120.286 Y93.149 E0.04218
G1 X121.302 Y92.794 E0.03104
G1 X122.724 Y92.451 E0.04221
G1 X123.782 Y92.304 E0.03079
G1 X125.203 Y92.248 E0.04103
G1 X126.313 Y92.314 E0.03209
G1 X127.758 Y92.548 E0.04221
G1 X128.793 Y92.823 E0.03091
G1 X130.122 Y93.320 E0.04091
G1 X131.140 Y93.822 E0.03274
G1 X132.326 Y94.561 E0.04033
G1 X133.982 Y95.946 E0.06226
G1 X134.914 Y96.977 E0.04010
G1 X135.553 Y97.837 E0.03090
G1 X136.299 Y99.085 E0.04194
G1 X136.765 Y100.076 E0.03161
G1 X137.245 Y101.435 E0.04157
G1 X137.505 Y102.491 E0.03138
G1 X137.708 Y103.926 E0.04181
G1 X137.754 Y105.050 E0.03245
G1 X137.670 Y106.456 E0.04062
G1 X137.501 Y107.527 E0.03129
G1 X137.136 Y108.921 E0.04155
G1 X136.759 Y109.939 E0.03133
G1 X136.124 Y111.238 E0.04171
G1 X135.554 Y112.162 E0.03130
G1 X134.673 Y113.311 E0.04177
G1 X133.928 Y114.108 E0.03149
G1 X132.842 Y115.057 E0.04158
G1 X131.959 Y115.688 E0.03131
G1 X130.703 Y116.407 E0.04176
G1 X129.710 Y116.852 E0.03138
G1 X128.695 Y117.207 E0.03101
G1 X127.272 Y117.550 E0.04225
G1 X126.211 Y117.696 E0.03087
G1 X124.752 Y117.752 E0.04213
G1 X123.680 Y117.685 E0.03099
G1 X122.234 Y117.451 E0.04225
G1 X121.200 Y117.174 E0.03087
G1 X119.837 Y116.662 E0.04201
G1 X118.853 Y116.174 E0.03167
G1 X117.637 Y115.414 E0.04139
G1 X116.778 Y114.749 E0.03132
G1 X115.757 Y113.788 E0.04046
G1 X115.013 Y112.932 E0.03272
G1 X114.206 Y111.794 E0.04023
G1 X113.214 Y109.873 E0.06237
G1 X112.753 Y108.561 E0.04009
G1 X112.494 Y107.505 E0.03138
G1 X112.292 Y106.074 E0.04169
G1 X112.246 Y104.950 E0.03245
G1 X112.330 Y103.544 E0.04062
G1 X112.499 Y102.473 E0.03129
G1 X112.864 Y101.079 E0.04155
G1 X113.241 Y100.061 E0.03133
G1 X113.876 Y98.762 E0.04171
G1 X114.446 Y97.838 E0.03130
G1 X115.290 Y96.736 E0.04004
G1 F8640.000
G1 X116.069 Y95.894 E-0.26489
G1 X117.158 Y94.943 E-0.33380
G1 X117.726 Y94.537 E-0.16131
G1 E-0.04000 F2100.00000
G1 Z0.800 F10800.000
G1 X116.333 Y96.165
G1 Z0.200
G1 E0.80000 F2100.00000
G1 F1200.000
G1 X117.394 Y95.237 E0.04066
G1 X118.246 Y94.628 E0.03020
G1 X119.134 Y94.102 E0.02979
G1 X120.425 Y93.500 E0.04108
G1 X121.405 Y93.157 E0.02997
G1 X122.792 Y92.822 E0.04114
G1 X123.816 Y92.680 E0.02982
G1 X125.203 Y92.625 E0.04004
G1 X126.272 Y92.689 E0.03091
G1 X127.680 Y92.917 E0.04114
G1 X128.682 Y93.184 E0.02990
G1 X130.007 Y93.681 E0.04082
G1 X130.962 Y94.154 E0.03074
G1 X132.146 Y94.894 E0.04027
G1 X132.977 Y95.537 E0.03031
G1 X133.971 Y96.473 E0.03940
G1 X134.690 Y97.300 E0.03159
G1 X135.478 Y98.412 E0.03932
G1 X136.436 Y100.266 E0.06021
G1 X136.886 Y101.550 E0.03923
G1 X137.136 Y102.570 E0.03029
G1 X137.333 Y103.964 E0.04062
G1 X137.377 Y105.044 E0.03119
G1 X137.296 Y106.414 E0.03959
G1 X137.133 Y107.446 E0.03012
G1 X136.775 Y108.811 E0.04070
G1 X136.410 Y109.796 E0.03031
G1 X135.791 Y111.060 E0.04060
G1 X135.241 Y111.951 E0.03020
G1 X134.620 Y112.787 E0.03006
G1 X133.665 Y113.838 E0.04095
G1 X132.606 Y114.763 E0.04055
G1 X131.751 Y115.374 E0.03031
G1 X130.529 Y116.073 E0.04060
G1 X129.572 Y116.502 E0.03027
G1 X128.592 Y116.844 E0.02995
G1 X127.205 Y117.179 E0.04116
G1 X126.181 Y117.320 E0.02980
G1 X124.759 Y117.375 E0.04105
G1 X123.725 Y117.311 E0.02990
G1 X122.316 Y117.083 E0.04116
G1 X121.318 Y116.816 E0.02979
G1 X119.990 Y116.318 E0.04093
G1 X119.038 Y115.846 E0.03063
G1 X117.854 Y115.106 E0.04027
G1 X117.023 Y114.463 E0.03031
G1 X116.026 Y113.524 E0.03951
G1 X115.310 Y112.700 E0.03148
G1 X114.522 Y111.588 E0.03932
G1 X113.564 Y109.734 E0.06021
G1 X113.114 Y108.450 E0.03923
G1 X112.864 Y107.430 E0.03029
G1 X112.667 Y106.036 E0.04062
G1 X112.623 Y104.956 E0.03119
G1 X112.704 Y103.586 E0.03959
G1 X112.867 Y102.554 E0.03012
G1 X113.116 Y101.542 E0.03005
G1 X113.588 Y100.208 E0.04082
G1 X114.032 Y99.265 E0.03009
G1 X114.758 Y98.051 E0.04077
G1 X115.379 Y97.215 E0.03006
G1 X116.292 Y96.209 E0.03919
@Object Bear_Cam_Rotator.stl id:0 copy 0
G1 F8640.000
G1 X117.394 Y95.237 E-0.33926
G1 X118.246 Y94.628 E-0.24173
G1 X118.913 Y94.233 E-0.17900
G1 E-0.04000 F2100.00000
G1 Z0.800 F10800.000
G1 X123.224 Y103.476
G1 Z0.200
G1 E0.80000 F2100.00000
G1 F1200.000
G1 X123.567 Y103.149 E0.01366
G1 X123.969 Y102.899 E0.01366
G1 X124.413 Y102.734 E0.01366
G1 X124.867 Y102.665 E0.01323
G1 X125.133 Y102.665 E0.00769
G1 X125.587 Y102.734 E0.01323
G1 X126.031 Y102.899 E0.01366
G1 X126.433 Y103.149 E0.01366
G1 X126.776 Y103.476 E0.01366
G1 X127.046 Y103.864 E0.01366
G1 X127.233 Y104.299 E0.01366
G1 X127.328 Y104.763 E0.01366
G1 X127.328 Y105.237 E0.01366
G1 X127.233 Y105.701 E0.01366
G1 X127.046 Y106.136 E0.01366
G1 X126.776 Y106.524 E0.01366
G1 X126.433 Y106.851 E0.01366
G1 X126.031 Y107.101 E0.01366
G1 X125.587 Y107.266 E0.01366
G1 X125.119 Y107.337 E0.01366
G1 X124.646 Y107.313 E0.01366
G1 X124.187 Y107.195 E0.01366
G1 X123.762 Y106.986 E0.01366
G1 X123.388 Y106.696 E0.01366
G1 X123.079 Y106.337 E0.01366
G1 X122.849 Y105.923 E0.01366
G1 X122.712 Y105.485 E0.01323
G1 X122.672 Y105.222 E0.00769
G1 X122.672 Y104.763 E0.01323
G1 X122.767 Y104.299 E0.01366
G1 X122.954 Y103.864 E0.01366
G1 X123.190 Y103.525 E0.01193
G1 X123.499 Y103.740 F10800.000
G1 F1200.000
G1 X123.799 Y103.449 E0.01206
G1 X124.136 Y103.239 E0.01145
G1 X124.508 Y103.101 E0.01145
G1 X124.895 Y103.042 E0.01129
G1 X125.105 Y103.042 E0.00604
G1 X125.492 Y103.101 E0.01129
G1 X125.864 Y103.239 E0.01145
G1 X126.201 Y103.449 E0.01145
G1 X126.488 Y103.722 E0.01145
G1 X126.715 Y104.048 E0.01145
G1 X126.871 Y104.413 E0.01145
G1 X126.951 Y104.802 E0.01145
G1 X126.951 Y105.198 E0.01145
G1 X126.871 Y105.587 E0.01145
G1 X126.715 Y105.952 E0.01145
G1 X126.488 Y106.278 E0.01145
G1 X126.201 Y106.551 E0.01145
G1 X125.864 Y106.761 E0.01145
G1 X125.492 Y106.899 E0.01145
G1 X125.099 Y106.959 E0.01145
G1 X124.703 Y106.939 E0.01145
G1 X124.319 Y106.839 E0.01145
G1 X123.963 Y106.664 E0.01145
G1 X123.649 Y106.422 E0.01145
G1 X123.390 Y106.120 E0.01145
G1 X123.198 Y105.773 E0.01145
G1 X123.080 Y105.400 E0.01129
G1 X123.049 Y105.193 E0.00604
G1 X123.049 Y104.802 E0.01129
G1 X123.129 Y104.413 E0.01145
G1 X123.285 Y104.048 E0.01145
G1 X123.465 Y103.789 E0.00909
G1 X123.364 Y103.364 F10800.000
G1 F8640.000
G1 X123.799 Y103.449 E-0.11017
G1 X124.136 Y103.239 E-0.09163
G1 X124.508 Y103.101 E-0.09163
G1 X124.895 Y103.042 E-0.09040
G1 X125.105 Y103.042 E-0.04832
G1 X125.492 Y103.101 E-0.09040
G1 X125.864 Y103.239 E-0.09163
G1 X126.201 Y103.449 E-0.09163
G1 X126.371 Y103.611 E-0.05418
G1 E-0.04000 F2100.00000
G1 Z0.800 F10800.000
G1 X117.810 Y99.252
G1 Z0.200
G1 E0.80000 F2100.00000
G1 F1200.000
G1 X118.291 Y98.686 E0.02142
G1 X118.817 Y98.171 E0.02122
G1 X119.381 Y97.700 E0.02120
G1 X119.981 Y97.274 E0.02123
G1 X120.289 Y97.083 E0.01047
G1 X120.602 Y96.905 E0.01040
G1 X121.263 Y96.580 E0.02123
G1 X121.945 Y96.309 E0.02117
G1 X122.645 Y96.094 E0.02113
G1 X123.366 Y95.933 E0.02130
G1 X123.716 Y95.877 E0.01023
G1 X124.451 Y95.804 E0.02130
G1 X125.185 Y95.789 E0.02117
G1 X125.920 Y95.833 E0.02126
G1 X126.272 Y95.876 E0.01023
G1 X126.999 Y96.007 E0.02130
G1 X127.713 Y96.196 E0.02130
G1 X128.050 Y96.307 E0.01023
G1 X128.735 Y96.579 E0.02127
G1 X129.394 Y96.903 E0.02119
G1 X130.027 Y97.280 E0.02123
G1 X130.320 Y97.479 E0.01023
G1 X130.907 Y97.931 E0.02137
G1 X131.452 Y98.424 E0.02122
G1 X131.701 Y98.678 E0.01023
G1 X132.187 Y99.237 E0.02137
G1 X132.624 Y99.828 E0.02122
G1 X132.817 Y100.125 E0.01023
G1 X133.184 Y100.770 E0.02138
G1 X133.495 Y101.436 E0.02121
G1 X133.626 Y101.765 E0.01023
G1 X133.858 Y102.469 E0.02139
G1 X134.032 Y103.184 E0.02120
G1 X134.095 Y103.533 E0.01023
G1 X134.183 Y104.269 E0.02139
G1 X134.213 Y105.005 E0.02125
G1 X134.206 Y105.360 E0.01023
G1 X134.147 Y106.097 E0.02134
G1 X134.030 Y106.828 E0.02134
G1 X133.952 Y107.174 E0.01023
G1 X133.750 Y107.881 E0.02121
G1 X133.491 Y108.575 E0.02138
G1 X133.347 Y108.899 E0.01023
G1 X133.009 Y109.552 E0.02121
G1 X132.617 Y110.181 E0.02138
G1 X132.412 Y110.471 E0.01023
G1 X131.952 Y111.045 E0.02122
G1 X131.444 Y111.584 E0.02137
G1 X131.186 Y111.827 E0.01023
G1 X130.621 Y112.299 E0.02122
G1 X130.017 Y112.727 E0.02137
G1 X129.716 Y112.914 E0.01023
G1 X129.069 Y113.265 E0.02123
G1 X128.398 Y113.563 E0.02117
G1 X127.706 Y113.806 E0.02117
G1 X126.993 Y113.994 E0.02126
G1 X126.646 Y114.064 E0.01023
G1 X125.914 Y114.167 E0.02130
G1 X125.177 Y114.211 E0.02130
G1 X124.823 Y114.211 E0.01023
G1 X124.080 Y114.167 E0.02147
G1 X123.728 Y114.124 E0.01023
G1 X123.001 Y113.993 E0.02130
G1 X122.287 Y113.804 E0.02130
G1 X121.950 Y113.693 E0.01023
G1 X121.265 Y113.421 E0.02127
G1 X120.606 Y113.097 E0.02119
G1 X119.973 Y112.720 E0.02123
G1 X119.680 Y112.521 E0.01023
G1 X119.093 Y112.069 E0.02137
G1 X118.548 Y111.576 E0.02122
G1 X118.299 Y111.322 E0.01023
G1 X117.813 Y110.763 E0.02137
G1 X117.376 Y110.172 E0.02122
G1 X117.183 Y109.875 E0.01023
G1 X116.816 Y109.230 E0.02138
G1 X116.505 Y108.564 E0.02121
G1 X116.374 Y108.235 E0.01023
G1 X116.142 Y107.531 E0.02139
G1 X115.968 Y106.816 E0.02120
G1 X115.905 Y106.467 E0.01023
G1 X115.817 Y105.731 E0.02139
G1 X115.787 Y104.995 E0.02125
G1 X115.794 Y104.640 E0.01023
G1 X115.853 Y103.903 E0.02134
G1 X115.970 Y103.175 E0.02125
G1 X116.049 Y102.820 E0.01049
G1 X116.141 Y102.472 E0.01040
G1 X116.371 Y101.774 E0.02121
G1 X116.658 Y101.090 E0.02138
G1 X116.815 Y100.772 E0.01023
G1 X117.178 Y100.133 E0.02121
G1 X117.591 Y99.525 E0.02121
G1 X117.773 Y99.299 E0.00836
G1 X117.479 Y99.063 F10800.000
G1 F1200.000
G1 X118.019 Y98.425 E0.02413
G1 X118.563 Y97.891 E0.02198
G1 X119.150 Y97.401 E0.02207
G1 X119.772 Y96.960 E0.02198
G1 X120.096 Y96.759 E0.01101
G1 X120.426 Y96.571 E0.01094
G1 X121.110 Y96.235 E0.02199
G1 X121.820 Y95.953 E0.02203
G1 X122.549 Y95.729 E0.02200
G1 X123.295 Y95.563 E0.02206
G1 X123.667 Y95.503 E0.01088
G1 X124.428 Y95.427 E0.02206
G1 X125.192 Y95.412 E0.02204
G1 X125.954 Y95.458 E0.02201
G1 X126.328 Y95.503 E0.01088
G1 X127.081 Y95.639 E0.02206
G1 X127.820 Y95.834 E0.02206
G1 X128.178 Y95.952 E0.01088
G1 X128.888 Y96.234 E0.02203
G1 X129.574 Y96.571 E0.02206
G1 X130.229 Y96.961 E0.02199
G1 X130.541 Y97.173 E0.01088
G1 X131.149 Y97.641 E0.02212
G1 X131.714 Y98.152 E0.02198
G1 X131.978 Y98.422 E0.01088
G1 X132.481 Y99.000 E0.02213
G1 X132.934 Y99.613 E0.02197
G1 X133.140 Y99.929 E0.01088
G1 X133.519 Y100.596 E0.02214
G1 X133.842 Y101.286 E0.02197
G1 X133.981 Y101.637 E0.01088
G1 X134.221 Y102.366 E0.02214
G1 X134.401 Y103.105 E0.02196
G1 X134.468 Y103.477 E0.01088
G1 X134.560 Y104.239 E0.02215
G1 X134.590 Y105.001 E0.02201
G1 X134.582 Y105.378 E0.01088
G1 X134.522 Y106.142 E0.02210
G1 X134.400 Y106.899 E0.02210
G1 X134.318 Y107.267 E0.01088
G1 X134.109 Y107.999 E0.02196
G1 X133.840 Y108.718 E0.02214
G1 X133.687 Y109.062 E0.01088
G1 X133.337 Y109.739 E0.02197
G1 X132.932 Y110.390 E0.02214
G1 X132.714 Y110.698 E0.01088
G1 X132.237 Y111.292 E0.02197
G1 X131.711 Y111.851 E0.02213
G1 X131.436 Y112.109 E0.01088
G1 X130.851 Y112.598 E0.02198
G1 X130.226 Y113.041 E0.02212
G1 X129.906 Y113.240 E0.01088
G1 X129.236 Y113.604 E0.02199
G1 X128.537 Y113.914 E0.02203
G1 X127.817 Y114.167 E0.02204
G1 X127.079 Y114.362 E0.02201
G1 X126.709 Y114.436 E0.01088
G1 X125.952 Y114.542 E0.02206
G1 X125.189 Y114.588 E0.02206
G1 X124.811 Y114.588 E0.01088
G1 X124.046 Y114.542 E0.02212
G1 X123.672 Y114.497 E0.01088
G1 X122.919 Y114.361 E0.02206
G1 X122.180 Y114.166 E0.02206
G1 X121.822 Y114.048 E0.01088
G1 X121.112 Y113.766 E0.02203
G1 X120.426 Y113.429 E0.02206
G1 X119.771 Y113.039 E0.02199
G1 X119.459 Y112.827 E0.01088
G1 X118.851 Y112.359 E0.02212
G1 X118.286 Y111.848 E0.02198
G1 X118.022 Y111.578 E0.01088
G1 X117.519 Y111.000 E0.02213
G1 X117.066 Y110.387 E0.02197
G1 X116.860 Y110.071 E0.01088
G1 X116.481 Y109.404 E0.02214
G1 X116.158 Y108.714 E0.02197
G1 X116.019 Y108.363 E0.01088
G1 X115.779 Y107.634 E0.02214
G1 X115.599 Y106.895 E0.02196
G1 X115.532 Y106.523 E0.01088
G1 X115.440 Y105.761 E0.02215
G1 X115.410 Y104.999 E0.02201
G1 X115.418 Y104.622 E0.01088
G1 X115.478 Y103.858 E0.02210
G1 X115.599 Y103.105 E0.02201
G1 X115.682 Y102.731 E0.01103
G1 X115.779 Y102.365 E0.01094
G1 X116.018 Y101.642 E0.02196
G1 X116.315 Y100.934 E0.02214
G1 X116.481 Y100.596 E0.01088
G1 X116.858 Y99.933 E0.02197
G1 X117.288 Y99.300 E0.02207
G1 X117.441 Y99.109 E0.00706
G1 X117.874 Y99.123 F10800.000
G1 F8640.000
G1 X118.019 Y98.425 E-0.20698
G1 X118.563 Y97.891 E-0.17593
G1 X119.150 Y97.401 E-0.17663
G1 X119.772 Y96.960 E-0.17597
G1 X119.862 Y96.904 E-0.02449
G1 E-0.04000 F2100.00000
G1 Z0.800 F10800.000
G1 X120.216 Y97.261
G1 Z0.200
G1 E0.80000 F2100.00000
G1 F1200.000
G1 X125.370 Y102.415 E0.21182
G1 X125.155 Y102.382 E0.00633
G1 X124.806 Y102.388 E0.01015
G1 X120.015 Y97.597 E0.19691
G1 X119.700 Y97.820 E0.01120
G1 X124.340 Y102.460 E0.19070
G1 X123.948 Y102.605 E0.01215
G1 X119.397 Y98.054 E0.18704
G1 X119.105 Y98.299 E0.01109
G1 X123.601 Y102.795 E0.18480
G1 X123.393 Y102.925 E0.00711
G1 X123.291 Y103.022 E0.00412
G1 X118.826 Y98.558 E0.18350
G1 X118.555 Y98.824 E0.01104
G1 X123.015 Y103.284 E0.18333
G1 X122.793 Y103.599 E0.01121
G1 X118.296 Y99.102 E0.18485
G1 X118.055 Y99.398 E0.01110
G1 X122.608 Y103.952 E0.18714
G1 X122.496 Y104.214 E0.00830
G1 X122.468 Y104.349 E0.00399
G1 X117.816 Y99.697 E0.19120
G1 X117.599 Y100.017 E0.01124
G1 X122.389 Y104.807 E0.19687
G1 X122.389 Y105.243 E0.01269
G1 X122.407 Y105.362 E0.00349
G1 X117.385 Y100.341 E0.20639
G1 X117.191 Y100.683 E0.01145
G1 X129.317 Y112.809 E0.49839
G1 X129.660 Y112.616 E0.01147
G1 X124.641 Y107.596 E0.20629
G1 X125.194 Y107.612 E0.01607
G1 X129.985 Y112.403 E0.19691
G1 X130.299 Y112.180 E0.01120
G1 X125.660 Y107.540 E0.19070
G1 X126.052 Y107.395 E0.01215
G1 X130.603 Y111.946 E0.18704
G1 X130.895 Y111.701 E0.01109
G1 X126.399 Y107.205 E0.18480
G1 X126.607 Y107.075 E0.00711
G1 X126.709 Y106.978 E0.00412
G1 X131.178 Y111.446 E0.18366
G1 X131.442 Y111.174 E0.01104
G1 X126.985 Y106.716 E0.18321
G1 X127.207 Y106.401 E0.01121
G1 X131.703 Y110.897 E0.18480
G1 X131.945 Y110.602 E0.01110
G1 X127.392 Y106.048 E0.18715
G1 X127.504 Y105.786 E0.00831
G1 X127.532 Y105.651 E0.00398
G1 X132.184 Y110.304 E0.19121
G1 X132.405 Y109.987 E0.01121
G1 X127.611 Y105.193 E0.19704
G1 X127.611 Y104.734 E0.01334
G1 X127.591 Y104.636 E0.00292
G1 X132.611 Y109.656 E0.20634
G1 X132.811 Y109.319 E0.01140
G1 X120.679 Y97.187 E0.49866
G1 X121.036 Y97.006 E0.01163
G1 X132.994 Y108.965 E0.49150
G1 X133.169 Y108.602 E0.01170
G1 X121.397 Y96.831 E0.48383
G1 X121.782 Y96.678 E0.01203
G1 X133.322 Y108.218 E0.47432
G1 X133.469 Y107.827 E0.01213
G1 X122.175 Y96.534 E0.46416
G1 X122.586 Y96.408 E0.01249
G1 X133.590 Y107.412 E0.45228
G1 X133.704 Y106.988 E0.01275
G1 X123.017 Y96.301 E0.43926
