; generated by PrusaSlicer 2.2.0+ on 2020-04-22 at 22:12:43 UTC


;
;

;
;
; 

; external perimeters extrusion width = 0.45mm
; perimeters extrusion width = 0.45mm
; infill extrusion width = 0.45mm
; solid infill extrusion width = 0.45mm
; top infill extrusion width = 0.40mm
; first layer extrusion width = 0.42mm

M73 P0 R29
M201 X9000 Y9000 Z500 E10000 ; sets maximum accelerations, mm/sec^2
M203 X500 Y500 Z12 E120 ; sets maximum feedrates, mm/sec
M204 P2000 R1500 T2000 ; sets acceleration (P, T) and retract acceleration (R), mm/sec^2
M205 X10.00 Y10.00 Z0.20 E2.50 ; sets the jerk limits, mm/sec
M205 S0 T0 ; sets the minimum extruding and travel feed rate, mm/sec
M107
M83  ; extruder relative mode
M140 S75 ; set bed temp
M109 S160 ; Set extruder temp before bed level
M190 S75 ; wait for bed temp

G28 W ; home all without mesh bed level
G80 N7 ; mesh bed leveling

M109 S240 ; wait for extruder temp

M221 S100 ; Set flow to 100

G1 Y-3.0 F1000.0 ; go outside print area
G92 E0.0
G1 E8 ; Purge Bubble
M73 P0 R29
G1 X60.0 E9.0 F1000.0 ; intro line
G1 X100.0 E12.5 F1000.0 ; intro line
G92 E0.0
G21 ; set units to millimeters
G90 ; use absolute coordinates
M83 ; use relative distances for extrusion
M900 K45; Filament gcode
;BEFORE_LAYER_CHANGE
G92 E0.0
;0.2


G1 E-0.80000 F2100.00000
G1 Z0.600 F10800.000
;AFTER_LAYER_CHANGE
;0.2
G1 X112.474 Y94.475
G1 Z0.200
G1 E0.80000 F2100.00000
M204 S1000
G1 F1200.000
G1 X112.932 Y93.689 E0.02625
G1 X113.682 Y92.926 E0.03086
G1 X114.110 Y92.602 E0.01547
G1 X114.712 Y92.326 E0.01911
G1 X115.359 Y92.202 E0.01900
G1 X134.554 Y92.196 E0.55370
G1 X135.548 Y92.383 E0.02916
G1 X136.410 Y92.919 E0.02928
G1 X137.393 Y94.003 E0.04223
G1 X137.656 Y94.558 E0.01770
G1 X137.788 Y95.153 E0.01759
G1 X137.803 Y114.632 E0.56189
G1 X137.626 Y115.525 E0.02625
G1 X137.168 Y116.311 E0.02625
G1 X136.409 Y117.082 E0.03122
G1 X135.955 Y117.419 E0.01629
G1 X135.329 Y117.692 E0.01970
G1 X134.651 Y117.802 E0.01982
G1 X115.468 Y117.803 E0.55335
G1 X114.575 Y117.626 E0.02625
G1 X113.789 Y117.168 E0.02625
G1 X113.018 Y116.409 E0.03122
G1 X112.681 Y115.955 E0.01629
G1 X112.408 Y115.329 E0.01970
G1 X112.298 Y114.651 E0.01982
G1 X112.297 Y95.368 E0.55623
G1 X112.462 Y94.534 E0.02452
G1 X112.829 Y94.607 F10800.000
G1 F1200.000
G1 X113.235 Y93.915 E0.02314
G1 X114.301 Y92.927 E0.04194
G1 X114.830 Y92.685 E0.01677
G1 X115.401 Y92.578 E0.01677
G1 X134.554 Y92.573 E0.55248
G1 X135.421 Y92.738 E0.02545
G1 X136.165 Y93.205 E0.02534
G1 X137.069 Y94.195 E0.03866
G1 X137.301 Y94.686 E0.01568
G1 X137.416 Y95.217 E0.01568
G1 X137.426 Y114.611 E0.55942
G1 X137.272 Y115.396 E0.02307
G1 X136.865 Y116.085 E0.02307
G1 X135.773 Y117.089 E0.04280
G1 X135.223 Y117.330 E0.01731
G1 X134.631 Y117.426 E0.01731
G1 X115.485 Y117.426 E0.55226
G1 X114.701 Y117.270 E0.02307
G1 X114.015 Y116.865 E0.02296
G1 X113.011 Y115.773 E0.04280
G1 X112.770 Y115.223 E0.01731
G1 X112.674 Y114.631 E0.01731
G1 X112.674 Y95.385 E0.55515
G1 X112.817 Y94.666 E0.02116
@Object C270_Mount.stl id:0 copy 0
G1 F8640.000
G1 X113.235 Y93.915 E-0.19835
G1 X114.301 Y92.927 E-0.33571
G1 X114.830 Y92.685 E-0.13423
G1 X115.220 Y92.612 E-0.09172
G1 E-0.04000 F2100.00000
G1 Z0.800 F10800.000
G1 X123.264 Y103.412
G1 Z0.200
G1 E0.80000 F2100.00000
G1 F1200.000
G1 X123.591 Y103.107 E0.01291
G1 X123.970 Y102.868 E0.01291
G1 X124.374 Y102.709 E0.01251
G1 X124.618 Y102.651 E0.00724
G1 X125.033 Y102.611 E0.01203
G1 X125.494 Y102.652 E0.01336
G1 X125.926 Y102.776 E0.01296
G1 X126.325 Y102.979 E0.01291
G1 X126.679 Y103.252 E0.01291
G1 X126.977 Y103.586 E0.01291
G1 X127.207 Y103.970 E0.01291
G1 X127.361 Y104.390 E0.01291
G1 X127.434 Y104.832 E0.01291
G1 X127.423 Y105.280 E0.01291
G1 X127.330 Y105.717 E0.01291
G1 X127.161 Y106.117 E0.01251
G1 X127.033 Y106.332 E0.00724
G1 X126.771 Y106.657 E0.01203
G1 X126.420 Y106.959 E0.01336
G1 X126.029 Y107.180 E0.01296
G1 X125.605 Y107.325 E0.01291
G1 X125.162 Y107.387 E0.01291
G1 X124.715 Y107.366 E0.01291
G1 X124.280 Y107.262 E0.01291
G1 X123.884 Y107.085 E0.01251
G1 X123.671 Y106.951 E0.00725
G1 X123.340 Y106.670 E0.01251
G1 X123.059 Y106.322 E0.01291
G1 X122.847 Y105.927 E0.01291
G1 X122.713 Y105.501 E0.01291
G1 X122.661 Y105.056 E0.01291
G1 X122.692 Y104.610 E0.01291
G1 X122.806 Y104.177 E0.01291
G1 X122.999 Y103.773 E0.01291
G1 X123.229 Y103.460 E0.01118
G1 X123.533 Y103.683 F10800.000
G1 F1200.000
G1 X123.823 Y103.407 E0.01156
G1 X124.141 Y103.206 E0.01086
G1 X124.487 Y103.070 E0.01072
G1 X124.680 Y103.024 E0.00571
G1 X125.034 Y102.990 E0.01027
G1 X125.424 Y103.024 E0.01130
G1 X125.787 Y103.129 E0.01088
G1 X126.123 Y103.299 E0.01086
G1 X126.421 Y103.529 E0.01086
G1 X126.671 Y103.810 E0.01086
G1 X126.865 Y104.133 E0.01087
G1 X126.995 Y104.487 E0.01086
G1 X127.056 Y104.859 E0.01086
G1 X127.047 Y105.235 E0.01086
G1 X126.968 Y105.604 E0.01086
G1 X126.824 Y105.946 E0.01072
G1 X126.722 Y106.116 E0.00572
G1 X126.499 Y106.393 E0.01027
G1 X126.202 Y106.649 E0.01130
G1 X125.874 Y106.835 E0.01088
G1 X125.517 Y106.956 E0.01086
G1 X125.144 Y107.009 E0.01086
G1 X124.768 Y106.991 E0.01086
G1 X124.402 Y106.904 E0.01086
G1 X124.063 Y106.752 E0.01072
G1 X123.895 Y106.646 E0.00572
G1 X123.611 Y106.405 E0.01072
G1 X123.375 Y106.112 E0.01086
G1 X123.196 Y105.781 E0.01086
G1 X123.083 Y105.421 E0.01086
G1 X123.039 Y105.047 E0.01086
G1 X123.066 Y104.671 E0.01087
G1 X123.162 Y104.307 E0.01086
G1 X123.324 Y103.967 E0.01086
G1 X123.497 Y103.732 E0.00843
G1 X123.403 Y103.305 F10800.000
G1 F8640.000
G1 X123.823 Y103.407 E-0.10621
G1 X124.141 Y103.206 E-0.08697
G1 X124.487 Y103.070 E-0.08583
G1 X124.680 Y103.024 E-0.04575
G1 X125.034 Y102.990 E-0.08222
G1 X125.424 Y103.024 E-0.09045
G1 X125.787 Y103.129 E-0.08712
G1 X126.123 Y103.299 E-0.08697
G1 X126.421 Y103.529 E-0.08697
G1 X126.426 Y103.534 E-0.00152
G1 E-0.04000 F2100.00000
G1 Z0.800 F10800.000
G1 X115.837 Y95.776
G1 Z0.200
G1 E0.80000 F2100.00000
G1 F1200.000
G1 X115.876 Y95.737 E0.00159
G1 X134.224 Y95.737 E0.52926
G1 X134.263 Y95.776 E0.00159
G1 X134.263 Y114.224 E0.53215
G1 X134.224 Y114.263 E0.00159
G1 X115.876 Y114.263 E0.52926
G1 X115.837 Y114.224 E0.00159
G1 X115.837 Y95.836 E0.53042
G1 X115.460 Y95.620 F10800.000
G1 F1200.000
G1 X115.720 Y95.360 E0.01060
G1 X134.380 Y95.360 E0.53828
G1 X134.640 Y95.620 E0.01060
G1 X134.640 Y114.380 E0.54116
G1 X134.380 Y114.640 E0.01060
G1 X115.720 Y114.640 E0.53828
G1 X115.460 Y114.380 E0.01060
G1 X115.460 Y95.680 E0.53943
G1 X115.827 Y95.618 F10800.000
G1 F8640.000
G1 X115.720 Y95.360 E-0.09515
G1 X118.599 Y95.360 E-0.66485
G1 E-0.04000 F2100.00000
G1 Z0.800 F10800.000
G1 X119.396 Y95.850
G1 Z0.200
G1 E0.80000 F2100.00000
G1 F1200.000
G1 X126.087 Y102.541 E0.27530
G1 X125.546 Y102.372 E0.01649
G1 X125.364 Y102.356 E0.00531
G1 X119.028 Y96.020 E0.26071
G1 X118.490 Y96.020 E0.01565
G1 X124.818 Y102.347 E0.26035
G1 X124.571 Y102.371 E0.00722
G1 X124.355 Y102.423 E0.00645
G1 X117.952 Y96.020 E0.26345
G1 X117.414 Y96.020 E0.01565
G1 X123.962 Y102.567 E0.26940
G1 X123.842 Y102.615 E0.00376
G1 X123.615 Y102.758 E0.00781
G1 X116.877 Y96.020 E0.27724
G1 X116.339 Y96.020 E0.01565
G1 X123.306 Y102.987 E0.28665
G1 X123.032 Y103.251 E0.01107
G1 X116.120 Y96.339 E0.28439
G1 X116.120 Y96.877 E0.01565
G1 X122.804 Y103.561 E0.27502
G1 X122.619 Y103.913 E0.01159
G1 X116.120 Y97.415 E0.26740
G1 X116.120 Y97.952 E0.01565
G1 X122.478 Y104.311 E0.26163
G1 X122.412 Y104.563 E0.00758
G1 X122.398 Y104.768 E0.00598
G1 X116.120 Y98.490 E0.25830
G1 X116.120 Y99.028 E0.01565
G1 X122.406 Y105.315 E0.25867
G1 X122.435 Y105.560 E0.00718
G1 X122.583 Y106.029 E0.01431
G1 X116.120 Y99.566 E0.26593
G1 X116.120 Y100.104 E0.01565
G1 X129.996 Y113.980 E0.57094
G1 X130.534 Y113.980 E0.01565
G1 X124.001 Y107.447 E0.26880
G1 X124.188 Y107.531 E0.00596
G1 X124.742 Y107.651 E0.01650
G1 X131.072 Y113.980 E0.26043
G1 X131.610 Y113.980 E0.01565
G1 X125.285 Y107.655 E0.26023
G1 X125.744 Y107.576 E0.01354
G1 X132.148 Y113.980 E0.26350
G1 X132.685 Y113.980 E0.01565
G1 X126.145 Y107.439 E0.26912
G1 X126.488 Y107.245 E0.01148
G1 X133.223 Y113.980 E0.27712
G1 X133.761 Y113.980 E0.01565
G1 X126.792 Y107.011 E0.28673
G1 X126.975 Y106.855 E0.00701
G1 X127.064 Y106.745 E0.00410
G1 X133.980 Y113.661 E0.28458
G1 X133.980 Y113.123 E0.01565
G1 X127.297 Y106.441 E0.27497
G1 X127.414 Y106.245 E0.00663
G1 X127.481 Y106.086 E0.00500
G1 X133.980 Y112.586 E0.26741
G1 X133.980 Y112.048 E0.01565
G1 X127.624 Y105.692 E0.26151
G1 X127.707 Y105.237 E0.01345
G1 X133.980 Y111.510 E0.25810
G1 X133.980 Y110.972 E0.01565
G1 X127.697 Y104.689 E0.25853
G1 X127.636 Y104.318 E0.01093
G1 X127.503 Y103.957 E0.01119
G1 X133.980 Y110.434 E0.26650
G1 X133.980 Y109.896 E0.01565
G1 X120.104 Y96.020 E0.57095
G1 X120.642 Y96.020 E0.01565
G1 X133.980 Y109.358 E0.54882
G1 X133.980 Y108.820 E0.01565
G1 X121.180 Y96.020 E0.52669
G1 X121.717 Y96.020 E0.01565
G1 X133.980 Y108.283 E0.50456
G1 X133.980 Y107.745 E0.01565
G1 X122.255 Y96.020 E0.48243
G1 X122.793 Y96.020 E0.01565
G1 X133.980 Y107.207 E0.46030
G1 X133.980 Y106.669 E0.01565
G1 X123.331 Y96.020 E0.43817
G1 X123.869 Y96.020 E0.01565
G1 X133.980 Y106.131 E0.41604
G1 X133.980 Y105.593 E0.01565
G1 X124.407 Y96.020 E0.39390
G1 X124.945 Y96.020 E0.01565
G1 X133.980 Y105.055 E0.37177
G1 X133.980 Y104.518 E0.01565
G1 X125.482 Y96.020 E0.34964
G1 X126.020 Y96.020 E0.01565
G1 X133.980 Y103.980 E0.32751
G1 X133.980 Y103.442 E0.01565
G1 X126.558 Y96.020 E0.30538
G1 X127.096 Y96.020 E0.01565
G1 X133.980 Y102.904 E0.28325
G1 X133.980 Y102.366 E0.01565
G1 X127.634 Y96.020 E0.26112
G1 X128.172 Y96.020 E0.01565
G1 X133.980 Y101.828 E0.23899
G1 X133.980 Y101.290 E0.01565
G1 X128.710 Y96.020 E0.21686
G1 X129.247 Y96.020 E0.01565
G1 X133.980 Y100.753 E0.19473
G1 X133.980 Y100.215 E0.01565
G1 X129.785 Y96.020 E0.17260
G1 X130.323 Y96.020 E0.01565
G1 X133.980 Y99.677 E0.15047
G1 X133.980 Y99.139 E0.01565
G1 X130.861 Y96.020 E0.12834
G1 X131.399 Y96.020 E0.01565
G1 X133.980 Y98.601 E0.10621
G1 X133.980 Y98.063 E0.01565
G1 X131.937 Y96.020 E0.08408
G1 X132.475 Y96.020 E0.01565
G1 X133.980 Y97.525 E0.06195
G1 X133.980 Y96.988 E0.01565
G1 X133.012 Y96.020 E0.03981
G1 X133.550 Y96.020 E0.01565
G1 X134.150 Y96.619 E0.02467
G1 F8640.000
G1 X133.550 Y96.020 E-0.19576
G1 X133.012 Y96.020 E-0.12419
G1 X133.980 Y96.988 E-0.31598
G1 X133.980 Y97.525 E-0.12407
G1 E-0.04000 F2100.00000
G1 Z0.800 F10800.000
G1 X129.628 Y114.150
G1 Z0.200
G1 E0.80000 F2100.00000
G1 F1200.000
G1 X116.120 Y100.642 E0.55580
G1 X116.120 Y101.180 E0.01565
G1 X128.920 Y113.980 E0.52668
G1 X128.383 Y113.980 E0.01565
G1 X116.120 Y101.717 E0.50455
G1 X116.120 Y102.255 E0.01565
G1 X127.845 Y113.980 E0.48242
G1 X127.307 Y113.980 E0.01565
G1 X116.120 Y102.793 E0.46029
M73 P3 R28
G1 X116.120 Y103.331 E0.01565
G1 X126.769 Y113.980 E0.43816
G1 X126.231 Y113.980 E0.01565
G1 X116.120 Y103.869 E0.41603
G1 X116.120 Y104.407 E0.01565
G1 X125.693 Y113.980 E0.39390
G1 X125.155 Y113.980 E0.01565
G1 X116.120 Y104.945 E0.37177
G1 X116.120 Y105.483 E0.01565
G1 X124.617 Y113.980 E0.34964
G1 X124.080 Y113.980 E0.01565
G1 X116.120 Y106.020 E0.32751
G1 X116.120 Y106.558 E0.01565
G1 X123.542 Y113.980 E0.30538
G1 X123.004 Y113.980 E0.01565
G1 X116.120 Y107.096 E0.28325
G1 X116.120 Y107.634 E0.01565
G1 X122.466 Y113.980 E0.26112
G1 X121.928 Y113.980 E0.01565
G1 X116.120 Y108.172 E0.23899
G1 X116.120 Y108.710 E0.01565
G1 X121.390 Y113.980 E0.21685
G1 X120.852 Y113.980 E0.01565
G1 X116.120 Y109.248 E0.19472
G1 X116.120 Y109.785 E0.01565
G1 X120.315 Y113.980 E0.17259
G1 X119.777 Y113.980 E0.01565
G1 X116.120 Y110.323 E0.15046
G1 X116.120 Y110.861 E0.01565
G1 X119.239 Y113.980 E0.12833
G1 X118.701 Y113.980 E0.01565
G1 X116.120 Y111.399 E0.10620
G1 X116.120 Y111.937 E0.01565
G1 X118.163 Y113.980 E0.08407
G1 X117.625 Y113.980 E0.01565
G1 X116.120 Y112.475 E0.06194
G1 X116.120 Y113.013 E0.01565
G1 X117.087 Y113.980 E0.03981
G1 X116.550 Y113.980 E0.01565
G1 X115.950 Y113.381 E0.02466
; stop printing object C270_Mount.stl id:0 copy 0
;BEFORE_LAYER_CHANGE
G92 E0.0
;0.4


G1 F8640.000
G1 X116.550 Y113.980 E-0.19572
G1 X117.087 Y113.980 E-0.12419
G1 X116.120 Y113.013 E-0.31594
G1 X116.120 Y112.475 E-0.12415
G1 E-0.04000 F2100.00000
G1 Z0.800 F10800.000
;AFTER_LAYER_CHANGE
;0.4
M104 S235 ; set temperature
M140 S80 ; set bed temperature
G1 X114.575 Y117.626
G1 Z0.400
G1 E0.80000 F2100.00000
G1 F3600.000
G1 X113.789 Y117.168 E0.02625
G1 X113.018 Y116.409 E0.03122
G1 X112.681 Y115.955 E0.01629
G1 X112.408 Y115.329 E0.01970
G1 X112.298 Y114.651 E0.01982
G1 X112.297 Y95.368 E0.55623
G1 X112.474 Y94.475 E0.02625
G1 X112.932 Y93.689 E0.02625
G1 X113.682 Y92.926 E0.03086
G1 X114.110 Y92.602 E0.01547
G1 X114.712 Y92.326 E0.01911
G1 X115.359 Y92.202 E0.01900
G1 X134.554 Y92.196 E0.55370
G1 X135.548 Y92.383 E0.02916
G1 X136.410 Y92.919 E0.02928
G1 X137.393 Y94.003 E0.04223
G1 X137.656 Y94.558 E0.01770
G1 X137.788 Y95.153 E0.01759
G1 X137.803 Y114.632 E0.56189
G1 X137.626 Y115.525 E0.02625
G1 X137.168 Y116.311 E0.02625
G1 X136.409 Y117.082 E0.03122
G1 X135.955 Y117.419 E0.01629
G1 X135.329 Y117.692 E0.01970
G1 X134.651 Y117.802 E0.01982
G1 X115.468 Y117.803 E0.55335
G1 X114.634 Y117.638 E0.02452
G1 X114.707 Y117.271 F10800.000
G1 F3600.000
G1 X114.015 Y116.865 E0.02314
G1 X113.011 Y115.773 E0.04280
G1 X112.770 Y115.223 E0.01731
G1 X112.674 Y114.631 E0.01731
G1 X112.674 Y95.385 E0.55515
G1 X112.830 Y94.601 E0.02307
G1 X113.235 Y93.915 E0.02296
G1 X114.301 Y92.927 E0.04194
G1 X114.830 Y92.685 E0.01677
G1 X115.401 Y92.578 E0.01677
G1 X134.554 Y92.573 E0.55248
G1 X135.421 Y92.738 E0.02545
G1 X136.165 Y93.205 E0.02534
G1 X137.069 Y94.195 E0.03866
G1 X137.301 Y94.686 E0.01568
G1 X137.416 Y95.217 E0.01568
G1 X137.426 Y114.611 E0.55942
G1 X137.272 Y115.396 E0.02307
G1 X136.865 Y116.085 E0.02307
G1 X135.773 Y117.089 E0.04280
G1 X135.223 Y117.330 E0.01731
G1 X134.631 Y117.426 E0.01731
G1 X115.485 Y117.426 E0.55226
G1 X114.766 Y117.283 E0.02116
@Object C270_Mount.stl id:0 copy 0
G1 F8640.000
G1 X114.015 Y116.865 E-0.19835
G1 X113.011 Y115.773 E-0.34261
G1 X112.770 Y115.223 E-0.13859
G1 X112.715 Y114.879 E-0.08046
G1 E-0.04000 F2100.00000
G1 Z1.000 F10800.000
G1 X123.466 Y106.575
G1 Z0.400
G1 E0.80000 F2100.00000
M204 S800
G1 F1800.000
G1 X123.189 Y106.238 E0.01358
G1 X122.990 Y105.867 E0.01311
G1 X122.865 Y105.468 E0.01303
G1 X122.816 Y105.052 E0.01303
G1 X122.845 Y104.635 E0.01303
G1 X122.952 Y104.230 E0.01303
G1 X123.132 Y103.852 E0.01303
G1 X123.380 Y103.515 E0.01303
G1 X123.686 Y103.230 E0.01303
G1 X124.040 Y103.006 E0.01303
G1 X124.416 Y102.858 E0.01257
G1 X124.647 Y102.803 E0.00742
G1 X125.030 Y102.766 E0.01197
G1 X125.464 Y102.804 E0.01358
G1 X125.869 Y102.921 E0.01311
G1 X126.242 Y103.110 E0.01303
G1 X126.574 Y103.365 E0.01303
G1 X126.852 Y103.678 E0.01303
G1 X127.067 Y104.037 E0.01303
G1 X127.211 Y104.430 E0.01303
G1 X127.279 Y104.843 E0.01303
G1 X127.270 Y105.246 E0.01257
G1 X127.231 Y105.481 E0.00742
G1 X127.117 Y105.848 E0.01197
G1 X126.913 Y106.234 E0.01358
G1 X126.649 Y106.562 E0.01311
G1 X126.329 Y106.832 E0.01303
G1 X125.965 Y107.039 E0.01303
G1 X125.569 Y107.174 E0.01303
G1 X125.155 Y107.232 E0.01303
G1 X124.737 Y107.213 E0.01303
G1 X124.330 Y107.116 E0.01303
G1 X123.961 Y106.950 E0.01257
G1 X123.760 Y106.823 E0.00742
G1 X123.512 Y106.614 E0.01010
M204 S1000
G1 X124.001 Y106.494 F10800.000
M204 S800
G1 F1800.000
G1 X123.757 Y106.288 E0.00993
G1 X123.529 Y106.011 E0.01118
G1 X123.367 Y105.709 E0.01068
G1 X123.265 Y105.382 E0.01065
G1 X123.225 Y105.043 E0.01065
G1 X123.249 Y104.702 E0.01065
G1 X123.336 Y104.371 E0.01065
G1 X123.483 Y104.062 E0.01065
G1 X123.685 Y103.787 E0.01065
G1 X123.936 Y103.554 E0.01065
G1 X124.225 Y103.371 E0.01065
G1 X124.538 Y103.248 E0.01048
G1 X124.715 Y103.206 E0.00565
G1 X125.032 Y103.175 E0.00993
G1 X125.390 Y103.206 E0.01118
G1 X125.719 Y103.301 E0.01068
G1 X126.024 Y103.456 E0.01065
G1 X126.295 Y103.664 E0.01065
G1 X126.522 Y103.920 E0.01065
G1 X126.698 Y104.213 E0.01065
G1 X126.816 Y104.534 E0.01065
G1 X126.871 Y104.872 E0.01065
G1 X126.864 Y105.208 E0.01048
G1 X126.834 Y105.387 E0.00565
G1 X126.739 Y105.692 E0.00993
G1 X126.572 Y106.009 E0.01118
