; generated by PrusaSlicer 2.2.0+ on 2020-04-22 at 22:13:42 UTC


;
;

;
;
; 

; external perimeters extrusion width = 0.45mm
; perimeters extrusion width = 0.45mm
; infill extrusion width = 0.45mm
; solid infill extrusion width = 0.45mm
; top infill extrusion width = 0.40mm
; first layer extrusion width = 0.42mm

M73 P0 R26
M201 X9000 Y9000 Z500 E10000 ; sets maximum accelerations, mm/sec^2
M203 X500 Y500 Z12 E120 ; sets maximum feedrates, mm/sec
M204 P2000 R1500 T2000 ; sets acceleration (P, T) and retract acceleration (R), mm/sec^2
M205 X10.00 Y10.00 Z0.20 E2.50 ; sets the jerk limits, mm/sec
M205 S0 T0 ; sets the minimum extruding and travel feed rate, mm/sec
M107
M83  ; extruder relative mode
M140 S75 ; set bed temp
M109 S160 ; Set extruder temp before bed level
M190 S75 ; wait for bed temp

G28 W ; home all without mesh bed level
G80 N7 ; mesh bed leveling

M109 S240 ; wait for extruder temp

M221 S100 ; Set flow to 100

G1 Y-3.0 F1000.0 ; go outside print area
G92 E0.0
G1 E8 ; Purge Bubble
M73 P0 R26
G1 X60.0 E9.0 F1000.0 ; intro line
G1 X100.0 E12.5 F1000.0 ; intro line
G92 E0.0
G21 ; set units to millimeters
G90 ; use absolute coordinates
M83 ; use relative distances for extrusion
M900 K45; Filament gcode
;BEFORE_LAYER_CHANGE
G92 E0.0
;0.2


G1 E-0.80000 F2100.00000
G1 Z0.600 F10800.000
;AFTER_LAYER_CHANGE
;0.2
G1 X105.970 Y85.629
G1 Z0.200
G1 E0.80000 F2100.00000
M204 S1000
G1 F1200.000
G1 X106.462 Y84.803 E0.02772
G1 X115.522 Y75.181 E0.38126
G1 X116.647 Y74.245 E0.04220
G1 X117.810 Y73.651 E0.03766
G1 X118.890 Y73.341 E0.03242
G1 X120.023 Y73.230 E0.03286
G1 X139.935 Y73.230 E0.57436
G1 X141.103 Y73.340 E0.03386
G1 X142.231 Y73.666 E0.03386
G1 X143.282 Y74.199 E0.03397
G1 X144.180 Y74.887 E0.03266
G1 X144.966 Y75.760 E0.03386
G1 X145.466 Y76.548 E0.02693
G1 X145.908 Y77.589 E0.03264
G1 X146.165 Y78.781 E0.03517
G1 X146.191 Y130.506 E1.49205
G1 X146.093 Y131.596 E0.03158
G1 X145.873 Y132.462 E0.02578
G1 X145.569 Y133.213 E0.02336
G1 X145.039 Y134.112 E0.03009
G1 X144.509 Y134.764 E0.02424
G1 X143.925 Y135.314 E0.02315
G1 X143.279 Y135.783 E0.02304
G1 X142.540 Y136.184 E0.02424
G1 X141.558 Y136.538 E0.03009
G1 X140.757 Y136.699 E0.02358
G1 X139.937 Y136.754 E0.02370
G1 X120.042 Y136.753 E0.57389
G1 X118.962 Y136.654 E0.03129
G1 X118.100 Y136.435 E0.02567
G1 X116.711 Y135.777 E0.04434
G1 X115.498 Y134.771 E0.04544
G1 X114.579 Y133.502 E0.04522
G1 X114.245 Y132.789 E0.02271
G1 X113.995 Y132.010 E0.02359
G1 X105.874 Y94.014 E1.12079
G1 X105.840 Y86.380 E0.22020
G1 X105.960 Y85.688 E0.02026
@Object RPi_Camera_2.1_Case_v3.stl id:0 copy 0
G1 F8640.000
G1 X106.462 Y84.803 E-0.23485
G1 X108.021 Y83.148 E-0.52515
G1 E-0.04000 F2100.00000
G1 Z0.800 F10800.000
G1 X119.293 Y107.721
G1 Z0.200
G1 E0.80000 F2100.00000
G1 F1200.000
G1 X119.709 Y107.594 E0.01255
G1 X119.999 Y107.562 E0.00839
G1 X120.398 Y107.587 E0.01155
G1 X120.816 Y107.710 E0.01257
G1 X121.074 Y107.844 E0.00839
G1 X121.394 Y108.084 E0.01154
G1 X121.676 Y108.417 E0.01259
G1 X121.817 Y108.671 E0.00838
G1 X121.952 Y109.048 E0.01154
G1 X122.004 Y109.491 E0.01289
G1 X121.960 Y109.888 E0.01152
G1 X121.881 Y110.167 E0.00836
G1 X121.684 Y110.558 E0.01261
G1 X121.429 Y110.865 E0.01154
G1 X121.209 Y111.055 E0.00838
G1 X120.830 Y111.272 E0.01257
G1 X120.447 Y111.388 E0.01155
G1 X120.159 Y111.424 E0.00839
G1 X119.724 Y111.397 E0.01255
G1 X119.340 Y111.283 E0.01156
G1 X119.079 Y111.154 E0.00840
G1 X118.733 Y110.891 E0.01253
G1 X118.474 Y110.584 E0.01157
G1 X118.328 Y110.333 E0.00841
G1 X118.183 Y109.924 E0.01251
G1 X118.135 Y109.511 E0.01199
G1 X118.181 Y109.080 E0.01250
G1 X118.265 Y108.800 E0.00841
G1 X118.445 Y108.442 E0.01158
G1 X118.722 Y108.107 E0.01252
G1 X118.946 Y107.921 E0.00840
G1 X119.241 Y107.751 E0.00983
G1 X119.429 Y108.078 F10800.000
G1 F1200.000
G1 X119.785 Y107.965 E0.01078
G1 X120.007 Y107.941 E0.00644
G1 X120.333 Y107.961 E0.00940
G1 X120.675 Y108.062 E0.01029
G1 X120.873 Y108.164 E0.00644
G1 X121.134 Y108.360 E0.00940
G1 X121.364 Y108.633 E0.01030
G1 X121.472 Y108.828 E0.00643
G1 X121.582 Y109.134 E0.00940
G1 X121.624 Y109.493 E0.01040
G1 X121.588 Y109.816 E0.00939
G1 X121.528 Y110.030 E0.00642
G1 X121.367 Y110.350 E0.01032
G1 X121.159 Y110.600 E0.00939
G1 X120.990 Y110.746 E0.00644
G1 X120.680 Y110.923 E0.01030
G1 X120.368 Y111.018 E0.00940
G1 X120.147 Y111.046 E0.00644
G1 X119.791 Y111.023 E0.01029
G1 X119.478 Y110.930 E0.00940
G1 X119.278 Y110.831 E0.00644
G1 X118.994 Y110.616 E0.01028
G1 X118.784 Y110.367 E0.00941
G1 X118.672 Y110.174 E0.00644
G1 X118.553 Y109.838 E0.01027
G1 X118.515 Y109.509 E0.00956
G1 X118.552 Y109.155 E0.01027
G1 X118.617 Y108.941 E0.00645
G1 X118.763 Y108.649 E0.00941
G1 X118.990 Y108.374 E0.01028
G1 X119.162 Y108.232 E0.00644
G1 X119.377 Y108.108 E0.00717
G1 X119.474 Y107.707 F10800.000
G1 F8640.000
G1 X119.785 Y107.965 E-0.09988
G1 X120.007 Y107.941 E-0.05154
G1 X120.333 Y107.961 E-0.07525
G1 X120.675 Y108.062 E-0.08240
G1 X120.873 Y108.164 E-0.05152
G1 X121.134 Y108.360 E-0.07521
G1 X121.364 Y108.633 E-0.08247
G1 X121.472 Y108.828 E-0.05149
G1 X121.582 Y109.134 E-0.07523
G1 X121.624 Y109.493 E-0.08328
G1 X121.609 Y109.629 E-0.03173
G1 E-0.04000 F2100.00000
G1 Z0.800 F10800.000
G1 X130.535 Y109.511
G1 Z0.200
G1 E0.80000 F2100.00000
G1 F1200.000
G1 X130.581 Y109.080 E0.01250
G1 X130.665 Y108.800 E0.00841
G1 X130.845 Y108.442 E0.01158
G1 X131.122 Y108.107 E0.01252
G1 X131.346 Y107.921 E0.00840
G1 X131.693 Y107.721 E0.01156
G1 X132.109 Y107.594 E0.01255
G1 X132.399 Y107.562 E0.00839
G1 X132.798 Y107.587 E0.01155
G1 X133.216 Y107.710 E0.01257
G1 X133.474 Y107.844 E0.00839
G1 X133.794 Y108.084 E0.01154
G1 X134.076 Y108.417 E0.01259
G1 X134.217 Y108.671 E0.00838
G1 X134.352 Y109.048 E0.01154
G1 X134.404 Y109.491 E0.01289
G1 X134.360 Y109.888 E0.01152
G1 X134.281 Y110.167 E0.00836
G1 X134.084 Y110.558 E0.01261
G1 X133.829 Y110.865 E0.01154
G1 X133.609 Y111.055 E0.00838
G1 X133.230 Y111.272 E0.01257
G1 X132.847 Y111.388 E0.01155
G1 X132.559 Y111.424 E0.00839
G1 X132.124 Y111.397 E0.01255
G1 X131.740 Y111.283 E0.01156
G1 X131.479 Y111.154 E0.00840
G1 X131.133 Y110.891 E0.01253
G1 X130.874 Y110.585 E0.01157
G1 X130.728 Y110.333 E0.00841
G1 X130.583 Y109.924 E0.01251
G1 X130.542 Y109.570 E0.01026
G1 X130.917 Y109.526 F10800.000
G1 F1200.000
G1 X130.952 Y109.155 E0.01078
G1 X131.017 Y108.941 E0.00644
G1 X131.163 Y108.649 E0.00941
G1 X131.390 Y108.374 E0.01028
G1 X131.562 Y108.232 E0.00644
G1 X131.844 Y108.069 E0.00940
G1 X132.185 Y107.965 E0.01029
G1 X132.407 Y107.941 E0.00644
G1 X132.733 Y107.961 E0.00940
G1 X133.075 Y108.062 E0.01029
G1 X133.273 Y108.164 E0.00644
G1 X133.534 Y108.360 E0.00940
G1 X133.764 Y108.633 E0.01030
G1 X133.872 Y108.828 E0.00643
G1 X133.982 Y109.134 E0.00940
G1 X134.024 Y109.493 E0.01040
G1 X133.988 Y109.816 E0.00939
G1 X133.928 Y110.030 E0.00642
G1 X133.767 Y110.350 E0.01032
G1 X133.559 Y110.600 E0.00939
G1 X133.390 Y110.746 E0.00644
G1 X133.080 Y110.923 E0.01030
G1 X132.768 Y111.018 E0.00940
G1 X132.547 Y111.046 E0.00644
G1 X132.191 Y111.023 E0.01029
G1 X131.878 Y110.930 E0.00940
G1 X131.678 Y110.831 E0.00644
G1 X131.394 Y110.616 E0.01028
G1 X131.184 Y110.367 E0.00941
G1 X131.072 Y110.174 E0.00644
G1 X130.953 Y109.838 E0.01027
G1 X130.924 Y109.586 E0.00731
G1 X130.590 Y109.345 F10800.000
G1 F8640.000
G1 X130.952 Y109.155 E-0.09984
G1 X131.017 Y108.941 E-0.05159
G1 X131.163 Y108.649 E-0.07531
G1 X131.390 Y108.374 E-0.08228
G1 X131.562 Y108.232 E-0.05157
G1 X131.844 Y108.069 E-0.07528
G1 X132.185 Y107.965 E-0.08234
G1 X132.407 Y107.941 E-0.05154
G1 X132.733 Y107.961 E-0.07525
G1 X133.075 Y108.062 E-0.08241
G1 X133.200 Y108.126 E-0.03259
G1 E-0.04000 F2100.00000
G1 Z0.800 F10800.000
G1 X132.798 Y128.587
G1 Z0.200
G1 E0.80000 F2100.00000
G1 F1200.000
G1 X133.216 Y128.710 E0.01257
G1 X133.474 Y128.844 E0.00839
G1 X133.794 Y129.084 E0.01154
G1 X134.076 Y129.417 E0.01259
G1 X134.217 Y129.671 E0.00838
G1 X134.352 Y130.048 E0.01154
G1 X134.404 Y130.491 E0.01288
G1 X134.360 Y130.888 E0.01152
G1 X134.281 Y131.167 E0.00836
G1 X134.084 Y131.558 E0.01261
G1 X133.829 Y131.865 E0.01154
G1 X133.609 Y132.055 E0.00838
G1 X133.230 Y132.272 E0.01257
G1 X132.847 Y132.388 E0.01155
G1 X132.559 Y132.424 E0.00839
G1 X132.124 Y132.397 E0.01255
G1 X131.740 Y132.283 E0.01156
G1 X131.479 Y132.154 E0.00840
G1 X131.133 Y131.891 E0.01253
G1 X130.874 Y131.584 E0.01157
G1 X130.728 Y131.333 E0.00841
G1 X130.583 Y130.924 E0.01251
G1 X130.535 Y130.511 E0.01199
G1 X130.581 Y130.080 E0.01250
G1 X130.665 Y129.800 E0.00841
G1 X130.845 Y129.442 E0.01158
G1 X131.122 Y129.107 E0.01252
G1 X131.346 Y128.921 E0.00840
G1 X131.693 Y128.721 E0.01156
G1 X132.109 Y128.594 E0.01255
G1 X132.399 Y128.562 E0.00839
G1 X132.738 Y128.583 E0.00982
G1 X132.715 Y128.960 F10800.000
G1 F1200.000
G1 X133.075 Y129.062 E0.01078
G1 X133.273 Y129.164 E0.00644
G1 X133.534 Y129.360 E0.00940
G1 X133.764 Y129.633 E0.01030
G1 X133.872 Y129.828 E0.00643
G1 X133.982 Y130.134 E0.00940
G1 X134.024 Y130.493 E0.01040
G1 X133.988 Y130.816 E0.00939
G1 X133.928 Y131.030 E0.00642
G1 X133.767 Y131.350 E0.01032
G1 X133.559 Y131.600 E0.00939
G1 X133.390 Y131.746 E0.00643
G1 X133.080 Y131.923 E0.01030
G1 X132.768 Y132.018 E0.00940
G1 X132.547 Y132.046 E0.00644
G1 X132.191 Y132.023 E0.01029
G1 X131.878 Y131.930 E0.00940
G1 X131.678 Y131.831 E0.00644
G1 X131.394 Y131.616 E0.01028
G1 X131.184 Y131.367 E0.00941
G1 X131.072 Y131.174 E0.00644
G1 X130.953 Y130.838 E0.01027
G1 X130.915 Y130.509 E0.00956
G1 X130.952 Y130.155 E0.01027
G1 X131.017 Y129.941 E0.00644
G1 X131.163 Y129.649 E0.00941
G1 X131.390 Y129.374 E0.01028
G1 X131.562 Y129.232 E0.00644
G1 X131.844 Y129.069 E0.00940
G1 X132.185 Y128.965 E0.01029
G1 X132.407 Y128.941 E0.00644
G1 X132.655 Y128.956 E0.00717
G1 X132.957 Y128.675 F10800.000
G1 F8640.000
G1 X133.075 Y129.062 E-0.09990
G1 X133.273 Y129.164 E-0.05152
G1 X133.534 Y129.360 E-0.07521
G1 X133.764 Y129.633 E-0.08246
G1 X133.872 Y129.828 E-0.05150
G1 X133.982 Y130.134 E-0.07523
G1 X134.024 Y130.493 E-0.08328
G1 X133.988 Y130.816 E-0.07513
G1 X133.928 Y131.030 E-0.05137
G1 X133.767 Y131.350 E-0.08261
G1 X133.679 Y131.455 E-0.03180
G1 E-0.04000 F2100.00000
G1 Z0.800 F10800.000
G1 X121.952 Y130.048
G1 Z0.200
G1 E0.80000 F2100.00000
G1 F1200.000
G1 X122.004 Y130.491 E0.01288
G1 X121.960 Y130.888 E0.01152
G1 X121.881 Y131.167 E0.00836
G1 X121.684 Y131.558 E0.01261
G1 X121.429 Y131.865 E0.01154
G1 X121.209 Y132.055 E0.00838
G1 X120.830 Y132.272 E0.01257
G1 X120.447 Y132.388 E0.01155
G1 X120.159 Y132.424 E0.00839
G1 X119.724 Y132.397 E0.01255
G1 X119.340 Y132.283 E0.01156
G1 X119.079 Y132.154 E0.00840
G1 X118.733 Y131.891 E0.01253
G1 X118.474 Y131.584 E0.01157
G1 X118.328 Y131.333 E0.00841
G1 X118.183 Y130.923 E0.01251
G1 X118.135 Y130.511 E0.01199
G1 X118.181 Y130.080 E0.01250
G1 X118.265 Y129.801 E0.00841
G1 X118.445 Y129.442 E0.01158
G1 X118.722 Y129.107 E0.01253
G1 X118.946 Y128.921 E0.00840
G1 X119.293 Y128.721 E0.01156
G1 X119.709 Y128.594 E0.01255
G1 X119.999 Y128.562 E0.00839
G1 X120.398 Y128.587 E0.01155
G1 X120.816 Y128.710 E0.01257
G1 X121.074 Y128.844 E0.00839
G1 X121.394 Y129.084 E0.01154
G1 X121.676 Y129.417 E0.01259
G1 X121.817 Y129.671 E0.00838
G1 X121.931 Y129.991 E0.00980
G1 X121.576 Y130.118 F10800.000
G1 F1200.000
G1 X121.624 Y130.493 E0.01088
G1 X121.588 Y130.816 E0.00939
G1 X121.528 Y131.030 E0.00642
G1 X121.367 Y131.350 E0.01032
G1 X121.159 Y131.600 E0.00939
G1 X120.990 Y131.746 E0.00644
G1 X120.680 Y131.923 E0.01030
G1 X120.368 Y132.018 E0.00940
G1 X120.147 Y132.046 E0.00644
G1 X119.791 Y132.023 E0.01029
G1 X119.478 Y131.930 E0.00940
G1 X119.278 Y131.831 E0.00644
G1 X118.994 Y131.616 E0.01028
G1 X118.784 Y131.367 E0.00941
G1 X118.672 Y131.174 E0.00644
G1 X118.553 Y130.838 E0.01027
G1 X118.515 Y130.509 E0.00956
G1 X118.552 Y130.155 E0.01027
G1 X118.617 Y129.941 E0.00645
G1 X118.763 Y129.649 E0.00941
G1 X118.990 Y129.374 E0.01028
G1 X119.162 Y129.232 E0.00644
G1 X119.444 Y129.069 E0.00940
G1 X119.785 Y128.965 E0.01029
G1 X120.007 Y128.941 E0.00644
G1 X120.333 Y128.961 E0.00940
G1 X120.675 Y129.062 E0.01029
G1 X120.873 Y129.164 E0.00644
G1 X121.134 Y129.360 E0.00940
G1 X121.364 Y129.633 E0.01030
G1 X121.472 Y129.828 E0.00643
G1 X121.556 Y130.062 E0.00718
G1 X121.937 Y130.230 F10800.000
G1 F8640.000
G1 X121.624 Y130.493 E-0.10068
G1 X121.588 Y130.816 E-0.07513
G1 X121.528 Y131.030 E-0.05137
G1 X121.367 Y131.350 E-0.08261
G1 X121.159 Y131.600 E-0.07520
G1 X120.990 Y131.746 E-0.05151
G1 X120.680 Y131.923 E-0.08243
G1 X120.368 Y132.018 E-0.07523
G1 X120.147 Y132.046 E-0.05153
G1 X119.791 Y132.023 E-0.08237
G1 X119.658 Y131.984 E-0.03194
G1 E-0.04000 F2100.00000
G1 Z0.800 F10800.000
G1 X119.207 Y133.047
G1 Z0.200
G1 E0.80000 F2100.00000
G1 F1200.000
G1 X118.728 Y132.831 E0.01517
G1 X118.420 Y132.625 E0.01067
G1 X118.157 Y132.392 E0.01013
G1 X117.829 Y131.993 E0.01491
G1 X117.650 Y131.681 E0.01038
G1 X117.516 Y131.356 E0.01015
G1 X117.398 Y130.852 E0.01493
G1 X117.373 Y130.471 E0.01102
G1 X117.373 Y109.517 E0.60445
G1 X117.400 Y109.125 E0.01133
G1 X117.467 Y108.789 E0.00987
G1 X117.581 Y108.458 E0.01011
G1 X117.732 Y108.152 E0.00985
G1 X117.938 Y107.844 E0.01069
G1 X118.163 Y107.587 E0.00984
G1 X118.577 Y107.249 E0.01544
G1 X119.033 Y107.005 E0.01492
G1 X119.375 Y106.889 E0.01039
G1 X119.886 Y106.804 E0.01494
G1 X139.931 Y106.798 E0.57824
G1 X140.454 Y106.849 E0.01514
G1 X140.966 Y107.004 E0.01545
G1 X141.422 Y107.248 E0.01491
G1 X141.716 Y107.474 E0.01069
G1 X142.074 Y107.858 E0.01516
G1 X142.342 Y108.289 E0.01464
G1 X142.484 Y108.632 E0.01069
G1 X142.573 Y108.961 E0.00985
G1 X142.627 Y109.516 E0.01606
G1 X142.627 Y130.470 E0.60444
G1 X142.600 Y130.862 E0.01133
G1 X142.533 Y131.197 E0.00987
G1 X142.419 Y131.528 E0.01011
G1 X142.268 Y131.835 E0.00985
G1 X142.062 Y132.143 E0.01069
G1 X141.843 Y132.392 E0.00959
G1 X141.431 Y132.733 E0.01543
G1 X141.119 Y132.912 E0.01038
G1 X140.794 Y133.046 E0.01015
G1 X140.290 Y133.165 E0.01493
G1 X139.909 Y133.189 E0.01102
G1 X120.093 Y133.189 E0.57162
G1 X119.701 Y133.162 E0.01133
G1 X119.264 Y133.065 E0.01290
G1 X119.155 Y133.426 F10800.000
G1 F1200.000
G1 X118.883 Y133.328 E0.00834
G1 X118.538 Y133.158 E0.01108
G1 X118.190 Y132.924 E0.01211
G1 X117.890 Y132.659 E0.01155
G1 X117.636 Y132.370 E0.01109
G1 X117.512 Y132.197 E0.00614
G1 X117.311 Y131.847 E0.01164
G1 X117.158 Y131.477 E0.01156
G1 X117.058 Y131.106 E0.01110
G1 X117.023 Y130.896 E0.00614
G1 X116.996 Y130.483 E0.01193
G1 X116.996 Y109.504 E0.60517
G1 X117.025 Y109.075 E0.01240
G1 X117.158 Y108.509 E0.01675
G1 X117.234 Y108.307 E0.00624
G1 X117.405 Y107.963 E0.01108
G1 X117.638 Y107.614 E0.01211
G1 X117.892 Y107.325 E0.01108
G1 X118.047 Y107.179 E0.00614
G1 X118.368 Y106.934 E0.01165
G1 X118.701 Y106.742 E0.01109
G1 X118.894 Y106.654 E0.00614
G1 X119.277 Y106.524 E0.01164
G1 X119.654 Y106.449 E0.01110
G1 X119.866 Y106.427 E0.00615
G1 X139.944 Y106.421 E0.57916
G1 X140.334 Y106.447 E0.01128
G1 X140.528 Y106.479 E0.00567
G1 X140.738 Y106.529 E0.00624
G1 X141.105 Y106.653 E0.01118
G1 X141.299 Y106.742 E0.00615
G1 X141.632 Y106.934 E0.01108
G1 X141.965 Y107.190 E0.01211
G1 X142.237 Y107.462 E0.01108
G1 X142.374 Y107.629 E0.00624
G1 X142.681 Y108.122 E0.01675
G1 X142.842 Y108.510 E0.01211
G1 X142.942 Y108.881 E0.01108
G1 X142.977 Y109.091 E0.00614
G1 X143.004 Y109.503 E0.01193
G1 X143.004 Y130.483 E0.60517
G1 X142.975 Y130.912 E0.01241
G1 X142.842 Y131.477 E0.01675
G1 X142.766 Y131.679 E0.00624
G1 X142.595 Y132.024 E0.01108
G1 X142.362 Y132.373 E0.01211
G1 X142.110 Y132.659 E0.01099
G1 X141.808 Y132.926 E0.01165
G1 X141.635 Y133.050 E0.00613
G1 X141.285 Y133.251 E0.01164
G1 X140.915 Y133.404 E0.01156
G1 X140.544 Y133.504 E0.01110
G1 X140.334 Y133.540 E0.00614
G1 X139.921 Y133.567 E0.01193
G1 X120.080 Y133.567 E0.57234
G1 X119.650 Y133.537 E0.01241
G1 X119.213 Y133.443 E0.01292
G1 X119.086 Y133.145 F10800.000
G1 X118.992 Y132.826
G1 F1200.000
G1 X117.720 Y131.554 E0.05214
G1 F8640.000
G1 X118.992 Y132.826 E-0.41553
G1 E-0.38447 F2100.00000
G1 Z0.800 F10800.000
G1 X117.486 Y125.427
G1 Z0.200
G1 E0.80000 F2100.00000
G1 F1200.000
G1 X120.360 Y128.301 E0.11777
