; generated by PrusaSlicer 2.4.1+win64 on 2022-04-08 at 20:35:02 UTC


;
;

;
;
; 

; external perimeters extrusion width = 0.45mm
; perimeters extrusion width = 0.45mm
; infill extrusion width = 0.45mm
; solid infill extrusion width = 0.45mm
; top infill extrusion width = 0.40mm
; first layer extrusion width = 0.42mm

; external perimeters extrusion width = 0.45mm
; perimeters extrusion width = 0.45mm
; infill extrusion width = 0.45mm
; solid infill extrusion width = 0.45mm
; top infill extrusion width = 0.40mm
; first layer extrusion width = 0.42mm

M73 P0 R93
M107
;TYPE:Custom
M83  ; extruder relative mode
M140 S85 ; set bed temp
M109 S160 ; Set extruder temp before bed level
M190 S85 ; wait for bed temp

G28 W ; home all without mesh bed level
G80 N7 ; mesh bed leveling

M109 S240 ; wait for extruder temp

M221 S100 ; Set flow to 100

G1 Y-3.0 F1000.0 ; go outside print area
G92 E0.0
G1 E8 ; Purge Bubble
G1 X60.0 E9.0 F1000.0 ; intro line
G1 X100.0 E12.5 F1000.0 ; intro line
G92 E0.0
G21 ; set units to millimeters
G90 ; use absolute coordinates
M83 ; use relative distances for extrusion
M900 K0.08 ; Filament gcode LA 1.5
M900 K45 ; Filament gcode LA 1.0
M107
;LAYER_CHANGE
;Z:0.2
;HEIGHT:0.2
;BEFORE_LAYER_CHANGE
G92 E0.0
;0.2


G1 E-1 F2100
G1 Z.2 F720
;AFTER_LAYER_CHANGE
;0.2
G1 Z.4
G1 X90.227 Y74.091 F6000
G1 Z.2 F720
G1 E1 F2100
M204 S800
;TYPE:Skirt/Brim
;WIDTH:0.42
G1 F1200
G1 X90.64 Y73.727 E.01727
G1 X91.098 Y73.422 E.01727
G1 X91.866 Y73.083 E.02631
G1 X118.866 Y65.083 E.88294
G1 X119.832 Y64.898 E.03083
G1 X123.697 Y64.898 E.12119
G1 X124.629 Y65.074 E.02972
G1 X125.43 Y65.422 E.02739
G1 X174.303 Y95.547 E1.80011
G1 X175.124 Y96.257 E.03402
G1 X175.628 Y96.971 E.0274
G1 X176.025 Y97.996 E.03446
G1 X176.13 Y98.809 E.02569
G1 X176.13 Y111.047 E.38373
G1 X173.925 Y141.535 E.95842
G1 X173.722 Y142.536 E.03204
G1 X173.329 Y143.341 E.02809
G1 X172.781 Y144.015 E.02724
G1 X172.062 Y144.567 E.02842
G1 X171.09 Y144.976 E.03305
G1 X170.102 Y145.108 E.03126
G1 X77.702 Y145.108 E2.89714
G1 X76.714 Y144.976 E.03126
G1 X75.846 Y144.626 E.02935
G1 X75.023 Y144.015 E.03212
G1 X74.408 Y143.232 E.03125
G1 X73.998 Y142.26 E.03305
G1 X73.867 Y141.272 E.03126
G1 X73.867 Y105.672 E1.11621
G1 X73.957 Y104.859 E.02566
G1 X74.288 Y103.925 E.03106
G1 X89.736 Y74.694 E1.03664
G1 X90.189 Y74.138 E.02247
M204 S1000
; printing object build_helper_z_96mm.stl id:1 copy 0
;WIPE_START
G1 F4800
G1 X90.64 Y73.727 E-.2536
G1 X91.098 Y73.422 E-.22894
G1 X91.866 Y73.083 E-.34872
G1 X92.14 Y73.002 E-.11874
;WIPE_END
G1 E-.05 F2100
G1 Z.4 F720
G1 X93.016 Y125.069 F6000
G1 Z.2 F720
G1 E1 F2100
M204 S800
;TYPE:Perimeter
G1 F1200
G1 X94.491 Y126.506 E.06458
G1 X96.767 Y125.528 E.07766
G1 X96.864 Y125.513 E.00309
G1 X169.961 Y125.513 E2.29191
G1 X169.961 Y141.131 E.48968
G1 X166.706 Y141.131 E.10205
G1 X162.206 Y136.631 E.19954
G1 X85.598 Y136.631 E2.402
G1 X81.098 Y141.131 E.19954
G1 X77.843 Y141.131 E.10205
G1 X77.843 Y105.813 E1.10736
G1 X93.961 Y105.817 E.50535
G1 X93.961 Y122.668 E.52835
G1 X93.038 Y125.013 E.07903
M204 S1000
G1 X93.459 Y124.975 F6000
M204 S800
G1 F1200
G1 X94.574 Y126.06 E.04878
G1 X96.633 Y125.175 E.07029
G1 X96.84 Y125.136 E.0066
G1 X170.138 Y125.143 E2.29822
G1 X170.208 Y125.165 E.00228
G1 X170.29 Y125.236 E.0034
G1 X170.323 Y125.3 E.00228
G1 X170.338 Y125.418 E.00371
G1 X170.332 Y141.308 E.49824
G1 X170.29 Y141.409 E.0034
G1 X170.239 Y141.46 E.00228
G1 X170.174 Y141.493 E.00228
G1 X170.056 Y141.508 E.00371
G1 X166.694 Y141.508 E.10544
G1 X166.542 Y141.479 E.00483
G1 X166.449 Y141.407 E.00371
G1 X162.05 Y137.008 E.19504
G1 X85.754 Y137.008 E2.3922
G1 X81.356 Y141.407 E.19504
G1 X81.262 Y141.479 E.00371
G1 X81.111 Y141.508 E.00483
G1 X77.748 Y141.508 E.10544
G1 X77.63 Y141.493 E.00371
G1 X77.514 Y141.409 E.0045
G1 X77.481 Y141.344 E.00228
G1 X77.466 Y141.226 E.00371
G1 X77.466 Y105.718 E1.11334
G1 X77.495 Y105.567 E.00483
G1 X77.566 Y105.484 E.0034
G1 X77.63 Y105.451 E.00228
G1 X77.748 Y105.436 E.00371
G1 X94.103 Y105.44 E.51281
G1 X94.208 Y105.465 E.00337
G1 X94.29 Y105.536 E.0034
G1 X94.323 Y105.6 E.00228
G1 X94.338 Y105.718 E.00371
G1 X94.338 Y122.69 E.53213
G1 X94.297 Y122.876 E.00598
G1 X93.481 Y124.919 E.06897
M204 S1000
G1 X93.903 Y124.88 F6000
M204 S800
G1 F1200
G1 X94.656 Y125.614 E.03298
G1 X96.5 Y124.822 E.06292
G1 X96.614 Y124.785 E.00377
G1 X96.816 Y124.759 E.00639
G1 X170.198 Y124.769 E2.30082
G1 X170.379 Y124.828 E.00599
G1 X170.534 Y124.94 E.00599
G1 X170.596 Y125.013 E.003
G1 X170.683 Y125.183 E.00599
G1 X170.715 Y125.403 E.00696
G1 X170.705 Y141.368 E.50056
G1 X170.646 Y141.549 E.00599
G1 X170.534 Y141.704 E.00599
G1 X170.379 Y141.816 E.00599
G1 X170.198 Y141.875 E.00599
G1 X166.679 Y141.885 E.11034
G1 X166.552 Y141.875 E.00398
G1 X166.371 Y141.816 E.00599
G1 X166.192 Y141.684 E.00696
G1 X161.894 Y137.385 E.19061
G1 X85.91 Y137.385 E2.38241
G1 X81.612 Y141.684 E.19061
M73 P1 R92
G1 X81.434 Y141.816 E.00696
G1 X81.252 Y141.875 E.00599
G1 X81.126 Y141.885 E.00398
G1 X77.733 Y141.885 E.10637
G1 X77.514 Y141.853 E.00696
G1 X77.343 Y141.766 E.00599
G1 X77.208 Y141.631 E.00599
G1 X77.122 Y141.461 E.00599
G1 X77.089 Y141.241 E.00696
G1 X77.089 Y105.703 E1.11427
G1 X77.099 Y105.577 E.00398
G1 X77.158 Y105.395 E.00599
G1 X77.271 Y105.24 E.00599
G1 X77.343 Y105.178 E.003
G1 X77.514 Y105.092 E.00599
G1 X77.733 Y105.059 E.00696
G1 X94.118 Y105.063 E.51374
G1 X94.291 Y105.092 E.00549
G1 X94.379 Y105.128 E.003
G1 X94.461 Y105.178 E.003
G1 X94.596 Y105.313 E.00599
G1 X94.683 Y105.484 E.00599
G1 X94.715 Y105.703 E.00696
G1 X94.715 Y122.701 E.53297
G1 X94.656 Y122.994 E.00935
G1 X93.925 Y124.825 E.06182
M204 S1000
G1 X94.346 Y124.786 F6000
M204 S800
;TYPE:External perimeter
G1 F1200
G1 X94.739 Y125.168 E.01718
G1 X96.367 Y124.469 E.05555
G1 X96.531 Y124.415 E.00542
G1 X96.793 Y124.382 E.00826
G1 X170.086 Y124.382 E2.29807
G1 X170.257 Y124.396 E.00537
G1 X170.551 Y124.491 E.0097
G1 X170.801 Y124.673 E.0097
G1 X170.902 Y124.791 E.00486
G1 X171.043 Y125.067 E.0097
G1 X171.079 Y125.217 E.00486
G1 X171.092 Y125.388 E.00537
G1 X171.092 Y141.256 E.49752
G1 X171.079 Y141.427 E.00537
G1 X170.983 Y141.721 E.0097
G1 X170.801 Y141.971 E.0097
G1 X170.551 Y142.153 E.0097
G1 X170.257 Y142.249 E.0097
G1 X170.086 Y142.262 E.00537
G1 X166.664 Y142.262 E.1073
G1 X166.493 Y142.249 E.00537
G1 X166.342 Y142.212 E.00486
G1 X166.067 Y142.072 E.0097
G1 X165.936 Y141.961 E.00537
G1 X161.738 Y137.762 E.18617
G1 X86.067 Y137.762 E2.37261
G1 X81.868 Y141.961 E.18617
G1 X81.738 Y142.072 E.00537
G1 X81.605 Y142.153 E.00486
G1 X81.311 Y142.249 E.0097
G1 X81.14 Y142.262 E.00537
G1 X77.718 Y142.262 E.1073
G1 X77.548 Y142.249 E.00537
G1 X77.397 Y142.212 E.00486
G1 X77.121 Y142.072 E.0097
G1 X76.902 Y141.853 E.0097
G1 X76.762 Y141.578 E.0097
G1 X76.726 Y141.427 E.00486
G1 X76.712 Y141.256 E.00537
G1 X76.712 Y105.688 E1.1152
G1 X76.726 Y105.517 E.00537
G1 X76.762 Y105.367 E.00486
G1 X76.821 Y105.223 E.00486
G1 X77.003 Y104.973 E.0097
G1 X77.253 Y104.791 E.0097
G1 X77.397 Y104.732 E.00487
G1 X77.548 Y104.696 E.00486
G1 X77.718 Y104.682 E.00537
G1 X94.133 Y104.686 E.51467
G1 X94.408 Y104.732 E.00873
G1 X94.551 Y104.791 E.00486
G1 X94.801 Y104.973 E.0097
G1 X94.902 Y105.091 E.00486
G1 X95.043 Y105.367 E.0097
G1 X95.079 Y105.517 E.00486
G1 X95.092 Y105.688 E.00537
G1 X95.092 Y122.713 E.53381
G1 X95.084 Y122.844 E.00411
G1 X95.015 Y123.111 E.00865
G1 X94.369 Y124.73 E.05466
M204 S1000
G1 X94.109 Y125.108 F6000
;WIPE_START
G1 F4800
G1 X94.739 Y125.168 E-.23838
G1 X96.312 Y124.493 E-.71162
;WIPE_END
G1 E-.05 F2100
G1 Z.4 F720
G1 X169.084 Y125.627 F6000
G1 Z.2 F720
G1 E1 F2100
M204 S800
;TYPE:Solid infill
;WIDTH:0.420599
G1 F1200
G1 X169.678 Y126.22 E.02637
G1 X169.678 Y126.754 E.01677
G1 X168.72 Y125.796 E.04256
G1 X168.186 Y125.796 E.01677
G1 X169.678 Y127.289 E.06628
G1 X169.678 Y127.823 E.01677
G1 X167.652 Y125.796 E.09
G1 X167.118 Y125.796 E.01677
G1 X169.678 Y128.357 E.11372
G1 X169.678 Y128.891 E.01677
G1 X166.583 Y125.796 E.13745
G1 X166.049 Y125.796 E.01677
G1 X169.678 Y129.425 E.16117
G1 X169.678 Y129.959 E.01677
G1 X165.515 Y125.796 E.18489
G1 X164.981 Y125.796 E.01677
G1 X169.678 Y130.493 E.20861
G1 X169.678 Y131.027 E.01677
G1 X164.447 Y125.796 E.23233
G1 X163.913 Y125.796 E.01677
G1 X169.678 Y131.562 E.25605
G1 X169.678 Y132.096 E.01677
G1 X163.379 Y125.796 E.27977
G1 X162.845 Y125.796 E.01677
G1 X169.678 Y132.63 E.30349
G1 X169.678 Y133.164 E.01677
G1 X162.31 Y125.796 E.32722
G1 X161.776 Y125.796 E.01677
G1 X169.678 Y133.698 E.35094
G1 X169.678 Y134.232 E.01677
G1 X161.242 Y125.796 E.37466
G1 X160.708 Y125.796 E.01677
G1 X169.678 Y134.766 E.39838
G1 X169.678 Y135.3 E.01677
G1 X160.174 Y125.796 E.4221
G1 X159.64 Y125.796 E.01677
G1 X169.678 Y135.834 E.44582
G1 X169.678 Y136.369 E.01677
G1 X159.106 Y125.796 E.46954
G1 X158.572 Y125.796 E.01677
G1 X169.678 Y136.903 E.49327
G1 X169.678 Y137.437 E.01677
G1 X158.037 Y125.796 E.51699
G1 X157.503 Y125.796 E.01677
G1 X169.678 Y137.971 E.54071
G1 X169.678 Y138.505 E.01677
G1 X156.969 Y125.796 E.56443
G1 X156.435 Y125.796 E.01677
G1 X169.678 Y139.039 E.58815
G1 X169.678 Y139.573 E.01677
G1 X155.901 Y125.796 E.61187
G1 X155.367 Y125.796 E.01677
G1 X169.678 Y140.107 E.63559
G1 X169.678 Y140.642 E.01677
G1 X154.833 Y125.796 E.65932
G1 X154.299 Y125.796 E.01677
G1 X169.351 Y140.848 E.66849
G1 X168.816 Y140.848 E.01677
G1 X153.765 Y125.796 E.66849
G1 X153.23 Y125.796 E.01677
G1 X168.282 Y140.848 E.66849
G1 X167.748 Y140.848 E.01677
G1 X152.696 Y125.796 E.66848
G1 X152.162 Y125.796 E.01677
G1 X167.214 Y140.848 E.66848
G1 X166.823 Y140.848 E.01226
G1 X162.323 Y136.348 E.19985
G1 X162.18 Y136.348 E.0045
G1 X151.628 Y125.796 E.46863
G1 X151.094 Y125.796 E.01677
G1 X161.646 Y136.348 E.46863
G1 X161.112 Y136.348 E.01677
G1 X150.56 Y125.796 E.46863
G1 X150.026 Y125.796 E.01677
G1 X160.578 Y136.348 E.46863
G1 X160.044 Y136.348 E.01677
G1 X149.492 Y125.796 E.46863
G1 X148.957 Y125.796 E.01677
G1 X159.509 Y136.348 E.46863
G1 X158.975 Y136.348 E.01677
G1 X148.423 Y125.796 E.46863
G1 X147.889 Y125.796 E.01677
G1 X158.441 Y136.348 E.46863
G1 X157.907 Y136.348 E.01677
G1 X147.355 Y125.796 E.46863
G1 X146.821 Y125.796 E.01677
G1 X157.373 Y136.348 E.46863
G1 X156.839 Y136.348 E.01677
G1 X146.287 Y125.796 E.46863
G1 X145.753 Y125.796 E.01677
G1 X156.305 Y136.348 E.46863
G1 X155.771 Y136.348 E.01677
G1 X145.219 Y125.796 E.46863
G1 X144.685 Y125.796 E.01677
G1 X155.236 Y136.348 E.46863
G1 X154.702 Y136.348 E.01677
G1 X144.15 Y125.796 E.46863
G1 X143.616 Y125.796 E.01677
G1 X154.168 Y136.348 E.46863
G1 X153.634 Y136.348 E.01677
G1 X143.082 Y125.796 E.46863
G1 X142.548 Y125.796 E.01677
M73 P2 R92
G1 X153.1 Y136.348 E.46863
G1 X152.566 Y136.348 E.01677
G1 X142.014 Y125.796 E.46863
G1 X141.48 Y125.796 E.01677
G1 X152.032 Y136.348 E.46863
G1 X151.498 Y136.348 E.01677
G1 X140.946 Y125.796 E.46863
G1 X140.412 Y125.796 E.01677
G1 X150.963 Y136.348 E.46863
G1 X150.429 Y136.348 E.01677
G1 X139.877 Y125.796 E.46863
G1 X139.343 Y125.796 E.01677
M73 P2 R91
G1 X149.895 Y136.348 E.46863
G1 X149.361 Y136.348 E.01677
G1 X138.809 Y125.796 E.46863
G1 X138.275 Y125.796 E.01677
G1 X148.827 Y136.348 E.46863
G1 X148.293 Y136.348 E.01677
G1 X137.741 Y125.796 E.46863
G1 X137.207 Y125.796 E.01677
G1 X147.759 Y136.348 E.46863
G1 X147.225 Y136.348 E.01677
G1 X136.673 Y125.796 E.46863
G1 X136.139 Y125.796 E.01677
G1 X146.691 Y136.348 E.46863
G1 X146.156 Y136.348 E.01677
G1 X135.604 Y125.796 E.46863
G1 X135.07 Y125.796 E.01677
G1 X145.622 Y136.348 E.46863
G1 X145.088 Y136.348 E.01677
G1 X134.536 Y125.796 E.46863
G1 X134.002 Y125.796 E.01677
G1 X144.554 Y136.348 E.46863
G1 X144.02 Y136.348 E.01677
G1 X133.468 Y125.796 E.46863
G1 X132.934 Y125.796 E.01677
G1 X143.486 Y136.348 E.46863
G1 X142.952 Y136.348 E.01677
G1 X132.4 Y125.796 E.46863
G1 X131.866 Y125.796 E.01677
G1 X142.418 Y136.348 E.46863
G1 X141.883 Y136.348 E.01677
G1 X131.332 Y125.796 E.46863
G1 X130.797 Y125.796 E.01677
G1 X141.349 Y136.348 E.46863
G1 X140.815 Y136.348 E.01677
G1 X130.263 Y125.796 E.46863
G1 X129.729 Y125.796 E.01677
G1 X140.281 Y136.348 E.46863
G1 X139.747 Y136.348 E.01677
G1 X129.195 Y125.796 E.46863
G1 X128.661 Y125.796 E.01677
G1 X139.213 Y136.348 E.46863
G1 X138.679 Y136.348 E.01677
G1 X128.127 Y125.796 E.46863
G1 X127.593 Y125.796 E.01677
G1 X138.145 Y136.348 E.46863
G1 X137.611 Y136.348 E.01677
G1 X127.059 Y125.796 E.46863
G1 X126.524 Y125.796 E.01677
G1 X137.076 Y136.348 E.46863
G1 X136.542 Y136.348 E.01677
G1 X125.99 Y125.796 E.46863
G1 X125.456 Y125.796 E.01677
G1 X136.008 Y136.348 E.46863
G1 X135.474 Y136.348 E.01677
G1 X124.922 Y125.796 E.46863
G1 X124.388 Y125.796 E.01677
G1 X134.94 Y136.348 E.46863
G1 X134.406 Y136.348 E.01677
G1 X123.854 Y125.796 E.46863
G1 X123.32 Y125.796 E.01677
G1 X133.872 Y136.348 E.46863
G1 X133.338 Y136.348 E.01677
G1 X122.786 Y125.796 E.46863
G1 X122.252 Y125.796 E.01677
G1 X132.803 Y136.348 E.46863
G1 X132.269 Y136.348 E.01677
G1 X121.717 Y125.796 E.46863
G1 X121.183 Y125.796 E.01677
G1 X131.735 Y136.348 E.46863
G1 X131.201 Y136.348 E.01677
G1 X120.649 Y125.796 E.46863
G1 X120.115 Y125.796 E.01677
G1 X130.667 Y136.348 E.46863
G1 X130.133 Y136.348 E.01677
G1 X119.581 Y125.796 E.46863
G1 X119.047 Y125.796 E.01677
G1 X129.599 Y136.348 E.46863
G1 X129.065 Y136.348 E.01677
G1 X118.513 Y125.796 E.46863
G1 X117.979 Y125.796 E.01677
G1 X128.531 Y136.348 E.46863
G1 X127.996 Y136.348 E.01677
G1 X117.444 Y125.796 E.46863
G1 X116.91 Y125.796 E.01677
G1 X127.462 Y136.348 E.46863
G1 X126.928 Y136.348 E.01677
G1 X116.376 Y125.796 E.46863
G1 X115.842 Y125.796 E.01677
G1 X126.394 Y136.348 E.46863
G1 X125.86 Y136.348 E.01677
G1 X115.308 Y125.796 E.46863
G1 X114.774 Y125.796 E.01677
G1 X125.326 Y136.348 E.46863
G1 X124.792 Y136.348 E.01677
G1 X114.24 Y125.796 E.46863
G1 X113.706 Y125.796 E.01677
G1 X124.258 Y136.348 E.46863
G1 X123.723 Y136.348 E.01677
G1 X113.172 Y125.796 E.46863
G1 X112.637 Y125.796 E.01677
G1 X123.189 Y136.348 E.46863
G1 X122.655 Y136.348 E.01677
G1 X112.103 Y125.796 E.46863
G1 X111.569 Y125.796 E.01677
G1 X122.121 Y136.348 E.46863
G1 X121.587 Y136.348 E.01677
G1 X111.035 Y125.796 E.46863
G1 X110.501 Y125.796 E.01677
G1 X121.053 Y136.348 E.46863
G1 X120.519 Y136.348 E.01677
G1 X109.967 Y125.796 E.46863
G1 X109.433 Y125.796 E.01677
G1 X119.985 Y136.348 E.46863
G1 X119.45 Y136.348 E.01677
G1 X108.899 Y125.796 E.46863
G1 X108.364 Y125.796 E.01677
G1 X118.916 Y136.348 E.46863
G1 X118.382 Y136.348 E.01677
G1 X107.83 Y125.796 E.46863
G1 X107.296 Y125.796 E.01677
G1 X117.848 Y136.348 E.46863
G1 X117.314 Y136.348 E.01677
G1 X106.762 Y125.796 E.46863
G1 X106.228 Y125.796 E.01677
G1 X116.78 Y136.348 E.46863
G1 X116.246 Y136.348 E.01677
G1 X105.694 Y125.796 E.46863
G1 X105.16 Y125.796 E.01677
G1 X115.712 Y136.348 E.46863
G1 X115.178 Y136.348 E.01677
G1 X104.626 Y125.796 E.46863
G1 X104.091 Y125.796 E.01677
M73 P3 R91
G1 X114.643 Y136.348 E.46863
G1 X114.109 Y136.348 E.01677
G1 X103.557 Y125.796 E.46863
G1 X103.023 Y125.796 E.01677
G1 X113.575 Y136.348 E.46863
G1 X113.041 Y136.348 E.01677
G1 X102.489 Y125.796 E.46863
G1 X101.955 Y125.796 E.01677
G1 X112.507 Y136.348 E.46863
G1 X111.973 Y136.348 E.01677
G1 X101.421 Y125.796 E.46863
G1 X100.887 Y125.796 E.01677
G1 X111.439 Y136.348 E.46863
G1 X110.905 Y136.348 E.01677
G1 X100.353 Y125.796 E.46863
G1 X99.819 Y125.796 E.01677
G1 X110.37 Y136.348 E.46863
G1 X109.836 Y136.348 E.01677
G1 X99.284 Y125.796 E.46863
G1 X98.75 Y125.796 E.01677
G1 X109.302 Y136.348 E.46863
G1 X108.768 Y136.348 E.01677
M73 P3 R90
G1 X98.216 Y125.796 E.46863
G1 X97.682 Y125.796 E.01677
G1 X108.234 Y136.348 E.46863
G1 X107.7 Y136.348 E.01677
G1 X97.148 Y125.796 E.46863
G1 X96.845 Y125.802 E.00951
G1 X96.688 Y125.87 E.00538
G1 X107.166 Y136.348 E.46535
G1 X106.632 Y136.348 E.01677
G1 X96.314 Y126.031 E.45822
G1 X95.941 Y126.191 E.01277
G1 X106.098 Y136.348 E.45109
G1 X105.563 Y136.348 E.01677
G1 X95.567 Y126.352 E.44396
G1 X95.193 Y126.512 E.01277
G1 X105.029 Y136.348 E.43683
G1 X104.495 Y136.348 E.01677
G1 X94.691 Y126.544 E.43544
M204 S1000
;WIPE_START
G1 F4800
G1 X96.307 Y128.16 E-.95
;WIPE_END
G1 E-.05 F2100
