; generated by PrusaSlicer 2.2.0+ on 2020-04-13 at 18:18:17 UTC

; 

; external perimeters extrusion width = 0.55mm
; perimeters extrusion width = 0.55mm
; infill extrusion width = 0.55mm
; solid infill extrusion width = 0.55mm
; top infill extrusion width = 0.50mm
; first layer extrusion width = 0.42mm

M73 P0 R67
M201 X9000 Y9000 Z500 E10000 ; sets maximum accelerations, mm/sec^2
M203 X500 Y500 Z12 E120 ; sets maximum feedrates, mm/sec
M204 P2000 R1500 T2000 ; sets acceleration (P, T) and retract acceleration (R), mm/sec^2
M205 X10.00 Y10.00 Z0.20 E2.50 ; sets the jerk limits, mm/sec
M205 S0 T0 ; sets the minimum extruding and travel feed rate, mm/sec
M107
M83  ; extruder relative mode
M140 S85 ; set bed temp
M109 S160 ; Set extruder temp before bed level
M190 S85 ; wait for bed temp

G28 W ; home all without mesh bed level
G80 N7 ; mesh bed leveling

M109 S265 ; wait for extruder temp

M221 S100 ; Set flow to 100

G1 Y-3.0 F1000.0 ; go outside print area
G92 E0.0
G1 E8 ; Purge Bubble
M73 P0 R67
G1 X60.0 E9.0 F1000.0 ; intro line
G1 X100.0 E12.5 F1000.0 ; intro line
G92 E0.0
G21 ; set units to millimeters
G90 ; use absolute coordinates
M83 ; use relative distances for extrusion
M900 K37; Filament gcode
;BEFORE_LAYER_CHANGE
G92 E0.0
;0.2


G1 E-0.80000 F2100.00000
G1 Z0.600 F10800.000
;AFTER_LAYER_CHANGE
;0.2
G1 X40.014 Y62.307
G1 Z0.200
G1 E0.80000 F2100.00000
M204 S1000
G1 F3600.000
G1 X40.279 Y62.165 E0.00932
G1 X40.563 Y62.069 E0.00932
G1 X40.859 Y62.020 E0.00932
G1 X41.159 Y62.022 E0.00932
G1 X41.455 Y62.073 E0.00932
G1 X41.738 Y62.172 E0.00932
G1 X42.001 Y62.317 E0.00932
G1 X42.237 Y62.503 E0.00932
G1 X42.438 Y62.725 E0.00932
G1 X42.600 Y62.978 E0.00932
G1 X42.710 Y63.235 E0.00868
G1 X43.585 Y65.718 E0.08172
G1 X44.537 Y68.150 E0.08108
G1 X45.572 Y70.549 E0.08109
G1 X46.689 Y72.910 E0.08109
G1 X47.885 Y75.232 E0.08108
G1 X49.161 Y77.512 E0.08109
G1 X50.514 Y79.746 E0.08108
G1 X51.943 Y81.933 E0.08108
G1 X53.196 Y83.716 E0.06763
G1 X55.022 Y86.154 E0.09455
G1 X56.667 Y88.182 E0.08107
G1 X58.382 Y90.152 E0.08109
G1 X60.163 Y92.063 E0.08109
G1 X61.715 Y93.618 E0.06818
G1 X63.917 Y95.697 E0.09400
G1 X65.884 Y97.414 E0.08107
G1 X67.910 Y99.064 E0.08108
G1 X69.991 Y100.643 E0.08108
G1 X72.125 Y102.150 E0.08108
G1 X74.309 Y103.582 E0.08108
G1 X76.541 Y104.940 E0.08108
G1 X78.818 Y106.219 E0.08108
G1 X81.138 Y107.420 E0.08110
G1 X83.872 Y108.725 E0.09404
G1 X86.646 Y109.945 E0.09405
G1 X89.455 Y111.080 E0.09405
G1 X92.299 Y112.128 E0.09405
G1 X95.172 Y113.088 E0.09405
G1 X98.075 Y113.959 E0.09405
G1 X101.002 Y114.741 E0.09405
G1 X103.952 Y115.432 E0.09405
G1 X106.922 Y116.033 E0.09405
G1 X109.909 Y116.542 E0.09405
G1 X112.910 Y116.960 E0.09405
G1 X115.494 Y117.238 E0.08067
G1 X118.944 Y117.517 E0.10745
G1 X121.970 Y117.657 E0.09404
G1 X125.000 Y117.703 E0.09405
G1 X128.030 Y117.657 E0.09405
G1 X131.056 Y117.517 E0.09405
G1 X134.078 Y117.285 E0.09405
G1 X137.090 Y116.960 E0.09405
G1 X140.091 Y116.542 E0.09405
G1 X143.078 Y116.033 E0.09405
G1 X146.048 Y115.432 E0.09405
G1 X148.998 Y114.741 E0.09405
G1 X151.925 Y113.959 E0.09405
G1 X154.828 Y113.088 E0.09405
G1 X157.701 Y112.128 E0.09405
G1 X160.545 Y111.080 E0.09405
G1 X163.354 Y109.945 E0.09405
G1 X166.128 Y108.725 E0.09405
G1 X168.862 Y107.420 E0.09404
G1 X171.182 Y106.219 E0.08110
G1 X173.459 Y104.940 E0.08108
G1 X175.691 Y103.582 E0.08108
G1 X177.875 Y102.150 E0.08108
G1 X180.009 Y100.643 E0.08108
G1 X182.090 Y99.064 E0.08108
G1 X184.116 Y97.414 E0.08108
G1 X186.084 Y95.696 E0.08109
G1 X188.296 Y93.608 E0.09445
G1 X189.837 Y92.063 E0.06772
G1 X191.618 Y90.152 E0.08109
G1 X193.333 Y88.182 E0.08109
G1 X194.979 Y86.153 E0.08109
G1 X196.554 Y84.069 E0.08109
G1 X198.057 Y81.933 E0.08108
G1 X199.486 Y79.746 E0.08109
G1 X200.839 Y77.512 E0.08107
G1 X202.115 Y75.232 E0.08109
G1 X203.311 Y72.910 E0.08108
G1 X204.428 Y70.549 E0.08108
G1 X205.463 Y68.150 E0.08108
G1 X206.415 Y65.718 E0.08109
G1 X207.290 Y63.235 E0.08172
G1 X207.400 Y62.978 E0.00868
G1 X207.562 Y62.725 E0.00932
G1 X207.763 Y62.503 E0.00932
G1 X207.999 Y62.317 E0.00932
G1 X208.262 Y62.172 E0.00932
G1 X208.548 Y62.072 E0.00940
G1 X208.893 Y62.022 E0.01084
G1 X209.141 Y62.020 E0.00769
G1 X209.437 Y62.069 E0.00932
G1 X209.721 Y62.165 E0.00932
G1 X209.986 Y62.307 E0.00932
G1 X210.223 Y62.490 E0.00932
G1 X210.427 Y62.711 E0.00932
G1 X210.592 Y62.962 E0.00932
G1 X210.713 Y63.236 E0.00932
G1 X210.787 Y63.527 E0.00932
G1 X210.810 Y63.809 E0.00879
G1 X210.810 Y71.516 E0.23923
G1 X210.763 Y74.350 E0.08797
G1 X210.622 Y77.184 E0.08808
G1 X210.388 Y80.012 E0.08808
G1 X210.060 Y82.831 E0.08808
G1 X209.640 Y85.637 E0.08808
G1 X209.126 Y88.428 E0.08808
G1 X208.521 Y91.200 E0.08808
G1 X207.825 Y93.951 E0.08808
G1 X207.037 Y96.677 E0.08808
G1 X206.161 Y99.376 E0.08808
G1 X205.195 Y102.044 E0.08808
G1 X204.142 Y104.679 E0.08808
G1 X203.002 Y107.277 E0.08808
G1 X201.777 Y109.837 E0.08808
G1 X200.468 Y112.354 E0.08808
G1 X199.076 Y114.827 E0.08808
G1 X197.603 Y117.253 E0.08808
G1 X196.051 Y119.628 E0.08808
G1 X194.422 Y121.951 E0.08808
G1 X192.716 Y124.219 E0.08808
G1 X190.937 Y126.429 E0.08808
G1 X189.085 Y128.579 E0.08808
G1 X187.163 Y130.667 E0.08808
G1 X185.173 Y132.690 E0.08808
G1 X183.118 Y134.646 E0.08808
G1 X180.998 Y136.533 E0.08808
G1 X178.818 Y138.349 E0.08808
G1 X176.579 Y140.091 E0.08808
G1 X174.283 Y141.759 E0.08808
G1 X171.934 Y143.350 E0.08808
G1 X169.533 Y144.863 E0.08808
G1 X167.083 Y146.295 E0.08808
G1 X164.588 Y147.646 E0.08808
G1 X162.049 Y148.913 E0.08808
G1 X159.470 Y150.096 E0.08808
G1 X156.852 Y151.192 E0.08808
G1 X154.201 Y152.202 E0.08808
G1 X151.517 Y153.123 E0.08808
G1 X148.804 Y153.955 E0.08808
G1 X146.065 Y154.697 E0.08808
G1 X143.303 Y155.348 E0.08808
G1 X140.521 Y155.908 E0.08808
G1 X137.723 Y156.375 E0.08808
G1 X134.910 Y156.749 E0.08808
G1 X132.086 Y157.030 E0.08808
G1 X129.255 Y157.218 E0.08808
G1 X126.419 Y157.311 E0.08808
G1 X123.581 Y157.311 E0.08808
G1 X120.745 Y157.218 E0.08808
G1 X117.914 Y157.030 E0.08808
G1 X115.090 Y156.749 E0.08808
G1 X112.277 Y156.375 E0.08808
G1 X109.479 Y155.908 E0.08808
G1 X106.697 Y155.348 E0.08808
G1 X103.935 Y154.697 E0.08808
G1 X101.196 Y153.955 E0.08808
G1 X98.483 Y153.123 E0.08808
G1 X95.799 Y152.202 E0.08808
G1 X93.148 Y151.192 E0.08808
G1 X90.530 Y150.096 E0.08808
G1 X87.951 Y148.913 E0.08808
G1 X85.412 Y147.646 E0.08808
G1 X82.917 Y146.295 E0.08808
G1 X80.467 Y144.863 E0.08808
G1 X78.066 Y143.350 E0.08808
G1 X75.717 Y141.759 E0.08808
G1 X73.421 Y140.091 E0.08808
G1 X71.182 Y138.349 E0.08808
G1 X69.002 Y136.533 E0.08808
G1 X66.882 Y134.646 E0.08808
G1 X64.827 Y132.690 E0.08808
G1 X62.837 Y130.667 E0.08808
G1 X60.915 Y128.579 E0.08808
G1 X59.063 Y126.429 E0.08808
G1 X57.284 Y124.219 E0.08808
G1 X55.578 Y121.951 E0.08808
G1 X53.949 Y119.628 E0.08808
G1 X52.397 Y117.253 E0.08808
G1 X50.924 Y114.827 E0.08808
G1 X49.532 Y112.354 E0.08808
G1 X48.223 Y109.837 E0.08808
G1 X46.998 Y107.277 E0.08808
G1 X45.858 Y104.679 E0.08808
G1 X44.805 Y102.044 E0.08808
G1 X43.839 Y99.376 E0.08808
G1 X42.963 Y96.677 E0.08808
G1 X42.175 Y93.951 E0.08808
G1 X41.479 Y91.200 E0.08808
G1 X40.874 Y88.428 E0.08808
G1 X40.360 Y85.637 E0.08808
G1 X39.940 Y82.831 E0.08808
G1 X39.612 Y80.012 E0.08808
G1 X39.378 Y77.184 E0.08808
G1 X39.237 Y74.350 E0.08808
G1 X39.190 Y71.516 E0.08797
G1 X39.190 Y63.809 E0.23923
G1 X39.213 Y63.527 E0.00879
G1 X39.287 Y63.236 E0.00932
G1 X39.408 Y62.962 E0.00932
G1 X39.573 Y62.711 E0.00932
G1 X39.777 Y62.490 E0.00932
G1 X39.967 Y62.344 E0.00745
G1 X39.999 Y62.007 F10800.000
G1 F8640.000
G1 X40.279 Y62.165 E-0.08300
G1 X40.563 Y62.069 E-0.06930
G1 X40.859 Y62.020 E-0.06930
G1 X41.159 Y62.022 E-0.06930
G1 X41.455 Y62.073 E-0.06930
G1 X41.738 Y62.172 E-0.06930
G1 X42.001 Y62.317 E-0.06930
G1 X42.237 Y62.503 E-0.06930
G1 X42.438 Y62.725 E-0.06930
G1 X42.600 Y62.978 E-0.06930
G1 X42.691 Y63.190 E-0.05329
G1 E-0.04000 F2100.00000
G1 Z0.800 F10800.000
G1 X38.799 Y38.382
G1 Z0.200
G1 E0.80000 F2100.00000
G1 F3600.000
G1 X38.859 Y41.812 E0.10648
G1 X38.996 Y44.451 E0.08205
G1 X39.225 Y47.084 E0.08205
G1 X39.545 Y49.708 E0.08205
G1 X39.956 Y52.319 E0.08205
G1 X40.458 Y54.914 E0.08205
G1 X41.049 Y57.491 E0.08205
G1 X41.729 Y60.045 E0.08205
G1 X42.359 Y62.119 E0.06728
G1 X42.210 Y62.002 E0.00587
G1 X41.892 Y61.827 E0.01126
G1 X41.550 Y61.707 E0.01126
G1 X41.192 Y61.645 E0.01126
G1 X40.830 Y61.643 E0.01126
G1 X40.471 Y61.701 E0.01126
G1 X40.128 Y61.818 E0.01126
G1 X39.808 Y61.989 E0.01126
G1 X39.521 Y62.211 E0.01126
G1 X39.275 Y62.478 E0.01126
G1 X39.076 Y62.781 E0.01126
G1 X38.930 Y63.113 E0.01126
G1 X38.840 Y63.465 E0.01126
G1 X38.813 Y63.794 E0.01024
G1 X38.813 Y71.520 E0.23982
G1 X38.860 Y74.363 E0.08826
G1 X39.001 Y77.209 E0.08847
G1 X39.237 Y80.050 E0.08847
G1 X39.566 Y82.881 E0.08847
G1 X39.988 Y85.699 E0.08847
G1 X40.504 Y88.502 E0.08847
G1 X41.112 Y91.287 E0.08847
G1 X41.811 Y94.049 E0.08847
G1 X42.602 Y96.787 E0.08847
G1 X43.483 Y99.498 E0.08847
G1 X44.288 Y101.723 E0.07345
G1 X44.453 Y102.178 E0.01501
G1 X45.510 Y104.824 E0.08847
G1 X46.655 Y107.434 E0.08847
G1 X47.886 Y110.005 E0.08847
G1 X49.201 Y112.534 E0.08847
G1 X50.598 Y115.017 E0.08847
G1 X52.077 Y117.454 E0.08847
G1 X53.636 Y119.840 E0.08847
G1 X55.273 Y122.173 E0.08847
G1 X56.986 Y124.450 E0.08847
G1 X58.774 Y126.670 E0.08847
G1 X60.634 Y128.830 E0.08847
G1 X62.564 Y130.927 E0.08847
G1 X64.562 Y132.958 E0.08847
G1 X66.627 Y134.923 E0.08847
G1 X68.755 Y136.818 E0.08847
G1 X70.945 Y138.642 E0.08847
G1 X73.195 Y140.393 E0.08847
G1 X75.500 Y142.068 E0.08847
G1 X77.860 Y143.666 E0.08847
G1 X80.271 Y145.185 E0.08847
G1 X82.732 Y146.624 E0.08847
G1 X85.238 Y147.980 E0.08847
G1 X87.788 Y149.253 E0.08847
G1 X90.379 Y150.441 E0.08847
G1 X93.008 Y151.543 E0.08847
G1 X95.671 Y152.557 E0.08847
G1 X98.367 Y153.482 E0.08847
G1 X101.091 Y154.318 E0.08847
G1 X103.842 Y155.063 E0.08847
G1 X106.616 Y155.717 E0.08847
G1 X109.410 Y156.279 E0.08847
G1 X112.222 Y156.748 E0.08847
G1 X115.047 Y157.124 E0.08847
G1 X117.883 Y157.406 E0.08847
G1 X120.727 Y157.594 E0.08847
G1 X123.575 Y157.688 E0.08847
G1 X126.425 Y157.688 E0.08847
G1 X129.273 Y157.594 E0.08847
G1 X132.117 Y157.406 E0.08847
G1 X134.953 Y157.124 E0.08847
G1 X137.778 Y156.748 E0.08847
G1 X140.590 Y156.279 E0.08847
G1 X143.384 Y155.717 E0.08847
G1 X146.158 Y155.063 E0.08847
G1 X148.909 Y154.318 E0.08847
G1 X151.633 Y153.482 E0.08847
G1 X154.329 Y152.557 E0.08847
G1 X156.992 Y151.543 E0.08847
G1 X159.621 Y150.441 E0.08847
G1 X162.212 Y149.253 E0.08847
G1 X164.762 Y147.980 E0.08847
G1 X167.268 Y146.624 E0.08847
G1 X169.729 Y145.185 E0.08847
G1 X171.653 Y143.973 E0.07061
G1 X172.140 Y143.666 E0.01785
G1 X174.500 Y142.068 E0.08847
G1 X176.805 Y140.393 E0.08847
G1 X179.055 Y138.642 E0.08847
G1 X181.245 Y136.818 E0.08847
G1 X183.373 Y134.923 E0.08847
G1 X185.438 Y132.958 E0.08847
G1 X187.436 Y130.927 E0.08847
G1 X189.366 Y128.830 E0.08847
G1 X191.226 Y126.670 E0.08847
G1 X193.014 Y124.450 E0.08847
G1 X194.727 Y122.173 E0.08847
G1 X196.364 Y119.840 E0.08847
G1 X197.923 Y117.454 E0.08847
G1 X199.402 Y115.017 E0.08847
G1 X200.799 Y112.534 E0.08847
G1 X202.114 Y110.005 E0.08847
G1 X203.345 Y107.434 E0.08847
G1 X204.490 Y104.824 E0.08847
G1 X205.547 Y102.178 E0.08847
G1 X206.517 Y99.498 E0.08847
G1 X207.398 Y96.787 E0.08847
G1 X208.189 Y94.049 E0.08847
G1 X208.888 Y91.287 E0.08847
G1 X209.496 Y88.502 E0.08847
G1 X210.012 Y85.699 E0.08847
G1 X210.434 Y82.881 E0.08847
G1 X210.763 Y80.050 E0.08847
G1 X210.999 Y77.209 E0.08847
G1 X211.140 Y74.363 E0.08847
G1 X211.187 Y71.520 E0.08826
G1 X211.187 Y63.794 E0.23982
G1 X211.160 Y63.465 E0.01024
G1 X211.070 Y63.113 E0.01126
G1 X210.924 Y62.781 E0.01126
G1 X210.725 Y62.478 E0.01126
G1 X210.479 Y62.211 E0.01126
G1 X210.192 Y61.989 E0.01126
G1 X209.872 Y61.818 E0.01126
G1 X209.529 Y61.701 E0.01126
G1 X209.170 Y61.643 E0.01126
G1 X208.865 Y61.645 E0.00948
G1 X208.457 Y61.704 E0.01279
G1 X208.108 Y61.827 E0.01150
G1 X207.790 Y62.002 E0.01126
G1 X207.641 Y62.119 E0.00587
G1 X208.271 Y60.045 E0.06728
G1 X208.951 Y57.491 E0.08205
G1 X209.542 Y54.914 E0.08205
G1 X210.044 Y52.319 E0.08205
G1 X210.455 Y49.708 E0.08205
G1 X210.775 Y47.084 E0.08205
G1 X211.004 Y44.451 E0.08205
G1 X211.141 Y41.812 E0.08205
G1 X211.201 Y38.382 E0.10648
G1 X210.382 Y38.382 E0.02543
G1 X208.712 Y38.117 E0.05248
G1 X207.261 Y37.378 E0.05053
G1 X206.110 Y36.227 E0.05053
G1 X205.371 Y34.777 E0.05053
G1 X205.107 Y33.107 E0.05248
G1 X205.107 Y15.777 E0.53792
G1 X205.371 Y14.108 E0.05248
G1 X206.110 Y12.657 E0.05053
G1 X207.261 Y11.506 E0.05053
G1 X208.712 Y10.767 E0.05053
G1 X210.382 Y10.503 E0.05248
G1 X212.118 Y10.503 E0.05391
G1 X213.788 Y10.767 E0.05248
G1 X215.239 Y11.506 E0.05053
G1 X216.390 Y12.657 E0.05053
G1 X217.129 Y14.108 E0.05053
G1 X217.393 Y15.777 E0.05248
G1 X217.393 Y33.107 E0.53792
G1 X217.129 Y34.777 E0.05248
G1 X216.390 Y36.227 E0.05053
G1 X215.239 Y37.378 E0.05053
G1 X213.788 Y38.117 E0.05053
G1 X212.118 Y38.382 E0.05248
G1 X211.313 Y38.382 E0.02500
G1 X211.313 Y71.507 E1.02823
G1 X211.268 Y74.281 E0.08611
G1 X211.135 Y77.045 E0.08592
G1 X210.914 Y79.804 E0.08592
G1 X210.604 Y82.555 E0.08592
G1 X210.206 Y85.294 E0.08592
G1 X209.720 Y88.019 E0.08592
G1 X209.147 Y90.727 E0.08592
G1 X208.488 Y93.415 E0.08592
G1 X207.743 Y96.081 E0.08592
G1 X206.912 Y98.721 E0.08592
G1 X205.998 Y101.333 E0.08592
G1 X205.000 Y103.915 E0.08592
G1 X203.920 Y106.464 E0.08592
G1 X202.759 Y108.976 E0.08592
G1 X201.518 Y111.450 E0.08592
G1 X200.198 Y113.883 E0.08592
G1 X198.801 Y116.272 E0.08592
G1 X197.327 Y118.616 E0.08592
G1 X195.780 Y120.910 E0.08592
G1 X194.137 Y123.187 E0.08714
G1 X193.962 Y123.466 E0.01023
G1 X193.823 Y123.808 E0.01146
G1 X193.742 Y124.168 E0.01146
G1 X193.724 Y124.537 E0.01146
G1 X193.767 Y124.903 E0.01146
G1 X193.871 Y125.257 E0.01146
G1 X194.008 Y125.536 E0.00964
G1 X194.244 Y125.883 E0.01301
G1 X194.513 Y126.147 E0.01170
G1 X194.815 Y126.358 E0.01146
G1 X195.149 Y126.516 E0.01146
G1 X195.505 Y126.615 E0.01146
G1 X195.872 Y126.653 E0.01146
G1 X196.240 Y126.628 E0.01146
G1 X196.599 Y126.542 E0.01146
G1 X196.939 Y126.397 E0.01146
G1 X197.249 Y126.198 E0.01146
G1 X197.501 Y125.967 E0.01061
G1 X199.493 Y123.743 E0.09267
G1 X201.400 Y121.481 E0.09183
G1 X203.238 Y119.163 E0.09183
G1 X205.005 Y116.791 E0.09183
G1 X206.701 Y114.367 E0.09183
G1 X208.323 Y111.894 E0.09183
G1 X209.871 Y109.372 E0.09183
G1 X211.342 Y106.806 E0.09183
G1 X212.736 Y104.197 E0.09183
G1 X214.051 Y101.547 E0.09183
G1 X215.285 Y98.859 E0.09182
G1 X216.145 Y96.832 E0.06833
G1 X216.641 Y97.011 E0.01639
G1 X215.978 Y98.588 E0.05311
G1 X214.980 Y100.808 E0.07555
G1 X213.404 Y104.097 E0.11322
G1 X217.961 Y103.856 E0.14165
G1 X218.102 Y103.871 E0.00441
G1 X218.238 Y103.956 E0.00498
G1 X218.314 Y104.100 E0.00507
G1 X218.308 Y104.258 E0.00489
G1 X218.259 Y104.353 E0.00334
G1 X218.180 Y104.427 E0.00334
G1 X218.081 Y104.469 E0.00334
G1 X217.994 Y104.481 E0.00275
G1 X212.590 Y104.767 E0.16795
G1 X210.954 Y107.756 E0.10579
G1 X209.457 Y110.306 E0.09176
G1 X207.884 Y112.811 E0.09183
G1 X206.237 Y115.267 E0.09181
G1 X204.874 Y117.179 E0.07289
G1 X202.725 Y120.027 E0.11073
G1 X200.865 Y122.325 E0.09178
G1 X199.337 Y124.108 E0.07288
G1 X196.941 Y126.750 E0.11073
G1 X194.882 Y128.872 E0.09176
G1 X192.760 Y130.932 E0.09180
G1 X190.577 Y132.928 E0.09182
G1 X188.802 Y134.465 E0.07288
G1 X186.036 Y136.719 E0.11075
G1 X184.173 Y138.147 E0.07288
G1 X181.778 Y139.883 E0.09182
G1 X179.333 Y141.546 E0.09180
G1 X176.839 Y143.135 E0.09176
G1 X173.768 Y144.949 E0.11073
G1 X171.714 Y146.086 E0.07288
G1 X169.087 Y147.445 E0.09182
G1 X166.421 Y148.725 E0.09180
G1 X163.717 Y149.924 E0.09180
G1 X160.978 Y151.043 E0.09183
G1 X158.210 Y152.078 E0.09175
G1 X154.865 Y153.215 E0.10966
G1 X154.865 Y157.750 E0.14076
G1 X154.857 Y157.838 E0.00275
G1 X154.820 Y157.939 E0.00334
G1 X154.751 Y158.022 E0.00334
G1 X154.658 Y158.076 E0.00334
G1 X154.498 Y158.090 E0.00498
G1 X154.397 Y158.053 E0.00334
G1 X154.284 Y157.939 E0.00498
G1 X154.247 Y157.838 E0.00334
G1 X154.239 Y153.423 E0.13705
G1 X150.327 Y154.525 E0.12615
G1 X147.403 Y155.253 E0.09353
G1 X144.458 Y155.891 E0.09353
G1 X141.496 Y156.439 E0.09353
