; generated by Slic3r Prusa Edition 1.41.0+ on 2018-09-21 at 15:29:31

; 

; external perimeters extrusion width = 0.45mm
; perimeters extrusion width = 0.45mm
; infill extrusion width = 0.45mm
; solid infill extrusion width = 0.45mm
; top infill extrusion width = 0.40mm
; first layer extrusion width = 0.42mm

M201 X9000 Y9000 Z500 E10000 ; sets maximum accelerations, mm/sec^2
M203 X500 Y500 Z12 E120 ; sets maximum feedrates, mm/sec
M204 P2000 R1500 T2000 ; sets acceleration (P, T) and retract acceleration (R), mm/sec^2
M205 X10.00 Y10.00 Z0.20 E2.50 ; sets the jerk limits, mm/sec
M205 S0 T0 ; sets the minimum extruding and travel feed rate, mm/sec
M107
M115 U3.1.0 ; tell printer latest fw version
M83  ; extruder relative mode
M204 S2000 T1500 ; MK2 firmware only supports the old M204 format
M104 S230 ; set extruder temp
M140 S85 ; set bed temp
M190 S85 ; wait for bed temp
M109 S230 ; wait for extruder temp
G28 W ; home all without mesh bed level
G80 ; mesh bed leveling
G1 Y-3.0 F1000.0 ; go outside print area
G92 E0.0
G1 X60.0 E9.0  F1000.0 ; intro line
G1 X100.0 E12.5  F1000.0 ; intro line
G92 E0.0
M900 K45; Filament gcode
G21 ; set units to millimeters
G90 ; use absolute coordinates
M83 ; use relative distances for extrusion
;BEFORE_LAYER_CHANGE
G92 E0.0
;0.2


G1 E-0.80000 F2100.00000
G1 Z0.600 F10800.000
;AFTER_LAYER_CHANGE
;0.2
G1 X118.136 Y88.836
G1 Z0.200
G1 E0.80000 F2100.00000
M204 S1000
G1 F1200
G1 X119.277 Y88.353 E0.03884
G1 X120.391 Y88.208 E0.03523
G1 X129.641 Y88.170 E0.29002
G1 X130.519 Y88.293 E0.02779
G1 X131.543 Y88.681 E0.03434
G1 X132.485 Y89.305 E0.03545
G1 X133.188 Y89.984 E0.03063
G1 X134.000 Y91.096 E0.04317
G1 X134.440 Y91.985 E0.03110
G1 X134.758 Y92.892 E0.03013
G1 X134.946 Y93.837 E0.03023
G1 X135.625 Y106.282 E0.39077
G1 X134.664 Y116.816 E0.33168
G1 X134.413 Y117.992 E0.03769
G1 X133.859 Y119.189 E0.04135
G1 X132.981 Y120.269 E0.04363
G1 X132.391 Y120.749 E0.02387
G1 X131.616 Y121.211 E0.02828
G1 X130.338 Y121.663 E0.04249
G1 X129.044 Y121.817 E0.04088
G1 X120.824 Y121.832 E0.25771
G1 X119.939 Y121.739 E0.02790
G1 X119.192 Y121.536 E0.02429
G1 X117.974 Y120.976 E0.04201
G1 X117.302 Y120.481 E0.02619
G1 X116.667 Y119.845 E0.02817
G1 X115.923 Y118.670 E0.04361
G1 X115.609 Y117.816 E0.02854
G1 X115.474 Y117.190 E0.02007
G1 X114.375 Y106.306 E0.34301
G1 X114.917 Y94.245 E0.37853
G1 X115.090 Y93.180 E0.03384
G1 X115.309 Y92.419 E0.02481
G1 X116.000 Y90.973 E0.05027
G1 X116.870 Y89.842 E0.04472
G1 X118.089 Y88.873 E0.04884
G1 X118.322 Y89.167 F10800.000
G1 F1200
G1 X119.406 Y88.708 E0.03690
G1 X120.404 Y88.585 E0.03153
G1 X129.638 Y88.547 E0.28951
G1 X130.428 Y88.659 E0.02505
G1 X131.381 Y89.022 E0.03197
G1 X132.257 Y89.606 E0.03301
G1 X132.925 Y90.255 E0.02920
G1 X133.684 Y91.302 E0.04055
G1 X134.100 Y92.149 E0.02959
G1 X134.396 Y92.999 E0.02821
G1 X134.578 Y93.919 E0.02941
G1 X135.248 Y106.272 E0.38790
G1 X134.289 Y116.776 E0.33071
G1 X134.051 Y117.888 E0.03564
G1 X133.539 Y118.989 E0.03808
G1 X132.725 Y119.992 E0.04050
G1 X132.175 Y120.440 E0.02224
G1 X131.435 Y120.880 E0.02700
G1 X130.234 Y121.300 E0.03989
G1 X129.034 Y121.440 E0.03788
G1 X120.826 Y121.455 E0.25735
G1 X120.001 Y121.367 E0.02602
G1 X119.294 Y121.172 E0.02299
G1 X118.182 Y120.661 E0.03838
G1 X117.547 Y120.195 E0.02469
G1 X116.949 Y119.595 E0.02657
G1 X116.266 Y118.512 E0.04015
G1 X115.846 Y117.126 E0.04541
G1 X114.752 Y106.304 E0.34105
G1 X115.294 Y94.271 E0.37765
G1 X115.460 Y93.255 E0.03230
G1 X115.672 Y92.523 E0.02389
G1 X116.383 Y91.068 E0.05076
G1 X117.144 Y90.101 E0.03860
G1 X118.275 Y89.204 E0.04525
; PURGING FINISHED
G1 F8640
G1 X119.406 Y88.708 E-0.28514
G1 X120.404 Y88.585 E-0.23222
G1 X121.455 Y88.581 E-0.24264
G1 E-0.04000 F2100.00000
G1 Z0.800 F10800.000
G1 X121.291 Y112.396
G1 Z0.200
G1 E0.80000 F2100.00000
G1 F1200
G1 X121.683 Y112.249 E0.01311
G1 X122.025 Y112.203 E0.01083
G1 X122.408 Y112.255 E0.01212
G1 X122.765 Y112.401 E0.01210
G1 X123.072 Y112.637 E0.01214
G1 X123.309 Y112.945 E0.01219
G1 X123.456 Y113.301 E0.01208
G1 X123.508 Y113.686 E0.01217
G1 X123.456 Y114.070 E0.01215
G1 X123.309 Y114.428 E0.01215
G1 X123.072 Y114.736 E0.01218
G1 X122.766 Y114.970 E0.01207
G1 X122.408 Y115.119 E0.01216
G1 X122.025 Y115.169 E0.01211
G1 X121.641 Y115.119 E0.01215
G1 X121.282 Y114.970 E0.01217
G1 X120.976 Y114.735 E0.01211
G1 X120.741 Y114.428 E0.01211
G1 X120.592 Y114.070 E0.01217
G1 X120.542 Y113.686 E0.01214
G1 X120.592 Y113.301 E0.01216
G1 X120.741 Y112.945 E0.01211
G1 X120.975 Y112.638 E0.01212
G1 X121.243 Y112.432 E0.01060
G1 X121.473 Y112.731 F10800.000
G1 F1200
G1 X121.775 Y112.617 E0.01014
G1 X122.025 Y112.583 E0.00790
G1 X122.309 Y112.622 E0.00900
G1 X122.575 Y112.731 E0.00902
G1 X122.803 Y112.906 E0.00902
G1 X122.980 Y113.135 E0.00907
G1 X123.089 Y113.400 E0.00899
G1 X123.128 Y113.686 E0.00904
G1 X123.089 Y113.972 E0.00904
G1 X122.980 Y114.238 E0.00903
G1 X122.803 Y114.466 E0.00904
G1 X122.576 Y114.641 E0.00899
G1 X122.309 Y114.752 E0.00905
G1 X122.025 Y114.789 E0.00899
G1 X121.739 Y114.752 E0.00903
G1 X121.473 Y114.641 E0.00905
G1 X121.245 Y114.466 E0.00900
G1 X121.070 Y114.238 E0.00900
G1 X120.959 Y113.972 E0.00905
G1 X120.922 Y113.686 E0.00903
G1 X120.959 Y113.400 E0.00904
G1 X121.070 Y113.135 E0.00900
G1 X121.244 Y112.906 E0.00903
G1 X121.425 Y112.768 E0.00713
G1 X121.479 Y112.408 F10800.000
G1 F8640
G1 X121.775 Y112.617 E-0.08802
G1 X122.025 Y112.583 E-0.05820
G1 X122.309 Y112.622 E-0.06628
G1 X122.575 Y112.731 E-0.06640
G1 X122.803 Y112.906 E-0.06640
G1 X122.980 Y113.135 E-0.06676
G1 X123.089 Y113.400 E-0.06618
G1 X123.128 Y113.686 E-0.06660
G1 X123.089 Y113.972 E-0.06655
G1 X122.980 Y114.238 E-0.06651
G1 X122.803 Y114.466 E-0.06659
G1 X122.750 Y114.507 E-0.01551
G1 E-0.04000 F2100.00000
G1 Z0.800 F10800.000
G1 X122.255 Y111.041
G1 Z0.200
G1 E0.80000 F2100.00000
G1 F1200
G1 X122.283 Y110.577 E0.01458
G1 X122.435 Y110.131 E0.01476
G1 X122.685 Y109.745 E0.01443
G1 X122.910 Y109.505 E0.01032
G1 X123.330 Y109.184 E0.01658
G1 X123.999 Y108.889 E0.02292
G1 X124.566 Y108.772 E0.01815
G1 X125.009 Y108.739 E0.01396
G1 X125.520 Y108.773 E0.01604
G1 X126.022 Y108.882 E0.01612
G1 X126.583 Y109.113 E0.01902
G1 X126.926 Y109.335 E0.01278
G1 X127.108 Y109.479 E0.00730
G1 X127.378 Y109.772 E0.01250
G1 X127.597 Y110.115 E0.01275
G1 X127.751 Y110.556 E0.01462
G1 X127.783 Y111.022 E0.01465
G1 X127.692 Y111.481 E0.01469
G1 X127.486 Y111.906 E0.01481
G1 X127.208 Y112.242 E0.01366
G1 X126.903 Y112.515 E0.01283
G1 X126.534 Y112.737 E0.01350
G1 X126.036 Y112.942 E0.01690
G1 X125.537 Y113.054 E0.01604
G1 X125.028 Y113.093 E0.01601
G1 X124.517 Y113.059 E0.01604
G1 X124.009 Y112.949 E0.01631
G1 X123.350 Y112.660 E0.02256
G1 X123.138 Y112.521 E0.00794
G1 X122.842 Y112.262 E0.01235
G1 X122.613 Y111.995 E0.01100
G1 X122.484 Y111.799 E0.00736
G1 X122.332 Y111.438 E0.01229
G1 X122.266 Y111.100 E0.01080
G1 X122.636 Y111.028 F10800.000
G1 F1200
G1 X122.656 Y110.651 E0.01185
G1 X122.777 Y110.297 E0.01172
G1 X122.983 Y109.978 E0.01190
G1 X123.163 Y109.786 E0.00828
G1 X123.523 Y109.511 E0.01419
G1 X124.114 Y109.250 E0.02025
G1 X124.618 Y109.146 E0.01613
G1 X125.011 Y109.117 E0.01236
G1 X125.467 Y109.147 E0.01433
G1 X125.909 Y109.243 E0.01419
G1 X126.407 Y109.449 E0.01689
G1 X126.706 Y109.641 E0.01113
G1 X126.850 Y109.756 E0.00580
G1 X127.078 Y110.003 E0.01054
G1 X127.255 Y110.281 E0.01033
G1 X127.378 Y110.632 E0.01166
G1 X127.403 Y110.998 E0.01149
G1 X127.332 Y111.360 E0.01159
G1 X127.167 Y111.701 E0.01186
G1 X126.935 Y111.980 E0.01136
G1 X126.678 Y112.210 E0.01083
G1 X126.365 Y112.399 E0.01148
G1 X125.922 Y112.581 E0.01500
G1 X125.481 Y112.680 E0.01418
G1 X125.026 Y112.715 E0.01430
G1 X124.570 Y112.684 E0.01433
G1 X124.125 Y112.588 E0.01426
G1 X123.530 Y112.327 E0.02039
G1 X123.366 Y112.220 E0.00612
G1 X123.110 Y111.996 E0.01068
G1 X122.915 Y111.768 E0.00941
G1 X122.818 Y111.621 E0.00553
G1 X122.694 Y111.328 E0.00997
G1 X122.648 Y111.087 E0.00769
G1 X122.297 Y110.860 F10800.000
G1 F8640
G1 X122.656 Y110.651 E-0.10077
G1 X122.777 Y110.297 E-0.08628
G1 X122.983 Y109.978 E-0.08765
G1 X123.163 Y109.786 E-0.06096
G1 X123.523 Y109.511 E-0.10451
G1 X124.114 Y109.250 E-0.14914
G1 X124.618 Y109.146 E-0.11881
G1 X124.842 Y109.129 E-0.05189
G1 E-0.04000 F2100.00000
G1 Z0.800 F10800.000
G1 X126.750 Y112.920
G1 Z0.200
G1 E0.80000 F2100.00000
G1 F1200
G1 X126.986 Y112.615 E0.01212
G1 X127.300 Y112.372 E0.01243
G1 X127.693 Y112.225 E0.01315
G1 X128.035 Y112.179 E0.01083
G1 X128.418 Y112.231 E0.01211
G1 X128.776 Y112.378 E0.01214
G1 X129.083 Y112.615 E0.01214
G1 X129.319 Y112.920 E0.01212
G1 X129.467 Y113.279 E0.01216
G1 X129.517 Y113.662 E0.01212
G1 X129.467 Y114.045 E0.01210
G1 X129.319 Y114.404 E0.01220
G1 X129.082 Y114.712 E0.01218
G1 X128.776 Y114.946 E0.01207
G1 X128.418 Y115.095 E0.01217
G1 X128.035 Y115.145 E0.01211
G1 X127.651 Y115.095 E0.01215
G1 X127.293 Y114.946 E0.01217
G1 X126.987 Y114.712 E0.01207
G1 X126.750 Y114.404 E0.01218
G1 X126.602 Y114.045 E0.01220
G1 X126.552 Y113.662 E0.01210
G1 X126.602 Y113.279 E0.01212
G1 X126.727 Y112.976 E0.01028
G1 X127.076 Y113.120 F10800.000
G1 F1200
G1 X127.255 Y112.883 E0.00931
G1 X127.486 Y112.705 E0.00913
G1 X127.785 Y112.593 E0.01003
G1 X128.035 Y112.559 E0.00790
G1 X128.320 Y112.598 E0.00900
G1 X128.586 Y112.707 E0.00903
G1 X128.814 Y112.883 E0.00903
G1 X128.990 Y113.111 E0.00902
G1 X129.100 Y113.377 E0.00901
G1 X129.137 Y113.662 E0.00902
G1 X129.100 Y113.947 E0.00901
G1 X128.990 Y114.214 E0.00905
G1 X128.813 Y114.442 E0.00904
G1 X128.586 Y114.617 E0.00899
G1 X128.320 Y114.728 E0.00905
G1 X128.035 Y114.765 E0.00899
G1 X127.749 Y114.728 E0.00903
G1 X127.483 Y114.617 E0.00905
G1 X127.255 Y114.442 E0.00899
G1 X127.079 Y114.214 E0.00904
G1 X126.969 Y113.947 E0.00905
G1 X126.932 Y113.662 E0.00901
G1 X126.969 Y113.377 E0.00902
G1 X127.053 Y113.175 E0.00683
G1 X126.926 Y112.863 F10800.000
G1 F8640
G1 X127.255 Y112.883 E-0.08205
G1 X127.486 Y112.705 E-0.06727
G1 X127.785 Y112.593 E-0.07390
G1 X128.035 Y112.559 E-0.05820
G1 X128.320 Y112.598 E-0.06628
G1 X128.586 Y112.707 E-0.06650
G1 X128.814 Y112.883 E-0.06649
G1 X128.990 Y113.111 E-0.06644
G1 X129.100 Y113.377 E-0.06639
G1 X129.137 Y113.662 E-0.06644
G1 X129.100 Y113.947 E-0.06639
G1 X129.077 Y114.002 E-0.01367
G1 E-0.04000 F2100.00000
G1 Z0.800 F10800.000
G1 X129.403 Y108.896
G1 Z0.200
G1 E0.80000 F2100.00000
G1 F1200
G1 X128.989 Y108.794 E0.01336
G1 X128.548 Y108.588 E0.01528
G1 X128.102 Y108.237 E0.01780
G1 X127.762 Y107.829 E0.01663
G1 X127.491 Y107.351 E0.01726
G1 X127.325 Y106.919 E0.01448
G1 X127.198 Y106.304 E0.01972
G1 X127.165 Y105.659 E0.02024
G1 X127.281 Y104.876 E0.02482
G1 X127.490 Y104.270 E0.02008
G1 X127.799 Y103.740 E0.01924
G1 X128.309 Y103.194 E0.02343
G1 X128.883 Y102.858 E0.02087
G1 X129.344 Y102.742 E0.01490
G1 X129.784 Y102.714 E0.01384
G1 X130.188 Y102.779 E0.01281
G1 X130.436 Y102.860 E0.00821
G1 X130.885 Y103.099 E0.01593
G1 X131.252 Y103.413 E0.01514
G1 X131.708 Y104.017 E0.02374
G1 X131.965 Y104.604 E0.02011
G1 X132.143 Y105.414 E0.02599
G1 X132.140 Y106.238 E0.02584
G1 X132.010 Y106.870 E0.02021
G1 X131.767 Y107.492 E0.02093
G1 X131.369 Y108.082 E0.02232
G1 X130.864 Y108.525 E0.02107
G1 X130.422 Y108.768 E0.01580
G1 X129.909 Y108.898 E0.01659
G1 X129.463 Y108.897 E0.01400
G1 X129.464 Y108.519 F10800.000
G1 F1200
G1 X129.115 Y108.437 E0.01123
G1 X128.747 Y108.265 E0.01275
G1 X128.366 Y107.965 E0.01520
G1 X128.073 Y107.614 E0.01433
G1 X127.833 Y107.189 E0.01531
G1 X127.688 Y106.813 E0.01263
G1 X127.573 Y106.255 E0.01785
G1 X127.543 Y105.677 E0.01816
G1 X127.649 Y104.966 E0.02254
G1 X127.835 Y104.426 E0.01790
G1 X128.099 Y103.971 E0.01648
G1 X128.547 Y103.492 E0.02058
G1 X129.027 Y103.210 E0.01746
G1 X129.402 Y103.116 E0.01213
G1 X129.766 Y103.093 E0.01143
G1 X130.098 Y103.146 E0.01055
G1 X130.288 Y103.208 E0.00626
G1 X130.671 Y103.412 E0.01361
G1 X130.975 Y103.673 E0.01256
G1 X131.381 Y104.208 E0.02106
G1 X131.605 Y104.722 E0.01755
G1 X131.766 Y105.454 E0.02353
G1 X131.763 Y106.199 E0.02335
G1 X131.647 Y106.762 E0.01803
G1 X131.431 Y107.316 E0.01862
G1 X131.084 Y107.831 E0.01948
G1 X130.646 Y108.214 E0.01824
G1 X130.283 Y108.414 E0.01300
G1 X129.863 Y108.520 E0.01360
G1 X129.524 Y108.520 E0.01063
G1 X129.251 Y108.808 F10800.000
G1 F8640
G1 X129.115 Y108.437 E-0.09621
G1 X128.747 Y108.265 E-0.09389
G1 X128.366 Y107.965 E-0.11196
G1 X128.073 Y107.614 E-0.10554
G1 X127.833 Y107.189 E-0.11273
G1 X127.688 Y106.813 E-0.09302
G1 X127.573 Y106.255 E-0.13148
G1 X127.570 Y106.190 E-0.01517
G1 E-0.04000 F2100.00000
G1 Z0.800 F10800.000
G1 X122.805 Y106.325
G1 Z0.200
G1 E0.80000 F2100.00000
G1 F1200
G1 X122.636 Y107.075 E0.02410
G1 X122.397 Y107.615 E0.01853
G1 X122.091 Y108.065 E0.01706
G1 X121.788 Y108.382 E0.01374
G1 X121.370 Y108.679 E0.01607
G1 X120.903 Y108.870 E0.01582
G1 X120.497 Y108.940 E0.01293
G1 X119.995 Y108.916 E0.01574
G1 X119.603 Y108.811 E0.01274
G1 X119.229 Y108.626 E0.01308
G1 X118.753 Y108.242 E0.01917
G1 X118.371 Y107.769 E0.01906
G1 X118.155 Y107.358 E0.01454
G1 X117.986 Y106.900 E0.01531
G1 X117.864 Y106.313 E0.01881
G1 X117.835 Y105.722 E0.01855
G1 X117.896 Y105.146 E0.01817
G1 X118.042 Y104.591 E0.01796
G1 X118.271 Y104.081 E0.01754
G1 X118.525 Y103.695 E0.01448
G1 X118.768 Y103.420 E0.01151
G1 X119.183 Y103.087 E0.01669
G1 X119.635 Y102.867 E0.01577
G1 X120.055 Y102.761 E0.01357
G1 X120.807 Y102.798 E0.02361
G1 X121.231 Y102.955 E0.01419
G1 X121.675 Y103.231 E0.01637
G1 X122.051 Y103.595 E0.01641
G1 X122.367 Y104.045 E0.01725
G1 X122.606 Y104.555 E0.01766
G1 X122.767 Y105.132 E0.01877
G1 X122.803 Y106.265 E0.03553
G1 X122.426 Y106.277 F10800.000
G1 F1200
G1 X122.276 Y106.956 E0.02180
G1 X122.066 Y107.431 E0.01630
G1 X121.796 Y107.827 E0.01502
G1 X121.540 Y108.095 E0.01163
G1 X121.187 Y108.346 E0.01359
G1 X120.798 Y108.506 E0.01316
G1 X120.474 Y108.561 E0.01033
G1 X120.054 Y108.541 E0.01318
G1 X119.737 Y108.456 E0.01030
G1 X119.433 Y108.306 E0.01061
G1 X119.021 Y107.974 E0.01660
G1 X118.688 Y107.560 E0.01665
G1 X118.500 Y107.204 E0.01262
G1 X118.349 Y106.796 E0.01364
G1 X118.240 Y106.265 E0.01701
G1 X118.214 Y105.732 E0.01672
G1 X118.268 Y105.214 E0.01635
G1 X118.399 Y104.718 E0.01609
G1 X118.603 Y104.263 E0.01562
G1 X118.825 Y103.925 E0.01269
G1 X119.029 Y103.694 E0.00966
G1 X119.386 Y103.407 E0.01435
G1 X119.765 Y103.223 E0.01322
G1 X120.093 Y103.140 E0.01058
G1 X120.730 Y103.172 E0.02002
G1 X121.065 Y103.296 E0.01118
G1 X121.441 Y103.530 E0.01391
G1 X121.763 Y103.841 E0.01403
G1 X122.040 Y104.235 E0.01509
G1 X122.251 Y104.687 E0.01565
G1 X122.392 Y105.190 E0.01637
G1 X122.424 Y106.217 E0.03222
G1 X122.749 Y106.513 F10800.000
G1 F8640
G1 X122.276 Y106.956 E-0.17402
G1 X122.066 Y107.431 E-0.12006
G1 X121.796 Y107.827 E-0.11058
G1 X121.540 Y108.095 E-0.08564
G1 X121.187 Y108.346 E-0.10008
G1 X120.798 Y108.506 E-0.09692
G1 X120.488 Y108.559 E-0.07271
G1 E-0.04000 F2100.00000
G1 Z0.800 F10800.000
G1 X120.434 Y97.810
G1 Z0.200
G1 E0.80000 F2100.00000
G1 F1200
G1 X119.980 Y97.699 E0.01466
G1 X119.551 Y97.503 E0.01478
G1 X118.949 Y96.991 E0.02479
G1 X118.484 Y96.250 E0.02742
G1 X118.286 Y95.695 E0.01849
G1 X118.167 Y94.989 E0.02243
G1 X118.163 Y94.484 E0.01585
G1 X118.219 Y94.014 E0.01484
G1 X118.514 Y93.131 E0.02919
G1 X119.069 Y92.309 E0.03110
G1 X119.596 Y91.902 E0.02088
G1 X120.087 Y91.697 E0.01667
G1 X120.485 Y91.629 E0.01265
G1 X120.896 Y91.636 E0.01291
G1 X121.150 Y91.683 E0.00810
G1 X121.522 Y91.815 E0.01238
G1 X121.981 Y92.092 E0.01680
G1 X122.373 Y92.467 E0.01701
G1 X122.690 Y92.919 E0.01732
G1 X122.929 Y93.431 E0.01770
G1 X123.086 Y93.991 E0.01825
G1 X123.156 Y94.797 E0.02537
G1 X123.091 Y95.442 E0.02030
G1 X122.749 Y96.436 E0.03295
G1 X122.415 Y96.938 E0.01893
G1 X122.110 Y97.257 E0.01382
G1 X121.699 Y97.548 E0.01582
G1 X121.338 Y97.707 E0.01235
G1 X120.891 Y97.807 E0.01435
G1 X120.494 Y97.810 E0.01246
G1 X120.492 Y97.433 F10800.000
G1 F1200
G1 X120.104 Y97.342 E0.01248
G1 X119.756 Y97.182 E0.01201
G1 X119.237 Y96.741 E0.02134
G1 X118.825 Y96.085 E0.02430
G1 X118.652 Y95.599 E0.01615
G1 X118.544 Y94.956 E0.02045
G1 X118.540 Y94.505 E0.01416
G1 X118.589 Y94.097 E0.01289
