; generated by PrusaSlicer 2.2.0+ on 2020-04-22 at 23:16:41 UTC


;
;

;
;
; 

; external perimeters extrusion width = 0.45mm
; perimeters extrusion width = 0.45mm
; infill extrusion width = 0.45mm
; solid infill extrusion width = 0.45mm
; top infill extrusion width = 0.40mm
; first layer extrusion width = 0.42mm

M73 P0 R29
M201 X9000 Y9000 Z500 E10000 ; sets maximum accelerations, mm/sec^2
M203 X500 Y500 Z12 E120 ; sets maximum feedrates, mm/sec
M204 P2000 R1500 T2000 ; sets acceleration (P, T) and retract acceleration (R), mm/sec^2
M205 X10.00 Y10.00 Z0.20 E2.50 ; sets the jerk limits, mm/sec
M205 S0 T0 ; sets the minimum extruding and travel feed rate, mm/sec
M107
M83  ; extruder relative mode
M140 S75 ; set bed temp
M109 S160 ; Set extruder temp before bed level
M190 S75 ; wait for bed temp

G28 W ; home all without mesh bed level
G80 N7 ; mesh bed leveling

M109 S240 ; wait for extruder temp

M221 S100 ; Set flow to 100

G1 Y-3.0 F1000.0 ; go outside print area
G92 E0.0
G1 E8 ; Purge Bubble
M73 P0 R29
G1 X60.0 E9.0 F1000.0 ; intro line
G1 X100.0 E12.5 F1000.0 ; intro line
G92 E0.0
G21 ; set units to millimeters
G90 ; use absolute coordinates
M83 ; use relative distances for extrusion
M900 K45; Filament gcode
;BEFORE_LAYER_CHANGE
G92 E0.0
;0.2


G1 E-0.80000 F2100.00000
G1 Z0.600 F10800.000
;AFTER_LAYER_CHANGE
;0.2
G1 X75.069 Y85.698
G1 Z0.200
G1 E0.80000 F2100.00000
M204 S1000
G1 F1200.000
G1 X75.633 Y84.895 E0.02832
G1 X76.440 Y84.218 E0.03039
G1 X77.212 Y83.851 E0.02466
G1 X78.398 Y83.625 E0.03483
G1 X82.458 Y83.623 E0.11709
G1 X83.294 Y83.715 E0.02426
G1 X172.384 Y102.726 E2.62777
G1 X173.205 Y103.024 E0.02519
G1 X174.148 Y103.670 E0.03298
G1 X174.784 Y104.442 E0.02885
G1 X175.216 Y105.399 E0.03027
G1 X175.369 Y106.303 E0.02647
G1 X175.376 Y122.553 E0.46874
G1 X175.259 Y123.449 E0.02606
G1 X174.976 Y124.205 E0.02329
G1 X174.320 Y125.160 E0.03341
G1 X173.522 Y125.807 E0.02963
G1 X172.547 Y126.233 E0.03071
G1 X171.544 Y126.377 E0.02920
G1 X78.489 Y126.377 E2.68429
G1 X77.562 Y126.262 E0.02694
G1 X76.794 Y125.976 E0.02363
G1 X75.846 Y125.325 E0.03317
G1 X75.205 Y124.541 E0.02920
G1 X74.775 Y123.575 E0.03050
G1 X74.626 Y122.628 E0.02765
G1 X74.623 Y87.496 E1.01342
G1 X74.695 Y86.798 E0.02025
G1 X75.050 Y85.755 E0.03177
@Object build_helper_96mm.stl id:0 copy 0
G1 F8640.000
G1 X75.633 Y84.895 E-0.24000
G1 X76.440 Y84.218 E-0.24328
G1 X77.212 Y83.851 E-0.19743
G1 X77.550 Y83.787 E-0.07929
G1 E-0.04000 F2100.00000
G1 Z0.800 F10800.000
G1 X108.863 Y110.563
G1 Z0.200
G1 E0.80000 F2100.00000
G1 F1200.000
G1 X137.087 Y110.563 E0.81414
G1 X137.087 Y118.437 E0.22714
G1 X118.421 Y118.437 E0.53844
G1 X108.501 Y111.746 E0.34515
G1 X108.846 Y110.620 E0.03396
G1 X109.142 Y110.940 F10800.000
G1 F1200.000
G1 X136.710 Y110.940 E0.79522
G1 X136.710 Y118.060 E0.20538
G1 X118.536 Y118.060 E0.52423
G1 X108.944 Y111.590 E0.33378
G1 X109.125 Y110.997 E0.01786
G1 X109.021 Y110.559 F10800.000
G1 F8640.000
G1 X112.416 Y110.991 E-0.76000
G1 E-0.04000 F2100.00000
G1 Z0.800 F10800.000
G1 X104.851 Y110.401
G1 Z0.200
G1 E0.80000 F2100.00000
G1 F1200.000
G1 X115.011 Y117.254 E0.35352
G1 X114.649 Y118.437 E0.03569
G1 X95.052 Y118.437 E0.56529
G1 X94.691 Y117.254 E0.03569
G1 X104.801 Y110.434 E0.35179
G1 X104.851 Y110.855 F10800.000
G1 F1200.000
G1 X114.569 Y117.410 E0.33814
G1 X114.370 Y118.060 E0.01959
G1 X95.331 Y118.060 E0.54920
G1 X95.133 Y117.410 E0.01959
G1 X104.801 Y110.889 E0.33641
G1 X105.110 Y110.550 F10800.000
G1 F8640.000
G1 X107.539 Y112.717 E-0.76000
G1 E-0.04000 F2100.00000
G1 Z0.800 F10800.000
G1 X101.200 Y111.746
G1 Z0.200
G1 E0.80000 F2100.00000
G1 F1200.000
G1 X91.281 Y118.437 E0.34515
G1 X82.213 Y118.437 E0.26157
G1 X82.213 Y110.563 E0.22714
G1 X100.839 Y110.563 E0.53728
G1 X101.183 Y111.689 E0.03396
G1 X100.758 Y111.590 F10800.000
G1 F1200.000
G1 X91.165 Y118.060 E0.33378
G1 X82.590 Y118.060 E0.24736
G1 X82.590 Y110.940 E0.20538
G1 X100.560 Y110.940 E0.51835
G1 X100.741 Y111.532 E0.01786
G1 X101.073 Y111.836 F10800.000
G1 F8640.000
G1 X98.021 Y113.386 E-0.76000
G1 E-0.04000 F2100.00000
G1 Z0.800 F10800.000
G1 X96.316 Y105.787
G1 Z0.200
G1 E0.80000 F2100.00000
G1 F1200.000
G1 X82.213 Y105.787 E0.40681
G1 X82.213 Y93.788 E0.34613
G1 X83.122 Y93.364 E0.02893
G1 X96.693 Y104.751 E0.51102
G1 X96.336 Y105.731 E0.03006
G1 X96.052 Y105.410 F10800.000
G1 F1200.000
G1 X82.590 Y105.410 E0.38831
G1 X82.590 Y94.028 E0.32832
G1 X83.063 Y93.807 E0.01507
G1 X96.248 Y104.870 E0.49647
G1 X96.072 Y105.354 E0.01483
G1 X96.162 Y105.794 F10800.000
G1 F8640.000
G1 X92.781 Y105.367 E-0.76000
G1 E-0.04000 F2100.00000
G1 Z0.800 F10800.000
G1 X147.013 Y110.563
G1 Z0.200
G1 E0.80000 F2100.00000
G1 F1200.000
G1 X167.787 Y110.563 E0.59925
G1 X167.787 Y118.437 E0.22714
G1 X147.013 Y118.437 E0.59925
G1 X147.013 Y110.623 E0.22541
G1 X147.390 Y110.940 F10800.000
G1 F1200.000
G1 X167.410 Y110.940 E0.57750
G1 X167.410 Y118.060 E0.20538
G1 X147.390 Y118.060 E0.57750
G1 X147.390 Y111.000 E0.20365
G1 X147.231 Y110.573 F10800.000
G1 F8640.000
G1 X150.681 Y110.990 E-0.76000
G1 E-0.04000 F2100.00000
G1 Z0.800 F10800.000
G1 X105.211 Y106.187
G1 Z0.200
G1 E0.80000 F2100.00000
G1 F1200.000
G1 X171.448 Y106.187 E1.91067
G1 X171.579 Y106.204 E0.00381
G1 X171.653 Y106.235 E0.00231
G1 X171.765 Y106.347 E0.00457
G1 X171.796 Y106.421 E0.00231
G1 X171.813 Y106.552 E0.00381
G1 X171.813 Y122.448 E0.45856
G1 X171.796 Y122.579 E0.00381
G1 X171.765 Y122.653 E0.00231
G1 X171.653 Y122.765 E0.00457
G1 X171.579 Y122.796 E0.00231
G1 X171.448 Y122.813 E0.00381
G1 X78.552 Y122.813 E2.67970
G1 X78.421 Y122.796 E0.00381
G1 X78.284 Y122.716 E0.00457
G1 X78.235 Y122.653 E0.00231
G1 X78.204 Y122.579 E0.00230
G1 X78.187 Y122.448 E0.00380
G1 X78.187 Y87.552 E1.00664
M73 P3 R28
G1 X78.204 Y87.421 E0.00380
G1 X78.235 Y87.347 E0.00230
G1 X78.347 Y87.235 E0.00457
G1 X78.421 Y87.204 E0.00231
G1 X78.552 Y87.187 E0.00381
G1 X82.408 Y87.187 E0.11124
G1 X82.603 Y87.232 E0.00576
G1 X82.690 Y87.290 E0.00303
G1 X105.165 Y106.149 E0.84631
G1 X105.348 Y105.810 F10800.000
G1 F1200.000
G1 X171.473 Y105.810 E1.90743
G1 X171.678 Y105.837 E0.00595
G1 X171.843 Y105.906 E0.00517
G1 X171.985 Y106.015 E0.00517
G1 X172.094 Y106.157 E0.00517
G1 X172.163 Y106.322 E0.00517
G1 X172.190 Y106.527 E0.00595
G1 X172.190 Y122.473 E0.45998
G1 X172.163 Y122.678 E0.00595
G1 X172.094 Y122.843 E0.00517
G1 X171.985 Y122.985 E0.00517
G1 X171.843 Y123.094 E0.00517
G1 X171.678 Y123.163 E0.00517
G1 X171.473 Y123.190 E0.00595
G1 X78.527 Y123.190 E2.68112
G1 X78.322 Y123.163 E0.00595
G1 X78.157 Y123.094 E0.00517
G1 X78.015 Y122.985 E0.00517
G1 X77.905 Y122.843 E0.00517
G1 X77.837 Y122.678 E0.00517
G1 X77.810 Y122.473 E0.00595
G1 X77.810 Y87.527 E1.00806
G1 X77.837 Y87.322 E0.00595
G1 X77.905 Y87.157 E0.00517
G1 X78.015 Y87.015 E0.00517
G1 X78.157 Y86.906 E0.00517
G1 X78.322 Y86.837 E0.00517
G1 X78.527 Y86.810 E0.00595
G1 X82.430 Y86.810 E0.11259
G1 X82.571 Y86.826 E0.00409
G1 X82.766 Y86.888 E0.00591
G1 X82.916 Y86.987 E0.00517
G1 X105.303 Y105.771 E0.84299
G1 X105.463 Y106.193 F10800.000
G1 F8640.000
G1 X108.594 Y105.773 E-0.76000
G1 E-0.04000 F2100.00000
G1 Z0.800 F10800.000
G1 X103.178 Y111.393
G1 Z0.200
G1 E0.80000 F2100.00000
G1 F1200.000
G1 X96.871 Y105.087 E0.25787
G1 X96.729 Y105.479 E0.01206
G1 X102.858 Y111.608 E0.25065
G1 F8640.000
G1 X100.531 Y109.281 E-0.76000
G1 E-0.04000 F2100.00000
G1 Z0.800 F10800.000
G1 X108.430 Y111.835
G1 Z0.200
G1 E0.80000 F2100.00000
G1 F1200.000
G1 X110.394 Y113.798 E0.08030
G1 X112.036 Y114.906 E0.05728
G1 X110.701 Y113.571 E0.05459
G1 X112.344 Y114.679 E0.05728
G1 X114.308 Y116.643 E0.08031
G1 F8640.000
G1 X112.344 Y114.679 E-0.64129
G1 X111.917 Y114.391 E-0.11871
G1 E-0.04000 F2100.00000
G1 Z0.800 F10800.000
G1 X78.300 Y121.795
G1 Z0.200
G1 E0.80000 F2100.00000
G1 F1200.000
G1 X79.035 Y122.530 E0.03004
G1 X79.569 Y122.530 E0.01546
G1 X78.470 Y121.431 E0.04496
G1 X78.470 Y120.896 E0.01546
G1 X80.104 Y122.530 E0.06682
G1 X80.638 Y122.530 E0.01546
G1 X78.470 Y120.362 E0.08868
G1 X78.470 Y119.827 E0.01546
G1 X81.173 Y122.530 E0.11054
G1 X81.708 Y122.530 E0.01546
G1 X78.470 Y119.292 E0.13240
G1 X78.470 Y118.758 E0.01546
G1 X82.242 Y122.530 E0.15425
G1 X82.777 Y122.530 E0.01546
G1 X78.470 Y118.223 E0.17611
G1 X78.470 Y117.689 E0.01546
G1 X83.311 Y122.530 E0.19797
G1 X83.846 Y122.530 E0.01546
G1 X78.470 Y117.154 E0.21983
G1 X78.470 Y116.620 E0.01546
G1 X84.380 Y122.530 E0.24169
G1 X84.915 Y122.530 E0.01546
G1 X78.470 Y116.085 E0.26355
G1 X78.470 Y115.551 E0.01546
G1 X85.619 Y122.700 E0.29234
G1 F8640.000
G1 X83.292 Y120.372 E-0.76000
G1 E-0.04000 F2100.00000
G1 Z0.800 F10800.000
G1 X94.793 Y117.976
G1 Z0.200
G1 E0.80000 F2100.00000
G1 F1200.000
G1 X93.858 Y117.040 E0.03825
G1 X94.177 Y116.825 E0.01113
G1 X94.436 Y117.084 E0.01061
G1 X94.756 Y116.869 E0.01113
G1 X94.496 Y116.609 E0.01061
G1 X94.815 Y116.394 E0.01113
G1 X95.075 Y116.654 E0.01061
G1 X95.394 Y116.438 E0.01113
G1 X95.134 Y116.179 E0.01061
G1 X95.454 Y115.963 E0.01113
G1 X95.713 Y116.223 E0.01061
G1 X96.032 Y116.008 E0.01113
G1 X95.773 Y115.748 E0.01061
G1 X96.092 Y115.533 E0.01113
G1 X96.352 Y115.792 E0.01061
G1 X96.671 Y115.577 E0.01113
G1 X96.411 Y115.318 E0.01061
G1 X96.731 Y115.102 E0.01113
G1 X96.990 Y115.362 E0.01061
G1 X97.309 Y115.146 E0.01113
G1 X97.050 Y114.887 E0.01061
G1 X97.369 Y114.672 E0.01113
G1 X97.629 Y114.931 E0.01061
G1 X97.948 Y114.716 E0.01113
G1 X97.688 Y114.456 E0.01061
G1 X98.007 Y114.241 E0.01113
G1 X98.267 Y114.500 E0.01061
G1 X98.586 Y114.285 E0.01113
G1 X98.327 Y114.026 E0.01061
G1 X98.646 Y113.810 E0.01113
G1 X98.905 Y114.070 E0.01061
G1 X99.225 Y113.854 E0.01113
G1 X98.965 Y113.595 E0.01061
G1 X99.284 Y113.380 E0.01113
G1 X99.544 Y113.639 E0.01061
G1 X99.863 Y113.424 E0.01113
G1 X99.604 Y113.164 E0.01061
G1 X99.923 Y112.949 E0.01113
G1 X100.182 Y113.208 E0.01061
G1 X100.502 Y112.993 E0.01113
G1 X100.242 Y112.734 E0.01061
G1 X100.561 Y112.518 E0.01113
G1 X100.821 Y112.778 E0.01061
G1 X101.140 Y112.563 E0.01113
G1 X100.881 Y112.303 E0.01061
G1 X101.200 Y112.088 E0.01113
G1 X101.459 Y112.347 E0.01061
G1 X101.778 Y112.132 E0.01113
G1 X101.519 Y111.872 E0.01061
G1 X101.532 Y111.864 E0.00045
G1 X101.306 Y111.125 E0.02233
G1 X102.098 Y111.917 E0.03237
G1 X102.417 Y111.701 E0.01113
G1 X96.586 Y105.871 E0.23843
G1 X96.514 Y106.070 E0.00613
G1 X96.251 Y106.070 E0.00759
G1 X100.461 Y110.280 E0.17216
G1 X99.927 Y110.280 E0.01546
G1 X95.716 Y106.070 E0.17216
G1 X95.182 Y106.070 E0.01546
G1 X99.392 Y110.280 E0.17216
G1 X98.858 Y110.280 E0.01546
G1 X94.647 Y106.070 E0.17216
G1 X94.113 Y106.070 E0.01546
G1 X98.323 Y110.280 E0.17216
G1 X97.788 Y110.280 E0.01546
G1 X93.578 Y106.070 E0.17216
G1 X93.044 Y106.070 E0.01546
G1 X97.254 Y110.280 E0.17216
G1 X96.719 Y110.280 E0.01546
G1 X92.509 Y106.070 E0.17216
G1 X91.975 Y106.070 E0.01546
G1 X96.185 Y110.280 E0.17216
G1 X95.650 Y110.280 E0.01546
G1 X91.440 Y106.070 E0.17216
G1 X90.906 Y106.070 E0.01546
G1 X95.116 Y110.280 E0.17216
G1 X94.581 Y110.280 E0.01546
G1 X90.371 Y106.070 E0.17216
G1 X89.836 Y106.070 E0.01546
G1 X94.047 Y110.280 E0.17216
G1 X93.512 Y110.280 E0.01546
G1 X89.302 Y106.070 E0.17216
G1 X88.767 Y106.070 E0.01546
G1 X92.978 Y110.280 E0.17216
G1 X92.443 Y110.280 E0.01546
G1 X88.233 Y106.070 E0.17216
G1 X87.698 Y106.070 E0.01546
G1 X91.908 Y110.280 E0.17216
G1 X91.374 Y110.280 E0.01546
G1 X87.164 Y106.070 E0.17216
G1 X86.629 Y106.070 E0.01546
G1 X90.839 Y110.280 E0.17216
G1 X90.305 Y110.280 E0.01546
G1 X86.095 Y106.070 E0.17216
G1 X85.560 Y106.070 E0.01546
G1 X89.770 Y110.280 E0.17216
G1 X89.236 Y110.280 E0.01546
G1 X85.026 Y106.070 E0.17216
G1 X84.491 Y106.070 E0.01546
G1 X88.701 Y110.280 E0.17216
G1 X88.167 Y110.280 E0.01546
G1 X83.956 Y106.070 E0.17216
G1 X83.422 Y106.070 E0.01546
G1 X87.632 Y110.280 E0.17216
G1 X87.098 Y110.280 E0.01546
G1 X82.887 Y106.070 E0.17216
G1 X82.353 Y106.070 E0.01546
G1 X86.563 Y110.280 E0.17216
G1 X86.028 Y110.280 E0.01546
G1 X78.470 Y102.722 E0.30909
G1 X78.470 Y103.256 E0.01546
G1 X85.494 Y110.280 E0.28723
G1 X84.959 Y110.280 E0.01546
G1 X78.470 Y103.791 E0.26537
G1 X78.470 Y104.325 E0.01546
G1 X84.425 Y110.280 E0.24351
G1 X83.890 Y110.280 E0.01546
G1 X78.470 Y104.860 E0.22165
G1 X78.470 Y105.394 E0.01546
G1 X83.356 Y110.280 E0.19979
G1 X82.821 Y110.280 E0.01546
G1 X78.470 Y105.929 E0.17793
G1 X78.470 Y106.463 E0.01546
G1 X82.287 Y110.280 E0.15608
G1 X81.930 Y110.280 E0.01031
G1 X81.930 Y110.458 E0.00515
G1 X78.470 Y106.998 E0.14150
G1 X78.470 Y107.532 E0.01546
G1 X81.930 Y110.993 E0.14150
G1 X81.930 Y111.527 E0.01546
G1 X78.470 Y108.067 E0.14150
G1 X78.470 Y108.602 E0.01546
G1 X81.930 Y112.062 E0.14150
G1 X81.930 Y112.596 E0.01546
G1 X78.470 Y109.136 E0.14150
G1 X78.470 Y109.671 E0.01546
G1 X81.930 Y113.131 E0.14150
G1 X81.930 Y113.665 E0.01546
G1 X78.470 Y110.205 E0.14150
G1 X78.470 Y110.740 E0.01546
G1 X81.930 Y114.200 E0.14150
G1 X81.930 Y114.734 E0.01546
G1 X78.470 Y111.274 E0.14150
G1 X78.470 Y111.809 E0.01546
G1 X81.930 Y115.269 E0.14150
G1 X81.930 Y115.804 E0.01546
G1 X78.470 Y112.343 E0.14150
G1 X78.470 Y112.878 E0.01546
G1 X81.930 Y116.338 E0.14150
G1 X81.930 Y116.873 E0.01546
G1 X78.470 Y113.412 E0.14150
G1 X78.470 Y113.947 E0.01546
G1 X81.930 Y117.407 E0.14150
G1 X81.930 Y117.942 E0.01546
G1 X78.470 Y114.482 E0.14150
G1 X78.470 Y115.016 E0.01546
G1 X85.984 Y122.530 E0.30726
G1 X86.518 Y122.530 E0.01546
G1 X82.708 Y118.720 E0.15581
G1 X83.243 Y118.720 E0.01546
G1 X87.053 Y122.530 E0.15581
G1 X87.588 Y122.530 E0.01546
G1 X83.777 Y118.720 E0.15581
G1 X84.312 Y118.720 E0.01546
G1 X88.122 Y122.530 E0.15581
G1 X88.657 Y122.530 E0.01546
G1 X84.846 Y118.720 E0.15581
G1 X85.381 Y118.720 E0.01546
G1 X89.191 Y122.530 E0.15581
G1 X89.726 Y122.530 E0.01546
G1 X85.916 Y118.720 E0.15581
G1 X86.450 Y118.720 E0.01546
G1 X90.260 Y122.530 E0.15581
G1 X90.795 Y122.530 E0.01546
G1 X86.985 Y118.720 E0.15581
G1 X87.519 Y118.720 E0.01546
G1 X91.329 Y122.530 E0.15581
G1 X91.864 Y122.530 E0.01546
G1 X88.054 Y118.720 E0.15581
G1 X88.588 Y118.720 E0.01546
G1 X92.398 Y122.530 E0.15581
G1 X92.933 Y122.530 E0.01546
G1 X89.123 Y118.720 E0.15581
G1 X89.657 Y118.720 E0.01546
G1 X93.468 Y122.530 E0.15581
G1 X94.002 Y122.530 E0.01546
G1 X90.192 Y118.720 E0.15581
G1 X90.726 Y118.720 E0.01546
G1 X94.537 Y122.530 E0.15581
G1 X95.071 Y122.530 E0.01546
G1 X91.261 Y118.720 E0.15581
G1 X91.367 Y118.720 E0.00307
G1 X91.623 Y118.547 E0.00892
G1 X95.606 Y122.530 E0.16286
G1 X96.140 Y122.530 E0.01546
G1 X91.942 Y118.332 E0.17167
G1 X92.261 Y118.117 E0.01113
G1 X96.675 Y122.530 E0.18047
G1 X97.209 Y122.530 E0.01546
G1 X92.581 Y117.901 E0.18928
G1 X92.900 Y117.686 E0.01113
G1 X97.744 Y122.530 E0.19808
G1 X98.278 Y122.530 E0.01546
G1 X93.219 Y117.471 E0.20689
G1 X93.538 Y117.255 E0.01113
G1 X98.813 Y122.530 E0.21569
G1 X99.348 Y122.530 E0.01546
G1 X95.537 Y118.720 E0.15581
G1 X96.072 Y118.720 E0.01546
G1 X99.882 Y122.530 E0.15581
G1 X100.417 Y122.530 E0.01546
G1 X96.606 Y118.720 E0.15581
G1 X97.141 Y118.720 E0.01546
G1 X100.951 Y122.530 E0.15581
G1 X101.486 Y122.530 E0.01546
G1 X97.676 Y118.720 E0.15581
G1 X98.210 Y118.720 E0.01546
G1 X102.020 Y122.530 E0.15581
G1 X102.555 Y122.530 E0.01546
G1 X98.745 Y118.720 E0.15581
G1 X99.279 Y118.720 E0.01546
G1 X103.089 Y122.530 E0.15581
G1 X103.624 Y122.530 E0.01546
G1 X99.814 Y118.720 E0.15581
G1 X100.348 Y118.720 E0.01546
G1 X104.158 Y122.530 E0.15581
G1 X104.693 Y122.530 E0.01546
G1 X100.883 Y118.720 E0.15581
G1 X101.417 Y118.720 E0.01546
G1 X105.228 Y122.530 E0.15581
G1 X105.762 Y122.530 E0.01546
G1 X101.952 Y118.720 E0.15581
G1 X102.486 Y118.720 E0.01546
G1 X106.297 Y122.530 E0.15581
G1 X106.831 Y122.530 E0.01546
G1 X103.021 Y118.720 E0.15581
G1 X103.556 Y118.720 E0.01546
G1 X107.366 Y122.530 E0.15581
G1 X107.900 Y122.530 E0.01546
G1 X104.090 Y118.720 E0.15581
G1 X104.625 Y118.720 E0.01546
G1 X108.435 Y122.530 E0.15581
G1 X108.969 Y122.530 E0.01546
G1 X105.159 Y118.720 E0.15581
G1 X105.694 Y118.720 E0.01546
G1 X109.504 Y122.530 E0.15581
G1 X110.038 Y122.530 E0.01546
G1 X106.228 Y118.720 E0.15581
G1 X106.763 Y118.720 E0.01546
G1 X110.573 Y122.530 E0.15581
G1 X111.108 Y122.530 E0.01546
