; generated by Slic3r Prusa Edition 1.40.1+ on 2018-08-30 at 15:41:54

; 

; external perimeters extrusion width = 0.45mm
; perimeters extrusion width = 0.45mm
; infill extrusion width = 0.45mm
; solid infill extrusion width = 0.45mm
; top infill extrusion width = 0.40mm
; first layer extrusion width = 0.42mm

M107
M115 U3.1.0 ; tell printer latest fw version
M201 X9000 Y9000 Z500 E10000 ; sets maximum accelerations, mm/sec^2
M203 X500 Y500 Z12 E120 ; sets maximum feedrates, mm/sec
M204 S1500 T1500 ; sets acceleration (S) and retract acceleration (T)
M205 X10 Y10 Z0.2 E2.5 ; sets the jerk limits, mm/sec
M205 S0 T0 ; sets the minimum extruding and travel feed rate, mm/sec
M83  ; extruder relative mode
M104 S230 ; set extruder temp
M140 S85 ; set bed temp
M190 S85 ; wait for bed temp
M109 S230 ; wait for extruder temp
G28 W ; home all without mesh bed level
G80 ; mesh bed leveling
G1 Y-3.0 F1000.0 ; go outside print area
G92 E0.0
G1 X60.0 E9.0  F1000.0 ; intro line
G1 X100.0 E12.5  F1000.0 ; intro line
G92 E0.0
M900 K45; Filament gcode
G21 ; set units to millimeters
G90 ; use absolute coordinates
M83 ; use relative distances for extrusion
;BEFORE_LAYER_CHANGE
G92 E0.0
;0.2


G1 E-0.80000 F2100.00000
G1 Z0.600 F10800.000
;AFTER_LAYER_CHANGE
;0.2
G1 X75.241 Y85.776
G1 Z0.200
G1 E0.80000 F2100.00000
M204 S1000
G1 F1800
G1 X75.781 Y85.011 E0.02939
G1 X76.552 Y84.369 E0.03144
G1 X77.304 Y84.017 E0.02604
G1 X78.411 Y83.813 E0.03528
G1 X82.458 Y83.811 E0.12688
G1 X83.257 Y83.900 E0.02520
G1 X172.345 Y102.911 E2.85619
G1 X173.124 Y103.195 E0.02601
G1 X174.025 Y103.813 E0.03425
G1 X174.628 Y104.549 E0.02983
G1 X175.038 Y105.460 E0.03131
G1 X175.181 Y106.323 E0.02746
G1 X175.188 Y122.548 E0.50870
G1 X175.076 Y123.404 E0.02707
G1 X174.805 Y124.125 E0.02415
G1 X174.180 Y125.033 E0.03458
G1 X173.420 Y125.648 E0.03064
G1 X172.491 Y126.053 E0.03177
G1 X171.538 Y126.188 E0.03020
G1 X78.493 Y126.189 E2.91737
G1 X77.607 Y126.078 E0.02798
G1 X76.875 Y125.805 E0.02450
G1 X75.970 Y125.183 E0.03444
G1 X75.362 Y124.436 E0.03020
G1 X74.954 Y123.515 E0.03156
G1 X74.814 Y122.611 E0.02870
G1 X74.811 Y87.496 E1.10099
G1 X74.882 Y86.823 E0.02124
G1 X75.221 Y85.833 E0.03280
G1 F8640
G1 X75.781 Y85.011 E-0.22976
G1 X76.552 Y84.369 E-0.23153
G1 X77.304 Y84.017 E-0.19177
G1 X77.760 Y83.933 E-0.10694
G1 E-0.04000 F2100.00000
G1 Z0.800 F10800.000
G1 X104.851 Y110.642
G1 Z0.200
G1 E0.80000 F2100.00000
G1 F1800
G1 X114.775 Y117.336 E0.37532
G1 X114.499 Y118.237 E0.02956
G1 X95.203 Y118.237 E0.60503
G1 X94.927 Y117.336 E0.02956
G1 X104.801 Y110.675 E0.37344
G1 X104.851 Y111.097 F10800.000
G1 F1800
G1 X114.333 Y117.492 E0.35860
G1 X114.220 Y117.860 E0.01206
G1 X95.482 Y117.860 E0.58753
G1 X95.369 Y117.492 E0.01206
G1 X104.801 Y111.130 E0.35672
G1 X105.112 Y110.794 F10800.000
G1 F8640
G1 X107.539 Y112.958 E-0.76000
G1 E-0.04000 F2100.00000
G1 Z0.800 F10800.000
G1 X100.964 Y111.664
G1 Z0.200
G1 E0.80000 F2100.00000
G1 F1800
G1 X91.219 Y118.237 E0.36854
G1 X82.413 Y118.237 E0.27612
G1 X82.413 Y110.763 E0.23435
G1 X100.688 Y110.763 E0.57301
G1 X100.946 Y111.607 E0.02768
G1 X100.522 Y111.508 F10800.000
G1 F1800
G1 X91.104 Y117.860 E0.35617
G1 X82.790 Y117.860 E0.26069
G1 X82.790 Y111.140 E0.21070
G1 X100.409 Y111.140 E0.55244
G1 X100.504 Y111.450 E0.01018
G1 X100.838 Y111.753 F10800.000
G1 F8640
G1 X97.785 Y113.305 E-0.76000
G1 E-0.04000 F2100.00000
G1 Z0.800 F10800.000
G1 X97.377 Y105.587
G1 Z0.200
G1 E0.80000 F2100.00000
G1 F1800
G1 X82.413 Y105.587 E0.46920
G1 X82.413 Y93.030 E0.39371
G1 X97.332 Y105.549 E0.61062
G1 F8640
G1 X94.040 Y105.557 E-0.76000
G1 E-0.04000 F2100.00000
G1 Z0.800 F10800.000
G1 X96.341 Y105.210
G1 Z0.200
G1 E0.80000 F2100.00000
G1 F1800
G1 X82.790 Y105.210 E0.42490
G1 X82.790 Y93.839 E0.35653
G1 X96.296 Y105.171 E0.55278
G1 X96.541 Y105.556 F10800.000
G1 F8640
G1 X93.004 Y105.181 E-0.76000
G1 E-0.04000 F2100.00000
G1 Z0.800 F10800.000
G1 X109.013 Y110.763
G1 Z0.200
G1 E0.80000 F2100.00000
G1 F1800
G1 X136.887 Y110.763 E0.87396
G1 X136.887 Y118.237 E0.23435
G1 X118.482 Y118.237 E0.57707
G1 X108.738 Y111.664 E0.36853
G1 X108.996 Y110.820 E0.02768
G1 X109.293 Y111.140 F10800.000
G1 F1800
G1 X136.510 Y111.140 E0.85339
G1 X136.510 Y117.860 E0.21070
G1 X118.598 Y117.860 E0.56163
G1 X109.180 Y111.508 E0.35617
G1 X109.275 Y111.197 E0.01018
G1 X109.169 Y110.760 F10800.000
G1 F8640
G1 X112.566 Y111.190 E-0.76000
G1 E-0.04000 F2100.00000
G1 Z0.800 F10800.000
G1 X147.213 Y110.763
G1 Z0.200
G1 E0.80000 F2100.00000
G1 F1800
G1 X167.587 Y110.763 E0.63882
G1 X167.587 Y118.237 E0.23435
G1 X147.213 Y118.237 E0.63882
G1 X147.213 Y110.823 E0.23247
G1 X147.590 Y111.140 F10800.000
G1 F1800
G1 X167.210 Y111.140 E0.61517
G1 X167.210 Y117.860 E0.21070
G1 X147.590 Y117.860 E0.61517
G1 X147.590 Y111.200 E0.20882
G1 X147.429 Y110.774 F10800.000
G1 F8640
G1 X150.881 Y111.190 E-0.76000
G1 E-0.04000 F2100.00000
G1 Z0.800 F10800.000
G1 X105.284 Y105.987
G1 Z0.200
G1 E0.80000 F2100.00000
G1 F1800
G1 X171.462 Y105.987 E2.07495
G1 X171.631 Y106.009 E0.00537
G1 X171.754 Y106.060 E0.00416
G1 X171.859 Y106.141 E0.00416
G1 X171.940 Y106.246 E0.00416
G1 X171.991 Y106.369 E0.00416
G1 X172.013 Y106.539 E0.00537
G1 X172.013 Y122.461 E0.49925
G1 X171.991 Y122.631 E0.00537
G1 X171.940 Y122.754 E0.00416
G1 X171.859 Y122.859 E0.00416
G1 X171.754 Y122.940 E0.00416
G1 X171.631 Y122.991 E0.00416
G1 X171.462 Y123.013 E0.00537
G1 X78.538 Y123.013 E2.91354
G1 X78.369 Y122.991 E0.00537
G1 X78.246 Y122.940 E0.00416
G1 X78.141 Y122.859 E0.00416
G1 X78.060 Y122.754 E0.00416
G1 X78.009 Y122.631 E0.00416
G1 X77.987 Y122.462 E0.00537
G1 X77.987 Y87.538 E1.09499
G1 X78.009 Y87.368 E0.00537
G1 X78.060 Y87.246 E0.00415
G1 X78.141 Y87.141 E0.00416
G1 X78.246 Y87.060 E0.00416
G1 X78.369 Y87.009 E0.00416
G1 X78.538 Y86.987 E0.00537
G1 X82.420 Y86.987 E0.12169
G1 X82.571 Y87.005 E0.00479
G1 X82.682 Y87.045 E0.00370
G1 X82.810 Y87.129 E0.00478
G1 X105.238 Y105.949 E0.91799
G1 X105.421 Y105.610 F10800.000
G1 F1800
G1 X171.486 Y105.610 E2.07142
G1 X171.730 Y105.642 E0.00770
G1 X171.944 Y105.731 E0.00727
G1 X172.128 Y105.872 E0.00727
G1 X172.269 Y106.056 E0.00727
G1 X172.358 Y106.270 E0.00727
G1 X172.390 Y106.514 E0.00771
G1 X172.390 Y122.486 E0.50081
G1 X172.358 Y122.730 E0.00770
G1 X172.269 Y122.944 E0.00727
G1 X172.128 Y123.128 E0.00727
G1 X171.944 Y123.269 E0.00727
G1 X171.730 Y123.358 E0.00727
G1 X171.486 Y123.390 E0.00770
G1 X78.514 Y123.390 E2.91509
G1 X78.270 Y123.358 E0.00771
G1 X78.056 Y123.269 E0.00727
G1 X77.872 Y123.128 E0.00727
G1 X77.731 Y122.944 E0.00727
G1 X77.642 Y122.730 E0.00727
G1 X77.610 Y122.486 E0.00770
G1 X77.610 Y87.514 E1.09654
G1 X77.642 Y87.270 E0.00770
G1 X77.731 Y87.056 E0.00727
G1 X77.872 Y86.872 E0.00727
G1 X78.056 Y86.731 E0.00727
G1 X78.270 Y86.642 E0.00727
G1 X78.514 Y86.610 E0.00771
G1 X82.442 Y86.610 E0.12316
G1 X82.659 Y86.635 E0.00686
G1 X82.853 Y86.706 E0.00647
G1 X83.035 Y86.826 E0.00686
G1 X105.375 Y105.571 E0.91437
G1 X105.536 Y105.993 F10800.000
G1 F8640
G1 X108.667 Y105.573 E-0.76000
G1 E-0.04000 F2100.00000
G1 Z0.800 F10800.000
G1 X101.044 Y102.577
G1 Z0.200
G1 E0.80000 F2100.00000
G1 F1800
G1 X108.947 Y110.480 E0.35143
G1 X109.482 Y110.480 E0.01682
G1 X105.272 Y106.270 E0.18722
G1 X105.807 Y106.270 E0.01682
G1 X110.017 Y110.480 E0.18722
G1 X110.552 Y110.480 E0.01682
G1 X106.341 Y106.270 E0.18722
G1 X106.876 Y106.270 E0.01682
G1 X111.086 Y110.480 E0.18722
G1 X111.621 Y110.480 E0.01682
G1 X107.411 Y106.270 E0.18722
G1 X107.946 Y106.270 E0.01682
G1 X112.156 Y110.480 E0.18722
G1 X112.691 Y110.480 E0.01682
G1 X108.481 Y106.270 E0.18722
G1 X109.015 Y106.270 E0.01682
G1 X113.226 Y110.480 E0.18722
G1 X113.760 Y110.480 E0.01682
G1 X109.550 Y106.270 E0.18722
G1 X110.085 Y106.270 E0.01682
G1 X114.295 Y110.480 E0.18722
G1 X114.830 Y110.480 E0.01682
G1 X110.620 Y106.270 E0.18722
G1 X111.155 Y106.270 E0.01682
G1 X115.365 Y110.480 E0.18722
G1 X115.900 Y110.480 E0.01682
G1 X111.689 Y106.270 E0.18722
G1 X112.224 Y106.270 E0.01682
G1 X116.434 Y110.480 E0.18722
G1 X116.969 Y110.480 E0.01682
G1 X112.759 Y106.270 E0.18722
G1 X113.294 Y106.270 E0.01682
G1 X117.504 Y110.480 E0.18722
G1 X118.039 Y110.480 E0.01682
G1 X113.828 Y106.270 E0.18722
G1 X114.363 Y106.270 E0.01682
G1 X118.574 Y110.480 E0.18722
G1 X119.108 Y110.480 E0.01682
G1 X114.898 Y106.270 E0.18722
G1 X115.433 Y106.270 E0.01682
G1 X119.643 Y110.480 E0.18722
G1 X120.178 Y110.480 E0.01682
G1 X115.968 Y106.270 E0.18722
G1 X116.502 Y106.270 E0.01682
G1 X120.713 Y110.480 E0.18722
G1 X121.248 Y110.480 E0.01682
G1 X117.037 Y106.270 E0.18722
G1 X117.572 Y106.270 E0.01682
G1 X121.782 Y110.480 E0.18722
G1 X122.317 Y110.480 E0.01682
G1 X118.107 Y106.270 E0.18722
G1 X118.642 Y106.270 E0.01682
G1 X122.852 Y110.480 E0.18722
G1 X123.387 Y110.480 E0.01682
G1 X119.176 Y106.270 E0.18722
G1 X119.711 Y106.270 E0.01682
G1 X123.921 Y110.480 E0.18722
G1 X124.456 Y110.480 E0.01682
G1 X120.246 Y106.270 E0.18722
G1 X120.781 Y106.270 E0.01682
G1 X124.991 Y110.480 E0.18722
G1 X125.526 Y110.480 E0.01682
G1 X121.316 Y106.270 E0.18722
G1 X121.850 Y106.270 E0.01682
G1 X126.061 Y110.480 E0.18722
G1 X126.595 Y110.480 E0.01682
G1 X122.385 Y106.270 E0.18722
G1 X122.920 Y106.270 E0.01682
G1 X127.130 Y110.480 E0.18722
G1 X127.665 Y110.480 E0.01682
G1 X123.455 Y106.270 E0.18722
G1 X123.990 Y106.270 E0.01682
G1 X128.200 Y110.480 E0.18722
G1 X128.735 Y110.480 E0.01682
G1 X124.524 Y106.270 E0.18722
G1 X125.059 Y106.270 E0.01682
G1 X129.269 Y110.480 E0.18722
G1 X129.804 Y110.480 E0.01682
G1 X125.594 Y106.270 E0.18722
G1 X126.129 Y106.270 E0.01682
G1 X130.339 Y110.480 E0.18722
G1 X130.874 Y110.480 E0.01682
G1 X126.664 Y106.270 E0.18722
G1 X127.198 Y106.270 E0.01682
G1 X131.409 Y110.480 E0.18722
G1 X131.943 Y110.480 E0.01682
G1 X127.733 Y106.270 E0.18722
G1 X128.268 Y106.270 E0.01682
G1 X132.478 Y110.480 E0.18722
G1 X133.013 Y110.480 E0.01682
G1 X128.803 Y106.270 E0.18722
G1 X129.337 Y106.270 E0.01682
G1 X133.548 Y110.480 E0.18722
G1 X134.083 Y110.480 E0.01682
G1 X129.872 Y106.270 E0.18722
G1 X130.407 Y106.270 E0.01682
G1 X134.617 Y110.480 E0.18722
G1 X135.152 Y110.480 E0.01682
G1 X130.942 Y106.270 E0.18722
G1 X131.477 Y106.270 E0.01682
G1 X135.687 Y110.480 E0.18722
G1 X136.222 Y110.480 E0.01682
G1 X132.011 Y106.270 E0.18722
G1 X132.546 Y106.270 E0.01682
G1 X136.926 Y110.650 E0.19477
G1 F8640
G1 X134.599 Y108.322 E-0.76000
G1 E-0.04000 F2100.00000
G1 Z0.800 F10800.000
G1 X147.100 Y118.149
G1 Z0.200
G1 E0.80000 F2100.00000
G1 F1800
G1 X135.220 Y106.270 E0.52827
G1 X135.755 Y106.270 E0.01682
G1 X146.930 Y117.445 E0.49694
G1 X146.930 Y116.910 E0.01682
G1 X136.290 Y106.270 E0.47316
G1 X136.825 Y106.270 E0.01682
G1 X146.930 Y116.375 E0.44938
G1 X146.930 Y115.841 E0.01682
G1 X137.359 Y106.270 E0.42559
G1 X137.894 Y106.270 E0.01682
G1 X146.930 Y115.306 E0.40181
G1 X146.930 Y114.771 E0.01682
G1 X138.429 Y106.270 E0.37803
G1 X138.964 Y106.270 E0.01682
G1 X146.930 Y114.236 E0.35425
G1 X146.930 Y113.701 E0.01682
G1 X139.499 Y106.270 E0.33047
G1 X140.033 Y106.270 E0.01682
G1 X146.930 Y113.167 E0.30669
G1 X146.930 Y112.632 E0.01682
G1 X140.568 Y106.270 E0.28291
G1 X141.103 Y106.270 E0.01682
G1 X146.930 Y112.097 E0.25913
G1 X146.930 Y111.562 E0.01682
G1 X141.638 Y106.270 E0.23534
G1 X142.173 Y106.270 E0.01682
G1 X146.930 Y111.027 E0.21156
G1 X146.930 Y110.493 E0.01682
G1 X142.707 Y106.270 E0.18778
G1 X143.242 Y106.270 E0.01682
G1 X147.452 Y110.480 E0.18722
G1 X147.987 Y110.480 E0.01682
G1 X143.777 Y106.270 E0.18722
G1 X144.312 Y106.270 E0.01682
G1 X148.522 Y110.480 E0.18722
G1 X149.057 Y110.480 E0.01682
G1 X144.846 Y106.270 E0.18722
G1 X145.381 Y106.270 E0.01682
G1 X149.592 Y110.480 E0.18722
G1 X150.126 Y110.480 E0.01682
G1 X145.916 Y106.270 E0.18722
G1 X146.451 Y106.270 E0.01682
G1 X150.661 Y110.480 E0.18722
G1 X151.196 Y110.480 E0.01682
G1 X146.986 Y106.270 E0.18722
G1 X147.520 Y106.270 E0.01682
G1 X151.731 Y110.480 E0.18722
G1 X152.266 Y110.480 E0.01682
G1 X148.055 Y106.270 E0.18722
G1 X148.590 Y106.270 E0.01682
G1 X152.800 Y110.480 E0.18722
G1 X153.335 Y110.480 E0.01682
G1 X149.125 Y106.270 E0.18722
G1 X149.660 Y106.270 E0.01682
G1 X153.870 Y110.480 E0.18722
G1 X154.405 Y110.480 E0.01682
G1 X150.194 Y106.270 E0.18722
G1 X150.729 Y106.270 E0.01682
G1 X154.939 Y110.480 E0.18722
G1 X155.474 Y110.480 E0.01682
G1 X151.264 Y106.270 E0.18722
G1 X151.799 Y106.270 E0.01682
G1 X156.009 Y110.480 E0.18722
G1 X156.544 Y110.480 E0.01682
G1 X152.334 Y106.270 E0.18722
G1 X152.868 Y106.270 E0.01682
G1 X157.079 Y110.480 E0.18722
G1 X157.613 Y110.480 E0.01682
G1 X153.403 Y106.270 E0.18722
G1 X153.938 Y106.270 E0.01682
G1 X158.148 Y110.480 E0.18722
G1 X158.683 Y110.480 E0.01682
G1 X154.473 Y106.270 E0.18722
G1 X155.008 Y106.270 E0.01682
G1 X159.218 Y110.480 E0.18722
G1 X159.753 Y110.480 E0.01682
G1 X155.542 Y106.270 E0.18722
G1 X156.077 Y106.270 E0.01682
G1 X160.287 Y110.480 E0.18722
G1 X160.822 Y110.480 E0.01682
G1 X156.612 Y106.270 E0.18722
G1 X157.147 Y106.270 E0.01682
G1 X161.357 Y110.480 E0.18722
G1 X161.892 Y110.480 E0.01682
G1 X157.682 Y106.270 E0.18722
G1 X158.216 Y106.270 E0.01682
G1 X162.427 Y110.480 E0.18722
G1 X162.961 Y110.480 E0.01682
G1 X158.751 Y106.270 E0.18722
G1 X159.286 Y106.270 E0.01682
G1 X163.496 Y110.480 E0.18722
G1 X164.031 Y110.480 E0.01682
G1 X159.821 Y106.270 E0.18722
G1 X160.356 Y106.270 E0.01682
G1 X164.566 Y110.480 E0.18722
G1 X165.101 Y110.480 E0.01682
G1 X160.890 Y106.270 E0.18722
G1 X161.425 Y106.270 E0.01682
G1 X165.635 Y110.480 E0.18722
G1 X166.170 Y110.480 E0.01682
G1 X161.960 Y106.270 E0.18722
G1 X162.495 Y106.270 E0.01682
G1 X166.705 Y110.480 E0.18722
G1 X167.240 Y110.480 E0.01682
G1 X163.029 Y106.270 E0.18722
G1 X163.564 Y106.270 E0.01682
G1 X171.730 Y114.436 E0.36312
G1 X171.730 Y113.901 E0.01682
G1 X164.099 Y106.270 E0.33934
G1 X164.634 Y106.270 E0.01682
G1 X171.730 Y113.366 E0.31556
G1 X171.730 Y112.831 E0.01682
G1 X165.169 Y106.270 E0.29178
G1 X165.703 Y106.270 E0.01682
G1 X171.730 Y112.297 E0.26800
G1 X171.730 Y111.762 E0.01682
G1 X166.238 Y106.270 E0.24422
G1 X166.773 Y106.270 E0.01682
G1 X171.730 Y111.227 E0.22043
G1 X171.730 Y110.692 E0.01682
G1 X167.308 Y106.270 E0.19665
G1 X167.843 Y106.270 E0.01682
G1 X171.730 Y110.157 E0.17287
G1 X171.730 Y109.623 E0.01682
G1 X168.377 Y106.270 E0.14909
G1 X168.912 Y106.270 E0.01682
G1 X171.730 Y109.088 E0.12531
G1 X171.730 Y108.553 E0.01682
G1 X169.447 Y106.270 E0.10153
G1 X169.982 Y106.270 E0.01682
G1 X171.730 Y108.018 E0.07775
G1 X171.730 Y107.483 E0.01682
G1 X170.517 Y106.270 E0.05396
G1 X171.051 Y106.270 E0.01682
G1 X171.900 Y107.118 E0.03773
G1 F8640
G1 X171.051 Y106.270 E-0.27706
G1 X170.517 Y106.270 E-0.12349
G1 X171.617 Y107.371 E-0.35946
G1 E-0.04000 F2100.00000
G1 Z0.800 F10800.000
G1 X171.900 Y115.140
G1 Z0.200
G1 E0.80000 F2100.00000
G1 F1800
G1 X167.870 Y111.110 E0.17921
G1 X167.870 Y111.645 E0.01682
G1 X171.730 Y115.505 E0.17166
G1 X171.730 Y116.040 E0.01682
G1 X167.870 Y112.180 E0.17166
G1 X167.870 Y112.715 E0.01682
G1 X171.730 Y116.575 E0.17166
G1 X171.730 Y117.110 E0.01682
G1 X167.870 Y113.249 E0.17166
G1 X167.870 Y113.784 E0.01682
G1 X171.730 Y117.644 E0.17166
G1 X171.730 Y118.179 E0.01682
G1 X167.870 Y114.319 E0.17166
G1 X167.870 Y114.854 E0.01682
G1 X171.730 Y118.714 E0.17166
G1 X171.730 Y119.249 E0.01682
G1 X167.870 Y115.389 E0.17166
G1 X167.870 Y115.923 E0.01682
G1 X171.730 Y119.784 E0.17166
G1 X171.730 Y120.318 E0.01682
G1 X167.870 Y116.458 E0.17166
G1 X167.870 Y116.993 E0.01682
G1 X171.730 Y120.853 E0.17166
G1 X171.730 Y121.388 E0.01682
G1 X167.870 Y117.528 E0.17166
G1 X167.870 Y118.063 E0.01682
G1 X171.730 Y121.923 E0.17166
G1 X171.728 Y122.456 E0.01676
G1 X167.792 Y118.520 E0.17503
G1 X167.258 Y118.520 E0.01682
G1 X171.465 Y122.727 E0.18709
G1 X171.443 Y122.730 E0.00070
G1 X170.933 Y122.730 E0.01603
G1 X166.723 Y118.520 E0.18722
G1 X166.188 Y118.520 E0.01682
G1 X170.398 Y122.730 E0.18722
G1 X169.863 Y122.730 E0.01682
G1 X165.653 Y118.520 E0.18722
G1 X165.118 Y118.520 E0.01682
G1 X169.329 Y122.730 E0.18722
G1 X168.794 Y122.730 E0.01682
G1 X164.584 Y118.520 E0.18722
G1 X164.049 Y118.520 E0.01682
G1 X168.259 Y122.730 E0.18722
G1 X167.724 Y122.730 E0.01682
