; generated by Slic3r Prusa Edition 1.40.1+ on 2018-08-30 at 16:09:51

; 

; external perimeters extrusion width = 0.45mm
; perimeters extrusion width = 0.45mm
; infill extrusion width = 0.45mm
; solid infill extrusion width = 0.45mm
; top infill extrusion width = 0.40mm
; first layer extrusion width = 0.42mm

M107
M115 U3.1.0 ; tell printer latest fw version
M201 X9000 Y9000 Z500 E10000 ; sets maximum accelerations, mm/sec^2
M203 X500 Y500 Z12 E120 ; sets maximum feedrates, mm/sec
M204 S1500 T1500 ; sets acceleration (S) and retract acceleration (T)
M205 X10 Y10 Z0.2 E2.5 ; sets the jerk limits, mm/sec
M205 S0 T0 ; sets the minimum extruding and travel feed rate, mm/sec
M83  ; extruder relative mode
M104 S230 ; set extruder temp
M140 S85 ; set bed temp
M190 S85 ; wait for bed temp
M109 S230 ; wait for extruder temp
G28 W ; home all without mesh bed level
G80 ; mesh bed leveling
G1 Y-3.0 F1000.0 ; go outside print area
G92 E0.0
G1 X60.0 E9.0  F1000.0 ; intro line
G1 X100.0 E12.5  F1000.0 ; intro line
G92 E0.0
M900 K45; Filament gcode
G21 ; set units to millimeters
G90 ; use absolute coordinates
M83 ; use relative distances for extrusion
;BEFORE_LAYER_CHANGE
G92 E0.0
;0.2


G1 E-0.80000 F2100.00000
G1 Z0.600 F10800.000
;AFTER_LAYER_CHANGE
;0.2
G1 X101.446 Y61.115
G1 Z0.200
G1 E0.80000 F2100.00000
M204 S1000
G1 F1800
G1 X102.035 Y60.624 E0.02405
G1 X102.720 Y60.308 E0.02365
G1 X103.590 Y60.163 E0.02764
G1 X146.334 Y60.161 E1.34023
G1 X146.900 Y60.213 E0.01782
G1 X147.472 Y60.375 E0.01863
G1 X147.990 Y60.640 E0.01825
G1 X148.454 Y61.011 E0.01863
G1 X148.842 Y61.483 E0.01916
G1 X149.109 Y61.990 E0.01796
G1 X149.280 Y62.562 E0.01873
G1 X149.337 Y63.101 E0.01697
G1 X149.339 Y146.838 E2.62553
G1 X149.274 Y147.465 E0.01977
G1 X149.058 Y148.122 E0.02168
G1 X148.581 Y148.855 E0.02742
G1 X147.986 Y149.362 E0.02451
G1 X147.286 Y149.690 E0.02424
G1 X146.400 Y149.837 E0.02817
G1 X103.655 Y149.838 E1.34024
G1 X103.031 Y149.773 E0.01966
G1 X102.378 Y149.558 E0.02157
G1 X101.642 Y149.078 E0.02753
G1 X101.132 Y148.477 E0.02474
G1 X100.806 Y147.772 E0.02435
G1 X100.662 Y146.867 E0.02874
G1 X100.661 Y63.162 E2.62450
G1 X100.733 Y62.506 E0.02069
G1 X100.978 Y61.804 E0.02333
G1 X101.412 Y61.165 E0.02423
G1 F8640
G1 X102.035 Y60.624 E-0.19045
G1 X102.720 Y60.308 E-0.17419
G1 X103.590 Y60.163 E-0.20352
G1 X104.420 Y60.163 E-0.19185
G1 E-0.04000 F2100.00000
G1 Z0.800 F10800.000
G1 X112.554 Y139.967
G1 Z0.200
G1 E0.80000 F2100.00000
G1 F1800
G1 X112.317 Y140.027 E0.00767
G1 X111.034 Y140.664 E0.04491
G1 X110.374 Y140.893 E0.02190
G1 X109.663 Y141.022 E0.02267
G1 X109.256 Y141.041 E0.01275
G1 X108.865 Y141.023 E0.01230
G1 X108.472 Y140.966 E0.01243
G1 X108.084 Y140.868 E0.01255
G1 X107.707 Y140.727 E0.01263
G1 X107.346 Y140.545 E0.01268
G1 X107.007 Y140.321 E0.01273
G1 X106.698 Y140.058 E0.01273
G1 X106.424 Y139.760 E0.01270
G1 X106.189 Y139.432 E0.01264
G1 X105.996 Y139.082 E0.01254
G1 X105.847 Y138.715 E0.01241
G1 X105.741 Y138.339 E0.01226
G1 X105.675 Y137.959 E0.01210
G1 X105.648 Y137.580 E0.01190
G1 X105.654 Y137.190 E0.01223
G1 X105.747 Y136.515 E0.02136
G1 X105.836 Y136.156 E0.01160
G1 X106.029 Y135.569 E0.01938
G1 X106.402 Y134.625 E0.03183
G1 X106.508 Y134.286 E0.01113
G1 X106.550 Y134.015 E0.00860
G1 X106.540 Y133.764 E0.00787
G1 X106.473 Y133.479 E0.00916
G1 X106.337 Y133.136 E0.01160
G1 X106.131 Y132.732 E0.01422
G1 X105.578 Y131.760 E0.03505
G1 X105.170 Y130.916 E0.02941
G1 X104.951 Y130.262 E0.02160
G1 X104.825 Y129.569 E0.02211
G1 X104.812 Y128.865 E0.02207
G1 X104.852 Y128.466 E0.01258
G1 X104.998 Y127.769 E0.02231
G1 X105.230 Y127.082 E0.02273
G1 X105.512 Y126.431 E0.02227
G1 X106.084 Y125.282 E0.04022
G1 X106.300 Y124.801 E0.01654
G1 X106.439 Y124.377 E0.01398
G1 X106.480 Y124.065 E0.00989
G1 X106.448 Y123.735 E0.01038
G1 X106.403 Y123.557 E0.00578
G1 X106.209 Y123.050 E0.01702
G1 X105.637 Y121.748 E0.04457
G1 X105.394 Y120.961 E0.02581
G1 X105.307 Y120.525 E0.01394
G1 X105.254 Y120.095 E0.01359
G1 X105.237 Y119.661 E0.01364
G1 X105.256 Y119.227 E0.01361
G1 X105.312 Y118.798 E0.01355
G1 X105.404 Y118.380 E0.01344
G1 X105.529 Y117.975 E0.01328
G1 X105.686 Y117.588 E0.01309
G1 X105.871 Y117.222 E0.01287
G1 X106.081 Y116.878 E0.01263
G1 X106.314 Y116.561 E0.01235
G1 X106.568 Y116.272 E0.01208
G1 X106.841 Y116.012 E0.01181
G1 X107.132 Y115.785 E0.01157
G1 X107.441 Y115.593 E0.01140
G1 X107.767 Y115.440 E0.01129
G1 X108.108 Y115.332 E0.01122
G1 X108.459 Y115.273 E0.01115
G1 X108.810 Y115.267 E0.01100
G1 X109.148 Y115.311 E0.01069
G1 X109.483 Y115.401 E0.01089
G1 X110.007 Y115.632 E0.01794
G1 X111.295 Y116.416 E0.04729
G1 X111.667 Y116.604 E0.01305
G1 X112.193 Y116.798 E0.01759
G1 X112.462 Y116.845 E0.00857
G1 X112.731 Y116.796 E0.00856
G1 X113.256 Y116.597 E0.01759
G1 X113.626 Y116.407 E0.01305
G1 X114.908 Y115.613 E0.04729
G1 X115.438 Y115.373 E0.01823
G1 X115.807 Y115.279 E0.01196
G1 X116.102 Y115.238 E0.00933
G1 X116.453 Y115.242 E0.01100
G1 X116.804 Y115.298 E0.01115
G1 X117.146 Y115.403 E0.01123
G1 X117.473 Y115.553 E0.01129
G1 X117.783 Y115.743 E0.01140
G1 X118.076 Y115.968 E0.01157
G1 X118.351 Y116.225 E0.01181
G1 X118.608 Y116.512 E0.01208
G1 X118.843 Y116.828 E0.01235
G1 X119.057 Y117.169 E0.01262
G1 X119.244 Y117.534 E0.01287
G1 X119.404 Y117.920 E0.01309
G1 X119.532 Y118.324 E0.01328
G1 X119.627 Y118.742 E0.01344
G1 X119.687 Y119.170 E0.01355
G1 X119.710 Y119.603 E0.01362
G1 X119.696 Y120.038 E0.01363
G1 X119.647 Y120.469 E0.01359
G1 X119.562 Y120.905 E0.01394
G1 X119.326 Y121.694 E0.02581
G1 X118.764 Y123.000 E0.04457
G1 X118.575 Y123.509 E0.01702
G1 X118.530 Y123.687 E0.00577
G1 X118.502 Y124.017 E0.01038
G1 X118.545 Y124.329 E0.00988
G1 X118.687 Y124.752 E0.01399
G1 X118.907 Y125.232 E0.01654
G1 X119.488 Y126.375 E0.04022
G1 X119.771 Y127.014 E0.02188
G1 X119.905 Y127.373 E0.01203
G1 X120.102 Y128.064 E0.02253
G1 X120.208 Y128.786 E0.02287
G1 X120.200 Y129.489 E0.02204
G1 X120.148 Y129.879 E0.01235
G1 X119.983 Y130.532 E0.02113
G1 X119.740 Y131.151 E0.02084
G1 X119.459 Y131.713 E0.01971
G1 X118.919 Y132.681 E0.03475
G1 X118.716 Y133.087 E0.01422
G1 X118.583 Y133.432 E0.01160
G1 X118.519 Y133.716 E0.00915
G1 X118.511 Y133.967 E0.00787
G1 X118.555 Y134.238 E0.00861
G1 X118.663 Y134.576 E0.01113
G1 X119.044 Y135.517 E0.03183
G1 X119.247 Y136.118 E0.01988
G1 X119.395 Y136.795 E0.02175
G1 X119.442 Y137.505 E0.02231
G1 X119.416 Y137.904 E0.01253
G1 X119.353 Y138.285 E0.01209
G1 X119.250 Y138.662 E0.01226
G1 X119.104 Y139.030 E0.01241
G1 X118.914 Y139.382 E0.01253
G1 X118.682 Y139.711 E0.01263
G1 X118.410 Y140.012 E0.01271
G1 X118.103 Y140.277 E0.01273
G1 X117.767 Y140.504 E0.01272
G1 X117.407 Y140.689 E0.01269
G1 X117.030 Y140.832 E0.01262
G1 X116.643 Y140.933 E0.01255
G1 X116.251 Y140.994 E0.01244
G1 X115.860 Y141.015 E0.01229
G1 X115.453 Y140.999 E0.01275
G1 X114.741 Y140.876 E0.02267
G1 X114.079 Y140.652 E0.02190
G1 X112.791 Y140.025 E0.04492
G1 X112.613 Y139.977 E0.00579
G1 X112.552 Y139.589 F10800.000
G1 F1800
G1 X112.460 Y139.596 E0.00291
G1 X112.181 Y139.673 E0.00906
G1 X110.888 Y140.316 E0.04529
G1 X110.278 Y140.528 E0.02023
G1 X109.620 Y140.647 E0.02097
G1 X109.256 Y140.664 E0.01141
G1 X108.901 Y140.647 E0.01116
G1 X108.546 Y140.595 E0.01124
G1 X108.197 Y140.507 E0.01130
G1 X107.858 Y140.381 E0.01133
G1 X107.535 Y140.218 E0.01133
G1 X107.234 Y140.019 E0.01132
G1 X106.960 Y139.786 E0.01130
G1 X106.717 Y139.522 E0.01126
G1 X106.508 Y139.231 E0.01121
G1 X106.338 Y138.919 E0.01114
G1 X106.205 Y138.592 E0.01107
G1 X106.109 Y138.255 E0.01099
G1 X106.050 Y137.913 E0.01090
G1 X106.025 Y137.569 E0.01079
G1 X106.031 Y137.219 E0.01099
G1 X106.118 Y136.586 E0.02003
G1 X106.198 Y136.260 E0.01053
G1 X106.383 Y135.697 E0.01857
G1 X106.758 Y134.750 E0.03193
G1 X106.876 Y134.371 E0.01245
G1 X106.928 Y134.036 E0.01062
G1 X106.915 Y133.713 E0.01014
G1 X106.834 Y133.367 E0.01116
G1 X106.681 Y132.980 E0.01304
G1 X106.463 Y132.553 E0.01504
G1 X105.912 Y131.584 E0.03493
G1 X105.520 Y130.773 E0.02826
G1 X105.317 Y130.168 E0.02000
G1 X105.202 Y129.531 E0.02031
G1 X105.189 Y128.880 E0.02041
G1 X105.225 Y128.523 E0.01124
G1 X105.363 Y127.869 E0.02097
G1 X105.582 Y127.218 E0.02154
G1 X105.854 Y126.590 E0.02146
G1 X106.424 Y125.444 E0.04013
G1 X106.653 Y124.938 E0.01741
G1 X106.805 Y124.471 E0.01539
G1 X106.857 Y124.073 E0.01259
G1 X106.850 Y123.871 E0.00633
G1 X106.763 Y123.442 E0.01371
G1 X106.558 Y122.906 E0.01799
G1 X105.991 Y121.616 E0.04419
G1 X105.760 Y120.868 E0.02454
G1 X105.679 Y120.465 E0.01289
G1 X105.630 Y120.065 E0.01265
G1 X105.614 Y119.661 E0.01265
G1 X105.632 Y119.260 E0.01261
G1 X105.684 Y118.863 E0.01254
G1 X105.769 Y118.476 E0.01243
G1 X105.885 Y118.102 E0.01229
G1 X106.029 Y117.744 E0.01210
G1 X106.200 Y117.405 E0.01189
G1 X106.394 Y117.089 E0.01164
G1 X106.608 Y116.797 E0.01134
G1 X106.840 Y116.533 E0.01103
G1 X107.088 Y116.298 E0.01070
G1 X107.348 Y116.095 E0.01037
G1 X107.621 Y115.925 E0.01007
G1 X107.905 Y115.792 E0.00982
G1 X108.197 Y115.699 E0.00961
G1 X108.494 Y115.650 E0.00944
G1 X108.789 Y115.645 E0.00925
G1 X109.075 Y115.681 E0.00904
G1 X109.358 Y115.757 E0.00918
G1 X109.832 Y115.967 E0.01625
G1 X111.112 Y116.746 E0.04699
G1 X111.516 Y116.950 E0.01419
G1 X112.091 Y117.162 E0.01921
G1 X112.464 Y117.223 E0.01184
G1 X112.836 Y117.159 E0.01183
G1 X113.409 Y116.942 E0.01921
G1 X113.811 Y116.735 E0.01419
G1 X115.086 Y115.946 E0.04699
G1 X115.563 Y115.730 E0.01643
G1 X115.880 Y115.649 E0.01025
G1 X116.126 Y115.615 E0.00779
G1 X116.421 Y115.618 E0.00926
G1 X116.718 Y115.666 E0.00943
G1 X117.011 Y115.756 E0.00961
G1 X117.296 Y115.887 E0.00982
G1 X117.570 Y116.054 E0.01007
G1 X117.832 Y116.256 E0.01037
G1 X118.081 Y116.489 E0.01069
G1 X118.315 Y116.751 E0.01103
G1 X118.532 Y117.041 E0.01134
G1 X118.728 Y117.356 E0.01163
G1 X118.902 Y117.693 E0.01189
G1 X119.049 Y118.050 E0.01211
G1 X119.168 Y118.423 E0.01229
G1 X119.256 Y118.809 E0.01243
G1 X119.311 Y119.205 E0.01254
G1 X119.332 Y119.607 E0.01261
G1 X119.319 Y120.010 E0.01265
G1 X119.274 Y120.411 E0.01265
G1 X119.196 Y120.815 E0.01289
G1 X118.971 Y121.565 E0.02454
G1 X118.414 Y122.859 E0.04419
G1 X118.214 Y123.397 E0.01799
G1 X118.160 Y123.615 E0.00705
G1 X118.124 Y124.028 E0.01300
G1 X118.180 Y124.426 E0.01259
G1 X118.336 Y124.891 E0.01539
G1 X118.568 Y125.396 E0.01741
G1 X119.147 Y126.537 E0.04013
G1 X119.421 Y127.156 E0.02122
G1 X119.547 Y127.491 E0.01121
G1 X119.733 Y128.143 E0.02127
G1 X119.830 Y128.811 E0.02116
G1 X119.823 Y129.462 E0.02040
G1 X119.777 Y129.808 E0.01095
G1 X119.623 Y130.417 E0.01970
G1 X119.395 Y130.998 E0.01956
G1 X119.126 Y131.537 E0.01891
G1 X118.586 Y132.505 E0.03474
G1 X118.371 Y132.934 E0.01505
G1 X118.221 Y133.322 E0.01304
G1 X118.143 Y133.669 E0.01115
G1 X118.133 Y133.992 E0.01014
G1 X118.187 Y134.326 E0.01063
G1 X118.308 Y134.705 E0.01245
G1 X118.690 Y135.648 E0.03193
G1 X118.883 Y136.219 E0.01888
G1 X119.021 Y136.849 E0.02021
G1 X119.064 Y137.506 E0.02065
G1 X119.041 Y137.861 E0.01117
G1 X118.985 Y138.204 E0.01090
G1 X118.892 Y138.542 E0.01099
G1 X118.762 Y138.870 E0.01107
G1 X118.593 Y139.183 E0.01114
G1 X118.387 Y139.475 E0.01120
G1 X118.146 Y139.741 E0.01126
G1 X117.874 Y139.977 E0.01129
G1 X117.574 Y140.179 E0.01132
G1 X117.253 Y140.344 E0.01134
G1 X116.915 Y140.472 E0.01133
G1 X116.567 Y140.564 E0.01130
G1 X116.212 Y140.618 E0.01125
G1 X115.857 Y140.638 E0.01115
G1 X115.493 Y140.623 E0.01141
G1 X114.834 Y140.509 E0.02097
G1 X114.223 Y140.303 E0.02023
G1 X112.924 Y139.670 E0.04529
G1 X112.612 Y139.593 E0.01007
G1 X112.551 Y139.211 F10800.000
G1 F1800
G1 X112.394 Y139.223 E0.00493
G1 X112.046 Y139.320 E0.01133
G1 X110.741 Y139.968 E0.04567
G1 X110.182 Y140.162 E0.01856
G1 X109.577 Y140.271 E0.01927
G1 X109.256 Y140.286 E0.01008
G1 X108.937 Y140.271 E0.01002
G1 X108.620 Y140.225 E0.01005
G1 X108.309 Y140.147 E0.01006
G1 X108.009 Y140.035 E0.01003
G1 X107.725 Y139.892 E0.00998
G1 X107.461 Y139.717 E0.00992
G1 X107.222 Y139.513 E0.00986
G1 X107.010 Y139.283 E0.00981
G1 X106.828 Y139.030 E0.00977
G1 X106.679 Y138.757 E0.00975
G1 X106.562 Y138.470 E0.00973
G1 X106.478 Y138.172 E0.00972
G1 X106.425 Y137.867 E0.00970
G1 X106.402 Y137.559 E0.00967
G1 X106.408 Y137.248 E0.00975
G1 X106.489 Y136.657 E0.01871
G1 X106.561 Y136.364 E0.00946
G1 X106.738 Y135.826 E0.01776
G1 X107.114 Y134.876 E0.03203
G1 X107.244 Y134.456 E0.01377
G1 X107.306 Y134.058 E0.01265
G1 X107.290 Y133.662 E0.01241
G1 X107.195 Y133.254 E0.01315
G1 X107.025 Y132.825 E0.01448
G1 X106.795 Y132.374 E0.01587
G1 X106.246 Y131.409 E0.03480
G1 X105.870 Y130.631 E0.02711
G1 X105.684 Y130.074 E0.01839
G1 X105.578 Y129.494 E0.01851
G1 X105.567 Y128.895 E0.01876
G1 X105.598 Y128.581 E0.00990
G1 X105.727 Y127.968 E0.01964
G1 X105.934 Y127.353 E0.02034
G1 X106.196 Y126.749 E0.02065
G1 X106.765 Y125.605 E0.04005
G1 X107.005 Y125.074 E0.01828
G1 X107.171 Y124.564 E0.01680
G1 X107.216 Y124.324 E0.00768
G1 X107.235 Y124.081 E0.00764
G1 X107.226 Y123.836 E0.00768
G1 X107.188 Y123.585 E0.00795
G1 X107.123 Y123.328 E0.00832
G1 X106.907 Y122.763 E0.01895
G1 X106.345 Y121.484 E0.04381
G1 X106.126 Y120.775 E0.02327
G1 X106.052 Y120.405 E0.01184
G1 X106.006 Y120.034 E0.01171
G1 X105.992 Y119.662 E0.01167
G1 X106.008 Y119.293 E0.01161
G1 X106.056 Y118.928 E0.01152
G1 X106.134 Y118.572 E0.01142
G1 X106.240 Y118.228 E0.01129
G1 X106.373 Y117.900 E0.01112
G1 X106.530 Y117.589 E0.01091
G1 X106.707 Y117.300 E0.01065
G1 X106.903 Y117.034 E0.01034
G1 X107.113 Y116.795 E0.00998
G1 X107.334 Y116.584 E0.00958
G1 X107.565 Y116.404 E0.00916
G1 X107.801 Y116.257 E0.00874
G1 X108.043 Y116.144 E0.00835
G1 X108.286 Y116.067 E0.00800
G1 X108.528 Y116.026 E0.00772
G1 X108.768 Y116.022 E0.00751
G1 X109.001 Y116.052 E0.00738
G1 X109.232 Y116.114 E0.00748
G1 X109.657 Y116.302 E0.01457
G1 X110.929 Y117.076 E0.04669
G1 X111.365 Y117.296 E0.01533
G1 X111.989 Y117.526 E0.02084
G1 X112.331 Y117.593 E0.01093
G1 X112.465 Y117.600 E0.00421
G1 X112.599 Y117.592 E0.00421
G1 X112.941 Y117.522 E0.01093
G1 X113.563 Y117.288 E0.02084
G1 X113.997 Y117.064 E0.01533
G1 X115.263 Y116.280 E0.04669
G1 X115.688 Y116.088 E0.01463
G1 X115.952 Y116.020 E0.00854
G1 X116.150 Y115.993 E0.00625
G1 X116.389 Y115.995 E0.00751
G1 X116.632 Y116.034 E0.00772
G1 X116.876 Y116.109 E0.00800
G1 X117.118 Y116.220 E0.00835
G1 X117.356 Y116.366 E0.00874
G1 X117.588 Y116.544 E0.00916
G1 X117.811 Y116.752 E0.00958
G1 X118.023 Y116.990 E0.00998
G1 X118.220 Y117.254 E0.01034
G1 X118.400 Y117.542 E0.01065
G1 X118.559 Y117.851 E0.01091
G1 X118.695 Y118.179 E0.01112
G1 X118.804 Y118.522 E0.01129
G1 X118.885 Y118.877 E0.01142
G1 X118.935 Y119.241 E0.01152
G1 X118.955 Y119.611 E0.01161
G1 X118.943 Y119.983 E0.01167
G1 X118.901 Y120.354 E0.01171
G1 X118.829 Y120.725 E0.01184
G1 X118.616 Y121.435 E0.02327
G1 X118.064 Y122.719 E0.04381
G1 X117.853 Y123.286 E0.01895
G1 X117.789 Y123.543 E0.00832
G1 X117.753 Y123.794 E0.00795
G1 X117.747 Y124.039 E0.00768
G1 X117.768 Y124.282 E0.00764
G1 X117.815 Y124.522 E0.00768
G1 X117.985 Y125.030 E0.01680
G1 X118.228 Y125.560 E0.01828
G1 X118.806 Y126.699 E0.04005
G1 X119.072 Y127.299 E0.02056
G1 X119.188 Y127.609 E0.01039
G1 X119.363 Y128.223 E0.02001
G1 X119.453 Y128.836 E0.01945
G1 X119.446 Y129.435 E0.01875
G1 X119.406 Y129.737 E0.00956
G1 X119.264 Y130.302 E0.01827
G1 X119.050 Y130.844 E0.01828
G1 X118.792 Y131.361 E0.01812
G1 X118.252 Y132.328 E0.03473
G1 X118.026 Y132.781 E0.01587
G1 X117.859 Y133.212 E0.01448
G1 X117.767 Y133.621 E0.01315
G1 X117.755 Y134.016 E0.01241
G1 X117.819 Y134.414 E0.01265
G1 X117.953 Y134.833 E0.01377
G1 X118.337 Y135.780 E0.03203
G1 X118.519 Y136.320 E0.01787
G1 X118.646 Y136.902 E0.01868
G1 X118.686 Y137.506 E0.01899
G1 X118.666 Y137.818 E0.00981
G1 X118.616 Y138.123 E0.00970
G1 X118.534 Y138.422 E0.00972
G1 X118.419 Y138.711 E0.00973
G1 X118.272 Y138.984 E0.00974
G1 X118.092 Y139.239 E0.00977
G1 X117.882 Y139.471 E0.00981
G1 X117.644 Y139.677 E0.00986
G1 X117.382 Y139.853 E0.00992
G1 X117.099 Y139.999 E0.00998
G1 X116.800 Y140.113 E0.01003
G1 X116.490 Y140.194 E0.01006
G1 X116.173 Y140.243 E0.01005
G1 X115.854 Y140.260 E0.01002
G1 X115.533 Y140.248 E0.01008
