; generated by PrusaSlicer 2.0.0+ on 2019-09-12 at 20:28:58

; 

; external perimeters extrusion width = 0.45mm
; perimeters extrusion width = 0.45mm
; infill extrusion width = 0.45mm
; solid infill extrusion width = 0.45mm
; top infill extrusion width = 0.40mm
; first layer extrusion width = 0.42mm

M73 P0 R47
M201 X9000 Y9000 Z500 E10000 ; sets maximum accelerations, mm/sec^2
M203 X500 Y500 Z12 E120 ; sets maximum feedrates, mm/sec
M204 P2000 R1500 T2000 ; sets acceleration (P, T) and retract acceleration (R), mm/sec^2
M205 X10.00 Y10.00 Z0.20 E2.50 ; sets the jerk limits, mm/sec
M205 S0 T0 ; sets the minimum extruding and travel feed rate, mm/sec
M107
M83  ; extruder relative mode
M140 S75 ; set bed temp
M109 S160 ; Set extruder temp before bed level
M190 S75 ; wait for bed temp

G28 W ; home all without mesh bed level
G80 N7 ; mesh bed leveling

M109 S240 ; wait for extruder temp

M221 S100 ; Set flow to 100

G1 Y-3.0 F1000.0 ; go outside print area
G92 E0.0
G1 E8 ; Purge Bubble
M73 P0 R47
G1 X60.0 E9.0 F1000.0 ; intro line
G1 X100.0 E12.5 F1000.0 ; intro line
G92 E0.0
M900 K45; Filament gcode
G21 ; set units to millimeters
G90 ; use absolute coordinates
M83 ; use relative distances for extrusion
;BEFORE_LAYER_CHANGE
G92 E0.0
;0.2


G1 E-0.80000 F2100.00000
G1 Z0.600 F10800.000
;AFTER_LAYER_CHANGE
;0.2
G1 X93.924 Y79.936
G1 Z0.200
G1 E0.80000 F2100.00000
M204 S1000
G1 F1200
G1 X94.633 Y79.812 E0.02078
G1 X155.354 Y79.811 E1.75154
G1 X156.177 Y79.974 E0.02420
G1 X156.879 Y80.434 E0.02420
G1 X157.356 Y81.124 E0.02420
G1 X157.538 Y81.939 E0.02410
G1 X157.538 Y128.037 E1.32972
G1 X157.476 Y128.518 E0.01399
G1 X157.312 Y128.970 E0.01389
G1 X157.052 Y129.376 E0.01389
G1 X156.710 Y129.715 E0.01389
G1 X156.076 Y130.064 E0.02088
G1 X155.367 Y130.188 E0.02078
G1 X94.639 Y130.189 E1.75175
G1 X94.154 Y130.132 E0.01410
G1 X93.693 Y129.968 E0.01410
G1 X93.280 Y129.707 E0.01410
G1 X92.935 Y129.360 E0.01410
G1 X92.587 Y128.730 E0.02078
G1 X92.462 Y128.020 E0.02078
G1 X92.462 Y81.985 E1.32793
G1 X92.519 Y81.500 E0.01410
G1 X92.683 Y81.040 E0.01410
G1 X92.943 Y80.630 E0.01399
G1 X93.290 Y80.285 E0.01410
G1 X93.871 Y79.965 E0.01915
G1 F8640
G1 X94.633 Y79.812 E-0.17949
G1 X97.147 Y79.812 E-0.58051
G1 E-0.04000 F2100.00000
G1 Z0.800 F10800.000
G1 X134.895 Y91.081
G1 Z0.200
G1 E0.80000 F2100.00000
G1 F1200
G1 X135.050 Y90.664 E0.01283
G1 X135.159 Y90.448 E0.00698
G1 X135.286 Y90.235 E0.00716
G1 X135.553 Y89.879 E0.01282
G1 X135.872 Y89.560 E0.01302
G1 X136.068 Y89.402 E0.00727
G1 X136.439 Y89.163 E0.01272
G1 X136.885 Y88.960 E0.01413
G1 X137.312 Y88.835 E0.01284
G1 X137.776 Y88.769 E0.01351
G1 X138.221 Y88.770 E0.01283
G1 X138.471 Y88.797 E0.00727
G1 X138.902 Y88.890 E0.01272
G1 X139.141 Y88.970 E0.00727
G1 X139.543 Y89.153 E0.01274
G1 X139.765 Y89.286 E0.00746
G1 X140.121 Y89.553 E0.01282
G1 X140.448 Y89.879 E0.01332
G1 X140.718 Y90.241 E0.01303
G1 X140.847 Y90.457 E0.00727
G1 X141.030 Y90.859 E0.01272
G1 X141.110 Y91.098 E0.00727
G1 X141.203 Y91.529 E0.01272
G1 X141.230 Y91.779 E0.00727
G1 X141.230 Y92.221 E0.01272
G1 X141.203 Y92.472 E0.00729
G1 X141.105 Y92.919 E0.01321
G1 X140.950 Y93.336 E0.01283
G1 X140.841 Y93.552 E0.00698
G1 X140.714 Y93.765 E0.00716
G1 X140.447 Y94.121 E0.01282
G1 X140.121 Y94.448 E0.01332
G1 X139.759 Y94.718 E0.01303
G1 X139.543 Y94.847 E0.00727
G1 X139.141 Y95.030 E0.01272
G1 X138.902 Y95.110 E0.00727
G1 X138.471 Y95.203 E0.01272
G1 X138.221 Y95.230 E0.00727
G1 X137.779 Y95.230 E0.01272
G1 X137.528 Y95.203 E0.00729
G1 X137.081 Y95.105 E0.01321
G1 X136.664 Y94.950 E0.01283
G1 X136.448 Y94.841 E0.00698
G1 X136.235 Y94.714 E0.00716
G1 X135.879 Y94.447 E0.01282
G1 X135.560 Y94.128 E0.01302
G1 X135.402 Y93.932 E0.00727
G1 X135.163 Y93.561 E0.01272
G1 X135.050 Y93.335 E0.00727
G1 X134.893 Y92.912 E0.01303
G1 X134.797 Y92.471 E0.01303
G1 X134.770 Y92.221 E0.00727
G1 X134.770 Y91.779 E0.01272
G1 X134.797 Y91.528 E0.00729
G1 X134.882 Y91.140 E0.01148
G1 X135.250 Y91.220 F10800.000
G1 F1200
G1 X135.397 Y90.815 E0.01243
G1 X135.490 Y90.629 E0.00600
G1 X135.600 Y90.445 E0.00618
G1 X135.838 Y90.127 E0.01148
G1 X136.124 Y89.841 E0.01166
G1 X136.289 Y89.708 E0.00611
G1 X136.626 Y89.491 E0.01156
G1 X137.010 Y89.317 E0.01218
G1 X137.392 Y89.205 E0.01148
G1 X137.802 Y89.147 E0.01195
G1 X138.200 Y89.147 E0.01148
G1 X138.411 Y89.169 E0.00610
G1 X138.802 Y89.255 E0.01156
G1 X139.003 Y89.321 E0.00611
G1 X139.368 Y89.488 E0.01156
G1 X139.555 Y89.600 E0.00629
G1 X139.873 Y89.838 E0.01148
G1 X140.162 Y90.127 E0.01177
G1 X140.404 Y90.450 E0.01166
G1 X140.512 Y90.633 E0.00611
G1 X140.679 Y90.997 E0.01156
G1 X140.745 Y91.198 E0.00611
G1 X140.831 Y91.589 E0.01156
G1 X140.853 Y91.800 E0.00611
G1 X140.853 Y92.200 E0.01156
G1 X140.831 Y92.411 E0.00611
G1 X140.743 Y92.812 E0.01185
G1 X140.603 Y93.185 E0.01148
G1 X140.510 Y93.371 E0.00600
G1 X140.400 Y93.555 E0.00618
G1 X140.162 Y93.873 E0.01148
G1 X139.873 Y94.162 E0.01177
G1 X139.550 Y94.404 E0.01166
G1 X139.367 Y94.512 E0.00611
G1 X139.003 Y94.679 E0.01156
G1 X138.802 Y94.745 E0.00611
G1 X138.411 Y94.831 E0.01156
G1 X138.200 Y94.853 E0.00611
G1 X137.800 Y94.853 E0.01156
G1 X137.589 Y94.831 E0.00611
G1 X137.188 Y94.743 E0.01185
G1 X136.815 Y94.603 E0.01148
G1 X136.629 Y94.510 E0.00600
G1 X136.445 Y94.400 E0.00618
G1 X136.127 Y94.162 E0.01148
G1 X135.841 Y93.876 E0.01166
G1 X135.708 Y93.711 E0.00611
G1 X135.491 Y93.374 E0.01156
G1 X135.397 Y93.185 E0.00611
G1 X135.255 Y92.806 E0.01166
G1 X135.169 Y92.411 E0.01166
G1 X135.147 Y92.200 E0.00611
G1 X135.147 Y91.800 E0.01156
G1 X135.169 Y91.589 E0.00611
G1 X135.237 Y91.279 E0.00916
G1 X134.976 Y90.930 F10800.000
G1 F8640
G1 X135.397 Y90.815 E-0.11323
G1 X135.490 Y90.629 E-0.04805
G1 X135.600 Y90.445 E-0.04948
G1 X135.838 Y90.127 E-0.09186
G1 X136.124 Y89.841 E-0.09336
G1 X136.289 Y89.708 E-0.04888
G1 X136.626 Y89.491 E-0.09250
G1 X137.010 Y89.317 E-0.09748
G1 X137.392 Y89.205 E-0.09190
G1 X137.535 Y89.185 E-0.03326
G1 E-0.04000 F2100.00000
G1 Z0.800 F10800.000
G1 X128.587 Y82.587
G1 Z0.200
G1 E0.80000 F2100.00000
G1 F1200
G1 X154.763 Y82.587 E0.75507
G1 X154.763 Y87.144 E0.13146
G1 X154.322 Y87.466 E0.01574
G1 X153.881 Y87.863 E0.01711
G1 X153.488 Y88.297 E0.01689
G1 X153.297 Y88.543 E0.00899
G1 X152.974 Y89.031 E0.01689
G1 X152.698 Y89.556 E0.01711
G1 X152.481 Y90.100 E0.01689
G1 X152.387 Y90.397 E0.00899
G1 X152.254 Y90.967 E0.01689
G1 X152.180 Y91.548 E0.01689
G1 X152.164 Y91.859 E0.00899
G1 X152.179 Y92.445 E0.01689
G1 X152.253 Y93.025 E0.01689
G1 X152.316 Y93.331 E0.00899
G1 X152.478 Y93.893 E0.01689
G1 X152.695 Y94.437 E0.01689
G1 X152.830 Y94.710 E0.00877
G1 X152.978 Y94.975 E0.00877
G1 X153.297 Y95.457 E0.01668
G1 X153.488 Y95.703 E0.00899
G1 X153.881 Y96.137 E0.01689
G1 X154.322 Y96.534 E0.01711
G1 X154.763 Y96.856 E0.01574
G1 X154.763 Y101.413 E0.13146
G1 X128.587 Y101.413 E0.75507
G1 X128.587 Y82.647 E0.54132
G1 X128.210 Y82.210 F10800.000
G1 F1200
G1 X155.140 Y82.210 E0.77682
G1 X155.140 Y87.351 E0.14830
G1 X154.560 Y87.760 E0.02047
G1 X154.148 Y88.130 E0.01600
G1 X153.777 Y88.539 E0.01592
G1 X153.603 Y88.763 E0.00816
G1 X153.299 Y89.223 E0.01592
G1 X153.041 Y89.714 E0.01600
G1 X152.836 Y90.227 E0.01592
G1 X152.751 Y90.496 E0.00816
G1 X152.626 Y91.034 E0.01592
G1 X152.556 Y91.582 E0.01592
G1 X152.542 Y91.864 E0.00816
G1 X152.556 Y92.416 E0.01592
G1 X152.626 Y92.963 E0.01592
G1 X152.683 Y93.240 E0.00816
G1 X152.835 Y93.771 E0.01592
G1 X153.040 Y94.283 E0.01592
G1 X153.164 Y94.535 E0.00808
G1 X153.300 Y94.779 E0.00808
G1 X153.603 Y95.237 E0.01585
G1 X153.777 Y95.461 E0.00816
G1 X154.148 Y95.870 E0.01592
G1 X154.560 Y96.240 E0.01600
G1 X155.140 Y96.649 E0.02047
G1 X155.140 Y101.790 E0.14830
G1 X128.210 Y101.790 E0.77682
G1 X128.210 Y82.270 E0.56307
G1 X128.601 Y82.293 F10800.000
G1 F8640
G1 X131.501 Y82.263 E-0.76000
G1 E-0.04000 F2100.00000
G1 Z0.800 F10800.000
G1 X134.920 Y93.310
G1 Z0.200
G1 E0.80000 F2100.00000
G1 F1200
G1 X128.870 Y87.260 E0.24884
G1 X128.870 Y86.722 E0.01564
G1 X134.499 Y92.351 E0.23153
G1 X134.487 Y91.801 E0.01600
G1 X128.870 Y86.184 E0.23102
G1 X128.870 Y85.647 E0.01564
G1 X134.551 Y91.328 E0.23366
G1 X134.661 Y90.900 E0.01285
G1 X128.870 Y85.109 E0.23817
G1 X128.870 Y84.571 E0.01564
G1 X134.811 Y90.513 E0.24436
G1 X135.002 Y90.165 E0.01152
G1 X128.870 Y84.034 E0.25219
G1 X128.870 Y83.496 E0.01564
G1 X135.222 Y89.848 E0.26126
G1 X135.338 Y89.693 E0.00563
G1 X135.472 Y89.560 E0.00548
G1 X128.870 Y82.958 E0.27152
G1 X128.870 Y82.870 E0.00258
G1 X129.319 Y82.870 E0.01306
G1 X135.747 Y89.298 E0.26436
G1 X136.058 Y89.072 E0.01120
G1 X129.857 Y82.870 E0.25508
G1 X130.394 Y82.870 E0.01564
G1 X136.394 Y88.870 E0.24676
G1 X136.766 Y88.704 E0.01184
G1 X130.932 Y82.870 E0.23994
G1 X131.470 Y82.870 E0.01564
G1 X137.179 Y88.580 E0.23483
G1 X137.640 Y88.503 E0.01359
G1 X132.007 Y82.870 E0.23169
G1 X132.545 Y82.870 E0.01564
G1 X138.162 Y88.487 E0.23102
G1 X138.516 Y88.517 E0.01035
G1 X138.789 Y88.576 E0.00811
G1 X133.082 Y82.870 E0.23470
G1 X133.620 Y82.870 E0.01564
G1 X151.880 Y101.130 E0.75103
G1 X152.418 Y101.130 E0.01564
G1 X134.158 Y82.870 E0.75103
G1 X134.695 Y82.870 E0.01564
G1 X152.956 Y101.130 E0.75103
G1 X153.493 Y101.130 E0.01564
G1 X135.233 Y82.870 E0.75103
G1 X135.771 Y82.870 E0.01564
G1 X154.031 Y101.130 E0.75103
G1 X154.480 Y101.130 E0.01306
G1 X154.480 Y101.042 E0.00257
G1 X136.308 Y82.870 E0.74739
G1 X136.846 Y82.870 E0.01564
G1 X154.480 Y100.504 E0.72527
G1 X154.480 Y99.966 E0.01564
G1 X137.384 Y82.870 E0.70316
G1 X137.921 Y82.870 E0.01564
G1 X154.480 Y99.429 E0.68105
G1 X154.480 Y98.891 E0.01564
G1 X138.459 Y82.870 E0.65894
G1 X138.997 Y82.870 E0.01564
G1 X154.480 Y98.353 E0.63682
G1 X154.480 Y97.816 E0.01564
G1 X139.534 Y82.870 E0.61471
G1 X140.072 Y82.870 E0.01564
G1 X154.650 Y97.448 E0.59958
G1 F8640
G1 X152.322 Y95.120 E-0.76000
G1 E-0.04000 F2100.00000
G1 Z0.800 F10800.000
G1 X153.090 Y95.351
G1 Z0.200
G1 E0.80000 F2100.00000
G1 F1200
G1 X140.610 Y82.870 E0.51332
G1 X141.147 Y82.870 E0.01564
G1 X152.189 Y93.911 E0.45413
G1 X151.997 Y93.182 E0.02194
G1 X141.685 Y82.870 E0.42412
G1 X142.222 Y82.870 E0.01564
G1 X151.908 Y92.556 E0.39836
G1 X151.885 Y91.995 E0.01633
G1 X142.760 Y82.870 E0.37529
G1 X143.298 Y82.870 E0.01564
G1 X151.904 Y91.476 E0.35397
G1 X151.965 Y90.999 E0.01398
G1 X143.835 Y82.870 E0.33436
M73 P2 R46
G1 X144.373 Y82.870 E0.01564
G1 X152.060 Y90.556 E0.31614
G1 X152.174 Y90.133 E0.01276
G1 X144.911 Y82.870 E0.29872
G1 X145.448 Y82.870 E0.01564
G1 X152.320 Y89.741 E0.28261
G1 X152.480 Y89.364 E0.01192
G1 X145.986 Y82.870 E0.26709
G1 X146.524 Y82.870 E0.01564
G1 X152.665 Y89.011 E0.25258
G1 X152.869 Y88.677 E0.01138
G1 X147.061 Y82.870 E0.23885
G1 X147.599 Y82.870 E0.01564
G1 X153.084 Y88.355 E0.22560
G1 X153.323 Y88.057 E0.01112
G1 X148.137 Y82.870 E0.21333
G1 X148.674 Y82.870 E0.01564
G1 X153.579 Y87.775 E0.20174
G1 X153.851 Y87.509 E0.01106
G1 X149.212 Y82.870 E0.19082
G1 X149.750 Y82.870 E0.01564
G1 X154.134 Y87.255 E0.18035
G1 X154.444 Y87.027 E0.01118
G1 X150.287 Y82.870 E0.17098
G1 X150.825 Y82.870 E0.01564
G1 X154.480 Y86.525 E0.15034
G1 X154.480 Y85.988 E0.01564
G1 X151.362 Y82.870 E0.12823
G1 X151.900 Y82.870 E0.01564
G1 X154.480 Y85.450 E0.10611
G1 X154.480 Y84.912 E0.01564
G1 X152.438 Y82.870 E0.08400
G1 X152.975 Y82.870 E0.01564
G1 X154.480 Y84.375 E0.06189
G1 X154.480 Y83.837 E0.01564
G1 X153.513 Y82.870 E0.03978
G1 X154.051 Y82.870 E0.01564
G1 X154.650 Y83.469 E0.02464
G1 F8640
G1 X154.051 Y82.870 E-0.19565
G1 X153.513 Y82.870 E-0.12414
G1 X154.480 Y83.837 E-0.31581
G1 X154.480 Y84.375 E-0.12414
G1 X154.479 Y84.374 E-0.00026
G1 E-0.04000 F2100.00000
G1 Z0.800 F10800.000
G1 X151.512 Y101.300
G1 Z0.200
G1 E0.80000 F2100.00000
G1 F1200
G1 X141.424 Y91.211 E0.41494
G1 X141.483 Y91.484 E0.00811
G1 X141.513 Y91.838 E0.01035
G1 X150.805 Y101.130 E0.38217
G1 X150.267 Y101.130 E0.01564
G1 X141.500 Y92.362 E0.36062
G1 X141.417 Y92.817 E0.01345
G1 X149.730 Y101.130 E0.34190
G1 X149.192 Y101.130 E0.01564
G1 X141.291 Y93.229 E0.32496
G1 X141.207 Y93.454 E0.00697
G1 X141.126 Y93.602 E0.00491
G1 X148.655 Y101.130 E0.30963
G1 X148.117 Y101.130 E0.01564
G1 X140.932 Y93.946 E0.29549
G1 X140.702 Y94.253 E0.01117
G1 X147.579 Y101.130 E0.28286
G1 X147.042 Y101.130 E0.01564
G1 X140.440 Y94.528 E0.27152
G1 X140.306 Y94.662 E0.00549
G1 X140.152 Y94.778 E0.00563
G1 X146.504 Y101.130 E0.26127
G1 X145.966 Y101.130 E0.01564
G1 X139.837 Y95.001 E0.25209
G1 X139.483 Y95.185 E0.01160
G1 X145.429 Y101.130 E0.24453
G1 X144.891 Y101.130 E0.01564
G1 X139.102 Y95.341 E0.23810
G1 X138.672 Y95.449 E0.01289
G1 X144.353 Y101.130 E0.23366
G1 X143.816 Y101.130 E0.01564
G1 X138.199 Y95.513 E0.23102
G1 X137.649 Y95.501 E0.01600
G1 X143.278 Y101.130 E0.23153
G1 X142.740 Y101.130 E0.01564
G1 X136.690 Y95.080 E0.24884
G1 F8640
G1 X139.018 Y97.407 E-0.76000
G1 E-0.04000 F2100.00000
G1 Z0.800 F10800.000
G1 X142.372 Y101.300
G1 Z0.200
G1 E0.80000 F2100.00000
G1 F1200
G1 X128.870 Y87.797 E0.55535
G1 X128.870 Y88.335 E0.01564
G1 X141.665 Y101.130 E0.52626
G1 X141.127 Y101.130 E0.01564
G1 X128.870 Y88.873 E0.50414
G1 X128.870 Y89.410 E0.01564
G1 X140.590 Y101.130 E0.48203
G1 X140.052 Y101.130 E0.01564
G1 X128.870 Y89.948 E0.45992
G1 X128.870 Y90.485 E0.01564
G1 X139.515 Y101.130 E0.43781
G1 X138.977 Y101.130 E0.01564
G1 X128.870 Y91.023 E0.41569
G1 X128.870 Y91.561 E0.01564
G1 X138.439 Y101.130 E0.39358
G1 X137.902 Y101.130 E0.01564
G1 X128.870 Y92.098 E0.37147
G1 X128.870 Y92.636 E0.01564
G1 X137.364 Y101.130 E0.34935
G1 X136.826 Y101.130 E0.01564
G1 X128.870 Y93.174 E0.32724
G1 X128.870 Y93.711 E0.01564
G1 X136.289 Y101.130 E0.30513
G1 X135.751 Y101.130 E0.01564
G1 X128.870 Y94.249 E0.28302
G1 X128.870 Y94.787 E0.01564
G1 X135.213 Y101.130 E0.26090
G1 X134.676 Y101.130 E0.01564
G1 X128.870 Y95.324 E0.23879
G1 X128.870 Y95.862 E0.01564
G1 X134.138 Y101.130 E0.21668
G1 X133.600 Y101.130 E0.01564
G1 X128.870 Y96.400 E0.19456
G1 X128.870 Y96.937 E0.01564
G1 X133.063 Y101.130 E0.17245
G1 X132.525 Y101.130 E0.01564
G1 X128.870 Y97.475 E0.15034
G1 X128.870 Y98.012 E0.01564
G1 X131.988 Y101.130 E0.12823
G1 X131.450 Y101.130 E0.01564
G1 X128.870 Y98.550 E0.10611
G1 X128.870 Y99.088 E0.01564
G1 X130.912 Y101.130 E0.08400
G1 X130.375 Y101.130 E0.01564
G1 X128.870 Y99.625 E0.06189
G1 X128.870 Y100.163 E0.01564
G1 X129.837 Y101.130 E0.03977
G1 X129.299 Y101.130 E0.01564
G1 X128.700 Y100.531 E0.02464
G1 F8640
G1 X129.299 Y101.130 E-0.19563
G1 X129.837 Y101.130 E-0.12414
G1 X128.870 Y100.163 E-0.31579
G1 X128.870 Y99.625 E-0.12414
G1 X128.871 Y99.626 E-0.00029
G1 E-0.04000 F2100.00000
G1 Z0.800 F10800.000
G1 X136.439 Y115.163
G1 Z0.200
G1 E0.80000 F2100.00000
G1 F1200
G1 X136.885 Y114.960 E0.01413
G1 X137.312 Y114.835 E0.01284
G1 X137.776 Y114.769 E0.01351
G1 X138.221 Y114.770 E0.01283
G1 X138.471 Y114.797 E0.00727
G1 X138.902 Y114.890 E0.01272
G1 X139.141 Y114.970 E0.00727
G1 X139.543 Y115.153 E0.01274
G1 X139.765 Y115.286 E0.00746
G1 X140.121 Y115.553 E0.01282
G1 X140.448 Y115.879 E0.01332
G1 X140.718 Y116.241 E0.01303
G1 X140.847 Y116.457 E0.00727
G1 X141.030 Y116.859 E0.01272
G1 X141.110 Y117.098 E0.00727
G1 X141.203 Y117.529 E0.01272
G1 X141.230 Y117.779 E0.00727
G1 X141.230 Y118.221 E0.01272
G1 X141.203 Y118.472 E0.00729
G1 X141.105 Y118.919 E0.01321
G1 X140.950 Y119.336 E0.01283
G1 X140.841 Y119.552 E0.00698
G1 X140.714 Y119.765 E0.00716
G1 X140.447 Y120.121 E0.01282
G1 X140.121 Y120.448 E0.01332
G1 X139.759 Y120.718 E0.01303
G1 X139.543 Y120.847 E0.00727
G1 X139.141 Y121.030 E0.01272
G1 X138.902 Y121.110 E0.00727
G1 X138.471 Y121.203 E0.01272
G1 X138.221 Y121.230 E0.00727
G1 X137.779 Y121.230 E0.01272
G1 X137.528 Y121.203 E0.00729
G1 X137.081 Y121.105 E0.01321
G1 X136.664 Y120.950 E0.01283
G1 X136.448 Y120.841 E0.00698
G1 X136.235 Y120.714 E0.00716
G1 X135.879 Y120.447 E0.01282
G1 X135.560 Y120.128 E0.01302
G1 X135.402 Y119.932 E0.00727
G1 X135.163 Y119.561 E0.01272
G1 X135.050 Y119.335 E0.00727
G1 X134.893 Y118.912 E0.01303
G1 X134.797 Y118.471 E0.01303
G1 X134.770 Y118.221 E0.00727
G1 X134.770 Y117.779 E0.01272
G1 X134.797 Y117.528 E0.00729
G1 X134.895 Y117.081 E0.01321
G1 X135.050 Y116.664 E0.01283
