; generated by Slic3r Prusa Edition 1.41.0+ on 2018-09-21 at 15:27:40

; 

; external perimeters extrusion width = 0.45mm
; perimeters extrusion width = 0.45mm
; infill extrusion width = 0.45mm
; solid infill extrusion width = 0.45mm
; top infill extrusion width = 0.40mm
; first layer extrusion width = 0.42mm

M201 X9000 Y9000 Z500 E10000 ; sets maximum accelerations, mm/sec^2
M203 X500 Y500 Z12 E120 ; sets maximum feedrates, mm/sec
M204 P2000 R1500 T2000 ; sets acceleration (P, T) and retract acceleration (R), mm/sec^2
M205 X10.00 Y10.00 Z0.20 E2.50 ; sets the jerk limits, mm/sec
M205 S0 T0 ; sets the minimum extruding and travel feed rate, mm/sec
M107
M115 U3.1.0 ; tell printer latest fw version
M83  ; extruder relative mode
M204 S2000 T1500 ; MK2 firmware only supports the old M204 format
M104 S230 ; set extruder temp
M140 S85 ; set bed temp
M190 S85 ; wait for bed temp
M109 S230 ; wait for extruder temp
G28 W ; home all without mesh bed level
G80 ; mesh bed leveling
G1 Y-3.0 F1000.0 ; go outside print area
G92 E0.0
G1 X60.0 E9.0  F1000.0 ; intro line
G1 X100.0 E12.5  F1000.0 ; intro line
G92 E0.0
M900 K45; Filament gcode
G21 ; set units to millimeters
G90 ; use absolute coordinates
M83 ; use relative distances for extrusion
;BEFORE_LAYER_CHANGE
G92 E0.0
;0.2


G1 E-0.80000 F2100.00000
G1 Z0.600 F10800.000
;AFTER_LAYER_CHANGE
;0.2
G1 X107.572 Y89.765
G1 Z0.200
G1 E0.80000 F2100.00000
M204 S1000
G1 F1200
G1 X108.271 Y89.660 E0.02214
G1 X141.704 Y89.659 E1.04828
G1 X142.658 Y89.845 E0.03046
G1 X143.474 Y90.372 E0.03046
G1 X144.036 Y91.164 E0.03046
G1 X144.263 Y92.109 E0.03046
G1 X144.263 Y117.886 E0.80822
G1 X144.163 Y118.493 E0.01931
G1 X143.921 Y119.060 E0.01931
G1 X143.551 Y119.552 E0.01931
G1 X143.071 Y119.944 E0.01943
G1 X142.431 Y120.234 E0.02202
G1 X141.737 Y120.340 E0.02202
G1 X120.192 Y120.341 E0.67553
G1 X119.666 Y120.284 E0.01660
G1 X118.912 Y119.994 E0.02533
G1 X106.972 Y112.920 E0.43514
G1 X106.504 Y112.557 E0.01857
G1 X106.130 Y112.093 E0.01869
G1 X105.842 Y111.461 E0.02177
G1 X105.735 Y110.775 E0.02177
G1 X105.736 Y92.134 E0.58448
G1 X105.833 Y91.522 E0.01943
G1 X106.075 Y90.947 E0.01956
G1 X106.449 Y90.448 E0.01956
G1 X106.933 Y90.054 E0.01956
G1 X107.518 Y89.789 E0.02013
G1 X107.670 Y90.132 F10800.000
G1 F1200
G1 X108.280 Y90.037 E0.01935
G1 X141.704 Y90.036 E1.04799
G1 X142.520 Y90.196 E0.02608
G1 X143.218 Y90.649 E0.02608
G1 X143.697 Y91.329 E0.02608
G1 X143.887 Y92.139 E0.02608
G1 X143.887 Y117.855 E0.80633
G1 X143.803 Y118.381 E0.01669
G1 X143.593 Y118.874 E0.01680
G1 X143.271 Y119.298 E0.01669
G1 X142.854 Y119.635 E0.01680
G1 X142.312 Y119.876 E0.01862
G1 X141.728 Y119.963 E0.01851
G1 X119.743 Y119.915 E0.68932
G1 X119.101 Y119.668 E0.02157
G1 X107.169 Y112.599 E0.43486
G1 X106.760 Y112.280 E0.01623
G1 X106.440 Y111.878 E0.01612
G1 X106.200 Y111.343 E0.01839
G1 X106.112 Y110.763 E0.01839
G1 X106.113 Y92.152 E0.58353
G1 X106.196 Y91.623 E0.01680
G1 X106.406 Y91.129 E0.01680
G1 X106.729 Y90.702 E0.01680
G1 X107.149 Y90.364 E0.01692
G1 X107.615 Y90.157 E0.01599
; PURGING FINISHED
G1 F8640
G1 X108.280 Y90.037 E-0.15590
G1 X110.896 Y90.037 E-0.60410
G1 E-0.04000 F2100.00000
G1 Z0.800 F10800.000
G1 X121.736 Y95.261
G1 Z0.200
G1 E0.80000 F2100.00000
G1 F1200
G1 X134.064 Y95.261 E0.38655
G1 X134.064 Y114.739 E0.61073
G1 X126.236 Y114.739 E0.24545
G1 X126.236 Y111.758 E0.09347
G1 X126.205 Y111.312 E0.01402
G1 X126.121 Y110.907 E0.01298
G1 X125.977 Y110.501 E0.01350
G1 X125.801 Y110.162 E0.01196
G1 X125.553 Y109.811 E0.01350
G1 X125.259 Y109.496 E0.01350
G1 X125.128 Y109.381 E0.00546
G1 X124.763 Y109.124 E0.01402
G1 X124.596 Y109.030 E0.00598
G1 X124.424 Y108.948 E0.00598
G1 X124.003 Y108.798 E0.01402
G1 X123.834 Y108.757 E0.00546
G1 X123.407 Y108.698 E0.01350
G1 X122.993 Y108.698 E0.01298
G1 X122.583 Y108.755 E0.01298
G1 X122.184 Y108.867 E0.01298
G1 X121.804 Y109.032 E0.01298
G1 X121.451 Y109.247 E0.01298
G1 X121.129 Y109.508 E0.01298
G1 X120.847 Y109.811 E0.01298
G1 X120.608 Y110.149 E0.01298
G1 X120.410 Y110.531 E0.01350
G1 X120.346 Y110.693 E0.00546
G1 X120.225 Y111.124 E0.01402
G1 X120.196 Y111.295 E0.00546
G1 X120.164 Y111.758 E0.01454
G1 X120.164 Y114.225 E0.07736
G1 X111.336 Y108.995 E0.32174
G1 X111.336 Y101.661 E0.22996
G1 X115.027 Y101.661 E0.11575
G1 X114.807 Y101.268 E0.01411
G1 X114.611 Y100.726 E0.01809
G1 X114.534 Y100.390 E0.01079
G1 X114.473 Y99.802 E0.01855
G1 X114.510 Y99.211 E0.01855
G1 X114.573 Y98.873 E0.01080
G1 X114.746 Y98.324 E0.01805
G1 X115.022 Y97.777 E0.01918
G1 X115.392 Y97.274 E0.01959
G1 X115.793 Y96.882 E0.01758
G1 X116.065 Y96.672 E0.01079
G1 X116.587 Y96.365 E0.01900
G1 X117.126 Y96.157 E0.01810
G1 X117.460 Y96.073 E0.01079
G1 X118.027 Y96.003 E0.01792
G1 X118.372 Y96.003 E0.01081
G1 X118.944 Y96.073 E0.01808
G1 X119.544 Y96.248 E0.01957
G1 X120.063 Y96.499 E0.01810
G1 X120.353 Y96.685 E0.01080
G1 X120.808 Y97.062 E0.01855
G1 X121.196 Y97.510 E0.01855
G1 X121.387 Y97.796 E0.01080
G1 X121.648 Y98.309 E0.01805
G1 X121.736 Y98.586 E0.00911
G1 X121.736 Y95.321 E0.10237
G1 X122.113 Y95.638 F10800.000
G1 F1200
G1 X133.687 Y95.638 E0.36290
G1 X133.687 Y114.362 E0.58708
G1 X126.613 Y114.362 E0.22181
G1 X126.613 Y111.745 E0.08205
G1 X126.580 Y111.260 E0.01523
G1 X126.485 Y110.805 E0.01460
G1 X126.326 Y110.356 E0.01491
G1 X126.121 Y109.961 E0.01398
G1 X125.846 Y109.572 E0.01491
G1 X125.522 Y109.224 E0.01492
G1 X125.361 Y109.084 E0.00668
G1 X124.964 Y108.804 E0.01523
G1 X124.770 Y108.695 E0.00699
G1 X124.569 Y108.599 E0.00699
G1 X124.111 Y108.437 E0.01523
G1 X123.904 Y108.386 E0.00668
G1 X123.433 Y108.321 E0.01491
G1 X122.967 Y108.321 E0.01460
G1 X122.506 Y108.385 E0.01460
G1 X122.058 Y108.510 E0.01460
G1 X121.630 Y108.696 E0.01460
G1 X121.233 Y108.938 E0.01460
G1 X120.871 Y109.232 E0.01460
G1 X120.554 Y109.572 E0.01460
G1 X120.285 Y109.952 E0.01460
G1 X120.066 Y110.375 E0.01491
G1 X119.988 Y110.573 E0.00668
G1 X119.857 Y111.041 E0.01523
G1 X119.821 Y111.250 E0.00668
G1 X119.787 Y111.745 E0.01555
G1 X119.787 Y113.563 E0.05701
G1 X111.713 Y108.780 E0.29425
G1 X111.713 Y102.038 E0.21139
G1 X115.792 Y102.038 E0.12791
G1 X115.598 Y101.831 E0.00889
G1 X115.421 Y101.592 E0.00935
G1 X115.151 Y101.111 E0.01728
G1 X114.974 Y100.619 E0.01641
G1 X114.907 Y100.328 E0.00935
G1 X114.852 Y99.794 E0.01685
G1 X114.885 Y99.258 E0.01685
G1 X114.940 Y98.964 E0.00935
G1 X115.097 Y98.466 E0.01638
G1 X115.344 Y97.976 E0.01723
G1 X115.678 Y97.523 E0.01764
G1 X116.041 Y97.167 E0.01593
G1 X116.277 Y96.985 E0.00934
G1 X116.752 Y96.705 E0.01728
G1 X117.240 Y96.518 E0.01641
G1 X117.529 Y96.445 E0.00935
G1 X118.051 Y96.380 E0.01647
G1 X118.349 Y96.380 E0.00936
G1 X118.868 Y96.444 E0.01640
G1 X119.408 Y96.601 E0.01763
G1 X119.879 Y96.829 E0.01641
G1 X120.130 Y96.989 E0.00935
G1 X120.544 Y97.333 E0.01684
G1 X120.895 Y97.739 E0.01685
G1 X121.061 Y97.987 E0.00935
G1 X121.298 Y98.452 E0.01638
G1 X121.464 Y98.976 E0.01723
G1 X121.543 Y99.533 E0.01764
G1 X121.533 Y100.041 E0.01593
G1 X121.492 Y100.336 E0.00935
G1 X121.348 Y100.868 E0.01728
G1 X121.130 Y101.344 E0.01641
G1 X120.975 Y101.599 E0.00935
G1 X120.619 Y102.038 E0.01772
G1 X121.340 Y102.038 E0.02262
G1 X121.535 Y101.769 E0.01039
G1 X121.758 Y101.351 E0.01488
G1 X121.930 Y100.904 E0.01501
G1 X122.048 Y100.432 E0.01524
G1 X122.084 Y100.186 E0.00781
G1 X122.113 Y99.708 E0.01502
G1 X122.113 Y95.698 E0.12572
G1 X122.490 Y96.015 F10800.000
G1 F1200
G1 X133.310 Y96.015 E0.33925
G1 X133.310 Y113.985 E0.56344
G1 X126.990 Y113.985 E0.19816
G1 X126.990 Y111.732 E0.07064
G1 X126.954 Y111.209 E0.01644
G1 X126.849 Y110.703 E0.01622
G1 X126.675 Y110.212 E0.01633
G1 X126.440 Y109.759 E0.01599
G1 X126.140 Y109.333 E0.01633
G1 X125.784 Y108.953 E0.01633
G1 X125.594 Y108.788 E0.00789
G1 X125.166 Y108.485 E0.01644
G1 X124.944 Y108.360 E0.00800
G1 X124.713 Y108.250 E0.00800
G1 X124.219 Y108.075 E0.01644
G1 X123.975 Y108.015 E0.00789
G1 X123.459 Y107.944 E0.01633
G1 X122.941 Y107.944 E0.01622
G1 X122.429 Y108.015 E0.01622
G1 X121.931 Y108.154 E0.01622
G1 X121.457 Y108.360 E0.01622
G1 X121.015 Y108.629 E0.01622
G1 X120.613 Y108.955 E0.01622
G1 X120.260 Y109.333 E0.01622
G1 X119.962 Y109.756 E0.01622
G1 X119.723 Y110.218 E0.01633
G1 X119.630 Y110.453 E0.00789
G1 X119.489 Y110.957 E0.01644
G1 X119.446 Y111.205 E0.00789
G1 X119.410 Y111.732 E0.01656
G1 X119.410 Y112.902 E0.03667
G1 X112.090 Y108.565 E0.26677
G1 X112.090 Y102.415 E0.19283
G1 X116.953 Y102.415 E0.15248
G1 X116.597 Y102.226 E0.01265
G1 X116.200 Y101.921 E0.01569
G1 X115.888 Y101.589 E0.01428
G1 X115.738 Y101.387 E0.00790
G1 X115.495 Y100.954 E0.01557
G1 X115.336 Y100.512 E0.01472
G1 X115.279 Y100.266 E0.00791
G1 X115.230 Y99.786 E0.01514
G1 X115.260 Y99.304 E0.01514
G1 X115.306 Y99.056 E0.00791
G1 X115.447 Y98.609 E0.01471
G1 X115.667 Y98.174 E0.01528
G1 X115.963 Y97.771 E0.01569
G1 X116.289 Y97.452 E0.01428
G1 X116.488 Y97.298 E0.00790
G1 X116.916 Y97.046 E0.01557
G1 X117.354 Y96.878 E0.01472
G1 X117.599 Y96.816 E0.00791
G1 X118.074 Y96.757 E0.01501
G1 X118.326 Y96.757 E0.00791
G1 X118.792 Y96.814 E0.01471
G1 X119.272 Y96.955 E0.01569
G1 X119.695 Y97.158 E0.01472
G1 X119.907 Y97.294 E0.00791
G1 X120.279 Y97.603 E0.01514
G1 X120.595 Y97.968 E0.01514
G1 X120.735 Y98.178 E0.00791
G1 X120.948 Y98.596 E0.01471
G1 X121.095 Y99.060 E0.01528
G1 X121.165 Y99.556 E0.01569
G1 X121.156 Y100.011 E0.01428
G1 X121.121 Y100.261 E0.00790
G1 X120.992 Y100.740 E0.01557
G1 X120.797 Y101.167 E0.01472
G1 X120.665 Y101.382 E0.00791
G1 X120.367 Y101.757 E0.01501
G1 X120.187 Y101.933 E0.00791
G1 X119.814 Y102.218 E0.01471
G1 X119.446 Y102.415 E0.01308
G1 X121.533 Y102.415 E0.06542
G1 X121.855 Y101.970 E0.01724
G1 X122.102 Y101.508 E0.01641
G1 X122.290 Y101.018 E0.01646
G1 X122.418 Y100.506 E0.01654
G1 X122.460 Y100.225 E0.00891
G1 X122.490 Y99.719 E0.01590
G1 X122.490 Y96.075 E0.11425
G1 X122.491 Y95.615 F10800.000
G1 F8640
G1 X125.781 Y96.057 E-0.76000
G1 E-0.04000 F2100.00000
G1 Z0.800 F10800.000
G1 X114.763 Y96.682
G1 Z0.200
G1 E0.80000 F2100.00000
G1 F1200
G1 X114.819 Y97.227 E0.01717
G1 X114.762 Y97.772 E0.01717
G1 X114.592 Y98.292 E0.01717
G1 X114.318 Y98.766 E0.01714
G1 X113.976 Y99.146 E0.01604
G1 X113.718 Y99.357 E0.01047
G1 X113.264 Y99.619 E0.01643
G1 X112.743 Y99.788 E0.01717
G1 X112.198 Y99.844 E0.01717
G1 X111.653 Y99.787 E0.01717
G1 X111.133 Y99.617 E0.01717
G1 X110.659 Y99.343 E0.01714
G1 X110.279 Y99.002 E0.01604
G1 X110.068 Y98.743 E0.01047
G1 X109.806 Y98.288 E0.01644
G1 X109.637 Y97.768 E0.01717
G1 X109.581 Y97.223 E0.01717
G1 X109.638 Y96.679 E0.01714
G1 X109.796 Y96.193 E0.01604
G1 X109.946 Y95.894 E0.01047
G1 X110.255 Y95.471 E0.01643
G1 X110.662 Y95.105 E0.01717
G1 X111.136 Y94.831 E0.01717
G1 X111.657 Y94.663 E0.01714
G1 X112.165 Y94.609 E0.01604
G1 X112.499 Y94.625 E0.01047
G1 X113.011 Y94.734 E0.01644
G1 X113.511 Y94.957 E0.01717
G1 X113.954 Y95.280 E0.01717
G1 X114.320 Y95.687 E0.01717
G1 X114.594 Y96.161 E0.01717
G1 X114.744 Y96.625 E0.01528
G1 X114.385 Y96.741 F10800.000
G1 F1200
G1 X114.440 Y97.227 E0.01531
G1 X114.391 Y97.693 E0.01469
G1 X114.246 Y98.138 E0.01468
G1 X114.012 Y98.543 E0.01467
G1 X113.716 Y98.872 E0.01389
G1 X113.503 Y99.046 E0.00860
G1 X113.110 Y99.272 E0.01423
G1 X112.664 Y99.417 E0.01468
G1 X112.198 Y99.465 E0.01469
G1 X111.732 Y99.416 E0.01469
G1 X111.287 Y99.271 E0.01468
G1 X110.882 Y99.037 E0.01467
G1 X110.553 Y98.741 E0.01389
G1 X110.379 Y98.528 E0.00860
G1 X110.153 Y98.135 E0.01424
G1 X110.008 Y97.689 E0.01468
G1 X109.960 Y97.223 E0.01468
G1 X110.009 Y96.758 E0.01467
G1 X110.145 Y96.337 E0.01389
G1 X110.269 Y96.092 E0.00860
G1 X110.536 Y95.725 E0.01423
G1 X110.885 Y95.412 E0.01469
G1 X111.290 Y95.178 E0.01468
G1 X111.735 Y95.033 E0.01467
G1 X112.176 Y94.987 E0.01389
G1 X112.450 Y95.000 E0.00860
G1 X112.894 Y95.095 E0.01424
G1 X113.322 Y95.286 E0.01468
G1 X113.700 Y95.561 E0.01469
G1 X114.014 Y95.910 E0.01469
G1 X114.247 Y96.315 E0.01468
G1 X114.367 Y96.684 E0.01216
G1 X114.021 Y96.839 F10800.000
G1 F1200
G1 X114.061 Y97.226 E0.01220
G1 X114.020 Y97.613 E0.01220
G1 X113.900 Y97.983 E0.01220
G1 X113.705 Y98.320 E0.01219
G1 X113.455 Y98.599 E0.01174
G1 X113.288 Y98.734 E0.00673
G1 X112.956 Y98.926 E0.01204
G1 X112.586 Y99.046 E0.01220
G1 X112.199 Y99.086 E0.01220
G1 X111.812 Y99.045 E0.01220
G1 X111.442 Y98.925 E0.01220
G1 X111.105 Y98.730 E0.01219
G1 X110.827 Y98.480 E0.01174
G1 X110.691 Y98.313 E0.00673
G1 X110.499 Y97.981 E0.01204
G1 X110.379 Y97.611 E0.01220
G1 X110.339 Y97.224 E0.01220
G1 X110.380 Y96.837 E0.01219
G1 X110.495 Y96.481 E0.01174
G1 X110.592 Y96.289 E0.00673
G1 X110.818 Y95.979 E0.01204
G1 X111.107 Y95.718 E0.01220
G1 X111.444 Y95.524 E0.01220
G1 X111.814 Y95.404 E0.01219
G1 X112.187 Y95.365 E0.01174
G1 X112.401 Y95.375 E0.00673
G1 X112.777 Y95.455 E0.01204
G1 X113.132 Y95.614 E0.01220
G1 X113.446 Y95.843 E0.01220
G1 X113.707 Y96.132 E0.01220
G1 X113.901 Y96.469 E0.01220
G1 X114.002 Y96.782 E0.01032
G1 X114.391 Y96.960 F10800.000
G1 F8640
G1 X114.061 Y97.226 E-0.10344
G1 X114.020 Y97.613 E-0.08985
G1 X113.900 Y97.983 E-0.08983
G1 X113.705 Y98.320 E-0.08979
G1 X113.455 Y98.599 E-0.08648
G1 X113.288 Y98.734 E-0.04955
G1 X112.956 Y98.926 E-0.08865
G1 X112.586 Y99.046 E-0.08983
G1 X112.273 Y99.078 E-0.07258
G1 E-0.04000 F2100.00000
G1 Z0.800 F10800.000
G1 X121.779 Y109.584
G1 Z0.200
G1 E0.80000 F2100.00000
G1 F1200
G1 X122.231 Y109.349 E0.01597
G1 X122.547 Y109.242 E0.01047
G1 X123.063 Y109.159 E0.01639
G1 X123.609 Y109.188 E0.01713
G1 X124.136 Y109.332 E0.01713
G1 X124.621 Y109.584 E0.01713
G1 X125.021 Y109.916 E0.01632
G1 X125.235 Y110.160 E0.01018
G1 X125.511 Y110.601 E0.01632
G1 X125.696 Y111.115 E0.01713
G1 X125.769 Y111.657 E0.01713
G1 X125.725 Y112.201 E0.01713
G1 X125.568 Y112.724 E0.01711
G1 X125.321 Y113.169 E0.01597
G1 X125.117 Y113.433 E0.01047
G1 X124.733 Y113.787 E0.01637
G1 X124.294 Y114.046 E0.01597
G1 X123.984 Y114.170 E0.01047
G1 X123.473 Y114.280 E0.01639
G1 X122.927 Y114.280 E0.01713
G1 X122.393 Y114.165 E0.01713
G1 X121.919 Y113.950 E0.01632
G1 X121.649 Y113.770 E0.01018
G1 X121.266 Y113.417 E0.01632
G1 X120.952 Y112.970 E0.01713
G1 X120.740 Y112.467 E0.01713
G1 X120.639 Y111.930 E0.01713
G1 X120.653 Y111.384 E0.01713
G1 X120.783 Y110.853 E0.01713
G1 X121.022 Y110.362 E0.01713
G1 X121.359 Y109.932 E0.01713
G1 X121.733 Y109.622 E0.01523
G1 X121.973 Y109.913 F10800.000
G1 F1200
G1 X122.379 Y109.697 E0.01440
G1 X122.638 Y109.609 E0.00857
G1 X123.083 Y109.538 E0.01415
G1 X123.548 Y109.562 E0.01460
G1 X123.998 Y109.685 E0.01460
G1 X124.411 Y109.900 E0.01460
G1 X124.757 Y110.187 E0.01411
G1 X124.931 Y110.386 E0.00829
G1 X125.170 Y110.767 E0.01411
G1 X125.328 Y111.205 E0.01460
G1 X125.390 Y111.667 E0.01460
G1 X125.352 Y112.131 E0.01460
G1 X125.218 Y112.576 E0.01459
G1 X125.006 Y112.961 E0.01379
G1 X124.838 Y113.177 E0.00856
G1 X124.507 Y113.483 E0.01414
G1 X124.128 Y113.707 E0.01379
G1 X123.874 Y113.808 E0.00857
G1 X123.433 Y113.903 E0.01415
G1 X122.967 Y113.903 E0.01460
G1 X122.512 Y113.805 E0.01460
G1 X122.102 Y113.619 E0.01411
G1 X121.882 Y113.473 E0.00829
G1 X121.552 Y113.167 E0.01411
G1 X121.284 Y112.786 E0.01460
G1 X121.103 Y112.357 E0.01460
G1 X121.017 Y111.900 E0.01460
G1 X121.029 Y111.434 E0.01460
G1 X121.139 Y110.982 E0.01460
G1 X121.343 Y110.563 E0.01460
G1 X121.631 Y110.197 E0.01460
G1 X121.927 Y109.951 E0.01208
G1 X122.199 Y110.216 F10800.000
G1 F1200
G1 X122.527 Y110.045 E0.01161
G1 X122.729 Y109.977 E0.00666
G1 X123.104 Y109.916 E0.01191
G1 X123.488 Y109.937 E0.01207
G1 X123.860 Y110.038 E0.01207
G1 X124.201 Y110.216 E0.01207
G1 X124.493 Y110.458 E0.01190
G1 X124.628 Y110.611 E0.00639
G1 X124.829 Y110.933 E0.01190
G1 X124.959 Y111.295 E0.01207
G1 X125.011 Y111.677 E0.01207
G1 X124.980 Y112.061 E0.01207
G1 X124.869 Y112.429 E0.01207
G1 X124.690 Y112.753 E0.01161
G1 X124.559 Y112.921 E0.00666
G1 X124.280 Y113.179 E0.01191
G1 X123.961 Y113.367 E0.01161
G1 X123.764 Y113.446 E0.00666
G1 X123.393 Y113.526 E0.01191
G1 X123.007 Y113.526 E0.01207
G1 X122.631 Y113.445 E0.01207
G1 X122.286 Y113.288 E0.01190
G1 X122.116 Y113.175 E0.00639
G1 X121.837 Y112.918 E0.01190
G1 X121.616 Y112.603 E0.01207
G1 X121.466 Y112.248 E0.01207
