; generated by Slic3r Prusa Edition 1.41.0+ on 2018-09-21 at 15:28:01

; 

; external perimeters extrusion width = 0.45mm
; perimeters extrusion width = 0.45mm
; infill extrusion width = 0.45mm
; solid infill extrusion width = 0.45mm
; top infill extrusion width = 0.40mm
; first layer extrusion width = 0.42mm

M201 X9000 Y9000 Z500 E10000 ; sets maximum accelerations, mm/sec^2
M203 X500 Y500 Z12 E120 ; sets maximum feedrates, mm/sec
M204 P2000 R1500 T2000 ; sets acceleration (P, T) and retract acceleration (R), mm/sec^2
M205 X10.00 Y10.00 Z0.20 E2.50 ; sets the jerk limits, mm/sec
M205 S0 T0 ; sets the minimum extruding and travel feed rate, mm/sec
M107
M115 U3.1.0 ; tell printer latest fw version
M83  ; extruder relative mode
M204 S2000 T1500 ; MK2 firmware only supports the old M204 format
M104 S230 ; set extruder temp
M140 S85 ; set bed temp
M190 S85 ; wait for bed temp
M109 S230 ; wait for extruder temp
G28 W ; home all without mesh bed level
G80 ; mesh bed leveling
G1 Y-3.0 F1000.0 ; go outside print area
G92 E0.0
G1 X60.0 E9.0  F1000.0 ; intro line
G1 X100.0 E12.5  F1000.0 ; intro line
G92 E0.0
M900 K45; Filament gcode
G21 ; set units to millimeters
G90 ; use absolute coordinates
M83 ; use relative distances for extrusion
;BEFORE_LAYER_CHANGE
G92 E0.0
;0.2


G1 E-0.80000 F2100.00000
G1 Z0.600 F10800.000
;AFTER_LAYER_CHANGE
;0.2
G1 X48.135 Y68.532
G1 Z0.200
G1 E0.80000 F2100.00000
M204 S1000
G1 F1200
G1 X48.965 Y68.382 E0.02645
G1 X200.995 Y68.382 E4.76682
G1 X201.843 Y68.523 E0.02696
G1 X202.571 Y68.977 E0.02687
G1 X203.756 Y70.224 E0.05393
G1 X204.008 Y70.745 E0.01817
G1 X204.115 Y71.315 E0.01817
G1 X204.118 Y128.185 E1.78313
G1 X204.004 Y128.878 E0.02202
G1 X203.676 Y129.499 E0.02202
G1 X201.654 Y131.963 E0.09992
G1 X201.285 Y132.277 E0.01521
G1 X200.855 Y132.502 E0.01521
G1 X200.062 Y132.652 E0.02529
G1 X49.889 Y132.651 E4.70858
G1 X49.103 Y132.485 E0.02518
G1 X48.427 Y132.045 E0.02529
G1 X46.275 Y129.441 E0.10592
G1 X45.961 Y128.890 E0.01987
G1 X45.811 Y128.101 E0.02518
G1 X45.813 Y71.423 E1.77710
G1 X45.948 Y70.738 E0.02191
G1 X46.293 Y70.130 E0.02191
G1 X47.493 Y68.919 E0.05345
G1 X48.083 Y68.563 E0.02161
; PURGING FINISHED
G1 F8640
G1 X48.965 Y68.382 E-0.20777
G1 X51.356 Y68.382 E-0.55223
G1 E-0.04000 F2100.00000
G1 Z0.800 F10800.000
G1 X55.681 Y119.159
G1 Z0.200
G1 E0.80000 F2100.00000
G1 F1200
G1 X71.991 Y119.159 E0.51140
G1 X71.991 Y125.841 E0.20952
G1 X55.681 Y125.841 E0.51140
G1 X55.681 Y119.219 E0.20764
G1 X56.058 Y119.536 F10800.000
G1 F1200
G1 X71.614 Y119.536 E0.48776
G1 X71.614 Y125.464 E0.18588
G1 X56.058 Y125.464 E0.48776
G1 X56.058 Y119.596 E0.18400
G1 X56.435 Y119.913 F10800.000
G1 F1200
G1 X71.237 Y119.913 E0.46411
G1 X71.237 Y125.087 E0.16223
G1 X56.435 Y125.087 E0.46411
G1 X56.435 Y119.973 E0.16035
G1 X56.812 Y120.290 F10800.000
G1 F1200
G1 X70.860 Y120.290 E0.44047
G1 X70.860 Y124.710 E0.13859
G1 X56.812 Y124.710 E0.44047
G1 X56.812 Y120.350 E0.13670
G1 X56.648 Y119.925 F10800.000
G1 F8640
G1 X60.103 Y120.336 E-0.76000
G1 E-0.04000 F2100.00000
G1 Z0.800 F10800.000
G1 X60.621 Y112.322
G1 Z0.200
G1 E0.80000 F2100.00000
G1 F1200
G1 X59.150 Y111.667 E0.05047
G1 X57.849 Y110.721 E0.05045
G1 X56.772 Y109.526 E0.05046
G1 X55.967 Y108.131 E0.05049
G1 X55.470 Y106.601 E0.05044
G1 X55.301 Y105.000 E0.05047
G1 X55.470 Y103.399 E0.05047
G1 X55.967 Y101.869 E0.05044
G1 X56.771 Y100.475 E0.05047
G1 X56.971 Y100.253 E0.00935
G1 X57.849 Y99.279 E0.04113
G1 X59.150 Y98.333 E0.05045
G1 X60.621 Y97.678 E0.05047
G1 X62.195 Y97.344 E0.05047
G1 X63.805 Y97.344 E0.05046
G1 X65.379 Y97.678 E0.05047
G1 X66.850 Y98.333 E0.05047
G1 X68.151 Y99.279 E0.05045
G1 X69.228 Y100.474 E0.05046
G1 X70.033 Y101.869 E0.05049
G1 X70.530 Y103.399 E0.05044
G1 X70.699 Y105.000 E0.05047
G1 X70.530 Y106.601 E0.05047
G1 X70.033 Y108.131 E0.05044
G1 X69.229 Y109.525 E0.05047
G1 X68.151 Y110.721 E0.05048
G1 X66.850 Y111.667 E0.05045
G1 X65.379 Y112.322 E0.05047
G1 X63.805 Y112.656 E0.05047
G1 X62.195 Y112.656 E0.05046
G1 X60.680 Y112.335 E0.04859
G1 X60.758 Y111.966 F10800.000
G1 F1200
G1 X59.340 Y111.339 E0.04860
G1 X58.103 Y110.439 E0.04797
G1 X57.078 Y109.303 E0.04798
G1 X56.313 Y107.977 E0.04800
G1 X55.841 Y106.522 E0.04796
G1 X55.681 Y105.000 E0.04799
G1 X55.841 Y103.478 E0.04798
G1 X56.313 Y102.023 E0.04796
G1 X57.078 Y100.698 E0.04799
G1 X58.103 Y99.561 E0.04799
G1 X59.340 Y98.661 E0.04797
G1 X60.738 Y98.039 E0.04798
G1 X62.235 Y97.721 E0.04798
G1 X63.765 Y97.721 E0.04797
G1 X65.262 Y98.039 E0.04798
G1 X66.660 Y98.661 E0.04798
G1 X67.897 Y99.561 E0.04797
G1 X68.922 Y100.697 E0.04798
G1 X69.687 Y102.023 E0.04800
G1 X70.159 Y103.478 E0.04796
G1 X70.319 Y105.000 E0.04798
G1 X70.159 Y106.522 E0.04799
G1 X69.687 Y107.977 E0.04796
G1 X68.922 Y109.302 E0.04799
G1 X67.897 Y110.439 E0.04799
G1 X66.660 Y111.339 E0.04797
G1 X65.262 Y111.961 E0.04798
G1 X63.765 Y112.279 E0.04798
G1 X62.235 Y112.279 E0.04797
G1 X60.817 Y111.978 E0.04546
G1 X60.895 Y111.609 F10800.000
G1 F1200
G1 X59.530 Y111.011 E0.04674
G1 X58.356 Y110.158 E0.04549
G1 X57.385 Y109.080 E0.04550
G1 X56.659 Y107.823 E0.04551
G1 X56.211 Y106.443 E0.04547
G1 X56.060 Y105.000 E0.04550
G1 X56.211 Y103.557 E0.04550
G1 X56.659 Y102.177 E0.04547
G1 X57.385 Y100.920 E0.04550
G1 X58.356 Y99.842 E0.04550
G1 X59.530 Y98.989 E0.04549
G1 X60.855 Y98.399 E0.04549
G1 X62.275 Y98.098 E0.04550
G1 X63.725 Y98.098 E0.04549
G1 X65.145 Y98.399 E0.04550
G1 X66.470 Y98.989 E0.04549
G1 X67.644 Y99.842 E0.04549
G1 X68.615 Y100.920 E0.04550
G1 X69.341 Y102.177 E0.04551
G1 X69.789 Y103.557 E0.04547
G1 X69.940 Y105.000 E0.04550
G1 X69.789 Y106.443 E0.04550
G1 X69.341 Y107.823 E0.04547
G1 X68.615 Y109.080 E0.04550
G1 X67.644 Y110.158 E0.04550
G1 X66.470 Y111.011 E0.04549
G1 X65.145 Y111.601 E0.04549
G1 X63.725 Y111.902 E0.04550
G1 X62.275 Y111.902 E0.04549
G1 X60.954 Y111.622 E0.04234
G1 X61.032 Y111.253 F10800.000
G1 F1200
G1 X59.719 Y110.682 E0.04487
G1 X58.610 Y109.876 E0.04301
G1 X57.692 Y108.857 E0.04301
G1 X57.006 Y107.668 E0.04302
G1 X56.582 Y106.365 E0.04299
G1 X56.439 Y105.000 E0.04302
G1 X56.582 Y103.636 E0.04302
G1 X57.006 Y102.332 E0.04299
G1 X57.692 Y101.143 E0.04302
G1 X58.610 Y100.124 E0.04301
G1 X59.719 Y99.318 E0.04301
G1 X60.972 Y98.760 E0.04300
G1 X62.314 Y98.475 E0.04301
G1 X63.686 Y98.475 E0.04301
G1 X65.028 Y98.760 E0.04301
G1 X66.281 Y99.318 E0.04300
G1 X67.390 Y100.124 E0.04301
G1 X68.308 Y101.143 E0.04301
G1 X68.994 Y102.332 E0.04302
G1 X69.418 Y103.636 E0.04299
G1 X69.561 Y105.000 E0.04302
G1 X69.418 Y106.365 E0.04302
G1 X68.994 Y107.668 E0.04299
G1 X68.308 Y108.857 E0.04302
G1 X67.390 Y109.876 E0.04301
G1 X66.281 Y110.682 E0.04301
G1 X65.028 Y111.240 E0.04300
G1 X63.686 Y111.525 E0.04301
G1 X62.314 Y111.525 E0.04301
G1 X61.091 Y111.265 E0.03922
G1 X60.737 Y111.523 F10800.000
G1 F8640
G1 X59.719 Y110.682 E-0.34405
G1 X58.610 Y109.876 E-0.31670
G1 X58.322 Y109.557 E-0.09924
G1 E-0.04000 F2100.00000
G1 Z0.800 F10800.000
G1 X61.444 Y97.341
G1 Z0.200
G1 E0.80000 F2100.00000
G1 F1200
G1 X54.659 Y90.556 E0.30089
G1 X54.659 Y80.659 E0.31031
G1 X70.050 Y80.659 E0.48257
G1 X82.841 Y93.450 E0.56720
G1 X82.841 Y101.341 E0.24741
G1 X79.159 Y101.341 E0.11546
G1 X79.159 Y94.976 E0.19959
G1 X68.524 Y84.341 E0.47154
G1 X68.052 Y84.341 E0.01481
G1 X70.054 Y86.343 E0.08876
G1 X67.897 Y88.500 E0.09565
G1 X69.897 Y90.500 E0.08868
G1 X66.738 Y93.659 E0.14006
G1 X75.570 Y93.659 E0.27691
G1 X78.841 Y96.930 E0.14507
G1 X78.841 Y101.341 E0.13830
G1 X75.159 Y101.341 E0.11546
G1 X75.159 Y98.456 E0.09048
G1 X74.044 Y97.341 E0.04941
G1 X61.504 Y97.341 E0.39318
G1 X61.601 Y96.964 F10800.000
G1 F1200
G1 X55.036 Y90.399 E0.29109
G1 X55.036 Y81.036 E0.29359
G1 X69.893 Y81.036 E0.46585
G1 X82.464 Y93.607 E0.55741
G1 X82.464 Y100.964 E0.23069
G1 X79.536 Y100.964 E0.09182
G1 X79.536 Y94.819 E0.19267
G1 X68.681 Y83.964 E0.48134
G1 X67.142 Y83.964 E0.04825
G1 X69.521 Y86.343 E0.10548
G1 X67.364 Y88.500 E0.09565
G1 X69.364 Y90.500 E0.08868
G1 X66.586 Y93.278 E0.12316
G1 X64.586 Y91.278 E0.08868
G1 X62.500 Y93.364 E0.09250
G1 X59.722 Y90.586 E0.12316
G1 X61.808 Y88.500 E0.09250
G1 X59.565 Y86.257 E0.09946
G1 X61.858 Y83.964 E0.10167
G1 X57.964 Y83.964 E0.12210
G1 X57.964 Y89.187 E0.16375
G1 X62.813 Y94.036 E0.21502
G1 X75.413 Y94.036 E0.39506
G1 X78.464 Y97.087 E0.13528
G1 X78.464 Y100.964 E0.12158
G1 X75.536 Y100.964 E0.09182
G1 X75.536 Y98.299 E0.08355
G1 X74.201 Y96.964 E0.05921
G1 X61.661 Y96.964 E0.39318
G1 X61.757 Y96.587 F10800.000
G1 F1200
G1 X55.413 Y90.243 E0.28130
G1 X55.413 Y81.413 E0.27687
G1 X69.737 Y81.413 E0.44913
G1 X82.087 Y93.763 E0.54762
G1 X82.087 Y100.587 E0.21397
G1 X79.913 Y100.587 E0.06817
G1 X79.913 Y94.663 E0.18574
G1 X68.837 Y83.587 E0.49113
G1 X57.587 Y83.587 E0.35273
G1 X57.587 Y89.343 E0.18047
G1 X62.657 Y94.413 E0.22482
G1 X75.257 Y94.413 E0.39506
G1 X78.087 Y97.243 E0.12548
G1 X78.087 Y100.587 E0.10486
G1 X75.913 Y100.587 E0.06817
G1 X75.913 Y98.143 E0.07663
G1 X74.357 Y96.587 E0.06900
G1 X61.817 Y96.587 E0.39318
G1 X61.913 Y96.210 F10800.000
G1 F1200
G1 X55.790 Y90.087 E0.27150
G1 X55.790 Y81.790 E0.26015
G1 X69.581 Y81.790 E0.43241
G1 X81.710 Y93.919 E0.53782
G1 X81.710 Y100.210 E0.19725
G1 X80.290 Y100.210 E0.04452
G1 X80.290 Y94.507 E0.17881
G1 X68.993 Y83.210 E0.50093
G1 X57.210 Y83.210 E0.36945
G1 X57.210 Y89.499 E0.19719
G1 X62.501 Y94.790 E0.23461
G1 X75.101 Y94.790 E0.39506
G1 X77.710 Y97.399 E0.11569
G1 X77.710 Y100.210 E0.08814
G1 X76.290 Y100.210 E0.04452
G1 X76.290 Y97.987 E0.06970
G1 X74.513 Y96.210 E0.07879
G1 X61.973 Y96.210 E0.39318
G1 X61.559 Y96.396 F10800.000
G1 F8640
G1 X59.634 Y93.894 E-0.76000
G1 E-0.04000 F2100.00000
G1 Z0.800 F10800.000
G1 X62.500 Y92.830
G1 Z0.200
G1 E0.80000 F2100.00000
G1 F1200
G1 X60.256 Y90.586 E0.09951
G1 X62.342 Y88.500 E0.09250
G1 X60.099 Y86.257 E0.09946
G1 X62.343 Y84.013 E0.09951
G1 X64.586 Y86.256 E0.09946
G1 X66.743 Y84.099 E0.09565
G1 X68.987 Y86.343 E0.09951
G1 X66.830 Y88.500 E0.09565
G1 X68.830 Y90.500 E0.08868
G1 X66.586 Y92.744 E0.09951
G1 X64.586 Y90.744 E0.08868
G1 X62.542 Y92.788 E0.09062
G1 X62.500 Y92.297 F10800.000
G1 F1200
G1 X60.789 Y90.586 E0.07587
G1 X62.875 Y88.500 E0.09250
G1 X60.632 Y86.257 E0.09946
G1 X62.343 Y84.546 E0.07587
G1 X64.586 Y86.789 E0.09946
G1 X66.743 Y84.632 E0.09565
G1 X68.454 Y86.343 E0.07587
G1 X66.297 Y88.500 E0.09565
G1 X68.297 Y90.500 E0.08868
G1 X66.586 Y92.211 E0.07587
G1 X64.586 Y90.211 E0.08868
G1 X62.542 Y92.255 E0.09062
G1 X62.155 Y92.499 F10800.000
G1 F8640
G1 X60.789 Y90.586 E-0.55889
G1 X61.405 Y89.970 E-0.20111
G1 E-0.04000 F2100.00000
G1 Z0.800 F10800.000
G1 X120.309 Y72.659
G1 Z0.200
G1 E0.80000 F2100.00000
G1 F1200
G1 X126.007 Y72.659 E0.17868
G1 X128.457 Y76.627 E0.14622
G1 X128.966 Y76.627 E0.01595
G1 X128.966 Y72.659 E0.12441
G1 X133.852 Y72.659 E0.15321
G1 X133.852 Y77.801 E0.16123
G1 X134.712 Y77.120 E0.03439
G1 X135.609 Y76.694 E0.03113
G1 X136.322 Y76.498 E0.02320
G1 X137.604 Y76.371 E0.04038
G1 X138.934 Y76.371 E0.04170
G1 X138.934 Y72.659 E0.11639
G1 X143.820 Y72.659 E0.15321
G1 X143.820 Y85.837 E0.41320
G1 X137.722 Y85.837 E0.19120
G1 X136.697 Y85.775 E0.03221
G1 X135.705 Y85.569 E0.03176
G1 X134.793 Y85.200 E0.03086
G1 X133.986 Y84.657 E0.03049
G1 X133.852 Y84.514 E0.00614
G1 X133.852 Y85.837 E0.04150
G1 X127.203 Y85.837 E0.20849
G1 X126.184 Y85.779 E0.03200
G1 X125.204 Y85.588 E0.03130
G1 X124.297 Y85.248 E0.03036
G1 X123.488 Y84.741 E0.02996
G1 X123.170 Y84.423 E0.01408
G1 X123.170 Y85.837 E0.04434
G1 X118.285 Y85.837 E0.15318
G1 X118.285 Y78.173 E0.24032
G1 X118.254 Y77.756 E0.01311
G1 X118.080 Y77.213 E0.01788
G1 X117.956 Y77.088 E0.00550
G1 X117.881 Y77.051 E0.00263
G1 X117.279 Y76.955 E0.01911
G1 X116.645 Y77.057 E0.02014
G1 X116.547 Y77.106 E0.00342
G1 X116.436 Y77.199 E0.00456
G1 X116.340 Y77.326 E0.00500
G1 X116.278 Y77.465 E0.00476
G1 X116.159 Y78.293 E0.02622
G1 X116.159 Y85.837 E0.23655
G1 X111.273 Y85.837 E0.15321
G1 X111.273 Y84.558 E0.04012
G1 X110.747 Y85.030 E0.02216
G1 X109.909 Y85.496 E0.03005
G1 X108.975 Y85.804 E0.03084
G1 X108.483 Y85.888 E0.01565
G1 X181.341 Y85.888 E2.28441
G1 X181.341 Y102.063 E0.50715
G1 X181.487 Y101.577 E0.01589
G1 X181.862 Y100.686 E0.03032
G1 X182.964 Y98.393 E0.07976
G1 X183.057 Y98.103 E0.00956
G1 X183.101 Y97.826 E0.00879
G1 X183.096 Y97.491 E0.01051
G1 X183.007 Y97.118 E0.01204
G1 X182.736 Y96.428 E0.02323
G1 X182.179 Y95.136 E0.04410
G1 X181.906 Y94.250 E0.02908
G1 X181.783 Y93.719 E0.01710
G1 X181.676 Y92.859 E0.02716
G1 X181.709 Y91.807 E0.03299
G1 X181.880 Y90.899 E0.02898
G1 X182.097 Y90.256 E0.02128
G1 X182.476 Y89.448 E0.02797
G1 X183.101 Y88.562 E0.03401
G1 X183.763 Y87.910 E0.02914
G1 X184.543 Y87.404 E0.02915
G1 X184.973 Y87.239 E0.01442
G1 X185.498 Y87.088 E0.01715
G1 X186.376 Y87.072 E0.02752
G1 X187.058 Y87.245 E0.02206
G1 X187.335 Y87.356 E0.00938
G1 X188.094 Y87.774 E0.02715
G1 X189.221 Y88.476 E0.04164
G1 X189.762 Y88.746 E0.01897
G1 X190.498 Y88.969 E0.02411
G1 X190.681 Y88.951 E0.00577
G1 X191.392 Y88.707 E0.02355
G1 X192.333 Y88.186 E0.03373
G1 X193.450 Y87.512 E0.04092
G1 X194.141 Y87.224 E0.02348
G1 X194.632 Y87.127 E0.01567
G1 X195.258 Y87.115 E0.01965
G1 X195.776 Y87.163 E0.01629
G1 X196.621 Y87.495 E0.02847
G1 X197.063 Y87.806 E0.01693
G1 X197.780 Y88.420 E0.02963
G1 X198.377 Y89.197 E0.03072
G1 X198.794 Y89.957 E0.02716
G1 X198.925 Y90.282 E0.01099
G1 X199.219 Y91.300 E0.03323
G1 X199.316 Y91.856 E0.01770
G1 X199.359 Y92.551 E0.02183
G1 X199.274 Y93.593 E0.03276
G1 X199.065 Y94.491 E0.02892
G1 X198.777 Y95.316 E0.02739
G1 X198.019 Y97.060 E0.05963
G1 X197.918 Y97.395 E0.01098
G1 X197.878 Y97.629 E0.00742
G1 X197.875 Y97.827 E0.00622
G1 X197.913 Y98.112 E0.00901
G1 X197.996 Y98.407 E0.00960
G1 X198.412 Y99.352 E0.03238
G1 X199.013 Y100.561 E0.04232
G1 X199.427 Y101.547 E0.03354
G1 X199.684 Y102.387 E0.02754
G1 X199.753 Y102.733 E0.01108
G1 X199.832 Y103.185 E0.01439
G1 X199.869 Y104.062 E0.02750
G1 X199.788 Y104.820 E0.02391
G1 X199.683 Y105.291 E0.01514
G1 X199.417 Y106.068 E0.02573
G1 X198.927 Y107.092 E0.03558
G1 X198.344 Y108.119 E0.03705
G1 X197.995 Y108.798 E0.02393
G1 X197.869 Y109.117 E0.01076
G1 X197.792 Y109.449 E0.01068
G1 X197.794 Y109.771 E0.01010
G1 X197.884 Y110.159 E0.01248
G1 X198.343 Y111.361 E0.04036
G1 X198.683 Y112.407 E0.03448
G1 X198.827 Y113.183 E0.02472
G1 X198.869 Y113.995 E0.02549
G1 X198.723 Y115.035 E0.03295
G1 X198.381 Y115.948 E0.03058
G1 X197.903 Y116.692 E0.02773
G1 X197.361 Y117.236 E0.02409
G1 X196.734 Y117.688 E0.02423
G1 X196.177 Y117.931 E0.01904
G1 X195.967 Y117.984 E0.00679
G1 X195.405 Y118.193 E0.01879
G1 X195.009 Y118.250 E0.01254
G1 X193.877 Y118.282 E0.03552
G1 X192.575 Y117.994 E0.04181
G1 X191.869 Y117.687 E0.02414
G1 X190.652 Y117.084 E0.04260
G1 X190.425 Y117.017 E0.00741
G1 X190.173 Y117.079 E0.00814
G1 X188.748 Y117.779 E0.04979
G1 X187.973 Y118.055 E0.02577
G1 X187.384 Y118.191 E0.01896
G1 X186.468 Y118.269 E0.02883
G1 X185.739 Y118.205 E0.02295
G1 X185.244 Y118.103 E0.01585
G1 X184.762 Y117.948 E0.01588
G1 X184.346 Y117.759 E0.01432
G1 X183.902 Y117.496 E0.01616
G1 X183.191 Y116.930 E0.02851
G1 X182.588 Y116.130 E0.03142
G1 X182.221 Y115.322 E0.02782
G1 X182.016 Y114.384 E0.03011
G1 X181.997 Y113.476 E0.02845
G1 X182.051 Y112.980 E0.01566
G1 X182.207 Y112.245 E0.02354
G1 X182.620 Y111.079 E0.03879
G1 X183.022 Y110.037 E0.03502
G1 X183.086 Y109.772 E0.00855
G1 X183.102 Y109.558 E0.00673
G1 X183.066 Y109.261 E0.00937
G1 X182.890 Y108.723 E0.01775
G1 X181.898 Y106.859 E0.06622
G1 X181.504 Y106.008 E0.02940
G1 X181.341 Y105.546 E0.01535
G1 X181.341 Y119.612 E0.44103
G1 X93.659 Y119.612 E2.74922
G1 X93.659 Y85.888 E1.05741
G1 X105.188 Y85.888 E0.36149
G1 X104.886 Y85.855 E0.00952
G1 X103.988 Y85.599 E0.02927
G1 X103.199 Y85.211 E0.02759
G1 X102.515 Y84.663 E0.02747
G1 X101.972 Y83.969 E0.02762
G1 X101.585 Y83.174 E0.02772
G1 X100.952 Y80.917 E0.07351
G1 X103.080 Y80.625 E0.06736
G1 X102.412 Y80.210 E0.02468
G1 X101.831 Y79.594 E0.02654
G1 X101.412 Y78.891 E0.02565
G1 X101.337 Y78.661 E0.00759
G1 X98.704 Y85.837 E0.23967
G1 X94.230 Y85.837 E0.14026
G1 X89.414 Y72.659 E0.43993
G1 X94.466 Y72.659 E0.15841
