; generated by PrusaSlicer 2.0.0+ on 2019-06-05 at 20:24:15

; 

; external perimeters extrusion width = 0.45mm
; perimeters extrusion width = 0.45mm
; infill extrusion width = 0.45mm
; solid infill extrusion width = 0.45mm
; top infill extrusion width = 0.40mm
; first layer extrusion width = 0.42mm

M73 P0 R39
M201 X9000 Y9000 Z500 E10000 ; sets maximum accelerations, mm/sec^2
M203 X500 Y500 Z12 E120 ; sets maximum feedrates, mm/sec
M204 P2000 R1500 T2000 ; sets acceleration (P, T) and retract acceleration (R), mm/sec^2
M205 X10.00 Y10.00 Z0.20 E2.50 ; sets the jerk limits, mm/sec
M205 S0 T0 ; sets the minimum extruding and travel feed rate, mm/sec
M107
M83  ; extruder relative mode
M140 S100 ; set bed temp
M109 S160 ; Set extruder temp before bed level
M190 S100 ; wait for bed temp

G28 W ; home all without mesh bed level
G80 N7 ; mesh bed leveling

M109 S255 ; wait for extruder temp

M221 S100 ; Set flow to 100

G1 Y-3.0 F1000.0 ; go outside print area
G92 E0.0
G1 E8 ; Purge Bubble
M73 P0 R39
G1 X60.0 E9.0 F1000.0 ; intro line
G1 X100.0 E12.5 F1000.0 ; intro line
G92 E0.0
M900 K30 ; Filament gcode
G21 ; set units to millimeters
G90 ; use absolute coordinates
M83 ; use relative distances for extrusion
;BEFORE_LAYER_CHANGE
G92 E0.0
;0.2


G1 E-0.80000 F2100.00000
G1 Z0.600 F10800.000
;AFTER_LAYER_CHANGE
;0.2
G1 X110.471 Y122.105
G1 Z0.200
G1 E0.80000 F2100.00000
M204 S1000
G1 F1200
G1 X109.913 Y121.845 E0.01930
G1 X109.531 Y121.528 E0.01555
G1 X109.230 Y121.134 E0.01555
G1 X101.892 Y108.423 E0.46019
G1 X101.135 Y106.577 E0.06257
G1 X100.544 Y104.444 E0.06939
G1 X100.249 Y102.592 E0.05882
G1 X100.148 Y100.798 E0.05633
G1 X100.231 Y98.963 E0.05760
G1 X100.462 Y97.331 E0.05166
G1 X100.889 Y95.553 E0.05732
G1 X101.513 Y93.761 E0.05950
G1 X102.286 Y92.099 E0.05749
G1 X103.246 Y90.483 E0.05892
G1 X104.200 Y89.180 E0.05063
G1 X105.245 Y87.985 E0.04979
G1 X106.394 Y86.876 E0.05007
G1 X107.578 Y85.908 E0.04793
G1 X108.962 Y84.959 E0.05262
G1 X110.361 Y84.168 E0.05039
G1 X111.848 Y83.487 E0.05129
G1 X113.114 Y83.058 E0.04191
G1 X114.599 Y82.826 E0.04710
G1 X135.381 Y82.826 E0.65163
G1 X136.481 Y82.964 E0.03474
G1 X137.422 Y83.215 E0.03055
G1 X138.900 Y83.810 E0.04994
G1 X140.335 Y84.542 E0.05052
G1 X141.664 Y85.366 E0.04903
G1 X142.787 Y86.190 E0.04366
G1 X143.900 Y87.142 E0.04594
G1 X144.955 Y88.198 E0.04679
G1 X145.863 Y89.259 E0.04379
G1 X146.729 Y90.446 E0.04606
G1 X147.454 Y91.622 E0.04333
G1 X148.097 Y92.869 E0.04397
G1 X148.677 Y94.248 E0.04692
G1 X149.082 Y95.455 E0.03993
G1 X149.458 Y96.931 E0.04776
G1 X149.673 Y98.151 E0.03882
G1 X149.850 Y100.384 E0.07024
G1 X149.740 Y102.696 E0.07257
G1 X149.369 Y104.834 E0.06804
G1 X148.662 Y107.135 E0.07547
G1 X148.086 Y108.462 E0.04539
G1 X140.724 Y121.208 E0.46152
G1 X140.380 Y121.615 E0.01669
G1 X139.952 Y121.925 E0.01658
G1 X139.462 Y122.124 E0.01658
G1 X138.935 Y122.199 E0.01669
G1 X111.083 Y122.200 E0.87329
G1 X110.530 Y122.114 E0.01753
G1 F8640
G1 X109.913 Y121.845 E-0.15550
G1 X109.531 Y121.528 E-0.11453
G1 X109.230 Y121.134 E-0.11453
G1 X108.417 Y119.726 E-0.37545
G1 E-0.04000 F2100.00000
G1 Z0.800 F10800.000
G1 X111.260 Y119.099
G1 Z0.200
G1 E0.80000 F2100.00000
G1 F1200
G1 X104.345 Y107.122 E0.43364
G1 X104.026 Y106.385 E0.02517
G1 X103.663 Y105.381 E0.03349
G1 X103.430 Y104.588 E0.02589
G1 X103.240 Y103.777 E0.02613
G1 X103.108 Y103.049 E0.02321
G1 X103.002 Y102.233 E0.02578
G1 X102.944 Y101.472 E0.02395
G1 X102.923 Y100.707 E0.02397
G1 X102.945 Y99.879 E0.02599
G1 X103.005 Y99.114 E0.02405
G1 X103.114 Y98.286 E0.02619
G1 X103.253 Y97.527 E0.02418
G1 X103.430 Y96.776 E0.02421
G1 X103.665 Y95.965 E0.02645
G1 X103.918 Y95.234 E0.02427
G1 X104.236 Y94.447 E0.02663
G1 X104.563 Y93.742 E0.02436
G1 X104.926 Y93.055 E0.02437
G1 X105.364 Y92.319 E0.02686
G1 X105.797 Y91.672 E0.02441
G1 X106.315 Y90.980 E0.02709
G1 X107.134 Y90.028 E0.03940
G1 X107.685 Y89.465 E0.02468
G1 X108.260 Y88.931 E0.02461
G1 X108.935 Y88.367 E0.02759
G1 X109.564 Y87.894 E0.02468
G1 X110.215 Y87.451 E0.02467
G1 X110.799 Y87.097 E0.02141
G1 X110.917 Y87.422 E0.01084
G1 X110.887 Y87.509 E0.00289
G1 X110.934 Y87.830 E0.01016
G1 X114.413 Y97.389 E0.31896
G1 X114.413 Y98.680 E0.04049
G1 X113.240 Y100.146 E0.05886
G1 X113.014 Y100.464 E0.01223
G1 X112.818 Y100.820 E0.01273
G1 X112.663 Y101.195 E0.01274
G1 X112.551 Y101.587 E0.01278
G1 X112.484 Y101.989 E0.01277
G1 X112.464 Y102.396 E0.01278
G1 X112.489 Y102.802 E0.01277
G1 X112.561 Y103.203 E0.01275
G1 X112.742 Y103.817 E0.02008
G1 X112.944 Y104.318 E0.01696
G1 X113.211 Y104.844 E0.01847
G1 X113.440 Y105.212 E0.01360
G1 X113.738 Y105.622 E0.01590
G1 X114.144 Y106.083 E0.01925
G1 X114.516 Y106.437 E0.01610
G1 X114.907 Y106.753 E0.01575
G1 X115.463 Y107.127 E0.02101
G1 X115.900 Y107.367 E0.01565
G1 X116.527 Y107.641 E0.02145
G1 X117.043 Y107.811 E0.01703
G1 X117.753 Y107.973 E0.02284
G1 X132.236 Y107.973 E0.45409
G1 X133.001 Y107.798 E0.02461
G1 X133.469 Y107.642 E0.01545
G1 X133.882 Y107.471 E0.01404
G1 X134.321 Y107.251 E0.01538
G1 X134.740 Y107.000 E0.01530
G1 X135.098 Y106.750 E0.01369
G1 X135.482 Y106.439 E0.01551
G1 X135.806 Y106.135 E0.01392
G1 X136.147 Y105.762 E0.01585
G1 X136.416 Y105.419 E0.01367
G1 X136.658 Y105.061 E0.01354
G1 X136.908 Y104.624 E0.01577
G1 X137.161 Y104.075 E0.01896
G1 X137.310 Y103.660 E0.01381
G1 X137.440 Y103.199 E0.01503
G1 X137.512 Y102.795 E0.01288
G1 X137.533 Y102.206 E0.01846
G1 X137.488 Y101.781 E0.01340
G1 X137.342 Y101.209 E0.01851
G1 X137.183 Y100.821 E0.01315
G1 X136.986 Y100.465 E0.01277
G1 X136.760 Y100.146 E0.01224
G1 X135.587 Y98.680 E0.05886
G1 X135.587 Y97.389 E0.04049
G1 X139.066 Y87.830 E0.31896
G1 X139.113 Y87.509 E0.01016
G1 X139.083 Y87.422 E0.00289
G1 X139.202 Y87.096 E0.01086
G1 X140.436 Y87.894 E0.04607
G1 X141.442 Y88.675 E0.03993
G1 X142.315 Y89.464 E0.03691
G1 X143.184 Y90.380 E0.03960
G1 X143.974 Y91.356 E0.03935
G1 X144.636 Y92.319 E0.03665
G1 X145.260 Y93.397 E0.03904
G1 X145.764 Y94.447 E0.03652
G1 X146.213 Y95.598 E0.03876
G1 X146.570 Y96.776 E0.03857
G1 X146.821 Y97.905 E0.03629
G1 X146.995 Y99.117 E0.03837
G1 X147.058 Y99.938 E0.02582
G1 X147.072 Y101.032 E0.03430
G1 X147.032 Y101.853 E0.02579
G1 X146.947 Y102.668 E0.02567
G1 X146.759 Y103.781 E0.03539
G1 X146.571 Y104.585 E0.02592
G1 X146.233 Y105.695 E0.03636
G1 X145.943 Y106.464 E0.02578
G1 X145.656 Y107.121 E0.02249
G1 X138.740 Y119.099 E0.43366
G1 X111.320 Y119.099 E0.85974
G1 F8640
G1 X109.664 Y116.255 E-0.76000
G1 E-0.04000 F2100.00000
G1 Z0.800 F10800.000
G1 X135.589 Y86.354
G1 Z0.200
G1 E0.80000 F2100.00000
G1 F1200
G1 X135.592 Y85.628 E0.02278
G1 X136.232 Y85.756 E0.02047
G1 X136.901 Y85.978 E0.02211
G1 X137.521 Y86.234 E0.02104
G1 X138.240 Y86.571 E0.02490
G1 X138.710 Y86.816 E0.01662
G1 X138.053 Y86.610 E0.02158
G1 X137.178 Y86.428 E0.02803
G1 X136.273 Y86.342 E0.02849
G1 X135.649 Y86.353 E0.01957
G1 F8640
G1 X135.592 Y85.628 E-0.16804
G1 X136.232 Y85.756 E-0.15076
G1 X136.901 Y85.978 E-0.16281
G1 X137.521 Y86.234 E-0.15493
G1 X138.005 Y86.461 E-0.12347
G1 E-0.04000 F2100.00000
G1 Z0.800 F10800.000
G1 X114.411 Y86.354
G1 Z0.200
G1 E0.80000 F2100.00000
G1 F1200
G1 X113.727 Y86.342 E0.02145
G1 X112.822 Y86.428 E0.02849
G1 X111.947 Y86.610 E0.02803
G1 X111.310 Y86.810 E0.02092
G1 X111.668 Y86.617 E0.01273
G1 X112.479 Y86.234 E0.02813
G1 X113.202 Y85.938 E0.02448
G1 X113.762 Y85.758 E0.01845
G1 X114.408 Y85.629 E0.02068
G1 X114.411 Y86.294 E0.02084
G1 F8640
G1 X113.727 Y86.342 E-0.15832
G1 X112.822 Y86.428 E-0.20980
G1 X111.947 Y86.610 E-0.20646
G1 X111.310 Y86.810 E-0.15403
G1 X111.430 Y86.745 E-0.03139
G1 E-0.04000 F2100.00000
G1 Z0.800 F10800.000
G1 X111.246 Y87.225
G1 Z0.200
G1 E0.80000 F2100.00000
G1 F1200
G1 X111.317 Y87.418 E0.00644
G1 X111.273 Y87.545 E0.00421
G1 X111.301 Y87.737 E0.00609
G1 X114.790 Y97.323 E0.31983
G1 X114.790 Y98.813 E0.04672
G1 X113.541 Y100.374 E0.06268
G1 X113.334 Y100.665 E0.01122
G1 X113.158 Y100.983 E0.01139
G1 X113.019 Y101.319 E0.01140
G1 X112.919 Y101.670 E0.01143
G1 X112.860 Y102.029 E0.01142
G1 X112.841 Y102.394 E0.01143
G1 X112.864 Y102.757 E0.01142
G1 X112.928 Y103.116 E0.01142
G1 X113.099 Y103.693 E0.01886
G1 X113.288 Y104.162 E0.01587
G1 X113.540 Y104.658 E0.01746
G1 X113.753 Y105.002 E0.01267
G1 X114.033 Y105.386 E0.01491
G1 X114.416 Y105.821 E0.01819
G1 X114.765 Y106.154 E0.01511
G1 X115.131 Y106.450 E0.01474
G1 X115.659 Y106.804 E0.01995
G1 X116.067 Y107.028 E0.01459
G1 X116.662 Y107.289 E0.02036
G1 X117.144 Y107.447 E0.01592
G1 X117.796 Y107.596 E0.02095
G1 X132.200 Y107.596 E0.45164
G1 X132.896 Y107.436 E0.02237
G1 X133.336 Y107.289 E0.01458
G1 X133.725 Y107.127 E0.01320
G1 X134.139 Y106.920 E0.01452
G1 X134.534 Y106.683 E0.01445
G1 X134.871 Y106.448 E0.01286
G1 X135.234 Y106.154 E0.01466
G1 X135.537 Y105.869 E0.01304
G1 X135.859 Y105.518 E0.01496
G1 X136.112 Y105.196 E0.01281
G1 X136.338 Y104.861 E0.01268
G1 X136.572 Y104.452 E0.01480
G1 X136.811 Y103.932 E0.01793
G1 X136.951 Y103.545 E0.01289
G1 X137.072 Y103.115 E0.01402
G1 X137.136 Y102.755 E0.01146
G1 X137.155 Y102.220 E0.01679
G1 X137.116 Y101.848 E0.01172
G1 X136.984 Y101.328 E0.01683
G1 X136.842 Y100.984 E0.01163
G1 X136.666 Y100.666 E0.01142
G1 X136.459 Y100.374 E0.01123
G1 X135.210 Y98.813 E0.06268
G1 X135.210 Y97.323 E0.04672
G1 X138.699 Y87.737 E0.31983
G1 X138.727 Y87.545 E0.00609
G1 X138.683 Y87.418 E0.00421
G1 X138.754 Y87.225 E0.00644
G1 X137.958 Y86.976 E0.02614
G1 X137.122 Y86.801 E0.02680
G1 X136.259 Y86.720 E0.02717
G1 X135.406 Y86.734 E0.02674
G1 X135.211 Y86.754 E0.00616
G1 X135.215 Y85.384 E0.04297
G1 X135.236 Y85.324 E0.00198
G1 X135.320 Y85.246 E0.00360
G1 X135.440 Y85.228 E0.00379
G1 X135.726 Y85.265 E0.00907
G1 X136.330 Y85.392 E0.01934
G1 X137.032 Y85.625 E0.02320
G1 X137.673 Y85.889 E0.02174
G1 X138.407 Y86.233 E0.02541
G1 X138.859 Y86.467 E0.01595
G1 X139.559 Y86.866 E0.02529
G1 X140.655 Y87.587 E0.04112
G1 X141.684 Y88.386 E0.04084
G1 X142.578 Y89.194 E0.03780
G1 X143.468 Y90.131 E0.04051
G1 X144.276 Y91.130 E0.04028
G1 X144.955 Y92.117 E0.03757
G1 X145.593 Y93.220 E0.03996
G1 X146.110 Y94.296 E0.03742
G1 X146.570 Y95.475 E0.03967
G1 X146.935 Y96.680 E0.03947
G1 X147.192 Y97.838 E0.03718
G1 X147.370 Y99.075 E0.03921
G1 X147.435 Y99.921 E0.02659
G1 X147.450 Y101.039 E0.03504
G1 X147.408 Y101.882 E0.02648
G1 X147.321 Y102.718 E0.02636
G1 X147.129 Y103.855 E0.03614
G1 X146.935 Y104.683 E0.02668
G1 X146.590 Y105.816 E0.03713
G1 X146.292 Y106.606 E0.02647
G1 X145.993 Y107.291 E0.02345
G1 X138.958 Y119.476 E0.44115
G1 X111.042 Y119.476 E0.87527
G1 X104.007 Y107.292 E0.44114
G1 X103.675 Y106.524 E0.02622
G1 X103.304 Y105.498 E0.03422
G1 X103.065 Y104.684 E0.02658
G1 X102.871 Y103.854 E0.02675
G1 X102.735 Y103.106 E0.02382
G1 X102.627 Y102.272 E0.02639
G1 X102.567 Y101.491 E0.02455
G1 X102.546 Y100.707 E0.02458
G1 X102.568 Y99.859 E0.02661
G1 X102.630 Y99.074 E0.02467
G1 X102.741 Y98.227 E0.02680
G1 X102.884 Y97.450 E0.02477
G1 X103.065 Y96.680 E0.02480
G1 X103.305 Y95.851 E0.02705
G1 X103.564 Y95.102 E0.02487
G1 X103.890 Y94.296 E0.02723
G1 X104.225 Y93.575 E0.02495
G1 X104.597 Y92.870 E0.02497
G1 X105.045 Y92.117 E0.02748
G1 X105.489 Y91.454 E0.02504
G1 X106.019 Y90.746 E0.02770
G1 X106.859 Y89.770 E0.04040
G1 X107.422 Y89.195 E0.02523
G1 X108.011 Y88.648 E0.02520
G1 X108.701 Y88.071 E0.02819
G1 X109.345 Y87.587 E0.02527
G1 X110.011 Y87.134 E0.02526
G1 X110.788 Y86.663 E0.02849
G1 X111.498 Y86.281 E0.02529
G1 X112.327 Y85.889 E0.02875
G1 X113.072 Y85.584 E0.02525
G1 X113.665 Y85.393 E0.01952
G1 X114.272 Y85.265 E0.01945
G1 X114.603 Y85.228 E0.01045
G1 X114.699 Y85.259 E0.00315
G1 X114.765 Y85.330 E0.00303
G1 X114.785 Y85.384 E0.00183
G1 X114.789 Y86.754 E0.04294
G1 X114.594 Y86.734 E0.00616
G1 X113.741 Y86.720 E0.02674
G1 X112.879 Y86.801 E0.02717
G1 X112.042 Y86.976 E0.02680
G1 X111.304 Y87.207 E0.02425
G1 X111.051 Y87.289 F10800.000
G1 X110.810 Y87.762
G1 F1200
G1 X110.598 Y87.550 E0.00942
G1 X110.269 Y87.756 E0.01219
G1 X110.799 Y88.286 E0.02352
G1 X111.105 Y89.126 E0.02811
G1 X109.951 Y87.973 E0.05127
G1 X109.637 Y88.193 E0.01206
G1 X111.410 Y89.967 E0.07884
G1 X111.716 Y90.807 E0.02811
G1 X109.332 Y88.422 E0.10599
G1 X109.031 Y88.656 E0.01198
G1 X112.022 Y91.648 E0.13298
G1 X112.328 Y92.488 E0.02811
G1 X108.739 Y88.899 E0.15952
G1 X108.448 Y89.143 E0.01193
G1 X112.634 Y93.329 E0.18606
G1 X112.940 Y94.169 E0.02811
G1 X108.171 Y89.400 E0.21199
G1 X107.893 Y89.657 E0.01189
G1 X113.246 Y95.010 E0.23792
G1 X113.552 Y95.850 E0.02811
G1 X107.629 Y89.927 E0.26329
G1 X107.364 Y90.197 E0.01188
G1 X113.858 Y96.691 E0.28864
G1 X114.130 Y97.439 E0.02503
G1 X114.130 Y97.497 E0.00184
G1 X107.110 Y90.478 E0.31203
G1 X106.862 Y90.764 E0.01191
G1 X114.130 Y98.032 E0.32306
G1 X114.130 Y98.567 E0.01680
G1 X106.619 Y91.056 E0.33385
G1 X106.386 Y91.357 E0.01197
G1 X113.899 Y98.870 E0.33396
G1 X113.661 Y99.167 E0.01195
G1 X106.157 Y91.662 E0.33358
G1 X105.934 Y91.974 E0.01205
G1 X113.424 Y99.464 E0.33291
G1 X113.186 Y99.761 E0.01195
G1 X105.720 Y92.295 E0.33188
G1 X105.512 Y92.622 E0.01217
G1 X112.953 Y100.062 E0.33073
G1 X112.737 Y100.381 E0.01210
G1 X105.313 Y92.957 E0.33000
G1 X105.118 Y93.296 E0.01231
G1 X112.550 Y100.728 E0.33034
G1 X112.394 Y101.107 E0.01287
G1 X104.933 Y93.647 E0.33162
G1 X104.754 Y94.002 E0.01251
G1 X112.275 Y101.523 E0.33430
G1 X112.201 Y101.984 E0.01467
G1 X104.585 Y94.367 E0.33856
G1 X104.423 Y94.739 E0.01277
G1 X112.187 Y102.504 E0.34513
G1 X112.208 Y102.836 E0.01046
G1 X112.256 Y103.108 E0.00867
G1 X104.269 Y95.120 E0.35506
G1 X104.122 Y95.508 E0.01304
G1 X112.454 Y103.840 E0.37037
G1 X112.687 Y104.436 E0.02009
G1 X112.864 Y104.785 E0.01232
G1 X103.985 Y95.905 E0.39470
G1 X103.858 Y96.314 E0.01343
G1 X126.361 Y118.816 E1.00026
G1 X126.896 Y118.816 E0.01680
G1 X115.609 Y107.529 E0.50171
G1 X115.776 Y107.621 E0.00598
G1 X116.565 Y107.951 E0.02692
G1 X127.430 Y118.816 E0.48295
G1 X127.965 Y118.816 E0.01680
G1 X117.311 Y108.162 E0.47358
G1 X117.721 Y108.256 E0.01324
G1 X117.939 Y108.256 E0.00685
G1 X128.500 Y118.816 E0.46941
G1 X129.034 Y118.816 E0.01680
G1 X118.474 Y108.256 E0.46941
G1 X119.008 Y108.256 E0.01680
G1 X129.569 Y118.816 E0.46941
G1 X130.103 Y118.816 E0.01680
G1 X119.543 Y108.256 E0.46941
G1 X120.078 Y108.256 E0.01680
G1 X130.638 Y118.816 E0.46941
G1 X131.172 Y118.816 E0.01680
G1 X120.612 Y108.256 E0.46941
G1 X121.147 Y108.256 E0.01680
G1 X131.707 Y118.816 E0.46941
G1 X132.242 Y118.816 E0.01680
G1 X121.681 Y108.256 E0.46941
G1 X122.216 Y108.256 E0.01680
G1 X132.776 Y118.816 E0.46941
G1 X133.311 Y118.816 E0.01680
G1 X122.750 Y108.256 E0.46941
G1 X123.285 Y108.256 E0.01680
G1 X133.845 Y118.816 E0.46941
M73 P2 R38
G1 X134.380 Y118.816 E0.01680
G1 X123.820 Y108.256 E0.46941
G1 X124.354 Y108.256 E0.01680
G1 X134.914 Y118.816 E0.46941
G1 X135.449 Y118.816 E0.01680
G1 X124.889 Y108.256 E0.46941
G1 X125.423 Y108.256 E0.01680
G1 X135.984 Y118.816 E0.46941
G1 X136.518 Y118.816 E0.01680
G1 X125.958 Y108.256 E0.46941
G1 X126.493 Y108.256 E0.01680
G1 X137.053 Y118.816 E0.46941
G1 X137.587 Y118.816 E0.01680
G1 X127.027 Y108.256 E0.46941
G1 X127.562 Y108.256 E0.01680
G1 X138.122 Y118.816 E0.46941
G1 X138.577 Y118.816 E0.01430
G1 X138.606 Y118.766 E0.00183
G1 X128.096 Y108.256 E0.46716
G1 X128.631 Y108.256 E0.01680
G1 X138.802 Y118.427 E0.45210
G1 X138.997 Y118.088 E0.01230
G1 X129.165 Y108.256 E0.43703
G1 X129.700 Y108.256 E0.01680
G1 X139.193 Y117.749 E0.42197
G1 X139.389 Y117.410 E0.01230
G1 X130.235 Y108.256 E0.40690
G1 X130.769 Y108.256 E0.01680
G1 X139.584 Y117.071 E0.39184
G1 X139.780 Y116.732 E0.01230
G1 X131.304 Y108.256 E0.37677
G1 X131.838 Y108.256 E0.01680
G1 X139.976 Y116.393 E0.36171
G1 X140.171 Y116.055 E0.01230
G1 X132.353 Y108.237 E0.34751
G1 X132.789 Y108.137 E0.01403
G1 X140.367 Y115.716 E0.33687
G1 X140.563 Y115.377 E0.01230
G1 X133.212 Y108.026 E0.32673
G1 X133.610 Y107.890 E0.01323
G1 X140.758 Y115.038 E0.31773
G1 X140.954 Y114.699 E0.01230
G1 X133.988 Y107.733 E0.30964
G1 X134.345 Y107.555 E0.01253
G1 X141.150 Y114.360 E0.30249
G1 X141.345 Y114.021 E0.01230
G1 X134.686 Y107.362 E0.29602
G1 X135.013 Y107.154 E0.01217
G1 X141.541 Y113.682 E0.29018
