; generated by Slic3r Prusa Edition 1.41.0+ on 2018-09-04 at 23:50:11

; 

; external perimeters extrusion width = 0.45mm
; perimeters extrusion width = 0.45mm
; infill extrusion width = 0.45mm
; solid infill extrusion width = 0.45mm
; top infill extrusion width = 0.40mm
; first layer extrusion width = 0.42mm

M201 X9000 Y9000 Z500 E10000 ; sets maximum accelerations, mm/sec^2
M203 X500 Y500 Z12 E120 ; sets maximum feedrates, mm/sec
M204 P2000 R1500 T2000 ; sets acceleration (P, T) and retract acceleration (R), mm/sec^2
M205 X10.00 Y10.00 Z0.20 E2.50 ; sets the jerk limits, mm/sec
M205 S0 T0 ; sets the minimum extruding and travel feed rate, mm/sec
M107
M115 U3.1.0 ; tell printer latest fw version
M83  ; extruder relative mode
M204 S2000 T1500 ; MK2 firmware only supports the old M204 format
M104 S230 ; set extruder temp
M140 S85 ; set bed temp
M190 S85 ; wait for bed temp
M109 S230 ; wait for extruder temp
G28 W ; home all without mesh bed level
G80 ; mesh bed leveling
G1 Y-3.0 F1000.0 ; go outside print area
G92 E0.0
G1 X60.0 E9.0  F1000.0 ; intro line
G1 X100.0 E12.5  F1000.0 ; intro line
G92 E0.0
M900 K45; Filament gcode
G21 ; set units to millimeters
G90 ; use absolute coordinates
M83 ; use relative distances for extrusion
;BEFORE_LAYER_CHANGE
G92 E0.0
;0.2


G1 E-0.80000 F2100.00000
G1 Z0.600 F10800.000
;AFTER_LAYER_CHANGE
;0.2
G1 X114.266 Y99.490
G1 Z0.200
G1 E0.80000 F2100.00000
M204 S1000
G1 F1200
G1 X116.238 Y96.733 E0.10627
G1 X116.737 Y96.234 E0.02214
G1 X119.247 Y94.412 E0.09725
G1 X119.892 Y94.096 E0.02251
G1 X123.113 Y93.083 E0.10589
G1 X126.490 Y93.051 E0.10589
G1 X127.223 Y93.160 E0.02324
G1 X130.471 Y94.246 E0.10738
G1 X133.264 Y96.235 E0.10750
G1 X133.763 Y96.734 E0.02214
G1 X135.749 Y99.519 E0.10725
G1 X136.832 Y102.747 E0.10675
G1 X136.948 Y103.456 E0.02251
G1 X136.924 Y106.841 E0.10615
G1 X135.730 Y110.517 E0.12118
G1 X133.758 Y113.273 E0.10627
G1 X133.234 Y113.787 E0.02300
G1 X130.477 Y115.751 E0.10613
G1 X127.249 Y116.833 E0.10675
G1 X126.544 Y116.948 E0.02238
G1 X123.159 Y116.924 E0.10615
G1 X119.483 Y115.730 E0.12118
G1 X116.727 Y113.758 E0.10627
G1 X116.213 Y113.234 E0.02300
G1 X114.249 Y110.477 E0.10613
G1 X113.167 Y107.249 E0.10675
G1 X113.052 Y106.544 E0.02238
G1 X113.076 Y103.159 E0.10615
G1 X114.248 Y99.547 E0.11905
G1 X114.599 Y99.668 F10800.000
G1 F1200
G1 X116.536 Y96.964 E0.10429
G1 X116.969 Y96.532 E0.01919
G1 X119.451 Y94.729 E0.09619
G1 X120.007 Y94.455 E0.01942
G1 X123.171 Y93.455 E0.10405
G1 X126.490 Y93.428 E0.10405
G1 X127.120 Y93.522 E0.01998
G1 X130.303 Y94.584 E0.10520
G1 X133.033 Y96.534 E0.10520
G1 X133.466 Y96.966 E0.01919
G1 X135.414 Y99.693 E0.10508
G1 X136.471 Y102.858 E0.10463
G1 X136.571 Y103.470 E0.01942
G1 X136.550 Y106.792 E0.10418
G1 X135.400 Y110.335 E0.11681
G1 X133.462 Y113.039 E0.10429
G1 X133.010 Y113.484 E0.01987
G1 X130.307 Y115.414 E0.10417
G1 X127.138 Y116.472 E0.10474
G1 X126.530 Y116.571 E0.01930
G1 X123.208 Y116.550 E0.10418
G1 X119.665 Y115.400 E0.11681
G1 X116.958 Y113.460 E0.10441
G1 X116.516 Y113.010 E0.01976
G1 X114.586 Y110.307 E0.10417
G1 X113.529 Y107.142 E0.10463
G1 X113.429 Y106.530 E0.01942
G1 X113.450 Y103.208 E0.10418
G1 X114.580 Y99.725 E0.11482
; PURGING FINISHED
G1 F8640
G1 X116.483 Y97.039 E-0.76000
G1 E-0.04000 F2100.00000
G1 Z0.800 F10800.000
G1 X130.877 Y105.587
G1 Z0.200
G1 E0.80000 F2100.00000
G1 F1200
G1 X128.504 Y105.587 E0.07438
G1 X128.479 Y105.265 E0.01011
G1 X128.435 Y105.666 E0.01265
G1 X128.279 Y106.222 E0.01808
G1 X128.020 Y106.766 E0.01888
G1 X127.660 Y107.272 E0.01949
G1 X127.207 Y107.712 E0.01981
G1 X126.682 Y108.064 E0.01981
G1 X126.112 Y108.313 E0.01949
G1 X125.527 Y108.453 E0.01888
G1 X124.951 Y108.491 E0.01808
G1 X124.390 Y108.436 E0.01768
G1 X124.075 Y108.364 E0.01014
G1 X123.511 Y108.155 E0.01883
G1 X122.970 Y107.836 E0.01969
G1 X122.492 Y107.422 E0.01985
G1 X122.099 Y106.932 E0.01969
G1 X121.812 Y106.404 E0.01883
G1 X121.696 Y106.103 E0.01014
G1 X121.560 Y105.555 E0.01768
G1 X121.532 Y105.190 E0.01150
G1 X121.516 Y105.579 E0.01221
G1 X119.138 Y105.579 E0.07458
G1 X119.190 Y104.466 E0.03494
G1 X119.264 Y103.928 E0.01702
G1 X119.393 Y103.384 E0.01753
G1 X119.578 Y102.841 E0.01797
G1 X119.821 Y102.309 E0.01834
G1 X120.122 Y101.796 E0.01863
G1 X120.476 Y101.312 E0.01883
G1 X120.881 Y100.864 E0.01893
G1 X121.330 Y100.460 E0.01893
G1 X121.816 Y100.106 E0.01883
G1 X122.329 Y99.807 E0.01863
G1 X122.862 Y99.566 E0.01834
G1 X123.405 Y99.382 E0.01797
G1 X123.950 Y99.254 E0.01754
G1 X124.495 Y99.180 E0.01727
G1 X125.012 Y99.157 E0.01622
G1 X125.537 Y99.182 E0.01648
G1 X126.075 Y99.256 E0.01702
G1 X126.619 Y99.384 E0.01753
G1 X127.162 Y99.569 E0.01797
G1 X127.694 Y99.812 E0.01834
G1 X128.207 Y100.111 E0.01863
G1 X128.692 Y100.466 E0.01883
G1 X129.141 Y100.870 E0.01893
G1 X129.545 Y101.319 E0.01893
G1 X129.899 Y101.804 E0.01883
G1 X130.198 Y102.317 E0.01863
G1 X130.440 Y102.850 E0.01834
G1 X130.625 Y103.393 E0.01797
G1 X130.753 Y103.937 E0.01753
G1 X130.827 Y104.475 E0.01702
G1 X130.874 Y105.527 E0.03303
G1 X130.482 Y105.210 F10800.000
G1 F1200
G1 X128.853 Y105.210 E0.05108
G1 X128.790 Y104.401 E0.02545
G1 X128.731 Y104.102 E0.00954
G1 X128.645 Y103.800 E0.00984
G1 X128.533 Y103.502 E0.00998
G1 X128.395 Y103.212 E0.01008
G1 X128.232 Y102.932 E0.01016
G1 X128.045 Y102.666 E0.01019
G1 X127.837 Y102.416 E0.01019
G1 X127.609 Y102.186 E0.01016
G1 X127.364 Y101.978 E0.01008
G1 X127.106 Y101.792 E0.00998
G1 X126.836 Y101.631 E0.00984
G1 X126.563 Y101.496 E0.00954
G1 X126.262 Y101.389 E0.01004
G1 X126.262 Y102.160 E0.02417
G1 X126.590 Y102.319 E0.01143
G1 X127.027 Y102.631 E0.01684
G1 X127.412 Y103.023 E0.01723
G1 X127.583 Y103.252 E0.00897
G1 X127.734 Y103.497 E0.00901
G1 X127.959 Y104.008 E0.01752
G1 X128.088 Y104.548 E0.01738
G1 X128.120 Y105.084 E0.01684
G1 X128.064 Y105.594 E0.01610
G1 X127.924 Y106.089 E0.01610
G1 X127.694 Y106.574 E0.01684
G1 X127.372 Y107.025 E0.01738
G1 X126.968 Y107.418 E0.01767
G1 X126.500 Y107.732 E0.01767
G1 X125.992 Y107.954 E0.01738
G1 X125.470 Y108.079 E0.01684
G1 X124.957 Y108.113 E0.01610
G1 X124.451 Y108.063 E0.01596
G1 X124.182 Y108.002 E0.00863
G1 X123.674 Y107.813 E0.01700
G1 X123.191 Y107.529 E0.01756
G1 X122.765 Y107.159 E0.01770
G1 X122.414 Y106.722 E0.01756
G1 X122.155 Y106.246 E0.01700
G1 X122.056 Y105.989 E0.00863
G1 X121.934 Y105.495 E0.01596
G1 X121.894 Y104.983 E0.01610
G1 X121.944 Y104.448 E0.01684
G1 X122.090 Y103.913 E0.01738
G1 X122.334 Y103.405 E0.01767
G1 X122.665 Y102.949 E0.01767
G1 X123.066 Y102.566 E0.01738
G1 X123.513 Y102.269 E0.01684
G1 X123.842 Y102.123 E0.01128
G1 X123.842 Y101.337 E0.02463
G1 X123.524 Y101.453 E0.01060
G1 X123.239 Y101.586 E0.00985
G1 X122.962 Y101.745 E0.01003
G1 X122.694 Y101.929 E0.01018
G1 X122.441 Y102.138 E0.01029
G1 X122.204 Y102.369 E0.01037
G1 X121.988 Y102.620 E0.01040
G1 X121.794 Y102.889 E0.01040
G1 X121.625 Y103.173 E0.01037
G1 X121.481 Y103.468 E0.01029
G1 X121.365 Y103.771 E0.01018
G1 X121.275 Y104.078 E0.01003
G1 X121.212 Y104.386 E0.00985
G1 X121.175 Y104.692 E0.00965
G1 X121.154 Y105.202 E0.01599
G1 X119.533 Y105.202 E0.05084
G1 X119.565 Y104.500 E0.02201
G1 X119.635 Y103.997 E0.01592
G1 X119.756 Y103.488 E0.01640
G1 X119.929 Y102.981 E0.01681
G1 X120.156 Y102.483 E0.01716
G1 X120.437 Y102.003 E0.01743
G1 X120.769 Y101.550 E0.01762
G1 X121.148 Y101.131 E0.01771
G1 X121.568 Y100.753 E0.01771
G1 X122.022 Y100.423 E0.01762
G1 X122.502 Y100.143 E0.01743
G1 X123.001 Y99.917 E0.01716
G1 X123.509 Y99.744 E0.01681
G1 X124.018 Y99.625 E0.01640
G1 X124.529 Y99.556 E0.01617
G1 X125.012 Y99.535 E0.01516
G1 X125.503 Y99.557 E0.01541
G1 X126.006 Y99.627 E0.01592
G1 X126.515 Y99.747 E0.01640
G1 X127.023 Y99.920 E0.01681
G1 X127.521 Y100.147 E0.01716
G1 X128.001 Y100.427 E0.01743
G1 X128.454 Y100.759 E0.01762
G1 X128.874 Y101.137 E0.01771
G1 X129.252 Y101.557 E0.01771
G1 X129.583 Y102.011 E0.01762
G1 X129.863 Y102.491 E0.01743
G1 X130.089 Y102.989 E0.01716
G1 X130.262 Y103.497 E0.01681
G1 X130.382 Y104.006 E0.01640
G1 X130.451 Y104.509 E0.01592
G1 X130.479 Y105.150 E0.02012
G1 X130.493 Y105.610 F10800.000
G1 F8640
G1 X128.853 Y105.210 E-0.37581
G1 X128.790 Y104.401 E-0.18743
G1 X128.731 Y104.102 E-0.07029
G1 X128.645 Y103.800 E-0.07246
G1 X128.562 Y103.581 E-0.05401
G1 E-0.04000 F2100.00000
G1 Z0.800 F10800.000
G1 X133.530 Y103.649
G1 Z0.200
G1 E0.80000 F2100.00000
G1 F1200
G1 X132.689 Y104.482 E0.03711
G1 X132.547 Y104.692 E0.00797
G1 X132.486 Y105.000 E0.00983
G1 X132.547 Y105.308 E0.00983
G1 X132.689 Y105.518 E0.00797
G1 X133.530 Y106.351 E0.03711
G1 X132.473 Y106.883 E0.03711
G1 X132.273 Y107.040 E0.00797
G1 X132.119 Y107.313 E0.00983
G1 X132.083 Y107.624 E0.00982
G1 X132.153 Y107.869 E0.00798
G1 X132.695 Y108.921 E0.03712
G1 X131.525 Y109.100 E0.03711
G1 X131.287 Y109.187 E0.00797
G1 X131.056 Y109.400 E0.00982
G1 X130.925 Y109.685 E0.00984
G1 X130.916 Y109.939 E0.00798
G1 X131.107 Y111.107 E0.03711
G1 X129.939 Y110.916 E0.03711
G1 X129.685 Y110.925 E0.00797
G1 X129.400 Y111.056 E0.00982
G1 X129.187 Y111.286 E0.00984
G1 X129.100 Y111.525 E0.00798
G1 X128.921 Y112.695 E0.03711
G1 X127.869 Y112.153 E0.03711
G1 X127.625 Y112.083 E0.00797
G1 X127.313 Y112.119 E0.00983
G1 X127.040 Y112.273 E0.00983
G1 X126.883 Y112.473 E0.00797
G1 X126.351 Y113.530 E0.03711
G1 X125.518 Y112.689 E0.03711
G1 X125.308 Y112.547 E0.00797
G1 X125.000 Y112.486 E0.00983
G1 X124.692 Y112.547 E0.00983
G1 X124.482 Y112.689 E0.00797
G1 X123.649 Y113.530 E0.03711
G1 X123.117 Y112.473 E0.03711
G1 X122.960 Y112.273 E0.00797
G1 X122.687 Y112.119 E0.00983
G1 X122.376 Y112.083 E0.00982
G1 X122.131 Y112.153 E0.00798
G1 X121.079 Y112.695 E0.03712
G1 X120.900 Y111.525 E0.03711
G1 X120.813 Y111.287 E0.00797
G1 X120.600 Y111.056 E0.00982
G1 X120.315 Y110.925 E0.00984
G1 X120.061 Y110.916 E0.00798
G1 X118.893 Y111.107 E0.03711
G1 X119.084 Y109.939 E0.03711
G1 X119.075 Y109.685 E0.00797
G1 X118.944 Y109.400 E0.00982
G1 X118.714 Y109.187 E0.00984
G1 X118.475 Y109.100 E0.00798
G1 X117.305 Y108.921 E0.03711
G1 X117.847 Y107.869 E0.03711
G1 X117.917 Y107.625 E0.00797
G1 X117.881 Y107.313 E0.00983
G1 X117.727 Y107.040 E0.00983
G1 X117.527 Y106.883 E0.00797
G1 X116.470 Y106.351 E0.03711
G1 X117.311 Y105.518 E0.03711
G1 X117.453 Y105.308 E0.00797
G1 X117.514 Y105.000 E0.00983
G1 X117.453 Y104.692 E0.00983
G1 X117.311 Y104.482 E0.00797
G1 X116.470 Y103.649 E0.03711
G1 X117.527 Y103.117 E0.03711
G1 X117.727 Y102.960 E0.00797
G1 X117.881 Y102.687 E0.00983
G1 X117.917 Y102.376 E0.00982
G1 X117.847 Y102.131 E0.00798
G1 X117.305 Y101.079 E0.03712
G1 X118.475 Y100.900 E0.03711
G1 X118.713 Y100.813 E0.00797
G1 X118.944 Y100.600 E0.00982
G1 X119.075 Y100.315 E0.00984
G1 X119.084 Y100.061 E0.00798
G1 X118.893 Y98.893 E0.03711
G1 X120.061 Y99.084 E0.03711
G1 X120.315 Y99.075 E0.00797
G1 X120.600 Y98.944 E0.00982
G1 X120.813 Y98.714 E0.00984
G1 X120.900 Y98.475 E0.00798
G1 X121.079 Y97.305 E0.03711
G1 X122.131 Y97.847 E0.03711
G1 X122.375 Y97.917 E0.00797
G1 X122.687 Y97.881 E0.00983
G1 X122.960 Y97.727 E0.00983
G1 X123.117 Y97.527 E0.00797
G1 X123.649 Y96.470 E0.03711
G1 X124.482 Y97.311 E0.03711
G1 X124.692 Y97.453 E0.00797
G1 X125.000 Y97.514 E0.00983
G1 X125.308 Y97.453 E0.00983
G1 X125.518 Y97.311 E0.00797
G1 X126.351 Y96.470 E0.03711
G1 X126.883 Y97.527 E0.03711
G1 X127.040 Y97.727 E0.00797
G1 X127.313 Y97.881 E0.00983
G1 X127.624 Y97.917 E0.00982
G1 X127.869 Y97.847 E0.00798
G1 X128.921 Y97.305 E0.03712
G1 X129.100 Y98.475 E0.03711
G1 X129.187 Y98.713 E0.00797
G1 X129.400 Y98.944 E0.00982
G1 X129.685 Y99.075 E0.00984
G1 X129.939 Y99.084 E0.00798
G1 X131.107 Y98.893 E0.03711
G1 X130.916 Y100.061 E0.03711
G1 X130.925 Y100.315 E0.00797
G1 X131.056 Y100.600 E0.00982
G1 X131.286 Y100.813 E0.00984
G1 X131.525 Y100.900 E0.00798
G1 X132.695 Y101.079 E0.03711
G1 X132.153 Y102.131 E0.03711
G1 X132.083 Y102.375 E0.00797
G1 X132.119 Y102.687 E0.00983
G1 X132.273 Y102.960 E0.00983
G1 X132.473 Y103.117 E0.00797
G1 X133.477 Y103.622 E0.03523
G1 F8640
G1 X132.689 Y104.482 E-0.26920
G1 X132.547 Y104.692 E-0.05872
G1 X132.486 Y105.000 E-0.07242
G1 X132.547 Y105.308 E-0.07242
G1 X132.689 Y105.518 E-0.05872
G1 X133.393 Y106.215 E-0.22851
G1 E-0.04000 F2100.00000
G1 Z0.800 F10800.000
G1 X129.516 Y98.513
G1 Z0.200
G1 E0.80000 F2100.00000
G1 F1200
G1 X129.626 Y98.633 E0.00509
G1 X129.774 Y98.701 E0.00510
G1 X129.915 Y98.706 E0.00444
G1 X131.562 Y98.438 E0.05230
G1 X131.294 Y100.085 E0.05230
G1 X131.299 Y100.226 E0.00443
G1 X131.367 Y100.374 E0.00509
G1 X131.487 Y100.484 E0.00511
G1 X131.619 Y100.533 E0.00444
G1 X133.268 Y100.787 E0.05230
G1 X132.505 Y102.271 E0.05230
G1 X132.466 Y102.406 E0.00443
G1 X132.485 Y102.568 E0.00510
G1 X132.565 Y102.710 E0.00510
G1 X132.676 Y102.797 E0.00443
G1 X134.165 Y103.548 E0.05230
G1 X132.981 Y104.723 E0.05230
G1 X132.902 Y104.841 E0.00443
G1 X132.870 Y105.000 E0.00510
G1 X132.902 Y105.159 E0.00510
G1 X132.981 Y105.277 E0.00443
G1 X134.165 Y106.452 E0.05230
G1 X132.676 Y107.203 E0.05230
G1 X132.565 Y107.290 E0.00443
G1 X132.485 Y107.432 E0.00510
G1 X132.466 Y107.593 E0.00509
G1 X132.505 Y107.729 E0.00444
G1 X133.268 Y109.213 E0.05230
G1 X131.619 Y109.467 E0.05230
G1 X131.487 Y109.516 E0.00443
G1 X131.367 Y109.626 E0.00509
G1 X131.299 Y109.774 E0.00510
G1 X131.294 Y109.915 E0.00444
G1 X131.562 Y111.561 E0.05230
G1 X129.915 Y111.294 E0.05230
G1 X129.774 Y111.299 E0.00443
G1 X129.626 Y111.367 E0.00509
G1 X129.516 Y111.487 E0.00511
G1 X129.467 Y111.619 E0.00444
G1 X129.213 Y113.268 E0.05230
G1 X127.729 Y112.505 E0.05230
G1 X127.594 Y112.466 E0.00443
G1 X127.432 Y112.485 E0.00510
G1 X127.290 Y112.565 E0.00510
G1 X127.203 Y112.676 E0.00443
G1 X126.452 Y114.165 E0.05230
G1 X125.277 Y112.981 E0.05230
G1 X125.159 Y112.902 E0.00443
G1 X125.000 Y112.870 E0.00510
G1 X124.841 Y112.902 E0.00510
G1 X124.723 Y112.981 E0.00443
G1 X123.548 Y114.165 E0.05230
G1 X122.797 Y112.676 E0.05230
G1 X122.710 Y112.565 E0.00443
G1 X122.568 Y112.485 E0.00510
G1 X122.407 Y112.466 E0.00509
G1 X122.271 Y112.505 E0.00444
G1 X120.787 Y113.268 E0.05230
G1 X120.533 Y111.619 E0.05230
G1 X120.484 Y111.487 E0.00443
G1 X120.374 Y111.367 E0.00509
G1 X120.226 Y111.299 E0.00510
G1 X120.085 Y111.294 E0.00444
G1 X118.438 Y111.562 E0.05230
G1 X118.706 Y109.915 E0.05230
G1 X118.701 Y109.774 E0.00443
G1 X118.633 Y109.626 E0.00509
G1 X118.513 Y109.516 E0.00511
G1 X118.381 Y109.467 E0.00444
G1 X116.732 Y109.213 E0.05230
G1 X117.495 Y107.729 E0.05230
G1 X117.534 Y107.594 E0.00443
G1 X117.515 Y107.432 E0.00510
G1 X117.435 Y107.290 E0.00510
G1 X117.324 Y107.203 E0.00443
G1 X115.835 Y106.452 E0.05230
G1 X117.019 Y105.277 E0.05230
G1 X117.098 Y105.159 E0.00443
G1 X117.130 Y105.000 E0.00510
G1 X117.098 Y104.841 E0.00510
G1 X117.019 Y104.723 E0.00443
G1 X115.835 Y103.548 E0.05230
G1 X117.324 Y102.797 E0.05230
G1 X117.435 Y102.710 E0.00443
G1 X117.515 Y102.568 E0.00510
G1 X117.534 Y102.407 E0.00509
G1 X117.495 Y102.271 E0.00444
G1 X116.732 Y100.787 E0.05230
G1 X118.381 Y100.533 E0.05230
G1 X118.513 Y100.484 E0.00443
G1 X118.633 Y100.374 E0.00509
G1 X118.701 Y100.226 E0.00510
G1 X118.706 Y100.085 E0.00444
G1 X118.438 Y98.438 E0.05230
G1 X120.085 Y98.706 E0.05230
G1 X120.226 Y98.701 E0.00443
G1 X120.374 Y98.633 E0.00509
G1 X120.484 Y98.513 E0.00510
G1 X120.533 Y98.381 E0.00444
G1 X120.787 Y96.732 E0.05230
G1 X122.271 Y97.495 E0.05230
G1 X122.406 Y97.534 E0.00443
G1 X122.568 Y97.515 E0.00510
G1 X122.710 Y97.435 E0.00510
G1 X122.797 Y97.324 E0.00443
G1 X123.548 Y95.835 E0.05230
G1 X124.723 Y97.019 E0.05230
G1 X124.841 Y97.098 E0.00443
G1 X125.000 Y97.130 E0.00510
G1 X125.159 Y97.098 E0.00510
G1 X125.277 Y97.019 E0.00443
G1 X126.452 Y95.835 E0.05230
G1 X127.203 Y97.324 E0.05230
G1 X127.290 Y97.435 E0.00443
G1 X127.432 Y97.515 E0.00510
G1 X127.593 Y97.534 E0.00509
G1 X127.729 Y97.495 E0.00444
G1 X129.213 Y96.732 E0.05230
G1 X129.467 Y98.381 E0.05230
G1 X129.495 Y98.457 E0.00255
G1 X129.439 Y98.656 F10800.000
G1 X128.965 Y98.342
G1 F1200
G1 X128.476 Y97.852 E0.02217
G1 X128.117 Y98.038 E0.01295
G1 X131.962 Y101.883 E0.17420
G1 X131.889 Y102.026 E0.00515
G1 X131.815 Y102.281 E0.00850
G1 X127.557 Y98.023 E0.19290
G1 F8640
