; generated by Slic3r Prusa Edition 1.41.0+ on 2018-09-27 at 16:31:43

; 

; external perimeters extrusion width = 0.45mm
; perimeters extrusion width = 0.45mm
; infill extrusion width = 0.45mm
; solid infill extrusion width = 0.45mm
; top infill extrusion width = 0.40mm
; first layer extrusion width = 0.42mm

M201 X9000 Y9000 Z500 E10000 ; sets maximum accelerations, mm/sec^2
M203 X500 Y500 Z12 E120 ; sets maximum feedrates, mm/sec
M204 P2000 R1500 T2000 ; sets acceleration (P, T) and retract acceleration (R), mm/sec^2
M205 X10.00 Y10.00 Z0.20 E2.50 ; sets the jerk limits, mm/sec
M205 S0 T0 ; sets the minimum extruding and travel feed rate, mm/sec
M107
G21 ; set units to millimeters
G90 ; use absolute positioning
M82 ; absolute extrusion mode
M104 S160 ; set extruder temp no wait
M140 S75 ; set bed temp no wait
M190 S75 ; wait for bed temp

G28 W ; home all without mesh bed level
G80 ; mesh bed leveling

M109 S240 ; wait for extruder temp

M900 K30 ; Linear Advance Value
M205 X8 ; jerk x standard 15
M205 Y8 ; jerk y standard 15
M205 E0.33 ; jerk e axis
M201 E180 ; e axis acceleration

G92 E0.0 ; reset extruder distance position
G1 Y-3.0 F1000.0 ; go outside print area
G1 X60.0 E9.0 F1000.0 ; intro line
M73 P0 R9
G1 X100.0 E21.5 F1000.0 ; intro line
G92 E0.0 ; reset extruder distance position
M900 K45; Filament gcode
G21 ; set units to millimeters
G90 ; use absolute coordinates
M83 ; use relative distances for extrusion
;BEFORE_LAYER_CHANGE
G92 E0.0
;0.2


G1 E-0.80000 F2100.00000
G1 Z0.600 F10800.000
;AFTER_LAYER_CHANGE
;0.2
G1 X64.000 Y89.161
G1 Z0.200
G1 E0.80000 F2100.00000
M204 S1000
G1 F1200
G1 X65.070 Y88.715 E0.03344
G1 X66.069 Y88.591 E0.02904
G1 X75.311 Y88.554 E0.26660
G1 X187.458 Y89.285 E3.23505
G1 X188.290 Y89.474 E0.02462
G1 X188.987 Y89.966 E0.02462
G1 X189.443 Y90.688 E0.02462
G1 X189.588 Y91.529 E0.02462
G1 X189.462 Y92.205 E0.01984
G1 X185.568 Y102.850 E0.32696
G1 X185.314 Y103.284 E0.01452
G1 X184.964 Y103.652 E0.01462
G1 X184.543 Y103.927 E0.01452
G1 X184.070 Y104.099 E0.01452
G1 X75.444 Y121.376 E3.17282
G1 X74.689 Y121.433 E0.02183
G1 X66.472 Y121.448 E0.23703
G1 X65.658 Y121.359 E0.02362
G1 X64.959 Y121.165 E0.02093
G1 X63.847 Y120.656 E0.03527
G1 X63.214 Y120.192 E0.02265
G1 X62.613 Y119.592 E0.02448
G1 X61.929 Y118.508 E0.03698
G1 X61.508 Y117.123 E0.04175
G1 X60.413 Y106.303 E0.31371
G1 X60.956 Y94.280 E0.34716
G1 X61.121 Y93.261 E0.02980
G1 X61.334 Y92.530 E0.02196
G1 X61.986 Y91.173 E0.04344
G1 X62.809 Y90.106 E0.03885
G1 X63.953 Y89.199 E0.04213
; PURGING FINISHED
G1 F8640
G1 X65.070 Y88.715 E-0.28101
G1 X66.069 Y88.591 E-0.23246
G1 X67.137 Y88.587 E-0.24652
G1 E-0.04000 F2100.00000
G1 Z0.800 F10800.000
G1 X67.308 Y112.251
G1 Z0.200
G1 E0.80000 F2100.00000
G1 F1200
G1 X67.649 Y112.205 E0.00993
G1 X68.064 Y112.247 E0.01205
G1 X68.432 Y112.397 E0.01144
G1 X68.740 Y112.633 E0.01119
G1 X68.976 Y112.941 E0.01119
G1 X69.124 Y113.298 E0.01115
G1 X69.175 Y113.682 E0.01117
G1 X69.124 Y114.067 E0.01121
G1 X68.976 Y114.425 E0.01117
G1 X68.739 Y114.731 E0.01117
G1 X68.433 Y114.966 E0.01110
G1 X68.075 Y115.115 E0.01121
G1 X67.691 Y115.165 E0.01115
G1 X67.307 Y115.115 E0.01119
G1 X66.948 Y114.966 E0.01122
G1 X66.641 Y114.731 E0.01113
G1 X66.407 Y114.425 E0.01112
G1 X66.257 Y114.067 E0.01119
G1 X66.207 Y113.682 E0.01120
G1 X66.257 Y113.298 E0.01117
G1 X66.406 Y112.941 E0.01116
G1 X66.641 Y112.634 E0.01114
G1 X66.949 Y112.397 E0.01122
G1 X67.252 Y112.274 E0.00943
G1 X67.394 Y112.623 F10800.000
G1 F1200
G1 X67.655 Y112.585 E0.00759
G1 X67.972 Y112.617 E0.00920
G1 X68.242 Y112.727 E0.00841
G1 X68.471 Y112.902 E0.00830
G1 X68.646 Y113.131 E0.00833
G1 X68.756 Y113.397 E0.00830
G1 X68.795 Y113.682 E0.00830
G1 X68.756 Y113.968 E0.00833
G1 X68.646 Y114.234 E0.00831
G1 X68.470 Y114.462 E0.00830
G1 X68.243 Y114.636 E0.00827
G1 X67.976 Y114.748 E0.00835
G1 X67.691 Y114.785 E0.00829
G1 X67.405 Y114.748 E0.00832
G1 X67.138 Y114.636 E0.00835
G1 X66.910 Y114.462 E0.00828
G1 X66.736 Y114.234 E0.00827
G1 X66.624 Y113.968 E0.00832
G1 X66.587 Y113.682 E0.00832
G1 X66.624 Y113.397 E0.00829
G1 X66.736 Y113.131 E0.00831
G1 X66.910 Y112.902 E0.00830
G1 X67.139 Y112.727 E0.00831
G1 X67.339 Y112.646 E0.00624
G1 X67.460 Y112.368 F10800.000
G1 F8640
G1 X67.655 Y112.585 E-0.07430
G1 X67.972 Y112.617 E-0.07364
G1 X68.242 Y112.727 E-0.06734
G1 X68.471 Y112.902 E-0.06643
G1 X68.646 Y113.131 E-0.06664
G1 X68.756 Y113.397 E-0.06642
G1 X68.795 Y113.682 E-0.06641
G1 X68.756 Y113.968 E-0.06665
G1 X68.646 Y114.234 E-0.06650
G1 X68.470 Y114.462 E-0.06646
G1 X68.243 Y114.636 E-0.06617
G1 X68.191 Y114.658 E-0.01302
G1 E-0.04000 F2100.00000
G1 Z0.800 F10800.000
G1 X67.921 Y111.036
G1 Z0.200
G1 E0.80000 F2100.00000
G1 F1200
G1 X67.951 Y110.574 E0.01336
G1 X68.101 Y110.130 E0.01354
G1 X68.357 Y109.735 E0.01357
G1 X68.658 Y109.434 E0.01229
G1 X69.003 Y109.180 E0.01235
G1 X69.668 Y108.887 E0.02097
G1 X70.235 Y108.770 E0.01668
G1 X70.680 Y108.736 E0.01288
G1 X71.190 Y108.771 E0.01475
G1 X71.693 Y108.879 E0.01485
G1 X72.264 Y109.115 E0.01782
G1 X72.767 Y109.464 E0.01766
G1 X73.049 Y109.770 E0.01199
G1 X73.269 Y110.113 E0.01176
G1 X73.422 Y110.552 E0.01343
G1 X73.455 Y111.019 E0.01349
G1 X73.364 Y111.479 E0.01353
G1 X73.156 Y111.905 E0.01368
G1 X72.879 Y112.240 E0.01253
G1 X72.574 Y112.512 E0.01180
G1 X72.205 Y112.734 E0.01242
G1 X71.706 Y112.939 E0.01557
G1 X71.207 Y113.051 E0.01475
G1 X70.698 Y113.090 E0.01473
G1 X70.186 Y113.056 E0.01480
G1 X69.678 Y112.945 E0.01498
G1 X69.015 Y112.656 E0.02087
G1 X68.806 Y112.518 E0.00723
G1 X68.509 Y112.259 E0.01135
G1 X68.280 Y111.993 E0.01014
G1 X68.151 Y111.796 E0.00679
G1 X67.999 Y111.434 E0.01132
G1 X67.933 Y111.095 E0.00997
G1 X68.303 Y111.023 F10800.000
G1 F1200
G1 X68.324 Y110.648 E0.01084
G1 X68.443 Y110.295 E0.01075
G1 X68.652 Y109.973 E0.01105
G1 X68.905 Y109.720 E0.01031
G1 X69.193 Y109.508 E0.01033
G1 X69.784 Y109.248 E0.01862
G1 X70.287 Y109.144 E0.01482
G1 X70.681 Y109.114 E0.01141
G1 X71.137 Y109.146 E0.01319
G1 X71.581 Y109.241 E0.01308
G1 X72.082 Y109.448 E0.01566
G1 X72.518 Y109.750 E0.01529
G1 X72.749 Y110.001 E0.00984
G1 X72.927 Y110.279 E0.00952
G1 X73.049 Y110.629 E0.01070
G1 X73.075 Y110.995 E0.01058
G1 X73.004 Y111.358 E0.01066
G1 X72.837 Y111.699 E0.01097
G1 X72.607 Y111.977 E0.01041
G1 X72.349 Y112.207 E0.00995
G1 X72.035 Y112.396 E0.01058
G1 X71.592 Y112.578 E0.01382
G1 X71.151 Y112.677 E0.01304
G1 X70.696 Y112.712 E0.01316
G1 X70.239 Y112.682 E0.01322
G1 X69.795 Y112.585 E0.01309
G1 X69.196 Y112.323 E0.01887
G1 X69.035 Y112.217 E0.00557
G1 X68.778 Y111.993 E0.00983
G1 X68.582 Y111.765 E0.00865
G1 X68.485 Y111.618 E0.00509
G1 X68.362 Y111.324 E0.00920
G1 X68.314 Y111.082 E0.00711
G1 X67.967 Y110.856 F10800.000
G1 F8640
G1 X68.324 Y110.648 E-0.10022
G1 X68.443 Y110.295 E-0.08605
G1 X68.652 Y109.973 E-0.08848
G1 X68.905 Y109.720 E-0.08255
G1 X69.193 Y109.508 E-0.08271
G1 X69.784 Y109.248 E-0.14905
G1 X70.287 Y109.144 E-0.11865
G1 X70.513 Y109.127 E-0.05230
G1 E-0.04000 F2100.00000
G1 Z0.800 F10800.000
G1 X72.421 Y112.917
G1 Z0.200
G1 E0.80000 F2100.00000
G1 F1200
G1 X72.658 Y112.609 E0.01122
G1 X72.975 Y112.367 E0.01149
G1 X73.366 Y112.222 E0.01204
G1 X73.708 Y112.176 E0.00996
G1 X74.090 Y112.227 E0.01110
G1 X74.448 Y112.373 E0.01116
G1 X74.756 Y112.610 E0.01121
G1 X74.993 Y112.917 E0.01120
G1 X75.140 Y113.276 E0.01119
G1 X75.190 Y113.658 E0.01110
G1 X75.140 Y114.041 E0.01113
G1 X74.993 Y114.400 E0.01120
G1 X74.755 Y114.708 E0.01123
G1 X74.449 Y114.942 E0.01113
G1 X74.091 Y115.091 E0.01119
G1 X73.708 Y115.141 E0.01112
G1 X73.323 Y115.091 E0.01121
G1 X72.967 Y114.942 E0.01115
G1 X72.659 Y114.709 E0.01114
G1 X72.421 Y114.400 E0.01125
G1 X72.274 Y114.041 E0.01120
G1 X72.224 Y113.658 E0.01113
G1 X72.274 Y113.276 E0.01110
G1 X72.398 Y112.973 E0.00946
G1 X72.747 Y113.116 F10800.000
G1 F1200
G1 X72.927 Y112.879 E0.00857
G1 X73.159 Y112.701 E0.00845
G1 X73.458 Y112.590 E0.00920
G1 X73.708 Y112.556 E0.00727
G1 X73.992 Y112.594 E0.00825
G1 X74.258 Y112.703 E0.00831
G1 X74.488 Y112.879 E0.00833
G1 X74.664 Y113.107 E0.00831
G1 X74.773 Y113.374 E0.00831
G1 X74.810 Y113.658 E0.00827
G1 X74.773 Y113.943 E0.00830
G1 X74.664 Y114.210 E0.00831
G1 X74.487 Y114.438 E0.00832
G1 X74.259 Y114.612 E0.00829
G1 X73.992 Y114.724 E0.00834
G1 X73.708 Y114.761 E0.00826
G1 X73.422 Y114.724 E0.00832
G1 X73.156 Y114.612 E0.00831
G1 X72.927 Y114.438 E0.00831
G1 X72.750 Y114.210 E0.00833
G1 X72.641 Y113.943 E0.00831
G1 X72.604 Y113.658 E0.00830
G1 X72.641 Y113.374 E0.00827
G1 X72.724 Y113.171 E0.00632
G1 X72.597 Y112.859 F10800.000
G1 F8640
G1 X72.927 Y112.879 E-0.08207
G1 X73.159 Y112.701 E-0.06761
G1 X73.458 Y112.590 E-0.07368
G1 X73.708 Y112.556 E-0.05820
G1 X73.992 Y112.594 E-0.06604
G1 X74.258 Y112.703 E-0.06654
G1 X74.488 Y112.879 E-0.06669
G1 X74.664 Y113.107 E-0.06653
G1 X74.773 Y113.374 E-0.06651
G1 X74.810 Y113.658 E-0.06618
G1 X74.773 Y113.943 E-0.06642
G1 X74.751 Y113.997 E-0.01353
G1 E-0.04000 F2100.00000
G1 Z0.800 F10800.000
G1 X75.077 Y108.895
G1 Z0.200
G1 E0.80000 F2100.00000
G1 F1200
G1 X74.660 Y108.792 E0.01240
G1 X74.222 Y108.587 E0.01395
G1 X73.778 Y108.237 E0.01632
G1 X73.434 Y107.828 E0.01539
G1 X73.163 Y107.349 E0.01589
G1 X72.998 Y106.920 E0.01324
G1 X72.870 Y106.299 E0.01831
G1 X72.838 Y105.659 E0.01847
G1 X72.954 Y104.878 E0.02278
G1 X73.162 Y104.272 E0.01847
G1 X73.474 Y103.738 E0.01785
G1 X73.982 Y103.197 E0.02142
G1 X74.557 Y102.858 E0.01925
G1 X75.019 Y102.743 E0.01374
G1 X75.458 Y102.715 E0.01271
G1 X75.859 Y102.780 E0.01170
G1 X76.111 Y102.860 E0.00763
G1 X76.561 Y103.100 E0.01470
G1 X76.928 Y103.415 E0.01395
G1 X77.328 Y103.938 E0.01901
G1 X77.427 Y104.112 E0.00576
G1 X77.642 Y104.606 E0.01553
G1 X77.819 Y105.415 E0.02389
G1 X77.816 Y106.239 E0.02379
G1 X77.685 Y106.870 E0.01858
G1 X77.444 Y107.491 E0.01921
G1 X77.047 Y108.079 E0.02045
G1 X76.539 Y108.525 E0.01950
G1 X76.097 Y108.766 E0.01454
G1 X75.585 Y108.896 E0.01523
G1 X75.137 Y108.895 E0.01293
G1 X75.138 Y108.518 F10800.000
G1 F1200
G1 X74.786 Y108.435 E0.01044
G1 X74.421 Y108.264 E0.01162
G1 X74.041 Y107.964 E0.01395
G1 X73.745 Y107.612 E0.01327
G1 X73.505 Y107.187 E0.01409
G1 X73.361 Y106.814 E0.01154
G1 X73.245 Y106.251 E0.01658
G1 X73.216 Y105.678 E0.01656
G1 X73.321 Y104.968 E0.02070
G1 X73.507 Y104.428 E0.01646
G1 X73.773 Y103.970 E0.01528
G1 X74.220 Y103.494 E0.01883
G1 X74.701 Y103.210 E0.01611
G1 X75.077 Y103.117 E0.01117
G1 X75.440 Y103.094 E0.01050
G1 X75.771 Y103.147 E0.00968
G1 X75.964 Y103.208 E0.00583
G1 X76.346 Y103.413 E0.01251
G1 X76.653 Y103.675 E0.01163
G1 X77.013 Y104.147 E0.01713
G1 X77.089 Y104.281 E0.00444
G1 X77.281 Y104.722 E0.01388
G1 X77.442 Y105.455 E0.02164
G1 X77.439 Y106.200 E0.02150
G1 X77.322 Y106.763 E0.01658
G1 X77.108 Y107.315 E0.01708
G1 X76.762 Y107.827 E0.01783
G1 X76.322 Y108.214 E0.01689
G1 X75.958 Y108.412 E0.01196
G1 X75.539 Y108.519 E0.01248
G1 X75.198 Y108.518 E0.00983
G1 X74.923 Y108.809 F10800.000
G1 F8640
G1 X74.786 Y108.435 E-0.09707
G1 X74.421 Y108.264 E-0.09301
G1 X74.041 Y107.964 E-0.11169
G1 X73.745 Y107.612 E-0.10619
G1 X73.505 Y107.187 E-0.11276
G1 X73.361 Y106.814 E-0.09239
G1 X73.245 Y106.251 E-0.13274
G1 X73.242 Y106.190 E-0.01415
G1 E-0.04000 F2100.00000
G1 Z0.800 F10800.000
G1 X68.472 Y106.320
G1 Z0.200
G1 E0.80000 F2100.00000
G1 F1200
G1 X68.302 Y107.075 E0.02235
G1 X68.061 Y107.618 E0.01713
G1 X67.757 Y108.065 E0.01559
G1 X67.452 Y108.382 E0.01268
G1 X67.037 Y108.675 E0.01465
G1 X66.568 Y108.869 E0.01465
G1 X66.162 Y108.938 E0.01189
G1 X65.660 Y108.914 E0.01449
G1 X65.267 Y108.809 E0.01174
G1 X64.892 Y108.625 E0.01204
G1 X64.415 Y108.239 E0.01769
G1 X64.035 Y107.769 E0.01743
G1 X63.819 Y107.360 E0.01333
G1 X63.650 Y106.905 E0.01401
G1 X63.528 Y106.312 E0.01746
G1 X63.498 Y105.723 E0.01701
G1 X63.559 Y105.145 E0.01677
G1 X63.705 Y104.592 E0.01651
G1 X63.934 Y104.082 E0.01612
G1 X64.187 Y103.696 E0.01330
G1 X64.433 Y103.420 E0.01069
G1 X64.849 Y103.087 E0.01536
G1 X65.301 Y102.866 E0.01451
G1 X65.719 Y102.762 E0.01242
G1 X66.470 Y102.798 E0.02169
G1 X66.896 Y102.956 E0.01310
G1 X67.339 Y103.230 E0.01504
G1 X67.716 Y103.594 E0.01512
G1 X68.034 Y104.045 E0.01591
G1 X68.272 Y104.555 E0.01624
G1 X68.433 Y105.131 E0.01725
G1 X68.470 Y106.260 E0.03258
G1 X68.093 Y106.272 F10800.000
G1 F1200
G1 X67.943 Y106.956 E0.02021
G1 X67.730 Y107.434 E0.01508
G1 X67.463 Y107.827 E0.01371
G1 X67.205 Y108.095 E0.01073
G1 X66.854 Y108.343 E0.01239
G1 X66.463 Y108.505 E0.01221
G1 X66.139 Y108.560 E0.00949
G1 X65.718 Y108.539 E0.01215
G1 X65.400 Y108.455 E0.00950
G1 X65.097 Y108.305 E0.00975
G1 X64.684 Y107.971 E0.01533
G1 X64.351 Y107.560 E0.01524
G1 X64.164 Y107.206 E0.01155
G1 X64.014 Y106.801 E0.01246
G1 X63.903 Y106.264 E0.01580
G1 X63.876 Y105.733 E0.01533
G1 X63.931 Y105.213 E0.01509
G1 X64.061 Y104.718 E0.01478
G1 X64.265 Y104.264 E0.01436
G1 X64.487 Y103.927 E0.01164
G1 X64.694 Y103.694 E0.00898
G1 X65.052 Y103.407 E0.01324
G1 X65.430 Y103.223 E0.01215
G1 X65.756 Y103.141 E0.00969
G1 X66.394 Y103.172 E0.01841
G1 X66.729 Y103.296 E0.01033
G1 X67.106 Y103.529 E0.01278
G1 X67.428 Y103.841 E0.01293
G1 X67.706 Y104.235 E0.01392
G1 X67.918 Y104.687 E0.01438
G1 X68.058 Y105.189 E0.01503
G1 X68.091 Y106.212 E0.02953
G1 X68.416 Y106.508 F10800.000
G1 F8640
G1 X67.943 Y106.956 E-0.17526
G1 X67.730 Y107.434 E-0.12072
G1 X67.463 Y107.827 E-0.10971
G1 X67.205 Y108.095 E-0.08586
G1 X66.854 Y108.343 E-0.09921
G1 X66.463 Y108.505 E-0.09774
G1 X66.158 Y108.557 E-0.07150
G1 E-0.04000 F2100.00000
G1 Z0.800 F10800.000
G1 X66.098 Y97.813
G1 Z0.200
G1 E0.80000 F2100.00000
G1 F1200
G1 X65.645 Y97.703 E0.01346
G1 X65.216 Y97.506 E0.01361
G1 X64.612 Y96.993 E0.02287
G1 X64.147 Y96.255 E0.02515
G1 X63.949 Y95.700 E0.01700
G1 X63.830 Y94.997 E0.02058
G1 X63.825 Y94.488 E0.01467
G1 X63.882 Y94.020 E0.01360
G1 X64.176 Y93.138 E0.02682
G1 X64.672 Y92.393 E0.02582
G1 X64.829 Y92.238 E0.00638
G1 X65.320 Y91.878 E0.01753
G1 X65.755 Y91.702 E0.01356
G1 X66.149 Y91.635 E0.01151
G1 X66.562 Y91.641 E0.01193
G1 X66.817 Y91.689 E0.00749
G1 X67.186 Y91.821 E0.01129
G1 X67.645 Y92.096 E0.01546
G1 X68.039 Y92.473 E0.01572
G1 X68.357 Y92.925 E0.01592
G1 X68.595 Y93.435 E0.01625
G1 X68.753 Y93.995 E0.01677
G1 X68.824 Y94.805 E0.02346
G1 X68.758 Y95.447 E0.01860
G1 X68.416 Y96.439 E0.03029
G1 X68.081 Y96.942 E0.01743
G1 X67.777 Y97.260 E0.01269
G1 X67.361 Y97.554 E0.01468
G1 X67.006 Y97.709 E0.01119
G1 X66.557 Y97.811 E0.01328
G1 X66.158 Y97.813 E0.01150
G1 X66.156 Y97.436 F10800.000
G1 F1200
G1 X65.769 Y97.345 E0.01147
G1 X65.420 Y97.185 E0.01107
G1 X64.900 Y96.743 E0.01970
G1 X64.488 Y96.089 E0.02229
G1 X64.315 Y95.605 E0.01485
G1 X64.206 Y94.963 E0.01876
G1 X64.203 Y94.510 E0.01310
G1 X64.252 Y94.103 E0.01181
G1 X64.517 Y93.305 E0.02427
G1 X64.965 Y92.634 E0.02325
G1 X65.075 Y92.525 E0.00447
G1 X65.505 Y92.210 E0.01538
G1 X65.859 Y92.067 E0.01102
G1 X66.178 Y92.013 E0.00933
G1 X66.524 Y92.018 E0.00999
G1 X66.718 Y92.054 E0.00570
G1 X67.024 Y92.163 E0.00936
G1 X67.415 Y92.398 E0.01316
G1 X67.752 Y92.720 E0.01344
G1 X68.029 Y93.114 E0.01390
G1 X68.241 Y93.567 E0.01440
G1 X68.380 Y94.063 E0.01487
G1 X68.445 Y94.802 E0.02141
G1 X68.387 Y95.365 E0.01632
G1 X68.076 Y96.271 E0.02763
G1 X67.786 Y96.706 E0.01507
G1 X67.530 Y96.973 E0.01068
G1 X67.175 Y97.224 E0.01252
G1 X66.888 Y97.349 E0.00906
G1 X66.514 Y97.434 E0.01106
G1 X66.216 Y97.436 E0.00858
G1 X65.919 Y97.755 F10800.000
G1 F8640
G1 X65.769 Y97.345 E-0.10530
G1 X65.420 Y97.185 E-0.08861
G1 X64.900 Y96.743 E-0.15765
G1 X64.488 Y96.089 E-0.17840
G1 X64.315 Y95.605 E-0.11884
G1 X64.235 Y95.130 E-0.11120
G1 E-0.04000 F2100.00000
G1 Z0.800 F10800.000
G1 X72.556 Y95.692
G1 Z0.200
G1 E0.80000 F2100.00000
G1 F1200
G1 X72.446 Y95.121 E0.01676
G1 X72.433 Y94.475 E0.01866
G1 X72.552 Y93.702 E0.02254
G1 X72.749 Y93.157 E0.01672
G1 X73.026 Y92.667 E0.01625
G1 X73.452 Y92.177 E0.01872
G1 X73.885 Y91.871 E0.01530
G1 X74.183 Y91.731 E0.00951
G1 X74.671 Y91.606 E0.01452
G1 X75.093 Y91.600 E0.01217
G1 X75.671 Y91.730 E0.01709
G1 X76.060 Y91.926 E0.01258
G1 X76.475 Y92.253 E0.01524
G1 X76.828 Y92.672 E0.01579
G1 X77.101 Y93.157 E0.01607
G1 X77.296 Y93.695 E0.01649
