; generated by Slic3r Prusa Edition 1.40.1+ on 2018-08-30 at 16:39:11

; 

; external perimeters extrusion width = 0.45mm
; perimeters extrusion width = 0.45mm
; infill extrusion width = 0.45mm
; solid infill extrusion width = 0.45mm
; top infill extrusion width = 0.40mm
; first layer extrusion width = 0.42mm

M107
M115 U3.1.0 ; tell printer latest fw version
M201 X9000 Y9000 Z500 E10000 ; sets maximum accelerations, mm/sec^2
M203 X500 Y500 Z12 E120 ; sets maximum feedrates, mm/sec
M204 S1500 T1500 ; sets acceleration (S) and retract acceleration (T)
M205 X10 Y10 Z0.2 E2.5 ; sets the jerk limits, mm/sec
M205 S0 T0 ; sets the minimum extruding and travel feed rate, mm/sec
M83  ; extruder relative mode
M104 S230 ; set extruder temp
M140 S85 ; set bed temp
M190 S85 ; wait for bed temp
M109 S230 ; wait for extruder temp
G28 W ; home all without mesh bed level
G80 ; mesh bed leveling
G1 Y-3.0 F1000.0 ; go outside print area
G92 E0.0
G1 X60.0 E9.0  F1000.0 ; intro line
G1 X100.0 E12.5  F1000.0 ; intro line
G92 E0.0
M900 K45; Filament gcode
G21 ; set units to millimeters
G90 ; use absolute coordinates
M83 ; use relative distances for extrusion
;BEFORE_LAYER_CHANGE
G92 E0.0
;0.2


G1 E-0.80000 F2100.00000
G1 Z0.600 F10800.000
;AFTER_LAYER_CHANGE
;0.2
G1 X103.480 Y101.266
G1 Z0.200
G1 E0.80000 F2100.00000
M204 S1000
G1 F1800
G1 X103.697 Y100.619 E0.02140
G1 X104.077 Y100.052 E0.02140
G1 X105.772 Y98.354 E0.07524
G1 X106.431 Y97.921 E0.02472
G1 X112.331 Y96.273 E0.19207
G1 X112.861 Y96.188 E0.01684
G1 X139.004 Y96.184 E0.81968
G1 X139.703 Y96.283 E0.02214
G1 X145.023 Y97.897 E0.17432
G1 X145.481 Y98.155 E0.01647
G1 X145.879 Y98.504 E0.01660
G1 X146.198 Y98.926 E0.01660
G1 X146.423 Y99.406 E0.01660
G1 X146.565 Y100.224 E0.02606
G1 X146.554 Y111.495 E0.35338
G1 X146.404 Y112.145 E0.02091
G1 X146.090 Y112.738 E0.02103
G1 X145.633 Y113.229 E0.02103
G1 X145.065 Y113.584 E0.02103
G1 X144.551 Y113.756 E0.01697
G1 X144.014 Y113.816 E0.01697
G1 X105.921 Y113.814 E1.19437
G1 X105.221 Y113.695 E0.02226
G1 X104.581 Y113.387 E0.02226
G1 X104.049 Y112.917 E0.02226
G1 X103.666 Y112.315 E0.02238
G1 X103.498 Y111.817 E0.01647
G1 X103.435 Y111.291 E0.01660
G1 X103.480 Y101.326 E0.31245
G1 X103.849 Y101.347 F10800.000
G1 F1800
G1 X104.035 Y100.786 E0.01851
G1 X104.366 Y100.294 E0.01862
G1 X106.021 Y98.637 E0.07342
G1 X106.606 Y98.255 E0.02191
G1 X112.884 Y96.565 E0.20383
G1 X139.004 Y96.561 E0.81897
G1 X139.602 Y96.646 E0.01896
G1 X144.846 Y98.231 E0.17174
G1 X145.591 Y98.748 E0.02844
G1 X146.064 Y99.522 E0.02844
G1 X146.188 Y100.228 E0.02247
G1 X146.181 Y111.436 E0.35143
G1 X146.054 Y112.005 E0.01828
G1 X145.784 Y112.518 E0.01817
G1 X145.386 Y112.944 E0.01828
G1 X144.889 Y113.250 E0.01828
G1 X144.010 Y113.439 E0.02822
G1 X105.942 Y113.438 E1.19359
G1 X105.338 Y113.336 E0.01919
G1 X104.783 Y113.069 E0.01930
G1 X104.325 Y112.658 E0.01930
G1 X104.000 Y112.139 E0.01919
G1 X103.812 Y111.281 E0.02754
G1 X103.849 Y101.407 E0.30962
G1 F8640
G1 X104.035 Y100.786 E-0.14952
G1 X104.366 Y100.294 E-0.13713
G1 X105.815 Y98.843 E-0.47334
G1 E-0.04000 F2100.00000
G1 Z0.800 F10800.000
G1 X111.899 Y101.214
G1 Z0.200
G1 E0.80000 F2100.00000
G1 F1800
G1 X113.399 Y99.714 E0.06651
G1 X118.601 Y99.714 E0.16308
G1 X120.101 Y101.214 E0.06651
G1 X131.899 Y101.214 E0.36994
G1 X133.399 Y99.714 E0.06651
G1 X138.601 Y99.714 E0.16308
G1 X140.101 Y101.214 E0.06651
G1 X143.036 Y101.214 E0.09203
G1 X143.036 Y110.286 E0.28444
G1 X106.964 Y110.286 E1.13100
G1 X106.964 Y102.149 E0.25511
G1 X107.899 Y101.214 E0.04147
G1 X111.839 Y101.214 E0.12354
G1 X111.743 Y100.837 F10800.000
G1 F1800
G1 X113.243 Y99.337 E0.06651
G1 X118.757 Y99.337 E0.17288
G1 X120.257 Y100.837 E0.06651
G1 X131.743 Y100.837 E0.36015
G1 X133.243 Y99.337 E0.06651
G1 X138.757 Y99.337 E0.17288
G1 X140.257 Y100.837 E0.06651
G1 X143.413 Y100.837 E0.09896
G1 X143.413 Y110.663 E0.30808
G1 X106.587 Y110.663 E1.15465
G1 X106.587 Y101.993 E0.27183
G1 X107.743 Y100.837 E0.05126
G1 X111.683 Y100.837 E0.12354
G1 X111.587 Y100.460 F10800.000
G1 F1800
G1 X113.087 Y98.960 E0.06651
G1 X118.913 Y98.960 E0.18267
G1 X120.413 Y100.460 E0.06651
G1 X131.587 Y100.460 E0.35035
G1 X133.087 Y98.960 E0.06651
G1 X138.913 Y98.960 E0.18267
G1 X140.413 Y100.460 E0.06651
G1 X143.790 Y100.460 E0.10588
G1 X143.790 Y111.040 E0.33173
G1 X106.210 Y111.040 E1.17829
G1 X106.210 Y101.837 E0.28855
G1 X107.587 Y100.460 E0.06106
G1 X111.527 Y100.460 E0.12354
G1 X111.949 Y100.630 F10800.000
G1 F8640
G1 X113.087 Y98.960 E-0.49971
G1 X114.214 Y98.960 E-0.26029
G1 E-0.04000 F2100.00000
G1 Z0.800 F10800.000
G1 X118.538 Y99.827
G1 Z0.200
G1 E0.80000 F2100.00000
G1 F1800
G1 X128.714 Y110.003 E0.45636
G1 X129.253 Y110.003 E0.01710
G1 X120.747 Y101.497 E0.38148
G1 X121.286 Y101.497 E0.01710
G1 X129.792 Y110.003 E0.38148
G1 X130.332 Y110.003 E0.01710
G1 X121.826 Y101.497 E0.38148
G1 X122.365 Y101.497 E0.01710
G1 X130.871 Y110.003 E0.38148
G1 X131.410 Y110.003 E0.01710
G1 X122.904 Y101.497 E0.38148
G1 X123.444 Y101.497 E0.01710
G1 X131.950 Y110.003 E0.38148
G1 X132.489 Y110.003 E0.01710
G1 X123.983 Y101.497 E0.38148
G1 X124.522 Y101.497 E0.01710
G1 X133.029 Y110.003 E0.38148
G1 X133.568 Y110.003 E0.01710
G1 X125.062 Y101.497 E0.38148
G1 X125.601 Y101.497 E0.01710
G1 X134.107 Y110.003 E0.38148
G1 X134.647 Y110.003 E0.01710
G1 X126.140 Y101.497 E0.38148
G1 X126.680 Y101.497 E0.01710
G1 X135.186 Y110.003 E0.38148
G1 X135.725 Y110.003 E0.01710
G1 X127.219 Y101.497 E0.38148
G1 X127.759 Y101.497 E0.01710
G1 X136.265 Y110.003 E0.38148
G1 X136.804 Y110.003 E0.01710
G1 X128.298 Y101.497 E0.38148
G1 X128.837 Y101.497 E0.01710
G1 X137.343 Y110.003 E0.38148
G1 X137.883 Y110.003 E0.01710
G1 X129.377 Y101.497 E0.38148
G1 X129.916 Y101.497 E0.01710
G1 X138.422 Y110.003 E0.38148
G1 X138.961 Y110.003 E0.01710
G1 X130.455 Y101.497 E0.38148
G1 X130.995 Y101.497 E0.01710
G1 X139.501 Y110.003 E0.38148
G1 X140.040 Y110.003 E0.01710
G1 X131.534 Y101.497 E0.38148
G1 X132.017 Y101.497 E0.01530
G1 X132.045 Y101.469 E0.00127
G1 X140.579 Y110.003 E0.38275
G1 X141.119 Y110.003 E0.01710
G1 X132.315 Y101.199 E0.39485
G1 X132.584 Y100.929 E0.01209
G1 X141.658 Y110.003 E0.40694
G1 X142.197 Y110.003 E0.01710
G1 X132.854 Y100.660 E0.41903
G1 X133.124 Y100.390 E0.01209
G1 X142.737 Y110.003 E0.43113
G1 X142.753 Y110.003 E0.00051
G1 X142.753 Y109.480 E0.01659
G1 X133.393 Y100.120 E0.41976
G1 X133.517 Y99.997 E0.00553
G1 X133.809 Y99.997 E0.00929
G1 X142.753 Y108.941 E0.40110
G1 X142.753 Y108.401 E0.01710
G1 X134.349 Y99.997 E0.37691
G1 X134.888 Y99.997 E0.01710
G1 X142.753 Y107.862 E0.35272
G1 X142.753 Y107.322 E0.01710
G1 X135.428 Y99.997 E0.32853
G1 X135.967 Y99.997 E0.01710
G1 X142.753 Y106.783 E0.30434
G1 X142.753 Y106.244 E0.01710
G1 X136.506 Y99.997 E0.28015
G1 X137.046 Y99.997 E0.01710
G1 X142.753 Y105.704 E0.25597
G1 X142.753 Y105.165 E0.01710
G1 X137.585 Y99.997 E0.23178
G1 X138.124 Y99.997 E0.01710
G1 X142.923 Y104.795 E0.21520
G1 F8640
G1 X140.595 Y102.468 E-0.76000
G1 E-0.04000 F2100.00000
G1 Z0.800 F10800.000
G1 X142.923 Y102.099
G1 Z0.200
G1 E0.80000 F2100.00000
G1 F1800
G1 X142.321 Y101.497 E0.02699
G1 X141.782 Y101.497 E0.01710
G1 X142.753 Y102.468 E0.04356
G1 X142.753 Y103.008 E0.01710
G1 X141.242 Y101.497 E0.06775
G1 X140.703 Y101.497 E0.01710
G1 X142.753 Y103.547 E0.09194
G1 X142.753 Y104.086 E0.01710
G1 X138.494 Y99.827 E0.19101
G1 F8640
G1 X140.821 Y102.155 E-0.76000
G1 E-0.04000 F2100.00000
G1 Z0.800 F10800.000
G1 X128.344 Y110.173
G1 Z0.200
G1 E0.80000 F2100.00000
G1 F1800
G1 X118.168 Y99.997 E0.45636
G1 X117.629 Y99.997 E0.01710
G1 X127.635 Y110.003 E0.44875
G1 X127.096 Y110.003 E0.01710
G1 X117.090 Y99.997 E0.44875
G1 X116.550 Y99.997 E0.01710
G1 X126.556 Y110.003 E0.44875
G1 X126.017 Y110.003 E0.01710
G1 X116.011 Y99.997 E0.44875
G1 X115.471 Y99.997 E0.01710
G1 X125.478 Y110.003 E0.44875
G1 X124.938 Y110.003 E0.01710
G1 X114.932 Y99.997 E0.44875
G1 X114.393 Y99.997 E0.01710
G1 X124.399 Y110.003 E0.44875
G1 X123.860 Y110.003 E0.01710
G1 X113.853 Y99.997 E0.44875
G1 X113.517 Y99.997 E0.01068
G1 X113.415 Y100.098 E0.00454
G1 X123.320 Y110.003 E0.44421
G1 X122.781 Y110.003 E0.01710
G1 X113.146 Y100.368 E0.43211
G1 X112.876 Y100.638 E0.01209
G1 X122.241 Y110.003 E0.42002
G1 X121.702 Y110.003 E0.01710
G1 X112.606 Y100.907 E0.40792
G1 X112.337 Y101.177 E0.01209
G1 X121.163 Y110.003 E0.39583
G1 X120.623 Y110.003 E0.01710
G1 X112.067 Y101.447 E0.38374
G1 X112.017 Y101.497 E0.00226
G1 X111.578 Y101.497 E0.01391
G1 X120.084 Y110.003 E0.38148
G1 X119.545 Y110.003 E0.01710
G1 X111.039 Y101.497 E0.38148
G1 X110.499 Y101.497 E0.01710
G1 X119.005 Y110.003 E0.38148
G1 X118.466 Y110.003 E0.01710
G1 X109.960 Y101.497 E0.38148
G1 X109.421 Y101.497 E0.01710
G1 X117.927 Y110.003 E0.38148
G1 X117.387 Y110.003 E0.01710
G1 X108.881 Y101.497 E0.38148
G1 X108.342 Y101.497 E0.01710
G1 X116.848 Y110.003 E0.38148
G1 X116.309 Y110.003 E0.01710
G1 X107.909 Y101.604 E0.37668
G1 X107.640 Y101.874 E0.01209
G1 X115.769 Y110.003 E0.36458
G1 X115.230 Y110.003 E0.01710
G1 X107.370 Y102.143 E0.35249
G1 X107.247 Y102.267 E0.00552
G1 X107.247 Y102.559 E0.00929
G1 X114.691 Y110.003 E0.33382
G1 X114.151 Y110.003 E0.01710
G1 X107.247 Y103.099 E0.30964
G1 X107.247 Y103.638 E0.01710
G1 X113.612 Y110.003 E0.28545
G1 X113.072 Y110.003 E0.01710
G1 X107.247 Y104.178 E0.26126
G1 X107.247 Y104.717 E0.01710
G1 X112.533 Y110.003 E0.23707
G1 X111.994 Y110.003 E0.01710
G1 X107.247 Y105.256 E0.21288
G1 X107.247 Y105.796 E0.01710
G1 X111.454 Y110.003 E0.18869
G1 X110.915 Y110.003 E0.01710
G1 X107.247 Y106.335 E0.16450
G1 X107.247 Y106.874 E0.01710
G1 X110.376 Y110.003 E0.14032
G1 X109.836 Y110.003 E0.01710
G1 X107.247 Y107.414 E0.11613
G1 X107.247 Y107.953 E0.01710
G1 X109.297 Y110.003 E0.09194
G1 X108.758 Y110.003 E0.01710
G1 X107.247 Y108.492 E0.06775
G1 X107.247 Y109.032 E0.01710
G1 X108.218 Y110.003 E0.04356
G1 X107.679 Y110.003 E0.01710
G1 X107.077 Y109.401 E0.02698
;BEFORE_LAYER_CHANGE
G92 E0.0
;0.4


G1 F8640
G1 X107.679 Y110.003 E-0.19647
G1 X108.218 Y110.003 E-0.12454
G1 X107.247 Y109.032 E-0.31718
G1 X107.247 Y108.504 E-0.12181
G1 E-0.04000 F2100.00000
G1 Z0.800 F10800.000
;AFTER_LAYER_CHANGE
;0.4
M104 S240 ; set temperature
M140 S90 ; set bed temperature
G1 X104.049 Y112.917
G1 Z0.400
G1 E0.80000 F2100.00000
G1 F3000
G1 X103.666 Y112.315 E0.02238
G1 X103.498 Y111.817 E0.01647
G1 X103.435 Y111.291 E0.01660
G1 X103.480 Y101.266 E0.31433
G1 X103.697 Y100.619 E0.02140
G1 X104.077 Y100.052 E0.02140
G1 X105.772 Y98.354 E0.07524
G1 X106.431 Y97.921 E0.02472
G1 X112.331 Y96.273 E0.19207
G1 X112.861 Y96.188 E0.01684
G1 X139.004 Y96.184 E0.81968
G1 X139.703 Y96.283 E0.02214
G1 X145.023 Y97.897 E0.17432
G1 X145.481 Y98.155 E0.01647
G1 X145.879 Y98.504 E0.01660
G1 X146.198 Y98.926 E0.01660
G1 X146.423 Y99.406 E0.01660
G1 X146.565 Y100.224 E0.02606
G1 X146.554 Y111.495 E0.35338
G1 X146.404 Y112.145 E0.02091
G1 X146.090 Y112.738 E0.02103
G1 X145.633 Y113.229 E0.02103
G1 X145.065 Y113.584 E0.02103
G1 X144.551 Y113.756 E0.01697
G1 X144.014 Y113.816 E0.01697
G1 X105.921 Y113.814 E1.19437
G1 X105.221 Y113.695 E0.02226
G1 X104.581 Y113.387 E0.02226
G1 X104.094 Y112.956 E0.02038
G1 F8640
G1 X103.666 Y112.315 E-0.17821
G1 X103.498 Y111.817 E-0.12131
G1 X103.435 Y111.291 E-0.12222
G1 X103.441 Y109.826 E-0.33826
G1 E-0.04000 F2100.00000
G1 Z1.000 F10800.000
G1 X107.039 Y110.211
G1 Z0.400
G1 E0.80000 F2100.00000
M204 S800
G1 F3000
G1 X107.039 Y102.180 E0.27182
G1 X107.930 Y101.289 E0.04266
G1 X111.930 Y101.289 E0.13540
G1 X113.430 Y99.789 E0.07180
G1 X118.570 Y99.789 E0.17395
G1 X120.070 Y101.289 E0.07180
G1 X131.930 Y101.289 E0.40148
G1 X133.430 Y99.789 E0.07180
G1 X138.570 Y99.789 E0.17395
G1 X140.070 Y101.289 E0.07180
G1 X142.961 Y101.289 E0.09787
G1 X142.961 Y110.211 E0.30199
G1 X107.099 Y110.211 E1.21388
M204 S1000
G1 X106.632 Y110.618 F10800.000
M204 S800
G1 F3000
G1 X106.632 Y102.012 E0.29131
G1 X107.762 Y100.882 E0.05408
G1 X111.762 Y100.882 E0.13540
G1 X113.262 Y99.382 E0.07180
G1 X118.738 Y99.382 E0.18537
G1 X120.238 Y100.882 E0.07180
G1 X131.762 Y100.882 E0.39006
G1 X133.262 Y99.382 E0.07180
G1 X138.738 Y99.382 E0.18537
G1 X140.238 Y100.882 E0.07180
G1 X143.368 Y100.882 E0.10594
G1 X143.368 Y110.618 E0.32955
G1 X106.692 Y110.618 E1.24143
M204 S1000
G1 X106.225 Y111.025 F10800.000
M204 S800
G1 F2400
G1 X106.225 Y101.843 E0.31079
G1 X107.593 Y100.475 E0.06549
G1 X111.593 Y100.475 E0.13540
G1 X113.093 Y98.975 E0.07180
G1 X118.907 Y98.975 E0.19678
G1 X120.407 Y100.475 E0.07180
G1 X131.593 Y100.475 E0.37865
G1 X133.093 Y98.975 E0.07180
G1 X138.907 Y98.975 E0.19678
G1 X140.407 Y100.475 E0.07180
G1 X143.775 Y100.475 E0.11401
G1 X143.775 Y111.025 E0.35710
G1 X106.285 Y111.025 E1.26899
M204 S1000
G1 X106.393 Y110.662 F10800.000
G1 F8640
G1 X106.263 Y107.734 E-0.76000
G1 E-0.04000 F2100.00000
G1 Z1.000 F10800.000
G1 X107.161 Y105.981
G1 Z0.400
G1 E0.80000 F2100.00000
M204 S2000
G1 F3000
G1 X111.548 Y101.594 E0.21207
G1 X110.967 Y101.594 E0.01987
G1 X107.344 Y105.217 E0.17511
G1 X107.344 Y104.635 E0.01987
G1 X110.385 Y101.594 E0.14700
G1 X109.804 Y101.594 E0.01987
G1 X107.344 Y104.054 E0.11890
G1 X107.344 Y103.473 E0.01987
G1 X109.223 Y101.594 E0.09079
G1 X108.641 Y101.594 E0.01987
G1 X107.344 Y102.891 E0.06269
G1 X107.344 Y102.310 E0.01987
G1 X108.243 Y101.411 E0.04343
M204 S1000
G1 F8640
G1 X107.344 Y102.310 E-0.29339
G1 X107.344 Y102.891 E-0.13425
G1 X108.362 Y101.873 E-0.33236
G1 E-0.04000 F2100.00000
G1 Z1.000 F10800.000
G1 X113.813 Y99.911
G1 Z0.400
G1 E0.80000 F2100.00000
M204 S2000
G1 F3000
G1 X107.344 Y106.379 E0.31269
G1 X107.344 Y106.961 E0.01987
G1 X114.211 Y100.094 E0.33195
G1 X114.792 Y100.094 E0.01987
G1 X107.344 Y107.542 E0.36005
G1 X107.344 Y108.124 E0.01987
G1 X115.374 Y100.094 E0.38816
G1 X115.955 Y100.094 E0.01987
G1 X107.344 Y108.705 E0.41626
G1 X107.344 Y109.286 E0.01987
G1 X116.536 Y100.094 E0.44437
G1 X117.118 Y100.094 E0.01987
G1 X107.344 Y109.868 E0.47248
G1 X107.344 Y109.906 E0.00129
G1 X107.888 Y109.906 E0.01859
G1 X117.699 Y100.094 E0.47430
G1 X118.281 Y100.094 E0.01987
G1 X108.470 Y109.906 E0.47430
G1 X109.051 Y109.906 E0.01987
G1 X118.653 Y100.304 E0.46417
G1 X118.943 Y100.595 E0.01405
G1 X109.632 Y109.906 E0.45012
G1 X110.214 Y109.906 E0.01987
G1 X119.234 Y100.885 E0.43607
G1 X119.525 Y101.176 E0.01405
G1 X110.795 Y109.906 E0.42201
G1 X111.377 Y109.906 E0.01987
G1 X119.815 Y101.467 E0.40796
G1 X119.943 Y101.594 E0.00617
G1 X120.269 Y101.594 E0.01114
G1 X111.958 Y109.906 E0.40178
G1 X112.539 Y109.906 E0.01987
G1 X120.850 Y101.594 E0.40178
G1 X121.432 Y101.594 E0.01987
G1 X113.121 Y109.906 E0.40178
G1 X113.702 Y109.906 E0.01987
G1 X122.013 Y101.594 E0.40178
G1 X122.595 Y101.594 E0.01987
G1 X114.284 Y109.906 E0.40178
G1 X114.865 Y109.906 E0.01987
G1 X123.176 Y101.594 E0.40178
G1 X123.757 Y101.594 E0.01987
G1 X115.446 Y109.906 E0.40178
G1 X116.028 Y109.906 E0.01987
G1 X124.339 Y101.594 E0.40178
G1 X124.920 Y101.594 E0.01987
G1 X116.609 Y109.906 E0.40178
G1 X117.190 Y109.906 E0.01987
G1 X125.502 Y101.594 E0.40178
G1 X126.083 Y101.594 E0.01987
G1 X117.772 Y109.906 E0.40178
G1 X118.353 Y109.906 E0.01987
G1 X126.664 Y101.594 E0.40178
G1 X127.246 Y101.594 E0.01987
G1 X118.935 Y109.906 E0.40178
G1 X119.516 Y109.906 E0.01987
G1 X127.827 Y101.594 E0.40178
G1 X128.409 Y101.594 E0.01987
G1 X120.097 Y109.906 E0.40178
G1 X120.679 Y109.906 E0.01987
G1 X128.990 Y101.594 E0.40178
G1 X129.571 Y101.594 E0.01987
G1 X121.260 Y109.906 E0.40178
G1 X121.842 Y109.906 E0.01987
G1 X130.153 Y101.594 E0.40178
G1 X130.734 Y101.594 E0.01987
G1 X122.423 Y109.906 E0.40178
G1 X123.004 Y109.906 E0.01987
G1 X131.316 Y101.594 E0.40178
G1 X131.897 Y101.594 E0.01987
G1 X123.586 Y109.906 E0.40178
G1 X124.167 Y109.906 E0.01987
G1 X133.978 Y100.094 E0.47430
G1 X134.560 Y100.094 E0.01987
G1 X124.749 Y109.906 E0.47430
G1 X125.330 Y109.906 E0.01987
G1 X135.141 Y100.094 E0.47430
G1 X135.723 Y100.094 E0.01987
G1 X125.911 Y109.906 E0.47430
G1 X126.493 Y109.906 E0.01987
G1 X136.304 Y100.094 E0.47430
G1 X136.885 Y100.094 E0.01987
G1 X127.074 Y109.906 E0.47430
G1 X127.656 Y109.906 E0.01987
G1 X137.467 Y100.094 E0.47430
