; generated by Slic3r 1.37.2.1-prusa3d on 2018-08-10 at 20:32:58

; 

; external perimeters extrusion width = 0.42mm
; perimeters extrusion width = 0.45mm
; infill extrusion width = 0.45mm
; solid infill extrusion width = 0.45mm
; top infill extrusion width = 0.42mm
; support material extrusion width = 0.35mm
; first layer extrusion width = 0.42mm

M107 ; disable fan
M115 U3.1.0 ; tell printer latest fw version
M83  ; extruder relative mode
M104 S215 ; set extruder temp
M140 S55 ; set bed temp
M190 S55 ; wait for bed temp
M109 S215 ; wait for extruder temp
G28 W ; home all without mesh bed level
G80 ; mesh bed leveling
G1 Y-3.0 F1000.0 ; go outside pritn area
G1 X60.0 E9.0  F1000.0 ; intro line
G1 X100.0 E12.5  F1000.0 ; intro line
G92 E0.0
M900 K30
G21 ; set units to millimeters
G90 ; use absolute coordinates
M83 ; use relative distances for extrusion
;BEFORE_LAYER_CHANGE
;0.2


G1 E-0.80000 F2100.00000 ; retract
G1 Z0.600 F7200.000 ; lift Z
;AFTER_LAYER_CHANGE
;0.2
G1 X88.859 Y91.311 F7200.000 ; move to first skirt point
G1 Z0.200 F7200.000 ; restore layer Z
G1 E0.80000 F2100.00000 ; unretract
M204 S1000 ; adjust acceleration
G1 F1800
G1 X90.081 Y90.811 E0.04139 ; skirt
G1 X100.284 Y87.733 E0.33416 ; skirt
G1 X162.414 Y71.902 E2.01029 ; skirt
G1 X163.665 Y71.669 E0.03990 ; skirt
G1 X164.935 Y71.592 E0.03990 ; skirt
G1 X166.063 Y71.654 E0.03542 ; skirt
G1 X167.178 Y71.838 E0.03542 ; skirt
G1 X168.265 Y72.142 E0.03542 ; skirt
G1 X169.314 Y72.563 E0.03542 ; skirt
G1 X170.310 Y73.095 E0.03542 ; skirt
G1 X171.242 Y73.733 E0.03542 ; skirt
G1 X172.100 Y74.468 E0.03542 ; skirt
G1 X172.878 Y75.297 E0.03567 ; skirt
G1 X173.941 Y76.823 E0.05831 ; skirt
G1 X174.715 Y78.514 E0.05831 ; skirt
G1 X176.153 Y83.987 E0.17741 ; skirt
G1 X176.381 Y85.223 E0.03940 ; skirt
G1 X176.458 Y86.477 E0.03940 ; skirt
G1 X176.468 Y118.660 E1.00906 ; skirt
G1 X176.406 Y119.779 E0.03517 ; skirt
G1 X176.220 Y120.902 E0.03567 ; skirt
G1 X175.909 Y122.004 E0.03591 ; skirt
G1 X175.479 Y123.066 E0.03591 ; skirt
G1 X174.935 Y124.074 E0.03591 ; skirt
G1 X174.283 Y125.016 E0.03591 ; skirt
G1 X173.531 Y125.880 E0.03591 ; skirt
G1 X172.689 Y126.656 E0.03591 ; skirt
G1 X171.766 Y127.334 E0.03591 ; skirt
G1 X170.509 Y128.036 E0.04513 ; skirt
G1 X169.160 Y128.559 E0.04538 ; skirt
G1 X167.751 Y128.890 E0.04538 ; skirt
G1 X166.318 Y129.021 E0.04513 ; skirt
G1 X93.984 Y129.016 E2.26797 ; skirt
G1 X92.638 Y128.887 E0.04240 ; skirt
G1 X91.295 Y128.594 E0.04311 ; skirt
G1 X90.121 Y128.190 E0.03890 ; skirt
G1 X88.856 Y127.586 E0.04397 ; skirt
G1 X87.696 Y126.845 E0.04315 ; skirt
G1 X86.626 Y125.961 E0.04352 ; skirt
G1 X85.652 Y124.929 E0.04450 ; skirt
G1 X84.897 Y123.915 E0.03965 ; skirt
G1 X84.176 Y122.658 E0.04542 ; skirt
G1 X83.612 Y121.290 E0.04640 ; skirt
G1 X83.227 Y119.838 E0.04710 ; skirt
G1 X83.043 Y118.441 E0.04418 ; skirt
G1 X83.052 Y99.741 E0.58633 ; skirt
G1 X83.220 Y98.584 E0.03666 ; skirt
G1 X83.519 Y97.445 E0.03691 ; skirt
G1 X83.942 Y96.355 E0.03666 ; skirt
G1 X84.489 Y95.312 E0.03691 ; skirt
G1 X85.145 Y94.345 E0.03666 ; skirt
G1 X85.907 Y93.457 E0.03666 ; skirt
G1 X86.763 Y92.661 E0.03666 ; skirt
G1 X87.710 Y91.962 E0.03691 ; skirt
G1 X88.807 Y91.341 E0.03951 ; skirt
G1 F5760
G1 X90.081 Y90.811 E-0.47788 ; wipe and retract
G1 F5760
G1 X90.861 Y90.576 E-0.28212 ; wipe and retract
G1 E-0.04000 F2100.00000 ; retract
G1 Z0.800 F7200.000 ; lift Z
G1 X171.405 Y103.112 F7200.000 ; move to first brim point
G1 Z0.200 F7200.000 ; restore layer Z
G1 E0.80000 F2100.00000 ; unretract
G1 F1800
G1 X172.087 Y105.307 E0.07209 ; brim
G1 X172.161 Y108.802 E0.10960 ; brim
G1 X173.147 Y109.875 E0.04566 ; brim
G1 X173.968 Y111.405 E0.05446 ; brim
G1 X174.475 Y113.179 E0.05786 ; brim
G1 X174.476 Y120.121 E0.21766 ; brim
G1 X173.965 Y121.890 E0.05772 ; brim
G1 X173.198 Y123.339 E0.05142 ; brim
G1 X171.894 Y124.848 E0.06252 ; brim
G1 X170.656 Y125.862 E0.05018 ; brim
G1 X166.946 Y127.131 E0.12294 ; brim
G1 X94.213 Y127.131 E2.28050 ; brim
G1 X92.925 Y127.017 E0.04052 ; brim
G1 X91.668 Y126.732 E0.04042 ; brim
G1 X90.443 Y126.270 E0.04106 ; brim
G1 X89.304 Y125.660 E0.04051 ; brim
G1 X87.338 Y123.999 E0.08069 ; brim
G1 X86.676 Y123.164 E0.03341 ; brim
G1 X86.108 Y122.280 E0.03296 ; brim
G1 X85.220 Y120.090 E0.07407 ; brim
G1 X85.015 Y119.081 E0.03230 ; brim
G1 X84.915 Y118.036 E0.03290 ; brim
G1 X84.905 Y109.893 E0.25532 ; brim
G1 X85.333 Y108.113 E0.05740 ; brim
G1 X84.916 Y106.527 E0.05142 ; brim
G1 X84.915 Y99.930 E0.20683 ; brim
G1 X85.259 Y98.104 E0.05827 ; brim
G1 X85.994 Y96.408 E0.05796 ; brim
G1 X87.495 Y94.539 E0.07516 ; brim
G1 X88.797 Y93.449 E0.05323 ; brim
G1 X92.083 Y92.239 E0.10979 ; brim
G1 X95.015 Y92.167 E0.09197 ; brim
G1 X100.449 Y89.644 E0.18783 ; brim
G1 X163.556 Y73.564 E2.04192 ; brim
G1 X166.310 Y73.562 E0.08635 ; brim
G1 X168.267 Y74.145 E0.06402 ; brim
G1 X169.980 Y75.123 E0.06186 ; brim
G1 X171.423 Y76.456 E0.06160 ; brim
G1 X172.542 Y78.137 E0.06332 ; brim
G1 X174.551 Y85.573 E0.24151 ; brim
G1 X174.565 Y87.341 E0.05543 ; brim
G1 X174.462 Y87.991 E0.02061 ; brim
G1 X174.456 Y97.398 E0.29495 ; brim
G1 X174.085 Y99.315 E0.06123 ; brim
G1 X172.900 Y101.653 E0.08218 ; brim
G1 X171.448 Y103.070 E0.06362 ; brim
G1 X170.921 Y103.053 F7200.000 ; move to first brim point
G1 F1800
G1 X171.076 Y103.326 E0.00984 ; brim
G1 X171.711 Y105.342 E0.06628 ; brim
G1 X171.788 Y108.954 E0.11326 ; brim
G1 X172.826 Y110.074 E0.04790 ; brim
G1 X173.626 Y111.565 E0.05304 ; brim
G1 X174.105 Y113.256 E0.05512 ; brim
G1 X174.099 Y120.094 E0.21438 ; brim
G1 X173.609 Y121.765 E0.05460 ; brim
G1 X172.875 Y123.143 E0.04896 ; brim
G1 X171.620 Y124.588 E0.06002 ; brim
G1 X170.444 Y125.549 E0.04762 ; brim
G1 X166.915 Y126.754 E0.11692 ; brim
G1 X94.221 Y126.754 E2.27926 ; brim
G1 X92.971 Y126.643 E0.03933 ; brim
G1 X91.765 Y126.367 E0.03881 ; brim
G1 X90.588 Y125.922 E0.03945 ; brim
G1 X89.500 Y125.337 E0.03873 ; brim
G1 X87.622 Y123.750 E0.07711 ; brim
G1 X86.988 Y122.952 E0.03193 ; brim
G1 X86.435 Y122.091 E0.03211 ; brim
G1 X85.586 Y119.998 E0.07080 ; brim
G1 X85.386 Y119.016 E0.03144 ; brim
G1 X85.291 Y118.010 E0.03168 ; brim
G1 X85.283 Y109.916 E0.25378 ; brim
G1 X85.722 Y108.109 E0.05831 ; brim
G1 X85.293 Y106.502 E0.05215 ; brim
G1 X85.289 Y99.982 E0.20442 ; brim
G1 X85.614 Y98.234 E0.05574 ; brim
G1 X86.330 Y96.581 E0.05648 ; brim
G1 X87.777 Y94.791 E0.07218 ; brim
G1 X89.013 Y93.760 E0.05047 ; brim
G1 X92.182 Y92.605 E0.10577 ; brim
G1 X95.102 Y92.543 E0.09157 ; brim
G1 X100.559 Y90.005 E0.18869 ; brim
G1 X163.627 Y73.935 E2.04064 ; brim
G1 X166.230 Y73.931 E0.08161 ; brim
G1 X168.100 Y74.484 E0.06115 ; brim
G1 X169.741 Y75.415 E0.05918 ; brim
G1 X171.123 Y76.686 E0.05885 ; brim
G1 X172.186 Y78.266 E0.05973 ; brim
G1 X174.174 Y85.601 E0.23826 ; brim
G1 X174.188 Y87.328 E0.05416 ; brim
G1 X174.085 Y87.960 E0.02007 ; brim
G1 X174.082 Y97.345 E0.29428 ; brim
G1 X173.737 Y99.169 E0.05819 ; brim
G1 X172.578 Y101.454 E0.08033 ; brim
G1 X170.965 Y103.012 E0.07032 ; brim
G1 X170.439 Y102.992 F7200.000 ; move to first brim point
G1 F1800
G1 X170.725 Y103.465 E0.01732 ; brim
G1 X171.334 Y105.378 E0.06296 ; brim
G1 X171.414 Y109.107 E0.11694 ; brim
G1 X172.506 Y110.275 E0.05014 ; brim
G1 X173.284 Y111.725 E0.05160 ; brim
G1 X173.735 Y113.333 E0.05236 ; brim
G1 X173.722 Y120.065 E0.21109 ; brim
G1 X173.253 Y121.638 E0.05146 ; brim
G1 X172.553 Y122.946 E0.04651 ; brim
G1 X171.346 Y124.328 E0.05752 ; brim
G1 X170.232 Y125.235 E0.04507 ; brim
G1 X166.884 Y126.377 E0.11091 ; brim
G1 X94.229 Y126.377 E2.27803 ; brim
G1 X93.042 Y126.272 E0.03736 ; brim
G1 X91.885 Y126.010 E0.03719 ; brim
G1 X90.755 Y125.584 E0.03786 ; brim
G1 X89.696 Y125.014 E0.03771 ; brim
G1 X87.905 Y123.500 E0.07352 ; brim
G1 X87.289 Y122.725 E0.03105 ; brim
G1 X86.762 Y121.902 E0.03066 ; brim
G1 X85.952 Y119.906 E0.06754 ; brim
G1 X85.758 Y118.950 E0.03057 ; brim
G1 X85.667 Y117.983 E0.03045 ; brim
G1 X85.660 Y109.938 E0.25224 ; brim
G1 X86.112 Y108.104 E0.05924 ; brim
G1 X85.670 Y106.476 E0.05289 ; brim
G1 X85.663 Y100.034 E0.20199 ; brim
G1 X85.981 Y98.325 E0.05451 ; brim
G1 X86.665 Y96.756 E0.05366 ; brim
G1 X88.057 Y95.043 E0.06921 ; brim
G1 X89.228 Y94.071 E0.04771 ; brim
G1 X92.280 Y92.970 E0.10174 ; brim
G1 X95.188 Y92.919 E0.09119 ; brim
G1 X100.669 Y90.367 E0.18956 ; brim
G1 X163.697 Y74.306 E2.03934 ; brim
G1 X166.202 Y74.308 E0.07854 ; brim
G1 X167.933 Y74.823 E0.05663 ; brim
G1 X169.503 Y75.708 E0.05652 ; brim
G1 X170.824 Y76.916 E0.05613 ; brim
G1 X171.831 Y78.396 E0.05612 ; brim
G1 X173.797 Y85.628 E0.23499 ; brim
G1 X173.811 Y87.314 E0.05286 ; brim
G1 X173.708 Y87.928 E0.01951 ; brim
G1 X173.708 Y97.294 E0.29367 ; brim
G1 X173.388 Y99.023 E0.05512 ; brim
G1 X172.256 Y101.254 E0.07845 ; brim
G1 X170.482 Y102.951 E0.07697 ; brim
G1 X169.954 Y102.931 F7200.000 ; move to first brim point
G1 F1800
G1 X170.374 Y103.604 E0.02487 ; brim
G1 X170.958 Y105.414 E0.05963 ; brim
G1 X171.040 Y109.260 E0.12063 ; brim
G1 X172.185 Y110.475 E0.05236 ; brim
G1 X172.942 Y111.885 E0.05015 ; brim
G1 X173.364 Y113.408 E0.04959 ; brim
G1 X173.345 Y120.036 E0.20781 ; brim
G1 X172.898 Y121.510 E0.04829 ; brim
G1 X172.231 Y122.748 E0.04408 ; brim
G1 X171.074 Y124.067 E0.05502 ; brim
G1 X170.020 Y124.921 E0.04254 ; brim
G1 X166.853 Y126.000 E0.10492 ; brim
G1 X94.238 Y126.000 E2.27679 ; brim
G1 X93.089 Y125.898 E0.03617 ; brim
G1 X91.982 Y125.645 E0.03558 ; brim
G1 X90.901 Y125.236 E0.03625 ; brim
G1 X89.893 Y124.692 E0.03593 ; brim
G1 X88.189 Y123.251 E0.06996 ; brim
G1 X87.601 Y122.514 E0.02955 ; brim
G1 X87.089 Y121.713 E0.02981 ; brim
G1 X86.318 Y119.813 E0.06428 ; brim
G1 X86.132 Y118.905 E0.02907 ; brim
G1 X86.044 Y117.957 E0.02986 ; brim
G1 X86.037 Y109.962 E0.25069 ; brim
G1 X86.502 Y108.099 E0.06018 ; brim
G1 X86.047 Y106.449 E0.05365 ; brim
G1 X86.037 Y100.084 E0.19957 ; brim
G1 X86.335 Y98.455 E0.05193 ; brim
G1 X87.000 Y96.931 E0.05215 ; brim
G1 X88.337 Y95.296 E0.06621 ; brim
G1 X89.443 Y94.383 E0.04496 ; brim
G1 X92.377 Y93.336 E0.09770 ; brim
G1 X95.274 Y93.295 E0.09084 ; brim
G1 X100.779 Y90.728 E0.19045 ; brim
G1 X163.767 Y74.677 E2.03805 ; brim
G1 X166.120 Y74.677 E0.07379 ; brim
G1 X167.805 Y75.178 E0.05510 ; brim
G1 X169.298 Y76.025 E0.05383 ; brim
G1 X170.552 Y77.179 E0.05344 ; brim
G1 X171.501 Y78.581 E0.05309 ; brim
G1 X173.420 Y85.655 E0.22982 ; brim
G1 X173.434 Y87.300 E0.05156 ; brim
G1 X173.331 Y87.895 E0.01894 ; brim
G1 X173.331 Y97.276 E0.29414 ; brim
G1 X173.022 Y98.926 E0.05262 ; brim
G1 X171.936 Y101.053 E0.07490 ; brim
G1 X169.997 Y102.890 E0.08372 ; brim
G1 X169.413 Y102.787 F7200.000 ; move to first brim point
G1 F1800
G1 X170.023 Y103.745 E0.03561 ; brim
G1 X170.582 Y105.450 E0.05625 ; brim
G1 X170.666 Y109.415 E0.12433 ; brim
G1 X171.866 Y110.677 E0.05461 ; brim
G1 X172.584 Y112.006 E0.04736 ; brim
G1 X172.994 Y113.484 E0.04810 ; brim
G1 X172.968 Y120.006 E0.20449 ; brim
G1 X172.544 Y121.380 E0.04510 ; brim
G1 X171.910 Y122.549 E0.04168 ; brim
G1 X170.802 Y123.805 E0.05252 ; brim
G1 X169.809 Y124.607 E0.04001 ; brim
G1 X166.822 Y125.623 E0.09894 ; brim
G1 X94.246 Y125.623 E2.27557 ; brim
G1 X93.160 Y125.527 E0.03418 ; brim
G1 X92.079 Y125.280 E0.03476 ; brim
G1 X91.047 Y124.888 E0.03462 ; brim
G1 X90.089 Y124.369 E0.03414 ; brim
G1 X88.472 Y123.002 E0.06641 ; brim
G1 X87.903 Y122.286 E0.02866 ; brim
G1 X87.416 Y121.525 E0.02834 ; brim
G1 X86.684 Y119.721 E0.06104 ; brim
G1 X86.504 Y118.840 E0.02819 ; brim
G1 X86.420 Y117.931 E0.02861 ; brim
G1 X86.414 Y109.985 E0.24914 ; brim
G1 X86.892 Y108.094 E0.06115 ; brim
G1 X86.424 Y106.423 E0.05442 ; brim
G1 X86.414 Y100.101 E0.19821 ; brim
G1 X86.702 Y98.546 E0.04960 ; brim
G1 X87.335 Y97.107 E0.04929 ; brim
G1 X88.616 Y95.551 E0.06321 ; brim
G1 X89.656 Y94.695 E0.04221 ; brim
G1 X92.473 Y93.702 E0.09365 ; brim
G1 X95.360 Y93.671 E0.09052 ; brim
G1 X100.889 Y91.089 E0.19136 ; brim
G1 X163.837 Y75.048 E2.03676 ; brim
G1 X166.040 Y75.047 E0.06907 ; brim
G1 X167.639 Y75.517 E0.05224 ; brim
G1 X169.060 Y76.318 E0.05115 ; brim
G1 X170.253 Y77.409 E0.05067 ; brim
G1 X171.171 Y78.767 E0.05140 ; brim
G1 X173.044 Y85.683 E0.22465 ; brim
G1 X173.056 Y87.285 E0.05024 ; brim
G1 X172.954 Y87.861 E0.01836 ; brim
G1 X172.954 Y97.259 E0.29465 ; brim
G1 X172.657 Y98.830 E0.05014 ; brim
G1 X171.653 Y100.802 E0.06939 ; brim
G1 X169.758 Y102.597 E0.08184 ; brim
G1 X169.466 Y102.758 E0.01045 ; brim
G1 X168.864 Y102.633 F7200.000 ; move to first brim point
G1 F1800
G1 X169.673 Y103.886 E0.04677 ; brim
G1 X170.214 Y105.541 E0.05459 ; brim
G1 X170.291 Y109.569 E0.12634 ; brim
G1 X171.546 Y110.879 E0.05687 ; brim
G1 X172.242 Y112.166 E0.04587 ; brim
G1 X172.624 Y113.559 E0.04527 ; brim
G1 X172.591 Y119.975 E0.20119 ; brim
G1 X172.190 Y121.249 E0.04187 ; brim
G1 X171.590 Y122.349 E0.03931 ; brim
G1 X170.531 Y123.543 E0.05003 ; brim
G1 X169.599 Y124.293 E0.03750 ; brim
G1 X166.791 Y125.245 E0.09298 ; brim
G1 X94.254 Y125.245 E2.27435 ; brim
G1 X93.230 Y125.156 E0.03221 ; brim
G1 X92.200 Y124.923 E0.03313 ; brim
G1 X91.215 Y124.550 E0.03302 ; brim
G1 X90.286 Y124.047 E0.03313 ; brim
G1 X88.755 Y122.752 E0.06287 ; brim
G1 X88.215 Y122.075 E0.02716 ; brim
G1 X87.743 Y121.336 E0.02749 ; brim
G1 X87.050 Y119.628 E0.05780 ; brim
G1 X86.875 Y118.774 E0.02732 ; brim
G1 X86.796 Y117.905 E0.02736 ; brim
G1 X86.791 Y110.009 E0.24759 ; brim
G1 X87.283 Y108.089 E0.06214 ; brim
G1 X86.802 Y106.396 E0.05519 ; brim
G1 X86.791 Y100.118 E0.19684 ; brim
G1 X87.056 Y98.678 E0.04592 ; brim
G1 X87.669 Y97.283 E0.04776 ; brim
G1 X88.895 Y95.806 E0.06018 ; brim
G1 X89.869 Y95.009 E0.03947 ; brim
G1 X92.567 Y94.068 E0.08959 ; brim
G1 X95.444 Y94.048 E0.09023 ; brim
G1 X101.000 Y91.450 E0.19229 ; brim
G1 X163.908 Y75.420 E2.03547 ; brim
G1 X165.961 Y75.416 E0.06438 ; brim
G1 X167.473 Y75.856 E0.04936 ; brim
G1 X168.855 Y76.636 E0.04977 ; brim
G1 X169.981 Y77.671 E0.04793 ; brim
G1 X170.841 Y78.951 E0.04835 ; brim
G1 X172.667 Y85.710 E0.21952 ; brim
G1 X172.679 Y87.269 E0.04891 ; brim
G1 X172.577 Y87.826 E0.01775 ; brim
G1 X172.577 Y97.241 E0.29518 ; brim
G1 X172.292 Y98.733 E0.04764 ; brim
G1 X171.370 Y100.551 E0.06390 ; brim
G1 X169.521 Y102.302 E0.07984 ; brim
G1 X168.917 Y102.606 E0.02120 ; brim
G1 X168.311 Y102.477 F7200.000 ; move to first brim point
G1 F1800
G1 X169.322 Y104.027 E0.05803 ; brim
G1 X169.847 Y105.631 E0.05290 ; brim
G1 X169.917 Y109.725 E0.12838 ; brim
G1 X171.228 Y111.082 E0.05917 ; brim
G1 X171.884 Y112.287 E0.04302 ; brim
G1 X172.253 Y113.633 E0.04376 ; brim
G1 X172.214 Y119.943 E0.19785 ; brim
G1 X171.837 Y121.115 E0.03861 ; brim
G1 X171.270 Y122.149 E0.03696 ; brim
G1 X170.260 Y123.280 E0.04753 ; brim
G1 X169.389 Y123.978 E0.03500 ; brim
G1 X166.760 Y124.868 E0.08704 ; brim
G1 X94.262 Y124.868 E2.27312 ; brim
G1 X93.276 Y124.782 E0.03103 ; brim
G1 X92.297 Y124.558 E0.03150 ; brim
G1 X91.361 Y124.202 E0.03139 ; brim
G1 X90.483 Y123.725 E0.03134 ; brim
G1 X89.039 Y122.502 E0.05934 ; brim
G1 X88.516 Y121.848 E0.02626 ; brim
G1 X88.070 Y121.148 E0.02601 ; brim
G1 X87.416 Y119.536 E0.05456 ; brim
G1 X87.247 Y118.709 E0.02644 ; brim
G1 X87.173 Y117.880 E0.02611 ; brim
G1 X87.168 Y110.033 E0.24604 ; brim
G1 X87.674 Y108.084 E0.06315 ; brim
G1 X87.179 Y106.368 E0.05598 ; brim
G1 X87.168 Y100.135 E0.19544 ; brim
G1 X87.422 Y98.769 E0.04358 ; brim
G1 X88.003 Y97.461 E0.04487 ; brim
G1 X89.172 Y96.062 E0.05716 ; brim
G1 X90.081 Y95.322 E0.03673 ; brim
G1 X92.660 Y94.435 E0.08552 ; brim
G1 X95.529 Y94.425 E0.08996 ; brim
G1 X101.110 Y91.811 E0.19325 ; brim
G1 X163.979 Y75.791 E2.03418 ; brim
G1 X165.882 Y75.786 E0.05967 ; brim
G1 X167.346 Y76.212 E0.04781 ; brim
G1 X168.650 Y76.953 E0.04702 ; brim
G1 X169.708 Y77.932 E0.04520 ; brim
G1 X170.510 Y79.134 E0.04531 ; brim
G1 X172.290 Y85.737 E0.21441 ; brim
G1 X172.302 Y87.253 E0.04755 ; brim
G1 X172.200 Y87.790 E0.01713 ; brim
G1 X172.200 Y97.222 E0.29574 ; brim
G1 X171.926 Y98.636 E0.04514 ; brim
G1 X171.086 Y100.299 E0.05844 ; brim
G1 X169.284 Y102.007 E0.07785 ; brim
G1 X168.365 Y102.451 E0.03202 ; brim
G1 X167.599 Y102.393 F7200.000 ; move to first brim point
G1 F1800
G1 X168.171 Y102.940 E0.02481 ; brim
