; generated by Slic3r Prusa Edition 1.41.0+ on 2018-09-27 at 15:38:09

; 

; external perimeters extrusion width = 0.45mm
; perimeters extrusion width = 0.45mm
; infill extrusion width = 0.45mm
; solid infill extrusion width = 0.45mm
; top infill extrusion width = 0.40mm
; first layer extrusion width = 0.42mm

M201 X9000 Y9000 Z500 E10000 ; sets maximum accelerations, mm/sec^2
M203 X500 Y500 Z12 E120 ; sets maximum feedrates, mm/sec
M204 P2000 R1500 T2000 ; sets acceleration (P, T) and retract acceleration (R), mm/sec^2
M205 X10.00 Y10.00 Z0.20 E2.50 ; sets the jerk limits, mm/sec
M205 S0 T0 ; sets the minimum extruding and travel feed rate, mm/sec
M107
G21 ; set units to millimeters
G90 ; use absolute positioning
M82 ; absolute extrusion mode
M104 S160 ; set extruder temp no wait
M140 S75 ; set bed temp no wait
M190 S75 ; wait for bed temp

G28 W ; home all without mesh bed level
G80 ; mesh bed leveling

M109 S240 ; wait for extruder temp

M900 K30 ; Linear Advance Value
M205 X8 ; jerk x standard 15
M205 Y8 ; jerk y standard 15
M205 E0.33 ; jerk e axis
M201 E180 ; e axis acceleration

G92 E0.0 ; reset extruder distance position
G1 Y-3.0 F1000.0 ; go outside print area
G1 X60.0 E9.0 F1000.0 ; intro line
M73 P0 R25
G1 X100.0 E21.5 F1000.0 ; intro line
G92 E0.0 ; reset extruder distance position
M900 K45; Filament gcode
G21 ; set units to millimeters
G90 ; use absolute coordinates
M83 ; use relative distances for extrusion
;BEFORE_LAYER_CHANGE
G92 E0.0
;0.2


G1 E-0.80000 F2100.00000
G1 Z0.600 F10800.000
;AFTER_LAYER_CHANGE
;0.2
; PURGING FINISHED
G1 X91.766 Y113.223
G1 Z0.200
G1 E0.80000 F2100.00000
M204 S1000
G1 F1200
G1 X91.789 Y113.210 E0.00078
G1 X91.829 Y113.228 E0.00125
G1 X91.843 Y113.302 E0.00218
G1 X91.843 Y116.201 E0.08364
G1 X110.750 Y116.201 E0.54539
G1 X110.752 Y114.245 E0.05642
G1 X110.850 Y113.498 E0.02174
G1 X111.183 Y112.695 E0.02507
G1 X111.671 Y112.073 E0.02280
G1 X112.306 Y111.597 E0.02289
G1 X113.042 Y111.302 E0.02288
G1 X113.803 Y111.211 E0.02210
G1 X113.837 Y111.238 E0.00125
G1 X113.821 Y111.280 E0.00133
G1 X113.029 Y111.394 E0.02307
G1 X112.320 Y111.688 E0.02214
G1 X111.708 Y112.157 E0.02225
G1 X111.238 Y112.769 E0.02225
G1 X110.943 Y113.482 E0.02225
G1 X110.843 Y114.241 E0.02210
G1 X110.843 Y116.210 E0.05677
G1 X110.833 Y116.266 E0.00167
G1 X110.810 Y116.286 E0.00088
G1 X91.843 Y116.291 E0.54711
G1 X91.843 Y160.200 E1.26659
G1 X96.817 Y160.217 E0.14348
G1 X96.823 Y160.271 E0.00157
G1 X96.763 Y160.291 E0.00184
G1 X91.831 Y160.291 E0.14225
G1 X91.772 Y160.276 E0.00176
G1 X91.751 Y160.209 E0.00202
G1 X91.755 Y113.282 E1.35367
G1 F8640
G1 X91.789 Y113.210 E-0.01843
G1 X91.829 Y113.228 E-0.01004
G1 X91.843 Y113.302 E-0.01741
G1 X91.843 Y116.201 E-0.66950
G1 X92.036 Y116.201 E-0.04462
G1 E-0.04000 F2100.00000
G1 Z0.800 F10800.000
G1 X92.220 Y116.669
G1 Z0.200
G1 E0.80000 F2100.00000
G1 F1200
G1 X92.220 Y159.824 E1.24486
G1 X96.875 Y159.834 E0.13428
G1 X97.022 Y159.892 E0.00456
G1 X97.138 Y160.000 E0.00456
G1 X97.186 Y160.086 E0.00285
G1 X97.217 Y160.246 E0.00471
G1 X97.187 Y160.401 E0.00454
G1 X97.103 Y160.534 E0.00454
G1 X96.976 Y160.626 E0.00453
G1 X96.810 Y160.668 E0.00493
G1 X91.784 Y160.668 E0.14499
G1 X91.612 Y160.624 E0.00512
G1 X91.528 Y160.571 E0.00285
G1 X91.460 Y160.499 E0.00285
G1 X91.388 Y160.345 E0.00493
G1 X91.374 Y160.233 E0.00324
G1 X91.374 Y113.266 E1.35481
G1 X91.408 Y113.085 E0.00531
G1 X91.455 Y112.999 E0.00283
G1 X91.528 Y112.923 E0.00304
G1 X91.673 Y112.844 E0.00475
G1 X91.764 Y112.827 E0.00267
G1 X91.933 Y112.848 E0.00493
G1 X92.017 Y112.888 E0.00267
G1 X92.138 Y113.000 E0.00475
G1 X92.186 Y113.086 E0.00285
G1 X92.220 Y113.266 E0.00529
G1 X92.220 Y115.824 E0.07379
G1 X110.373 Y115.824 E0.52365
G1 X110.375 Y114.221 E0.04626
G1 X110.483 Y113.400 E0.02388
G1 X110.854 Y112.503 E0.02800
G1 X111.405 Y111.801 E0.02572
G1 X112.119 Y111.266 E0.02576
G1 X112.948 Y110.933 E0.02575
G1 X113.829 Y110.828 E0.02560
G1 X113.982 Y110.868 E0.00455
G1 X114.066 Y110.922 E0.00287
G1 X114.138 Y110.999 E0.00305
G1 X114.189 Y111.091 E0.00305
G1 X114.215 Y111.193 E0.00303
G1 X114.214 Y111.298 E0.00304
G1 X114.163 Y111.455 E0.00475
G1 X114.104 Y111.535 E0.00287
G1 X114.023 Y111.602 E0.00305
G1 X113.932 Y111.645 E0.00291
G1 X113.130 Y111.761 E0.02338
G1 X112.510 Y112.017 E0.01935
G1 X111.977 Y112.426 E0.01939
G1 X111.568 Y112.959 E0.01938
G1 X111.311 Y113.580 E0.01938
G1 X111.220 Y114.266 E0.01996
G1 X111.220 Y116.233 E0.05674
G1 X111.205 Y116.351 E0.00343
G1 X111.166 Y116.450 E0.00305
G1 X111.104 Y116.535 E0.00305
G1 X111.023 Y116.602 E0.00305
G1 X110.927 Y116.647 E0.00305
G1 X110.817 Y116.669 E0.00324
G1 X92.280 Y116.669 E0.53471
G1 X91.820 Y116.669 F10800.000
G1 F8640
G1 X92.276 Y119.960 E-0.76000
G1 E-0.04000 F2100.00000
G1 Z0.800 F10800.000
G1 X128.768 Y116.771
G1 Z0.200
G1 E0.80000 F2100.00000
G1 F1200
G1 X128.768 Y160.680 E1.26659
G1 X133.742 Y160.697 E0.14348
G1 X133.748 Y160.751 E0.00157
G1 X133.688 Y160.771 E0.00184
G1 X128.757 Y160.771 E0.14225
G1 X128.697 Y160.756 E0.00176
G1 X128.676 Y160.689 E0.00202
G1 X128.676 Y113.782 E1.35309
G1 X128.691 Y113.703 E0.00232
G1 X128.715 Y113.690 E0.00078
G1 X128.754 Y113.708 E0.00125
G1 X128.768 Y113.782 E0.00218
G1 X128.768 Y116.681 E0.08364
G1 X147.675 Y116.681 E0.54539
G1 X147.677 Y114.725 E0.05642
G1 X147.776 Y113.978 E0.02174
G1 X148.108 Y113.175 E0.02507
G1 X148.596 Y112.553 E0.02280
G1 X149.231 Y112.077 E0.02289
G1 X149.967 Y111.782 E0.02288
G1 X150.728 Y111.691 E0.02210
G1 X150.762 Y111.717 E0.00125
G1 X150.746 Y111.760 E0.00133
G1 X149.954 Y111.874 E0.02307
G1 X149.245 Y112.168 E0.02214
G1 X148.633 Y112.637 E0.02225
G1 X148.164 Y113.249 E0.02225
G1 X147.868 Y113.962 E0.02225
G1 X147.768 Y114.721 E0.02210
G1 X147.768 Y116.689 E0.05677
G1 X147.759 Y116.746 E0.00167
G1 X147.735 Y116.766 E0.00088
G1 X128.828 Y116.771 E0.54538
G1 X129.146 Y117.148 F10800.000
G1 F1200
G1 X129.146 Y160.304 E1.24486
G1 X133.801 Y160.314 E0.13428
G1 X133.947 Y160.372 E0.00456
G1 X134.063 Y160.480 E0.00456
G1 X134.111 Y160.566 E0.00285
G1 X134.142 Y160.726 E0.00471
G1 X134.112 Y160.881 E0.00454
G1 X134.028 Y161.014 E0.00454
G1 X133.901 Y161.106 E0.00453
G1 X133.735 Y161.148 E0.00493
G1 X128.709 Y161.148 E0.14499
G1 X128.537 Y161.104 E0.00512
G1 X128.453 Y161.051 E0.00285
G1 X128.386 Y160.979 E0.00285
G1 X128.313 Y160.825 E0.00493
G1 X128.299 Y160.713 E0.00324
G1 X128.299 Y113.746 E1.35481
G1 X128.333 Y113.565 E0.00531
G1 X128.381 Y113.479 E0.00283
G1 X128.453 Y113.403 E0.00304
G1 X128.598 Y113.324 E0.00475
G1 X128.689 Y113.307 E0.00267
G1 X128.859 Y113.328 E0.00493
G1 X128.942 Y113.368 E0.00267
G1 X129.063 Y113.480 E0.00475
G1 X129.111 Y113.566 E0.00285
G1 X129.146 Y113.746 E0.00529
G1 X129.146 Y116.304 E0.07379
G1 X147.299 Y116.304 E0.52365
G1 X147.300 Y114.700 E0.04626
G1 X147.408 Y113.880 E0.02388
G1 X147.780 Y112.983 E0.02800
G1 X148.330 Y112.281 E0.02572
G1 X149.044 Y111.746 E0.02576
G1 X149.873 Y111.413 E0.02575
G1 X150.754 Y111.308 E0.02560
G1 X150.907 Y111.348 E0.00455
G1 X150.991 Y111.401 E0.00287
G1 X151.063 Y111.479 E0.00305
G1 X151.114 Y111.571 E0.00305
G1 X151.140 Y111.673 E0.00303
G1 X151.140 Y111.778 E0.00304
G1 X151.088 Y111.935 E0.00475
G1 X151.030 Y112.015 E0.00287
G1 X150.948 Y112.082 E0.00305
G1 X150.857 Y112.125 E0.00291
G1 X150.055 Y112.240 E0.02338
G1 X149.435 Y112.497 E0.01935
G1 X148.902 Y112.906 E0.01939
G1 X148.493 Y113.439 E0.01938
G1 X148.236 Y114.060 E0.01938
G1 X148.146 Y114.746 E0.01996
G1 X148.145 Y116.713 E0.05674
G1 X148.131 Y116.831 E0.00343
G1 X148.092 Y116.929 E0.00305
G1 X148.030 Y117.015 E0.00305
G1 X147.948 Y117.082 E0.00305
G1 X147.853 Y117.127 E0.00305
G1 X147.742 Y117.148 E0.00324
G1 X129.206 Y117.148 E0.53471
G1 X128.746 Y117.149 F10800.000
G1 F8640
G1 X129.201 Y120.440 E-0.76000
G1 E-0.04000 F2100.00000
G1 Z0.800 F10800.000
G1 X136.178 Y98.303
G1 Z0.200
G1 E0.80000 F2100.00000
G1 F1200
G1 X136.157 Y98.237 E0.00202
G1 X136.157 Y51.329 E1.35309
G1 X136.172 Y51.250 E0.00232
G1 X136.195 Y51.237 E0.00078
G1 X136.235 Y51.255 E0.00125
G1 X136.249 Y51.329 E0.00218
G1 X136.249 Y54.229 E0.08364
G1 X155.156 Y54.229 E0.54539
G1 X155.158 Y52.273 E0.05642
G1 X155.256 Y51.525 E0.02174
G1 X155.589 Y50.722 E0.02507
G1 X156.077 Y50.100 E0.02280
G1 X156.712 Y49.624 E0.02289
G1 X157.448 Y49.329 E0.02288
G1 X158.232 Y49.245 E0.02276
G1 X158.243 Y49.265 E0.00066
G1 X158.227 Y49.308 E0.00133
G1 X157.435 Y49.421 E0.02307
G1 X156.726 Y49.715 E0.02214
G1 X156.114 Y50.185 E0.02225
G1 X155.644 Y50.796 E0.02225
G1 X155.349 Y51.509 E0.02225
G1 X155.249 Y52.269 E0.02210
G1 X155.249 Y54.237 E0.05677
G1 X155.239 Y54.294 E0.00167
G1 X155.216 Y54.313 E0.00088
G1 X136.249 Y54.319 E0.54711
G1 X136.249 Y98.227 E1.26659
G1 X141.209 Y98.238 E0.14307
G1 X141.239 Y98.274 E0.00133
G1 X141.218 Y98.306 E0.00110
G1 X141.169 Y98.319 E0.00148
G1 X136.236 Y98.318 E0.14227
G1 F8640
G1 X136.157 Y98.237 E-0.02635
G1 X136.157 Y95.059 E-0.73365
G1 E-0.04000 F2100.00000
G1 Z0.800 F10800.000
G1 X136.626 Y54.696
G1 Z0.200
G1 E0.80000 F2100.00000
G1 F1200
G1 X136.626 Y97.851 E1.24486
G1 X141.281 Y97.861 E0.13428
G1 X141.428 Y97.920 E0.00456
G1 X141.544 Y98.027 E0.00456
G1 X141.592 Y98.113 E0.00285
G1 X141.623 Y98.274 E0.00471
G1 X141.593 Y98.428 E0.00454
G1 X141.509 Y98.561 E0.00454
G1 X141.382 Y98.653 E0.00453
G1 X141.216 Y98.696 E0.00493
G1 X136.190 Y98.696 E0.14499
G1 X136.018 Y98.652 E0.00512
G1 X135.934 Y98.598 E0.00285
G1 X135.866 Y98.526 E0.00285
G1 X135.794 Y98.372 E0.00493
G1 X135.780 Y98.260 E0.00324
G1 X135.780 Y51.293 E1.35481
G1 X135.814 Y51.112 E0.00531
G1 X135.861 Y51.026 E0.00283
G1 X135.934 Y50.950 E0.00304
G1 X136.079 Y50.871 E0.00475
G1 X136.170 Y50.854 E0.00267
G1 X136.339 Y50.875 E0.00493
G1 X136.423 Y50.915 E0.00267
G1 X136.544 Y51.027 E0.00475
G1 X136.592 Y51.113 E0.00285
G1 X136.626 Y51.293 E0.00529
G1 X136.626 Y53.852 E0.07379
G1 X154.780 Y53.852 E0.52365
G1 X154.781 Y52.248 E0.04626
G1 X154.889 Y51.427 E0.02388
G1 X155.260 Y50.530 E0.02800
G1 X155.811 Y49.829 E0.02572
G1 X156.525 Y49.293 E0.02576
G1 X157.354 Y48.960 E0.02575
G1 X158.235 Y48.856 E0.02560
G1 X158.388 Y48.895 E0.00455
G1 X158.472 Y48.949 E0.00287
G1 X158.544 Y49.026 E0.00305
G1 X158.595 Y49.118 E0.00305
G1 X158.621 Y49.220 E0.00303
G1 X158.620 Y49.325 E0.00304
G1 X158.569 Y49.482 E0.00475
G1 X158.510 Y49.562 E0.00287
G1 X158.429 Y49.630 E0.00305
G1 X158.338 Y49.673 E0.00291
G1 X157.536 Y49.788 E0.02338
G1 X156.916 Y50.044 E0.01935
G1 X156.383 Y50.453 E0.01939
G1 X155.974 Y50.987 E0.01938
G1 X155.717 Y51.607 E0.01938
G1 X155.626 Y52.293 E0.01996
G1 X155.626 Y54.260 E0.05674
G1 X155.611 Y54.378 E0.00343
G1 X155.573 Y54.477 E0.00305
G1 X155.510 Y54.562 E0.00305
G1 X155.429 Y54.630 E0.00305
G1 X155.333 Y54.675 E0.00305
G1 X155.223 Y54.696 E0.00324
G1 X136.686 Y54.696 E0.53471
G1 X136.226 Y54.696 F10800.000
G1 F8640
G1 X136.682 Y57.987 E-0.76000
G1 E-0.04000 F2100.00000
G1 Z0.800 F10800.000
G1 X119.466 Y52.490
G1 Z0.200
G1 E0.80000 F2100.00000
G1 F1200
G1 X119.449 Y52.533 E0.00133
G1 X118.658 Y52.646 E0.02307
G1 X117.948 Y52.940 E0.02214
G1 X117.336 Y53.410 E0.02225
G1 X116.867 Y54.022 E0.02225
G1 X116.572 Y54.734 E0.02225
G1 X116.472 Y55.494 E0.02210
G1 X116.472 Y57.462 E0.05677
G1 X116.462 Y57.519 E0.00167
G1 X116.438 Y57.538 E0.00088
G1 X97.472 Y57.544 E0.54711
G1 X97.472 Y101.452 E1.26659
G1 X102.432 Y101.463 E0.14307
G1 X102.461 Y101.499 E0.00133
G1 X102.441 Y101.531 E0.00110
G1 X102.391 Y101.544 E0.00148
G1 X97.460 Y101.544 E0.14225
G1 X97.401 Y101.529 E0.00176
G1 X97.379 Y101.462 E0.00202
G1 X97.379 Y54.554 E1.35309
M73 P4 R24
G1 X97.394 Y54.475 E0.00232
G1 X97.418 Y54.463 E0.00078
G1 X97.458 Y54.480 E0.00125
G1 X97.472 Y54.554 E0.00218
G1 X97.472 Y57.454 E0.08364
G1 X116.379 Y57.454 E0.54539
G1 X116.381 Y55.498 E0.05642
G1 X116.479 Y54.750 E0.02174
G1 X116.811 Y53.947 E0.02507
G1 X117.300 Y53.326 E0.02280
G1 X117.934 Y52.849 E0.02289
G1 X118.670 Y52.554 E0.02288
G1 X119.419 Y52.465 E0.02175
G1 F8640
G1 X119.449 Y52.533 E-0.01710
G1 X118.658 Y52.646 E-0.18466
G1 X117.948 Y52.940 E-0.17726
G1 X117.336 Y53.410 E-0.17810
G1 X116.867 Y54.022 E-0.17809
G1 X116.826 Y54.121 E-0.02479
G1 E-0.04000 F2100.00000
G1 Z0.800 F10800.000
G1 X97.849 Y57.921
G1 Z0.200
G1 E0.80000 F2100.00000
G1 F1200
G1 X97.849 Y101.076 E1.24486
G1 X102.504 Y101.087 E0.13428
G1 X102.651 Y101.145 E0.00456
G1 X102.766 Y101.252 E0.00456
G1 X102.815 Y101.339 E0.00285
G1 X102.845 Y101.499 E0.00471
G1 X102.816 Y101.653 E0.00454
G1 X102.731 Y101.786 E0.00454
G1 X102.604 Y101.878 E0.00453
G1 X102.439 Y101.921 E0.00493
G1 X97.412 Y101.921 E0.14499
G1 X97.240 Y101.877 E0.00512
G1 X97.157 Y101.824 E0.00285
G1 X97.089 Y101.752 E0.00285
G1 X97.016 Y101.597 E0.00493
G1 X97.002 Y101.486 E0.00324
G1 X97.002 Y54.519 E1.35481
G1 X97.037 Y54.338 E0.00531
G1 X97.084 Y54.252 E0.00283
G1 X97.157 Y54.175 E0.00304
G1 X97.301 Y54.097 E0.00475
G1 X97.392 Y54.079 E0.00267
G1 X97.562 Y54.101 E0.00493
G1 X97.646 Y54.140 E0.00267
G1 X97.766 Y54.252 E0.00475
G1 X97.815 Y54.339 E0.00285
G1 X97.849 Y54.519 E0.00529
G1 X97.849 Y57.077 E0.07379
G1 X116.002 Y57.077 E0.52365
G1 X116.003 Y55.473 E0.04626
G1 X116.112 Y54.652 E0.02388
G1 X116.483 Y53.755 E0.02800
G1 X117.034 Y53.054 E0.02572
G1 X117.748 Y52.518 E0.02576
G1 X118.576 Y52.185 E0.02575
G1 X119.458 Y52.081 E0.02560
G1 X119.610 Y52.121 E0.00455
G1 X119.694 Y52.174 E0.00287
G1 X119.767 Y52.251 E0.00305
G1 X119.818 Y52.344 E0.00305
G1 X119.844 Y52.445 E0.00303
G1 X119.843 Y52.551 E0.00304
G1 X119.791 Y52.707 E0.00475
G1 X119.733 Y52.787 E0.00287
G1 X119.652 Y52.855 E0.00305
G1 X119.560 Y52.898 E0.00291
G1 X118.758 Y53.013 E0.02338
G1 X118.139 Y53.270 E0.01935
G1 X117.605 Y53.679 E0.01939
G1 X117.196 Y54.212 E0.01938
G1 X116.939 Y54.833 E0.01938
G1 X116.849 Y55.518 E0.01996
G1 X116.849 Y57.486 E0.05674
G1 X116.834 Y57.604 E0.00343
G1 X116.795 Y57.702 E0.00305
G1 X116.733 Y57.787 E0.00305
G1 X116.652 Y57.855 E0.00305
G1 X116.556 Y57.900 E0.00305
G1 X116.445 Y57.921 E0.00324
G1 X97.909 Y57.921 E0.53471
G1 X97.449 Y57.921 F10800.000
;BEFORE_LAYER_CHANGE
G92 E0.0
;0.4


G1 F8640
G1 X97.904 Y61.212 E-0.76000
G1 E-0.04000 F2100.00000
G1 Z0.800 F10800.000
;AFTER_LAYER_CHANGE
;0.4
M104 S235 ; set temperature
M140 S80 ; set bed temperature
; PURGING FINISHED
G1 X91.816 Y116.263
G1 Z0.400
G1 E0.80000 F2100.00000
M204 S800
G1 F3600
G1 X91.816 Y160.230 E1.36915
G1 X96.805 Y160.240 E0.15537
G1 X96.780 Y160.263 E0.00108
G1 X91.814 Y160.263 E0.15467
G1 X91.788 Y160.252 E0.00089
G1 X91.778 Y160.181 E0.00222
G1 X91.787 Y113.242 E1.46171
G1 X91.808 Y113.247 E0.00068
G1 X91.820 Y116.229 E0.09287
G1 X110.776 Y116.229 E0.59029
G1 X110.780 Y114.249 E0.06167
G1 X110.883 Y113.466 E0.02461
G1 X111.186 Y112.736 E0.02462
G1 X111.664 Y112.113 E0.02443
G1 X112.289 Y111.634 E0.02453
G1 X113.016 Y111.332 E0.02452
G1 X113.767 Y111.234 E0.02358
G1 X113.807 Y111.244 E0.00130
G1 X113.765 Y111.268 E0.00152
G1 X113.025 Y111.365 E0.02324
G1 X112.306 Y111.663 E0.02424
G1 X111.688 Y112.137 E0.02425
G1 X111.214 Y112.755 E0.02425
G1 X110.916 Y113.474 E0.02425
G1 X110.816 Y114.234 E0.02386
G1 X110.816 Y116.181 E0.06062
G1 X110.800 Y116.257 E0.00241
G1 X91.876 Y116.263 E0.58932
M204 S1000
G1 X92.223 Y116.670 F10800.000
M204 S800
G1 F3600
G1 X92.223 Y159.822 E1.34379
G1 X96.857 Y159.827 E0.14432
G1 X97.008 Y159.879 E0.00498
G1 X97.119 Y159.971 E0.00448
G1 X97.189 Y160.092 E0.00434
G1 X97.222 Y160.248 E0.00498
G1 X97.190 Y160.397 E0.00474
G1 X97.119 Y160.522 E0.00446
G1 X96.991 Y160.623 E0.00508
G1 X96.824 Y160.670 E0.00543
G1 X91.772 Y160.670 E0.15732
G1 X91.618 Y160.628 E0.00497
G1 X91.502 Y160.551 E0.00434
G1 X91.428 Y160.449 E0.00391
G1 X91.389 Y160.351 E0.00329
G1 X91.371 Y160.207 E0.00454
G1 X91.371 Y113.266 E1.46177
G1 X91.405 Y113.091 E0.00555
G1 X91.456 Y112.999 E0.00329
G1 X91.529 Y112.922 E0.00329
G1 X91.618 Y112.865 E0.00329
G1 X91.718 Y112.833 E0.00329
G1 X91.823 Y112.826 E0.00329
G1 X91.927 Y112.846 E0.00329
G1 X92.023 Y112.891 E0.00329
G1 X92.118 Y112.970 E0.00385
G1 X92.188 Y113.091 E0.00436
G1 X92.215 Y113.195 E0.00334
G1 X92.226 Y115.822 E0.08182
G1 X110.369 Y115.822 E0.56502
G1 X110.373 Y114.222 E0.04984
