; generated by PrusaSlicer 2.2.0+ on 2020-04-22 at 23:56:49 UTC


;
;

;
;
; 

; external perimeters extrusion width = 0.45mm
; perimeters extrusion width = 0.45mm
; infill extrusion width = 0.45mm
; solid infill extrusion width = 0.45mm
; top infill extrusion width = 0.40mm
; first layer extrusion width = 0.42mm

M73 P0 R51
M201 X9000 Y9000 Z500 E10000 ; sets maximum accelerations, mm/sec^2
M203 X500 Y500 Z12 E120 ; sets maximum feedrates, mm/sec
M204 P2000 R1500 T2000 ; sets acceleration (P, T) and retract acceleration (R), mm/sec^2
M205 X10.00 Y10.00 Z0.20 E2.50 ; sets the jerk limits, mm/sec
M205 S0 T0 ; sets the minimum extruding and travel feed rate, mm/sec
M107
M83  ; extruder relative mode
M140 S75 ; set bed temp
M109 S160 ; Set extruder temp before bed level
M190 S75 ; wait for bed temp

G28 W ; home all without mesh bed level
G80 N7 ; mesh bed leveling

M109 S240 ; wait for extruder temp

M221 S100 ; Set flow to 100

G1 Y-3.0 F1000.0 ; go outside print area
G92 E0.0
G1 E8 ; Purge Bubble
M73 P0 R51
G1 X60.0 E9.0 F1000.0 ; intro line
G1 X100.0 E12.5 F1000.0 ; intro line
G92 E0.0
G21 ; set units to millimeters
G90 ; use absolute coordinates
M83 ; use relative distances for extrusion
M900 K45; Filament gcode
;BEFORE_LAYER_CHANGE
G92 E0.0
;0.2


G1 E-0.80000 F2100.00000
G1 Z0.600 F10800.000
;AFTER_LAYER_CHANGE
;0.2
G1 X105.844 Y88.817
G1 Z0.200
G1 E0.80000 F2100.00000
M204 S1000
G1 F1200.000
G1 X106.826 Y88.702 E0.02853
G1 X142.883 Y88.698 E1.04010
G1 X143.660 Y88.717 E0.02241
G1 X144.261 Y88.842 E0.01773
G1 X145.054 Y89.124 E0.02427
G1 X145.584 Y89.441 E0.01782
G1 X146.096 Y89.878 E0.01943
G1 X146.682 Y90.603 E0.02687
G1 X146.935 Y91.108 E0.01629
G1 X147.206 Y91.986 E0.02652
G1 X149.029 Y106.299 E0.41619
G1 X149.029 Y109.949 E0.10530
G1 X148.953 Y110.542 E0.01723
G1 X148.763 Y111.082 E0.01653
G1 X148.462 Y111.574 E0.01665
G1 X148.065 Y111.993 E0.01665
G1 X147.589 Y112.320 E0.01665
G1 X146.961 Y112.567 E0.01947
G1 X146.296 Y112.654 E0.01935
G1 X103.709 Y112.653 E1.22846
G1 X102.998 Y112.542 E0.02076
G1 X102.341 Y112.251 E0.02076
G1 X101.781 Y111.799 E0.02076
G1 X101.355 Y111.214 E0.02087
G1 X101.128 Y110.661 E0.01723
G1 X101.027 Y110.077 E0.01712
G1 X101.029 Y106.141 E0.11353
G1 X102.805 Y92.226 E0.40466
G1 X103.066 Y91.265 E0.02872
G1 X103.434 Y90.503 E0.02442
G1 X104.068 Y89.758 E0.02822
G1 X104.762 Y89.255 E0.02474
G1 X105.788 Y88.840 E0.03193
G1 X105.928 Y89.188 F10800.000
G1 F1200.000
G1 X106.837 Y89.079 E0.02641
G1 X142.883 Y89.075 E1.03978
G1 X143.608 Y89.090 E0.02091
G1 X144.145 Y89.201 E0.01583
G1 X144.881 Y89.460 E0.02251
G1 X145.349 Y89.736 E0.01568
G1 X145.821 Y90.136 E0.01783
G1 X146.363 Y90.803 E0.02481
G1 X146.584 Y91.245 E0.01426
G1 X146.837 Y92.067 E0.02479
G1 X148.651 Y106.284 E0.41343
G1 X148.597 Y110.410 E0.11905
G1 X148.433 Y110.897 E0.01480
G1 X148.169 Y111.337 E0.01480
G1 X147.816 Y111.710 E0.01480
G1 X147.392 Y111.998 E0.01480
G1 X146.857 Y112.205 E0.01655
G1 X146.291 Y112.277 E0.01644
G1 X103.725 Y112.277 E1.22785
G1 X103.106 Y112.181 E0.01808
G1 X102.530 Y111.925 E0.01819
G1 X102.042 Y111.527 E0.01819
G1 X101.677 Y111.017 E0.01808
G1 X101.486 Y110.541 E0.01480
G1 X101.402 Y110.034 E0.01480
G1 X101.406 Y106.160 E0.11177
G1 X103.177 Y92.290 E0.40333
G1 X103.417 Y91.404 E0.02648
G1 X103.746 Y90.714 E0.02206
G1 X104.330 Y90.029 E0.02596
G1 X104.960 Y89.576 E0.02237
G1 X105.872 Y89.210 E0.02836
@Object Calipers.stl id:0 copy 0
G1 F8640.000
G1 X106.837 Y89.079 E-0.22481
G1 X109.155 Y89.078 E-0.53519
G1 E-0.04000 F2100.00000
G1 Z0.800 F10800.000
G1 X105.316 Y107.891
G1 Z0.200
G1 E0.80000 F2100.00000
G1 F1200.000
G1 X144.734 Y107.891 E1.13704
G1 X144.734 Y108.359 E0.01349
G1 X105.316 Y108.359 E1.13704
G1 X105.316 Y107.951 E0.01176
G1 F8640.000
G1 X108.608 Y107.946 E-0.76000
G1 E-0.04000 F2100.00000
G1 Z0.800 F10800.000
G1 X143.361 Y107.514
G1 Z0.200
G1 E0.80000 F2100.00000
G1 F1200.000
G1 X145.111 Y107.514 E0.05048
G1 X145.111 Y108.736 E0.03524
G1 X104.939 Y108.736 E1.15879
G1 X104.939 Y107.514 E0.03524
G1 X106.689 Y107.514 E0.05048
G1 X106.689 Y92.798 E0.42451
G1 X106.739 Y92.664 E0.00413
G1 X106.821 Y92.631 E0.00256
G1 X107.297 Y92.645 E0.01374
G1 X107.352 Y92.755 E0.00355
G1 X107.361 Y107.514 E0.42573
G1 X142.689 Y107.514 E1.01906
G1 X142.689 Y92.800 E0.42445
G1 X142.736 Y92.652 E0.00447
G1 X142.807 Y92.625 E0.00220
G1 X143.219 Y92.621 E0.01187
G1 X143.312 Y92.653 E0.00285
G1 X143.361 Y92.776 E0.00381
G1 X143.361 Y107.454 E0.42340
G1 X143.738 Y107.137 F10800.000
G1 F1200.000
G1 X145.488 Y107.137 E0.05048
G1 X145.488 Y109.113 E0.05700
G1 X104.562 Y109.113 E1.18054
G1 X104.562 Y107.137 E0.05700
G1 X106.312 Y107.137 E0.05048
G1 X106.312 Y92.748 E0.41506
G1 X106.431 Y92.410 E0.01034
G1 X106.473 Y92.364 E0.00179
G1 X106.754 Y92.251 E0.00875
G1 X107.388 Y92.271 E0.01828
G1 X107.509 Y92.323 E0.00381
G1 X107.651 Y92.467 E0.00583
G1 X107.729 Y92.692 E0.00686
G1 X107.738 Y107.137 E0.41669
G1 X142.312 Y107.137 E0.99731
G1 X142.312 Y92.767 E0.41451
G1 X142.334 Y92.641 E0.00371
G1 X142.421 Y92.424 E0.00673
G1 X142.487 Y92.355 E0.00275
G1 X142.615 Y92.291 E0.00412
G1 X142.743 Y92.249 E0.00390
G1 X143.276 Y92.245 E0.01537
G1 X143.532 Y92.331 E0.00781
G1 X143.662 Y92.482 E0.00573
G1 X143.738 Y92.743 E0.00784
G1 X143.738 Y107.077 E0.41348
G1 X144.115 Y106.760 F10800.000
G1 F1200.000
G1 X145.865 Y106.760 E0.05048
G1 X145.865 Y109.490 E0.07875
G1 X104.185 Y109.490 E1.20230
G1 X104.185 Y106.760 E0.07875
G1 X105.935 Y106.760 E0.05048
G1 X105.935 Y92.719 E0.40502
G1 X105.950 Y92.621 E0.00288
G1 X106.103 Y92.211 E0.01261
G1 X106.276 Y92.036 E0.00710
G1 X106.687 Y91.872 E0.01277
G1 X107.471 Y91.896 E0.02262
G1 X107.726 Y92.006 E0.00799
G1 X107.980 Y92.263 E0.01042
G1 X108.106 Y92.628 E0.01116
G1 X108.115 Y106.760 E0.40765
G1 X141.935 Y106.760 E0.97557
G1 X141.935 Y92.735 E0.40456
G1 X141.969 Y92.537 E0.00580
G1 X142.098 Y92.218 E0.00993
G1 X142.258 Y92.047 E0.00675
G1 X142.471 Y91.942 E0.00685
G1 X142.679 Y91.873 E0.00632
G1 X143.331 Y91.869 E0.01880
G1 X143.717 Y91.997 E0.01172
G1 X143.792 Y92.055 E0.00274
G1 X143.997 Y92.294 E0.00909
G1 X144.104 Y92.623 E0.00997
G1 X144.115 Y92.722 E0.00289
G1 X144.115 Y106.700 E0.40320
G1 X144.115 Y107.160 F10800.000
G1 F8640.000
G1 X145.865 Y106.760 E-0.40432
G1 X145.865 Y108.300 E-0.35568
G1 E-0.04000 F2100.00000
G1 Z0.800 F10800.000
G1 X143.025 Y107.703
G1 Z0.200
G1 E0.80000 F2100.00000
G1 F1200.000
G1 X143.025 Y92.809 E0.33565
G1 F8640.000
G1 X143.025 Y96.101 E-0.76000
G1 E-0.04000 F2100.00000
G1 Z0.800 F10800.000
G1 X144.545 Y108.125
G1 Z0.200
G1 E0.80000 F2100.00000
G1 F1200.000
G1 X105.505 Y108.125 E0.27013
G1 F8640.000
G1 X108.796 Y108.125 E-0.76000
G1 E-0.04000 F2100.00000
G1 Z0.800 F10800.000
G1 X107.025 Y107.703
G1 Z0.200
G1 E0.80000 F2100.00000
G1 F1200.000
G1 X107.021 Y92.825 E0.33600
; stop printing object Calipers.stl id:0 copy 0
;BEFORE_LAYER_CHANGE
G92 E0.0
;0.4


G1 F8640.000
G1 X107.022 Y96.117 E-0.76000
G1 E-0.04000 F2100.00000
G1 Z0.800 F10800.000
;AFTER_LAYER_CHANGE
;0.4
M104 S235 ; set temperature
M140 S80 ; set bed temperature
G1 X103.434 Y90.503
G1 Z0.400
G1 E0.80000 F2100.00000
G1 F2778
G1 X104.068 Y89.758 E0.02822
G1 X104.762 Y89.255 E0.02474
G1 X105.844 Y88.817 E0.03366
G1 X106.826 Y88.702 E0.02853
G1 X142.883 Y88.698 E1.04010
G1 X143.660 Y88.717 E0.02241
G1 X144.261 Y88.842 E0.01773
G1 X145.054 Y89.124 E0.02427
G1 X145.584 Y89.441 E0.01782
G1 X146.096 Y89.878 E0.01943
G1 X146.682 Y90.603 E0.02687
G1 X146.935 Y91.108 E0.01629
G1 X147.206 Y91.986 E0.02652
G1 X149.029 Y106.299 E0.41619
G1 X149.029 Y109.949 E0.10530
G1 X148.953 Y110.542 E0.01723
G1 X148.763 Y111.082 E0.01653
G1 X148.462 Y111.574 E0.01665
G1 X148.065 Y111.993 E0.01665
G1 X147.589 Y112.320 E0.01665
G1 X146.961 Y112.567 E0.01947
G1 X146.296 Y112.654 E0.01935
G1 X103.709 Y112.653 E1.22846
G1 X102.998 Y112.542 E0.02076
G1 X102.341 Y112.251 E0.02076
G1 X101.781 Y111.799 E0.02076
G1 X101.355 Y111.214 E0.02087
G1 X101.128 Y110.661 E0.01723
G1 X101.027 Y110.077 E0.01712
G1 X101.029 Y106.141 E0.11353
G1 X102.805 Y92.226 E0.40466
G1 X103.066 Y91.265 E0.02872
G1 X103.408 Y90.557 E0.02269
G1 X103.745 Y90.718 F10800.000
G1 F2778
G1 X104.330 Y90.029 E0.02608
G1 X104.960 Y89.576 E0.02237
G1 X105.949 Y89.179 E0.03075
G1 X106.837 Y89.079 E0.02577
G1 X142.883 Y89.075 E1.03978
G1 X143.608 Y89.090 E0.02091
G1 X144.145 Y89.201 E0.01583
G1 X144.881 Y89.460 E0.02251
G1 X145.349 Y89.736 E0.01568
G1 X145.821 Y90.136 E0.01783
G1 X146.363 Y90.803 E0.02481
G1 X146.584 Y91.245 E0.01426
G1 X146.837 Y92.067 E0.02479
G1 X148.651 Y106.284 E0.41343
G1 X148.597 Y110.410 E0.11905
G1 X148.433 Y110.897 E0.01480
G1 X148.169 Y111.337 E0.01480
G1 X147.816 Y111.710 E0.01480
G1 X147.392 Y111.998 E0.01480
G1 X146.857 Y112.205 E0.01655
G1 X146.291 Y112.277 E0.01644
G1 X103.725 Y112.277 E1.22785
G1 X103.106 Y112.181 E0.01808
G1 X102.530 Y111.925 E0.01819
G1 X102.042 Y111.527 E0.01819
G1 X101.677 Y111.017 E0.01808
G1 X101.486 Y110.541 E0.01480
G1 X101.402 Y110.034 E0.01480
G1 X101.406 Y106.160 E0.11177
G1 X103.177 Y92.290 E0.40333
G1 X103.417 Y91.404 E0.02648
G1 X103.719 Y90.772 E0.02021
@Object Calipers.stl id:0 copy 0
G1 F8640.000
G1 X104.330 Y90.029 E-0.22215
G1 X104.960 Y89.576 E-0.17907
G1 X105.949 Y89.179 E-0.24614
G1 X106.434 Y89.124 E-0.11265
G1 E-0.04000 F2100.00000
G1 Z1.000 F10800.000
G1 X106.973 Y92.917
G1 Z0.400
G1 E0.80000 F2100.00000
M204 S800
G1 F2778
G1 X107.069 Y92.920 E0.00299
G1 X107.080 Y107.796 E0.46327
G1 X142.971 Y107.796 E1.11769
M73 P1 R50
G1 X142.971 Y92.905 E0.46373
G1 X143.079 Y92.902 E0.00335
G1 X143.079 Y107.796 E0.46382
G1 X144.829 Y107.796 E0.05450
G1 X144.829 Y108.454 E0.02048
G1 X105.221 Y108.454 E1.23341
G1 X105.221 Y107.796 E0.02048
G1 X106.971 Y107.796 E0.05449
G1 X106.973 Y92.977 E0.46148
M204 S1000
G1 F8640.000
G1 X107.069 Y92.920 E-0.02582
G1 X107.071 Y96.099 E-0.73418
G1 E-0.04000 F2100.00000
G1 Z1.000 F10800.000
G1 X143.486 Y107.389
G1 Z0.400
G1 E0.80000 F2100.00000
M204 S800
G1 F2778
G1 X145.236 Y107.389 E0.05450
G1 X145.236 Y108.861 E0.04583
G1 X104.814 Y108.861 E1.25877
G1 X104.814 Y107.389 E0.04583
G1 X106.564 Y107.389 E0.05449
G1 X106.566 Y92.770 E0.45527
G1 X106.640 Y92.570 E0.00661
G1 X106.806 Y92.505 E0.00557
G1 X107.324 Y92.519 E0.01612
G1 X107.440 Y92.611 E0.00462
G1 X107.476 Y92.724 E0.00369
G1 X107.487 Y107.389 E0.45668
G1 X142.564 Y107.389 E1.09235
G1 X142.564 Y92.784 E0.45483
G1 X142.634 Y92.570 E0.00700
G1 X142.778 Y92.503 E0.00494
G1 X143.235 Y92.494 E0.01424
G1 X143.375 Y92.544 E0.00463
G1 X143.447 Y92.638 E0.00370
G1 X143.486 Y92.759 E0.00395
G1 X143.486 Y107.329 E0.45373
M204 S1000
G1 X143.893 Y106.982 F10800.000
M204 S800
G1 F2778
G1 X145.643 Y106.982 E0.05450
G1 X145.643 Y109.268 E0.07118
G1 X104.407 Y109.268 E1.28412
G1 X104.407 Y106.982 E0.07118
G1 X106.157 Y106.982 E0.05449
G1 X106.159 Y92.709 E0.44446
G1 X106.291 Y92.339 E0.01225
G1 X106.384 Y92.233 E0.00439
G1 X106.735 Y92.096 E0.01173
G1 X107.412 Y92.115 E0.02109
G1 X107.598 Y92.194 E0.00630
G1 X107.798 Y92.393 E0.00880
G1 X107.883 Y92.661 E0.00875
G1 X107.893 Y106.982 E0.44596
G1 X142.157 Y106.982 E1.06700
G1 X142.157 Y92.751 E0.44317
G1 X142.180 Y92.612 E0.00440
G1 X142.284 Y92.351 E0.00874
G1 X142.389 Y92.235 E0.00487
G1 X142.565 Y92.144 E0.00617
G1 X142.707 Y92.097 E0.00467
G1 X143.291 Y92.088 E0.01818
G1 X143.610 Y92.195 E0.01049
G1 X143.805 Y92.422 E0.00932
G1 X143.893 Y92.736 E0.01015
G1 X143.893 Y106.922 E0.44177
M204 S1000
G1 X144.300 Y106.575 F10800.000
M204 S800
G1 F2778
G1 X146.050 Y106.575 E0.05450
G1 X146.050 Y109.675 E0.09654
G1 X104.000 Y109.675 E1.30948
G1 X104.000 Y106.575 E0.09654
G1 X105.750 Y106.575 E0.05450
G1 X105.752 Y92.670 E0.43301
G1 X105.771 Y92.572 E0.00311
G1 X105.936 Y92.127 E0.01478
G1 X106.109 Y91.930 E0.00817
G1 X106.187 Y91.873 E0.00300
G1 X106.664 Y91.687 E0.01595
G1 X107.500 Y91.710 E0.02606
G1 X107.830 Y91.850 E0.01115
G1 X108.164 Y92.200 E0.01508
G1 X108.290 Y92.599 E0.01301
G1 X108.300 Y106.575 E0.43524
G1 X141.750 Y106.575 E1.04166
G1 X141.750 Y92.718 E0.43152
G1 X141.785 Y92.502 E0.00681
G1 X141.933 Y92.131 E0.01244
G1 X142.137 Y91.907 E0.00945
G1 X142.407 Y91.768 E0.00944
G1 X142.636 Y91.692 E0.00754
G1 X143.347 Y91.681 E0.02213
G1 X143.807 Y91.833 E0.01509
G1 X143.927 Y91.925 E0.00473
G1 X144.162 Y92.203 E0.01132
G1 X144.285 Y92.579 E0.01233
G1 X144.300 Y92.713 E0.00418
G1 X144.300 Y106.515 E0.42981
M204 S1000
G1 X144.300 Y106.975 F10800.000
G1 F8640.000
G1 X146.050 Y106.575 E-0.40432
G1 X146.050 Y108.115 E-0.35568
G1 E-0.04000 F2100.00000
G1 Z1.000 F10800.000
G1 X105.425 Y108.125
G1 Z0.400
G1 E0.80000 F2100.00000
G1 F2400.000
G1 X144.625 Y108.125 E0.75104
; stop printing object Calipers.stl id:0 copy 0
;BEFORE_LAYER_CHANGE
G92 E0.0
;0.6


G1 F8640.000
G1 X141.334 Y108.125 E-0.76000
G1 E-0.04000 F2100.00000
G1 Z1.000 F10800.000
;AFTER_LAYER_CHANGE
;0.6
G1 X146.961 Y112.567
G1 Z0.600
G1 E0.80000 F2100.00000
G1 F2763
G1 X146.296 Y112.654 E0.01935
G1 X103.709 Y112.653 E1.22846
G1 X102.998 Y112.542 E0.02076
G1 X102.341 Y112.251 E0.02076
G1 X101.781 Y111.799 E0.02076
G1 X101.355 Y111.214 E0.02087
G1 X101.128 Y110.661 E0.01723
G1 X101.027 Y110.077 E0.01712
G1 X101.029 Y106.141 E0.11353
G1 X102.805 Y92.226 E0.40466
G1 X103.066 Y91.265 E0.02872
G1 X103.434 Y90.503 E0.02442
G1 X104.068 Y89.758 E0.02822
G1 X104.762 Y89.255 E0.02474
G1 X105.844 Y88.817 E0.03366
G1 X106.826 Y88.702 E0.02853
G1 X142.883 Y88.698 E1.04010
G1 X143.660 Y88.717 E0.02241
G1 X144.261 Y88.842 E0.01773
G1 X145.054 Y89.124 E0.02427
G1 X145.584 Y89.441 E0.01782
G1 X146.096 Y89.878 E0.01943
G1 X146.682 Y90.603 E0.02687
G1 X146.935 Y91.108 E0.01629
G1 X147.206 Y91.986 E0.02652
G1 X149.029 Y106.299 E0.41619
G1 X149.029 Y109.949 E0.10530
G1 X148.953 Y110.542 E0.01723
G1 X148.763 Y111.082 E0.01653
G1 X148.462 Y111.574 E0.01665
G1 X148.065 Y111.993 E0.01665
G1 X147.589 Y112.320 E0.01665
G1 X147.017 Y112.545 E0.01773
G1 F8640.000
G1 X146.296 Y112.654 E-0.16835
G1 X143.734 Y112.654 E-0.59165
G1 E-0.04000 F2100.00000
G1 Z1.200 F10800.000
G1 X148.597 Y110.410
G1 Z0.600
G1 E0.80000 F2100.00000
G1 F2763
G1 X148.433 Y110.897 E0.01480
G1 X148.169 Y111.337 E0.01480
G1 X147.816 Y111.710 E0.01480
G1 X147.392 Y111.998 E0.01480
G1 X146.857 Y112.205 E0.01655
G1 X146.291 Y112.277 E0.01644
G1 X103.725 Y112.277 E1.22785
G1 X103.106 Y112.181 E0.01808
G1 X102.530 Y111.925 E0.01819
G1 X102.042 Y111.527 E0.01819
G1 X101.677 Y111.017 E0.01808
G1 X101.486 Y110.541 E0.01480
G1 X101.402 Y110.034 E0.01480
G1 X101.406 Y106.160 E0.11177
G1 X103.177 Y92.290 E0.40333
G1 X103.417 Y91.404 E0.02648
G1 X103.746 Y90.714 E0.02206
G1 X104.330 Y90.029 E0.02596
G1 X104.960 Y89.576 E0.02237
G1 X105.949 Y89.179 E0.03075
G1 X106.837 Y89.079 E0.02577
G1 X142.883 Y89.075 E1.03978
G1 X143.608 Y89.090 E0.02091
G1 X144.145 Y89.201 E0.01583
G1 X144.881 Y89.460 E0.02251
G1 X145.349 Y89.736 E0.01568
G1 X145.821 Y90.136 E0.01783
G1 X146.363 Y90.803 E0.02481
G1 X146.584 Y91.245 E0.01426
G1 X146.837 Y92.067 E0.02479
G1 X148.651 Y106.284 E0.41343
G1 X148.597 Y110.350 E0.11732
@Object Calipers.stl id:0 copy 0
G1 F8640.000
G1 X148.433 Y110.897 E-0.13176
G1 X148.169 Y111.337 E-0.11850
G1 X147.816 Y111.710 E-0.11850
G1 X147.392 Y111.998 E-0.11850
G1 X146.857 Y112.205 E-0.13248
G1 X146.291 Y112.277 E-0.13161
G1 X146.254 Y112.277 E-0.00864
G1 E-0.04000 F2100.00000
G1 Z1.200 F10800.000
G1 X144.829 Y108.454
G1 Z0.600
G1 E0.80000 F2100.00000
M204 S800
G1 F2763
G1 X105.221 Y108.454 E1.23341
G1 X105.221 Y107.796 E0.02048
G1 X106.971 Y107.796 E0.05449
G1 X106.973 Y92.917 E0.46335
G1 X107.069 Y92.919 E0.00299
G1 X107.080 Y107.796 E0.46328
G1 X142.971 Y107.796 E1.11769
G1 X142.971 Y92.904 E0.46375
G1 X143.079 Y92.901 E0.00335
G1 X143.079 Y107.796 E0.46384
G1 X144.829 Y107.796 E0.05450
G1 X144.829 Y108.394 E0.01861
M204 S1000
G1 F8640.000
G1 X141.537 Y108.399 E-0.76000
G1 E-0.04000 F2100.00000
G1 Z1.200 F10800.000
G1 X143.486 Y107.389
G1 Z0.600
G1 E0.80000 F2100.00000
M204 S800
G1 F2763
G1 X145.236 Y107.389 E0.05450
G1 X145.236 Y108.861 E0.04583
G1 X104.814 Y108.861 E1.25877
G1 X104.814 Y107.389 E0.04583
G1 X106.564 Y107.389 E0.05449
