; generated by PrusaSlicer 2.2.0+ on 2020-04-23 at 00:14:18 UTC


;
;

;
;
; 

; external perimeters extrusion width = 0.45mm
; perimeters extrusion width = 0.45mm
; infill extrusion width = 0.45mm
; solid infill extrusion width = 0.45mm
; top infill extrusion width = 0.40mm
; first layer extrusion width = 0.42mm

M73 P0 R81
M201 X9000 Y9000 Z500 E10000 ; sets maximum accelerations, mm/sec^2
M203 X500 Y500 Z12 E120 ; sets maximum feedrates, mm/sec
M204 P2000 R1500 T2000 ; sets acceleration (P, T) and retract acceleration (R), mm/sec^2
M205 X10.00 Y10.00 Z0.20 E2.50 ; sets the jerk limits, mm/sec
M205 S0 T0 ; sets the minimum extruding and travel feed rate, mm/sec
M107
M83  ; extruder relative mode
M140 S75 ; set bed temp
M109 S160 ; Set extruder temp before bed level
M190 S75 ; wait for bed temp

G28 W ; home all without mesh bed level
G80 N7 ; mesh bed leveling

M109 S240 ; wait for extruder temp

M221 S100 ; Set flow to 100

G1 Y-3.0 F1000.0 ; go outside print area
G92 E0.0
G1 E8 ; Purge Bubble
M73 P0 R81
G1 X60.0 E9.0 F1000.0 ; intro line
G1 X100.0 E12.5 F1000.0 ; intro line
G92 E0.0
G21 ; set units to millimeters
G90 ; use absolute coordinates
M83 ; use relative distances for extrusion
M900 K45; Filament gcode
;BEFORE_LAYER_CHANGE
G92 E0.0
;0.2


G1 E-0.80000 F2100.00000
G1 Z0.600 F10800.000
;AFTER_LAYER_CHANGE
;0.2
G1 X85.966 Y67.090
G1 Z0.200
G1 E0.80000 F2100.00000
M204 S1000
G1 F1200.000
G1 X86.522 Y66.460 E0.02423
G1 X87.249 Y65.843 E0.02751
G1 X88.077 Y65.333 E0.02805
G1 X88.808 Y65.017 E0.02297
G1 X90.145 Y64.683 E0.03977
G1 X90.994 Y64.623 E0.02454
G1 X123.004 Y64.623 E0.92335
G1 X124.069 Y64.713 E0.03086
G1 X124.980 Y64.942 E0.02707
G1 X162.260 Y75.807 E1.12013
G1 X162.969 Y76.089 E0.02201
G1 X163.646 Y76.512 E0.02303
G1 X164.231 Y77.046 E0.02286
G1 X164.726 Y77.702 E0.02368
G1 X165.208 Y78.794 E0.03445
G1 X165.377 Y79.962 E0.03404
G1 X165.377 Y123.037 E1.24253
G1 X165.282 Y125.064 E0.05854
G1 X164.995 Y127.118 E0.05984
G1 X164.522 Y129.127 E0.05951
G1 X163.836 Y131.157 E0.06182
G1 X162.743 Y133.526 E0.07525
G1 X162.009 Y134.804 E0.04252
G1 X160.857 Y136.484 E0.05877
G1 X159.463 Y138.152 E0.06269
G1 X158.075 Y139.536 E0.05655
G1 X156.568 Y140.790 E0.05655
G1 X154.780 Y142.024 E0.06269
G1 X152.881 Y143.074 E0.06258
G1 X151.083 Y143.865 E0.05666
G1 X149.225 Y144.490 E0.05655
G1 X147.104 Y144.996 E0.06291
G1 X145.064 Y145.280 E0.05940
G1 X143.015 Y145.376 E0.05918
G1 X91.030 Y145.377 E1.49954
G1 X89.902 Y145.276 E0.03267
G1 X88.745 Y144.949 E0.03468
G1 X87.834 Y144.516 E0.02911
G1 X86.948 Y143.896 E0.03119
G1 X86.172 Y143.127 E0.03152
G1 X85.629 Y142.373 E0.02679
G1 X84.997 Y141.046 E0.04242
G1 X84.753 Y140.102 E0.02812
G1 X84.659 Y139.109 E0.02878
G1 X84.623 Y70.981 E1.96521
G1 X84.750 Y69.765 E0.03526
G1 X84.935 Y69.029 E0.02189
G1 X85.236 Y68.279 E0.02332
G1 X85.935 Y67.141 E0.03851
@Object Board_Corner_Mounts.stl id:0 copy 0
G1 F8640.000
G1 X86.522 Y66.460 E-0.20761
G1 X87.249 Y65.843 E-0.22017
G1 X88.077 Y65.333 E-0.22454
G1 X88.505 Y65.148 E-0.10768
G1 E-0.04000 F2100.00000
G1 Z0.800 F10800.000
G1 X150.099 Y118.314
G1 Z0.200
G1 E0.80000 F2100.00000
G1 F1200.000
G1 X150.458 Y117.980 E0.01414
G1 X150.874 Y117.722 E0.01414
G1 X151.334 Y117.547 E0.01419
G1 X151.833 Y117.465 E0.01457
G1 X152.293 Y117.477 E0.01328
G1 X152.562 Y117.523 E0.00788
G1 X153.014 Y117.670 E0.01373
G1 X153.443 Y117.908 E0.01414
G1 X153.818 Y118.224 E0.01414
G1 X154.125 Y118.607 E0.01414
G1 X154.353 Y119.041 E0.01414
G1 X154.493 Y119.511 E0.01414
G1 X154.540 Y119.999 E0.01414
G1 X154.493 Y120.487 E0.01414
G1 X154.353 Y120.956 E0.01414
G1 X154.125 Y121.391 E0.01414
G1 X153.818 Y121.773 E0.01414
G1 X153.443 Y122.089 E0.01414
G1 X153.014 Y122.327 E0.01414
G1 X152.548 Y122.479 E0.01414
G1 X152.065 Y122.538 E0.01403
G1 X151.573 Y122.502 E0.01425
G1 X151.099 Y122.374 E0.01415
G1 X150.660 Y122.156 E0.01414
G1 X150.270 Y121.859 E0.01414
G1 X149.945 Y121.492 E0.01414
G1 X149.697 Y121.069 E0.01414
G1 X149.534 Y120.606 E0.01414
G1 X149.463 Y120.121 E0.01414
G1 X149.487 Y119.632 E0.01414
G1 X149.604 Y119.155 E0.01414
G1 X149.811 Y118.711 E0.01414
G1 X150.063 Y118.363 E0.01241
G1 X150.369 Y118.584 F10800.000
G1 F1200.000
G1 X150.688 Y118.281 E0.01270
G1 X151.042 Y118.061 E0.01203
G1 X151.433 Y117.913 E0.01205
G1 X151.859 Y117.843 E0.01245
G1 X152.256 Y117.853 E0.01146
G1 X152.471 Y117.890 E0.00631
G1 X152.863 Y118.017 E0.01189
G1 X153.228 Y118.220 E0.01203
G1 X153.547 Y118.489 E0.01203
G1 X153.808 Y118.814 E0.01203
G1 X154.002 Y119.184 E0.01203
G1 X154.121 Y119.583 E0.01203
G1 X154.161 Y119.999 E0.01203
G1 X154.121 Y120.414 E0.01203
G1 X154.002 Y120.814 E0.01203
G1 X153.808 Y121.183 E0.01203
G1 X153.547 Y121.508 E0.01203
G1 X153.228 Y121.777 E0.01203
G1 X152.863 Y121.980 E0.01203
G1 X152.466 Y122.109 E0.01203
G1 X152.056 Y122.159 E0.01193
G1 X151.636 Y122.129 E0.01214
G1 X151.234 Y122.019 E0.01204
G1 X150.860 Y121.834 E0.01203
G1 X150.528 Y121.581 E0.01203
G1 X150.252 Y121.269 E0.01203
G1 X150.040 Y120.909 E0.01203
G1 X149.902 Y120.516 E0.01203
G1 X149.841 Y120.103 E0.01203
G1 X149.861 Y119.686 E0.01203
G1 X149.961 Y119.281 E0.01203
G1 X150.137 Y118.903 E0.01203
G1 X150.333 Y118.633 E0.00963
G1 X150.239 Y118.206 F10800.000
G1 F8640.000
G1 X150.688 Y118.281 E-0.11529
G1 X151.042 Y118.061 E-0.09633
G1 X151.433 Y117.913 E-0.09645
G1 X151.859 Y117.843 E-0.09967
G1 X152.256 Y117.853 E-0.09171
G1 X152.471 Y117.890 E-0.05050
G1 X152.863 Y118.017 E-0.09515
G1 X153.228 Y118.220 E-0.09633
G1 X153.289 Y118.272 E-0.01857
G1 E-0.04000 F2100.00000
G1 Z0.800 F10800.000
G1 X141.684 Y130.097
G1 Z0.200
G1 E0.80000 F2100.00000
G1 F1200.000
G1 X142.018 Y130.456 E0.01414
G1 X142.277 Y130.873 E0.01414
G1 X142.446 Y131.318 E0.01373
G1 X142.504 Y131.581 E0.00779
G1 X142.540 Y131.999 E0.01208
G1 X142.482 Y132.543 E0.01578
G1 X142.329 Y133.013 E0.01426
G1 X142.090 Y133.441 E0.01414
G1 X141.774 Y133.816 E0.01414
G1 X141.392 Y134.123 E0.01414
G1 X140.958 Y134.351 E0.01414
G1 X140.488 Y134.491 E0.01414
G1 X140.000 Y134.539 E0.01414
G1 X139.512 Y134.491 E0.01414
G1 X139.042 Y134.351 E0.01414
G1 X138.608 Y134.123 E0.01414
G1 X138.226 Y133.816 E0.01414
G1 X137.910 Y133.441 E0.01414
G1 X137.671 Y133.013 E0.01414
G1 X137.520 Y132.547 E0.01414
G1 X137.461 Y132.064 E0.01403
G1 X137.496 Y131.571 E0.01425
G1 X137.625 Y131.098 E0.01415
G1 X137.842 Y130.658 E0.01414
G1 X138.140 Y130.269 E0.01414
G1 X138.507 Y129.944 E0.01414
G1 X138.930 Y129.695 E0.01414
G1 X139.393 Y129.532 E0.01418
G1 X139.892 Y129.461 E0.01453
G1 X140.368 Y129.485 E0.01373
G1 X140.843 Y129.602 E0.01413
G1 X141.288 Y129.809 E0.01414
G1 X141.636 Y130.062 E0.01241
G1 X141.414 Y130.367 F10800.000
G1 F1200.000
G1 X141.717 Y130.686 E0.01270
G1 X141.937 Y131.041 E0.01203
G1 X142.084 Y131.426 E0.01189
G1 X142.130 Y131.638 E0.00628
G1 X142.161 Y131.995 E0.01032
G1 X142.111 Y132.463 E0.01360
G1 X141.981 Y132.862 E0.01208
G1 X141.779 Y133.226 E0.01203
G1 X141.510 Y133.545 E0.01203
G1 X141.184 Y133.806 E0.01203
G1 X140.815 Y134.000 E0.01203
G1 X140.415 Y134.120 E0.01203
G1 X140.000 Y134.160 E0.01203
G1 X139.585 Y134.120 E0.01203
G1 X139.185 Y134.000 E0.01203
G1 X138.816 Y133.806 E0.01203
G1 X138.490 Y133.545 E0.01203
G1 X138.221 Y133.226 E0.01203
G1 X138.019 Y132.862 E0.01203
G1 X137.890 Y132.465 E0.01203
G1 X137.840 Y132.054 E0.01193
G1 X137.870 Y131.635 E0.01213
G1 X137.979 Y131.232 E0.01204
G1 X138.164 Y130.858 E0.01203
G1 X138.417 Y130.527 E0.01203
G1 X138.730 Y130.250 E0.01203
G1 X139.089 Y130.039 E0.01203
G1 X139.483 Y129.900 E0.01205
G1 X139.909 Y129.840 E0.01241
G1 X140.313 Y129.860 E0.01165
G1 X140.717 Y129.960 E0.01203
G1 X141.096 Y130.136 E0.01203
G1 X141.366 Y130.332 E0.00963
G1 X141.793 Y130.237 F10800.000
G1 F8640.000
G1 X141.717 Y130.686 E-0.11529
G1 X141.937 Y131.041 E-0.09633
G1 X142.084 Y131.426 E-0.09515
G1 X142.130 Y131.638 E-0.05024
G1 X142.161 Y131.995 E-0.08259
G1 X142.111 Y132.463 E-0.10884
G1 X141.981 Y132.862 E-0.09667
G1 X141.779 Y133.226 E-0.09633
G1 X141.727 Y133.288 E-0.01857
G1 E-0.04000 F2100.00000
G1 Z0.800 F10800.000
G1 X134.183 Y141.894
G1 Z0.200
G1 E0.80000 F2100.00000
G1 F1200.000
G1 X133.971 Y141.636 E0.00965
G1 X133.872 Y141.436 E0.00644
G1 X133.810 Y141.221 E0.00644
G1 X133.787 Y140.967 E0.00736
G1 X133.787 Y123.017 E0.51779
G1 X133.827 Y122.149 E0.02507
G1 X133.945 Y121.306 E0.02454
G1 X134.140 Y120.478 E0.02454
G1 X134.410 Y119.671 E0.02455
G1 X134.754 Y118.892 E0.02454
G1 X135.168 Y118.149 E0.02454
G1 X135.649 Y117.447 E0.02454
G1 X136.192 Y116.792 E0.02454
G1 X136.794 Y116.191 E0.02454
G1 X137.449 Y115.647 E0.02454
G1 X138.150 Y115.166 E0.02454
G1 X138.894 Y114.752 E0.02454
G1 X139.672 Y114.409 E0.02454
G1 X140.479 Y114.138 E0.02455
G1 X141.307 Y113.943 E0.02454
G1 X142.150 Y113.826 E0.02454
G1 X143.018 Y113.786 E0.02507
G1 X160.973 Y113.786 E0.51792
G1 X161.222 Y113.809 E0.00723
G1 X161.437 Y113.870 E0.00644
G1 X161.637 Y113.970 E0.00644
G1 X161.815 Y114.104 E0.00644
G1 X161.966 Y114.269 E0.00644
G1 X162.083 Y114.459 E0.00644
G1 X162.164 Y114.667 E0.00644
G1 X162.205 Y114.887 E0.00645
G1 X162.213 Y122.981 E0.23346
G1 X162.130 Y124.771 E0.05171
G1 X161.885 Y126.529 E0.05119
G1 X161.479 Y128.256 E0.05119
G1 X160.915 Y129.939 E0.05119
G1 X160.197 Y131.565 E0.05127
G1 X159.336 Y133.111 E0.05106
G1 X158.332 Y134.576 E0.05124
G1 X157.198 Y135.942 E0.05119
G1 X155.943 Y137.196 E0.05119
G1 X154.578 Y138.330 E0.05119
G1 X153.114 Y139.333 E0.05119
G1 X151.564 Y140.196 E0.05119
G1 X149.940 Y140.913 E0.05119
G1 X148.258 Y141.477 E0.05119
G1 X146.530 Y141.884 E0.05119
G1 X144.773 Y142.129 E0.05119
G1 X142.982 Y142.211 E0.05171
G1 X134.889 Y142.204 E0.23346
G1 X134.669 Y142.163 E0.00645
G1 X134.461 Y142.082 E0.00644
G1 X134.230 Y141.933 E0.00793
G1 X133.929 Y142.173 F10800.000
G1 F1200.000
G1 X133.829 Y142.073 E0.00409
G1 X133.649 Y141.835 E0.00860
G1 X133.518 Y141.573 E0.00846
G1 X133.438 Y141.291 E0.00846
G1 X133.410 Y140.984 E0.00887
G1 X133.410 Y123.008 E0.51854
G1 X133.451 Y122.114 E0.02582
G1 X133.574 Y121.236 E0.02555
G1 X133.777 Y120.374 E0.02555
G1 X134.058 Y119.534 E0.02555
G1 X134.416 Y118.724 E0.02555
G1 X134.847 Y117.950 E0.02555
G1 X135.347 Y117.220 E0.02555
G1 X135.913 Y116.538 E0.02555
G1 X136.540 Y115.912 E0.02555
G1 X137.221 Y115.346 E0.02555
G1 X137.952 Y114.845 E0.02555
G1 X138.726 Y114.414 E0.02555
G1 X139.536 Y114.057 E0.02555
G1 X140.376 Y113.775 E0.02555
G1 X141.238 Y113.572 E0.02555
G1 X142.115 Y113.450 E0.02555
G1 X143.009 Y113.409 E0.02582
G1 X160.990 Y113.409 E0.51867
G1 X161.292 Y113.437 E0.00874
G1 X161.574 Y113.517 E0.00846
G1 X161.836 Y113.648 E0.00846
G1 X162.070 Y113.824 E0.00846
G1 X162.268 Y114.041 E0.00846
G1 X162.422 Y114.290 E0.00846
G1 X162.528 Y114.564 E0.00846
G1 X162.582 Y114.852 E0.00846
G1 X162.590 Y122.989 E0.23472
G1 X162.506 Y124.806 E0.05247
G1 X162.256 Y126.598 E0.05219
G1 X161.842 Y128.360 E0.05219
G1 X161.267 Y130.075 E0.05220
G1 X160.535 Y131.733 E0.05227
G1 X159.656 Y133.310 E0.05206
G1 X158.633 Y134.804 E0.05225
G1 X157.477 Y136.196 E0.05219
G1 X156.197 Y137.475 E0.05219
G1 X154.805 Y138.631 E0.05219
G1 X153.313 Y139.654 E0.05219
G1 X151.732 Y140.534 E0.05219
G1 X150.077 Y141.265 E0.05219
G1 X148.361 Y141.840 E0.05220
G1 X146.600 Y142.255 E0.05219
G1 X144.808 Y142.505 E0.05219
G1 X142.991 Y142.589 E0.05247
G1 X134.854 Y142.581 E0.23472
G1 X134.565 Y142.527 E0.00846
G1 X134.292 Y142.421 E0.00846
G1 X133.975 Y142.212 E0.01094
G1 X133.953 Y142.033 F10800.000
G1 F8640.000
G1 X133.829 Y142.073 E-0.04659
G1 X133.649 Y141.835 E-0.06883
G1 X133.518 Y141.573 E-0.06770
G1 X133.438 Y141.291 E-0.06769
G1 X133.410 Y140.984 E-0.07102
G1 X133.410 Y139.087 E-0.43817
G1 E-0.04000 F2100.00000
G1 Z0.800 F10800.000
G1 X135.318 Y142.091
G1 Z0.200
G1 E0.80000 F2100.00000
G1 F1200.000
G1 X134.070 Y140.843 E0.05112
G1 X134.070 Y140.308 E0.01551
G1 X135.684 Y141.922 E0.06612
G1 X136.220 Y141.922 E0.01552
G1 X134.070 Y139.772 E0.08807
G1 X134.070 Y139.237 E0.01551
G1 X136.756 Y141.923 E0.11003
G1 X137.292 Y141.923 E0.01552
G1 X134.070 Y138.701 E0.13198
G1 X134.070 Y138.166 E0.01551
G1 X137.828 Y141.924 E0.15394
G1 X138.364 Y141.924 E0.01552
G1 X134.070 Y137.630 E0.17590
G1 X134.070 Y137.095 E0.01551
G1 X138.900 Y141.925 E0.19785
G1 X139.436 Y141.925 E0.01552
G1 X134.070 Y136.559 E0.21981
G1 X134.070 Y136.024 E0.01551
G1 X139.972 Y141.926 E0.24176
G1 X140.508 Y141.926 E0.01552
G1 X134.070 Y135.488 E0.26372
G1 X134.070 Y134.953 E0.01551
G1 X141.044 Y141.927 E0.28567
G1 X141.580 Y141.927 E0.01552
G1 X134.070 Y134.417 E0.30763
G1 X134.070 Y133.882 E0.01551
G1 X142.116 Y141.928 E0.32959
G1 X142.652 Y141.928 E0.01552
G1 X134.070 Y133.346 E0.35154
G1 X134.070 Y132.811 E0.01551
G1 X143.178 Y141.919 E0.37310
G1 X143.690 Y141.896 E0.01484
G1 X134.070 Y132.275 E0.39407
G1 X134.070 Y131.740 E0.01551
G1 X144.202 Y141.872 E0.41503
G1 X144.714 Y141.848 E0.01484
G1 X134.070 Y131.204 E0.43600
G1 X134.070 Y130.669 E0.01551
G1 X145.186 Y141.785 E0.45536
G1 X145.656 Y141.720 E0.01374
G1 X134.070 Y130.134 E0.47461
G1 X134.070 Y129.598 E0.01551
G1 X137.321 Y132.849 E0.13316
G1 X137.242 Y132.608 E0.00733
G1 X137.191 Y132.183 E0.01239
G1 X134.070 Y129.063 E0.12784
G1 X134.070 Y128.527 E0.01551
G1 X137.206 Y131.663 E0.12847
G1 X137.216 Y131.524 E0.00406
G1 X137.299 Y131.220 E0.00910
G1 X134.070 Y127.992 E0.13226
G1 X134.070 Y127.456 E0.01551
G1 X137.443 Y130.829 E0.13815
G1 X137.625 Y130.476 E0.01150
G1 X134.070 Y126.921 E0.14565
G1 X134.070 Y126.385 E0.01551
G1 X137.857 Y130.173 E0.15515
G1 X137.932 Y130.075 E0.00356
G1 X138.125 Y129.905 E0.00746
G1 X134.070 Y125.850 E0.16609
G1 X134.070 Y125.314 E0.01551
G1 X138.421 Y129.666 E0.17825
G1 X138.759 Y129.468 E0.01133
G1 X134.070 Y124.779 E0.19206
G1 X134.070 Y124.243 E0.01551
G1 X139.146 Y129.319 E0.20792
G1 X139.326 Y129.256 E0.00553
G1 X139.582 Y129.220 E0.00748
G1 X134.070 Y123.708 E0.22578
G1 X134.070 Y123.172 E0.01551
G1 X140.085 Y129.188 E0.24641
G1 X140.409 Y129.204 E0.00939
G1 X140.712 Y129.279 E0.00903
G1 X134.087 Y122.654 E0.27137
G1 X134.113 Y122.145 E0.01477
G1 X151.742 Y139.773 E0.72212
G1 X152.086 Y139.582 E0.01140
G1 X134.179 Y121.675 E0.73352
G1 X134.256 Y121.217 E0.01346
G1 X152.430 Y139.390 E0.74444
G1 X152.774 Y139.199 E0.01140
G1 X134.358 Y120.783 E0.75435
G1 X134.476 Y120.365 E0.01258
G1 X153.106 Y138.996 E0.76315
G1 X153.424 Y138.778 E0.01116
G1 X134.610 Y119.964 E0.77066
G1 X134.760 Y119.579 E0.01198
M73 P1 R80
G1 X153.742 Y138.560 E0.77754
G1 X154.059 Y138.343 E0.01116
G1 X134.924 Y119.207 E0.78384
G1 X135.101 Y118.849 E0.01157
G1 X154.377 Y138.125 E0.78958
G1 X154.672 Y137.884 E0.01102
G1 X135.293 Y118.505 E0.79382
G1 X135.495 Y118.172 E0.01129
G1 X154.965 Y137.641 E0.79753
G1 X155.257 Y137.399 E0.01101
G1 X135.713 Y117.854 E0.80060
G1 X135.937 Y117.543 E0.01111
G1 X155.550 Y137.156 E0.80340
G1 X155.835 Y136.905 E0.01099
G1 X136.180 Y117.250 E0.80512
G1 X136.401 Y116.983 E0.01005
G1 X136.425 Y116.960 E0.00096
G1 X156.102 Y136.637 E0.80605
G1 X156.370 Y136.370 E0.01097
G1 X136.693 Y116.692 E0.80605
G1 X136.960 Y116.424 E0.01097
G1 X156.638 Y136.102 E0.80605
G1 X156.906 Y135.834 E0.01097
G1 X137.251 Y116.179 E0.80512
G1 X137.543 Y115.936 E0.01101
G1 X157.156 Y135.549 E0.80341
G1 X157.399 Y135.257 E0.01101
G1 X137.854 Y115.712 E0.80061
G1 X138.172 Y115.494 E0.01116
G1 X157.642 Y134.964 E0.79754
G1 X157.885 Y134.672 E0.01101
G1 X138.506 Y115.292 E0.79383
G1 X138.849 Y115.101 E0.01140
G1 X158.126 Y134.377 E0.78960
G1 X158.343 Y134.059 E0.01116
G1 X139.207 Y114.923 E0.78386
G1 X139.579 Y114.759 E0.01176
G1 X158.561 Y133.741 E0.77756
G1 X158.779 Y133.423 E0.01116
G1 X139.964 Y114.609 E0.77069
G1 X140.365 Y114.475 E0.01225
G1 X158.996 Y133.106 E0.76318
G1 X159.200 Y132.774 E0.01128
G1 X140.783 Y114.357 E0.75439
G1 X141.217 Y114.255 E0.01290
G1 X159.391 Y132.430 E0.74448
G1 X159.583 Y132.086 E0.01140
G1 X141.675 Y114.178 E0.73357
G1 X142.145 Y114.112 E0.01374
G1 X159.774 Y131.742 E0.72216
G1 X159.963 Y131.395 E0.01144
G1 X151.285 Y122.717 E0.35545
G1 X151.525 Y122.783 E0.00720
G1 X151.914 Y122.810 E0.01129
G1 X160.127 Y131.023 E0.33643
G1 X160.291 Y130.652 E0.01176
G1 X152.418 Y122.779 E0.32247
