; generated by PrusaSlicer 2.2.0+ on 2020-04-23 at 00:25:50 UTC


;
;

;
;
; 

; external perimeters extrusion width = 0.45mm
; perimeters extrusion width = 0.45mm
; infill extrusion width = 0.45mm
; solid infill extrusion width = 0.45mm
; top infill extrusion width = 0.40mm
; first layer extrusion width = 0.42mm

M73 P0 R9
M201 X9000 Y9000 Z500 E10000 ; sets maximum accelerations, mm/sec^2
M203 X500 Y500 Z12 E120 ; sets maximum feedrates, mm/sec
M204 P2000 R1500 T2000 ; sets acceleration (P, T) and retract acceleration (R), mm/sec^2
M205 X10.00 Y10.00 Z0.20 E2.50 ; sets the jerk limits, mm/sec
M205 S0 T0 ; sets the minimum extruding and travel feed rate, mm/sec
M107
M83  ; extruder relative mode
M140 S75 ; set bed temp
M109 S160 ; Set extruder temp before bed level
M190 S75 ; wait for bed temp

G28 W ; home all without mesh bed level
G80 N7 ; mesh bed leveling

M109 S240 ; wait for extruder temp

M221 S100 ; Set flow to 100

G1 Y-3.0 F1000.0 ; go outside print area
G92 E0.0
G1 E8 ; Purge Bubble
M73 P0 R9
G1 X60.0 E9.0 F1000.0 ; intro line
G1 X100.0 E12.5 F1000.0 ; intro line
G92 E0.0
G21 ; set units to millimeters
G90 ; use absolute coordinates
M83 ; use relative distances for extrusion
M900 K45; Filament gcode
;BEFORE_LAYER_CHANGE
G92 E0.0
;0.2


G1 E-0.80000 F2100.00000
G1 Z0.600 F10800.000
;AFTER_LAYER_CHANGE
;0.2
G1 X109.923 Y90.529
G1 Z0.200
G1 E0.80000 F2100.00000
M204 S1000
G1 F1200.000
G1 X110.390 Y89.730 E0.02672
G1 X110.805 Y89.329 E0.01665
G1 X111.291 Y89.025 E0.01653
G1 X111.834 Y88.828 E0.01665
G1 X112.401 Y88.748 E0.01653
G1 X137.504 Y88.746 E0.72413
G1 X138.513 Y88.939 E0.02963
G1 X139.384 Y89.491 E0.02975
G1 X139.989 Y90.321 E0.02963
G1 X140.248 Y91.315 E0.02963
G1 X140.253 Y118.561 E0.78595
G1 X140.077 Y119.471 E0.02672
G1 X139.610 Y120.270 E0.02672
G1 X139.185 Y120.679 E0.01700
G1 X138.679 Y120.989 E0.01712
G1 X138.119 Y121.184 E0.01712
G1 X137.534 Y121.254 E0.01700
G1 X112.434 Y121.253 E0.72401
G1 X111.525 Y121.076 E0.02672
G1 X110.730 Y120.610 E0.02660
G1 X110.321 Y120.185 E0.01700
G1 X110.011 Y119.679 E0.01712
G1 X109.816 Y119.119 E0.01712
G1 X109.746 Y118.529 E0.01712
G1 X109.747 Y91.439 E0.78146
G1 X109.911 Y90.588 E0.02499
G1 X110.277 Y90.659 F10800.000
G1 F1200.000
G1 X110.690 Y89.959 E0.02342
G1 X111.047 Y89.618 E0.01426
G1 X111.468 Y89.359 E0.01426
G1 X111.937 Y89.191 E0.01437
G1 X112.427 Y89.124 E0.01426
G1 X137.504 Y89.123 E0.72338
G1 X138.381 Y89.292 E0.02578
G1 X139.134 Y89.774 E0.02578
G1 X139.654 Y90.495 E0.02567
G1 X139.873 Y91.362 E0.02578
G1 X139.877 Y118.546 E0.78414
G1 X139.723 Y119.342 E0.02340
G1 X139.310 Y120.041 E0.02340
G1 X138.944 Y120.389 E0.01459
G1 X138.508 Y120.653 E0.01469
G1 X138.030 Y120.817 E0.01459
G1 X137.524 Y120.877 E0.01469
G1 X112.450 Y120.877 E0.72327
G1 X111.658 Y120.723 E0.02329
G1 X110.959 Y120.310 E0.02340
G1 X110.609 Y119.941 E0.01469
G1 X110.346 Y119.505 E0.01469
G1 X110.182 Y119.026 E0.01459
G1 X110.123 Y118.520 E0.01469
G1 X110.123 Y91.454 E0.78074
G1 X110.266 Y90.718 E0.02164
@Object Pegboard_Template_v5.stl id:0 copy 0
G1 F8640.000
G1 X110.690 Y89.959 E-0.20057
G1 X111.047 Y89.618 E-0.11413
G1 X111.468 Y89.359 E-0.11413
G1 X111.937 Y89.191 E-0.11500
G1 X112.427 Y89.124 E-0.11413
G1 X112.868 Y89.124 E-0.10204
G1 E-0.04000 F2100.00000
G1 Z0.800 F10800.000
G1 X113.287 Y92.287
G1 Z0.200
G1 E0.80000 F2100.00000
G1 F1200.000
G1 X136.713 Y92.287 E0.67574
G1 X136.713 Y117.713 E0.73343
G1 X113.287 Y117.713 E0.67574
G1 X113.287 Y92.347 E0.73170
G1 X112.910 Y91.910 F10800.000
G1 F1200.000
G1 X137.090 Y91.910 E0.69750
G1 X137.090 Y118.090 E0.75519
G1 X112.910 Y118.090 E0.69750
G1 X112.910 Y91.970 E0.75346
G1 X113.295 Y92.019 F10800.000
G1 F8640.000
G1 X116.201 Y91.962 E-0.76000
G1 E-0.04000 F2100.00000
G1 Z0.800 F10800.000
G1 X114.170 Y117.600
G1 Z0.200
G1 E0.80000 F2100.00000
G1 F1200.000
G1 X113.570 Y116.999 E0.02474
G1 X113.570 Y116.461 E0.01569
G1 X114.539 Y117.430 E0.03994
G1 X115.078 Y117.430 E0.01569
G1 X113.570 Y115.922 E0.06214
G1 X113.570 Y115.383 E0.01569
G1 X115.617 Y117.430 E0.08433
G1 X116.155 Y117.430 E0.01569
G1 X113.570 Y114.845 E0.10652
G1 X113.570 Y114.306 E0.01569
G1 X116.694 Y117.430 E0.12871
G1 X117.232 Y117.430 E0.01569
G1 X113.570 Y113.768 E0.15090
G1 X113.570 Y113.229 E0.01569
G1 X117.771 Y117.430 E0.17310
G1 X118.310 Y117.430 E0.01569
G1 X113.570 Y112.690 E0.19529
G1 X113.570 Y112.152 E0.01569
G1 X118.848 Y117.430 E0.21748
G1 X119.387 Y117.430 E0.01569
G1 X113.570 Y111.613 E0.23967
G1 X113.570 Y111.075 E0.01569
G1 X119.925 Y117.430 E0.26186
G1 X120.464 Y117.430 E0.01569
G1 X113.570 Y110.536 E0.28406
G1 X113.570 Y109.997 E0.01569
G1 X121.003 Y117.430 E0.30625
G1 X121.541 Y117.430 E0.01569
G1 X113.570 Y109.459 E0.32844
G1 X113.570 Y108.920 E0.01569
G1 X122.080 Y117.430 E0.35063
G1 X122.618 Y117.430 E0.01569
G1 X113.570 Y108.382 E0.37282
G1 X113.570 Y107.843 E0.01569
G1 X123.157 Y117.430 E0.39501
G1 X123.696 Y117.430 E0.01569
G1 X113.570 Y107.304 E0.41721
G1 X113.570 Y106.766 E0.01569
G1 X124.234 Y117.430 E0.43940
G1 X124.773 Y117.430 E0.01569
G1 X113.570 Y106.227 E0.46159
G1 X113.570 Y105.689 E0.01569
G1 X125.311 Y117.430 E0.48378
G1 X125.850 Y117.430 E0.01569
G1 X113.570 Y105.150 E0.50597
G1 X113.570 Y104.611 E0.01569
G1 X126.389 Y117.430 E0.52817
G1 X126.927 Y117.430 E0.01569
G1 X113.570 Y104.073 E0.55036
G1 X113.570 Y103.534 E0.01569
G1 X127.466 Y117.430 E0.57255
G1 X128.004 Y117.430 E0.01569
G1 X113.570 Y102.996 E0.59474
G1 X113.570 Y102.457 E0.01569
G1 X128.543 Y117.430 E0.61693
G1 X129.082 Y117.430 E0.01569
G1 X113.570 Y101.918 E0.63913
G1 X113.570 Y101.380 E0.01569
G1 X129.620 Y117.430 E0.66132
G1 X130.159 Y117.430 E0.01569
G1 X113.570 Y100.841 E0.68351
G1 X113.570 Y100.302 E0.01569
G1 X130.698 Y117.430 E0.70570
G1 X131.236 Y117.430 E0.01569
G1 X113.570 Y99.764 E0.72789
G1 X113.570 Y99.225 E0.01569
G1 X131.775 Y117.430 E0.75008
G1 X132.313 Y117.430 E0.01569
G1 X113.570 Y98.687 E0.77228
G1 X113.570 Y98.148 E0.01569
G1 X132.852 Y117.430 E0.79447
G1 X133.391 Y117.430 E0.01569
G1 X113.570 Y97.609 E0.81666
G1 X113.570 Y97.071 E0.01569
G1 X133.929 Y117.430 E0.83885
G1 X134.468 Y117.430 E0.01569
G1 X113.570 Y96.532 E0.86104
M73 P11 R8
G1 X113.570 Y95.994 E0.01569
G1 X135.006 Y117.430 E0.88324
G1 X135.545 Y117.430 E0.01569
G1 X113.570 Y95.455 E0.90543
G1 X113.570 Y94.916 E0.01569
G1 X136.084 Y117.430 E0.92762
G1 X136.430 Y117.430 E0.01010
G1 X136.430 Y117.238 E0.00560
G1 X113.570 Y94.378 E0.94190
G1 X113.570 Y93.839 E0.01569
G1 X136.430 Y116.699 E0.94190
G1 X136.430 Y116.161 E0.01569
G1 X113.570 Y93.301 E0.94190
G1 X113.570 Y92.762 E0.01569
G1 X136.430 Y115.622 E0.94190
G1 X136.430 Y115.084 E0.01569
G1 X113.916 Y92.570 E0.92762
G1 X114.455 Y92.570 E0.01569
G1 X136.430 Y114.545 E0.90543
G1 X136.430 Y114.006 E0.01569
G1 X114.994 Y92.570 E0.88324
G1 X115.532 Y92.570 E0.01569
G1 X136.430 Y113.468 E0.86105
G1 X136.430 Y112.929 E0.01569
G1 X116.071 Y92.570 E0.83885
G1 X116.609 Y92.570 E0.01569
G1 X136.430 Y112.391 E0.81666
G1 X136.430 Y111.852 E0.01569
G1 X117.148 Y92.570 E0.79447
G1 X117.687 Y92.570 E0.01569
G1 X136.430 Y111.313 E0.77228
G1 X136.430 Y110.775 E0.01569
G1 X118.225 Y92.570 E0.75009
G1 X118.764 Y92.570 E0.01569
G1 X136.430 Y110.236 E0.72789
G1 X136.430 Y109.698 E0.01569
G1 X119.302 Y92.570 E0.70570
G1 X119.841 Y92.570 E0.01569
G1 X136.430 Y109.159 E0.68351
G1 X136.430 Y108.620 E0.01569
G1 X120.380 Y92.570 E0.66132
G1 X120.918 Y92.570 E0.01569
G1 X136.430 Y108.082 E0.63913
G1 X136.430 Y107.543 E0.01569
G1 X121.457 Y92.570 E0.61694
G1 X121.995 Y92.570 E0.01569
G1 X136.430 Y107.005 E0.59474
G1 X136.430 Y106.466 E0.01569
G1 X122.534 Y92.570 E0.57255
G1 X123.073 Y92.570 E0.01569
G1 X136.430 Y105.927 E0.55036
G1 X136.430 Y105.389 E0.01569
G1 X123.611 Y92.570 E0.52817
G1 X124.150 Y92.570 E0.01569
G1 X136.430 Y104.850 E0.50598
G1 X136.430 Y104.312 E0.01569
G1 X124.688 Y92.570 E0.48378
G1 X125.227 Y92.570 E0.01569
G1 X136.430 Y103.773 E0.46159
G1 X136.430 Y103.234 E0.01569
G1 X125.766 Y92.570 E0.43940
G1 X126.304 Y92.570 E0.01569
G1 X136.430 Y102.696 E0.41721
G1 X136.430 Y102.157 E0.01569
G1 X126.843 Y92.570 E0.39502
G1 X127.382 Y92.570 E0.01569
G1 X136.430 Y101.618 E0.37282
G1 X136.430 Y101.080 E0.01569
G1 X127.920 Y92.570 E0.35063
G1 X128.459 Y92.570 E0.01569
G1 X136.430 Y100.541 E0.32844
G1 X136.430 Y100.003 E0.01569
G1 X128.997 Y92.570 E0.30625
G1 X129.536 Y92.570 E0.01569
G1 X136.430 Y99.464 E0.28406
G1 X136.430 Y98.925 E0.01569
G1 X130.075 Y92.570 E0.26187
G1 X130.613 Y92.570 E0.01569
G1 X136.430 Y98.387 E0.23967
G1 X136.430 Y97.848 E0.01569
G1 X131.152 Y92.570 E0.21748
G1 X131.690 Y92.570 E0.01569
G1 X136.430 Y97.310 E0.19529
G1 X136.430 Y96.771 E0.01569
G1 X132.229 Y92.570 E0.17310
G1 X132.768 Y92.570 E0.01569
G1 X136.430 Y96.232 E0.15091
G1 X136.430 Y95.694 E0.01569
G1 X133.306 Y92.570 E0.12871
G1 X133.845 Y92.570 E0.01569
G1 X136.430 Y95.155 E0.10652
G1 X136.430 Y94.617 E0.01569
G1 X134.383 Y92.570 E0.08433
G1 X134.922 Y92.570 E0.01569
G1 X136.430 Y94.078 E0.06214
G1 X136.430 Y93.539 E0.01569
G1 X135.461 Y92.570 E0.03995
G1 X135.999 Y92.570 E0.01569
G1 X136.600 Y93.170 E0.02475
; stop printing object Pegboard_Template_v5.stl id:0 copy 0
;BEFORE_LAYER_CHANGE
G92 E0.0
;0.4


G1 F8640.000
G1 X135.999 Y92.570 E-0.19612
G1 X135.461 Y92.570 E-0.12437
G1 X136.430 Y93.539 E-0.31659
G1 X136.430 Y94.072 E-0.12293
G1 E-0.04000 F2100.00000
G1 Z0.800 F10800.000
;AFTER_LAYER_CHANGE
;0.4
M104 S235 ; set temperature
M140 S80 ; set bed temperature
G1 X139.989 Y90.321
G1 Z0.400
G1 E0.80000 F2100.00000
G1 F3600.000
G1 X140.248 Y91.315 E0.02963
G1 X140.253 Y118.561 E0.78595
G1 X140.077 Y119.471 E0.02672
G1 X139.610 Y120.270 E0.02672
G1 X139.185 Y120.679 E0.01700
G1 X138.679 Y120.989 E0.01712
G1 X138.119 Y121.184 E0.01712
G1 X137.534 Y121.254 E0.01700
G1 X112.434 Y121.253 E0.72401
G1 X111.525 Y121.076 E0.02672
G1 X110.730 Y120.610 E0.02660
G1 X110.321 Y120.185 E0.01700
G1 X110.011 Y119.679 E0.01712
G1 X109.816 Y119.119 E0.01712
G1 X109.746 Y118.529 E0.01712
G1 X109.747 Y91.439 E0.78146
G1 X109.923 Y90.529 E0.02672
G1 X110.390 Y89.730 E0.02672
G1 X110.805 Y89.329 E0.01665
G1 X111.291 Y89.025 E0.01653
G1 X111.834 Y88.828 E0.01665
G1 X112.401 Y88.748 E0.01653
G1 X137.504 Y88.746 E0.72413
G1 X138.513 Y88.939 E0.02963
G1 X139.384 Y89.491 E0.02975
G1 X139.954 Y90.272 E0.02790
G1 X139.651 Y90.491 F10800.000
G1 F3600.000
G1 X139.873 Y91.362 E0.02593
G1 X139.877 Y118.546 E0.78414
G1 X139.723 Y119.342 E0.02340
G1 X139.310 Y120.041 E0.02340
G1 X138.944 Y120.389 E0.01459
G1 X138.508 Y120.653 E0.01469
G1 X138.030 Y120.817 E0.01459
G1 X137.524 Y120.877 E0.01469
G1 X112.450 Y120.877 E0.72327
G1 X111.658 Y120.723 E0.02329
G1 X110.959 Y120.310 E0.02340
G1 X110.609 Y119.941 E0.01469
G1 X110.346 Y119.505 E0.01469
G1 X110.182 Y119.026 E0.01459
G1 X110.123 Y118.520 E0.01469
G1 X110.123 Y91.454 E0.78074
G1 X110.277 Y90.658 E0.02340
G1 X110.690 Y89.959 E0.02340
G1 X111.047 Y89.618 E0.01426
G1 X111.468 Y89.359 E0.01426
G1 X111.937 Y89.191 E0.01437
G1 X112.427 Y89.124 E0.01426
G1 X137.504 Y89.123 E0.72338
G1 X138.381 Y89.292 E0.02578
G1 X139.134 Y89.774 E0.02578
G1 X139.616 Y90.442 E0.02377
@Object Pegboard_Template_v5.stl id:0 copy 0
G1 F8640.000
G1 X139.873 Y91.362 E-0.22055
G1 X139.873 Y93.698 E-0.53945
G1 E-0.04000 F2100.00000
G1 Z1.000 F10800.000
G1 X136.868 Y92.132
G1 Z0.400
G1 E0.80000 F2100.00000
M204 S800
G1 F3600.000
G1 X136.868 Y117.868 E0.80144
G1 X113.132 Y117.868 E0.73916
G1 X113.132 Y92.132 E0.80144
G1 X136.808 Y92.132 E0.73729
M204 S1000
G1 X137.275 Y91.725 F10800.000
M204 S800
G1 F3000.000
G1 X137.275 Y118.275 E0.82679
G1 X112.725 Y118.275 E0.76451
G1 X112.725 Y91.725 E0.82679
G1 X137.215 Y91.725 E0.76264
M204 S1000
G1 X137.177 Y92.113 F10800.000
G1 F8640.000
G1 X137.222 Y95.016 E-0.76000
G1 E-0.04000 F2100.00000
G1 Z1.000 F10800.000
G1 X135.921 Y117.746
G1 Z0.400
G1 E0.80000 F2100.00000
M204 S2000
G1 F6000.000
G1 X136.563 Y117.104 E0.02835
G1 X136.563 Y116.527 E0.01802
G1 X135.527 Y117.563 E0.04575
G1 X134.949 Y117.563 E0.01802
G1 X136.563 Y115.949 E0.07124
G1 X136.563 Y115.372 E0.01802
G1 X134.372 Y117.563 E0.09673
G1 X133.795 Y117.563 E0.01802
G1 X136.563 Y114.795 E0.12222
G1 X136.563 Y114.218 E0.01802
G1 X133.218 Y117.563 E0.14770
G1 X132.640 Y117.563 E0.01802
G1 X136.563 Y113.640 E0.17319
G1 X136.563 Y113.063 E0.01802
G1 X132.063 Y117.563 E0.19868
G1 X131.486 Y117.563 E0.01802
G1 X136.563 Y112.486 E0.22417
G1 X136.563 Y111.909 E0.01802
G1 X130.909 Y117.563 E0.24966
G1 X130.331 Y117.563 E0.01802
G1 X136.563 Y111.331 E0.27515
G1 X136.563 Y110.754 E0.01802
G1 X129.754 Y117.563 E0.30064
G1 X129.177 Y117.563 E0.01802
G1 X136.563 Y110.177 E0.32613
G1 X136.563 Y109.600 E0.01802
G1 X128.600 Y117.563 E0.35162
G1 X128.023 Y117.563 E0.01802
G1 X136.563 Y109.023 E0.37710
G1 X136.563 Y108.445 E0.01802
G1 X127.445 Y117.563 E0.40259
G1 X126.868 Y117.563 E0.01802
G1 X136.563 Y107.868 E0.42808
G1 X136.563 Y107.291 E0.01802
G1 X126.291 Y117.563 E0.45357
G1 X125.714 Y117.563 E0.01802
G1 X136.563 Y106.714 E0.47906
G1 X136.563 Y106.136 E0.01802
G1 X125.136 Y117.563 E0.50455
G1 X124.559 Y117.563 E0.01802
G1 X136.563 Y105.559 E0.53004
G1 X136.563 Y104.982 E0.01802
G1 X123.982 Y117.563 E0.55553
M73 P23 R7
G1 X123.405 Y117.563 E0.01802
G1 X136.563 Y104.405 E0.58101
G1 X136.563 Y103.827 E0.01802
G1 X122.827 Y117.563 E0.60650
G1 X122.250 Y117.563 E0.01802
G1 X136.563 Y103.250 E0.63199
G1 X136.563 Y102.673 E0.01802
G1 X121.673 Y117.563 E0.65748
G1 X121.096 Y117.563 E0.01802
G1 X136.563 Y102.096 E0.68297
G1 X136.563 Y101.519 E0.01802
G1 X120.519 Y117.563 E0.70846
G1 X119.941 Y117.563 E0.01802
G1 X136.563 Y100.941 E0.73395
G1 X136.563 Y100.364 E0.01802
G1 X119.364 Y117.563 E0.75944
G1 X118.787 Y117.563 E0.01802
G1 X136.563 Y99.787 E0.78492
G1 X136.563 Y99.210 E0.01802
G1 X118.210 Y117.563 E0.81041
G1 X117.632 Y117.563 E0.01802
G1 X136.563 Y98.632 E0.83590
G1 X136.563 Y98.055 E0.01802
G1 X117.055 Y117.563 E0.86139
G1 X116.478 Y117.563 E0.01802
G1 X136.563 Y97.478 E0.88688
G1 X136.563 Y96.901 E0.01802
G1 X115.901 Y117.563 E0.91237
G1 X115.324 Y117.563 E0.01802
G1 X136.563 Y96.324 E0.93786
G1 X136.563 Y95.746 E0.01802
G1 X114.746 Y117.563 E0.96335
G1 X114.169 Y117.563 E0.01802
G1 X136.563 Y95.169 E0.98883
G1 X136.563 Y94.592 E0.01802
G1 X113.592 Y117.563 E1.01432
G1 X113.437 Y117.563 E0.00482
G1 X113.437 Y117.140 E0.01320
G1 X136.563 Y94.015 E1.02114
G1 X136.563 Y93.437 E0.01802
G1 X113.437 Y116.563 E1.02114
G1 X113.437 Y115.985 E0.01802
G1 X136.563 Y92.860 E1.02114
G1 X136.563 Y92.437 E0.01320
G1 X136.408 Y92.437 E0.00482
G1 X113.437 Y115.408 E1.01432
G1 X113.437 Y114.831 E0.01802
G1 X135.831 Y92.437 E0.98883
G1 X135.254 Y92.437 E0.01802
G1 X113.437 Y114.254 E0.96334
G1 X113.437 Y113.676 E0.01802
G1 X134.676 Y92.437 E0.93785
G1 X134.099 Y92.437 E0.01802
G1 X113.437 Y113.099 E0.91237
G1 X113.437 Y112.522 E0.01802
G1 X133.522 Y92.437 E0.88688
G1 X132.945 Y92.437 E0.01802
G1 X113.437 Y111.945 E0.86139
G1 X113.437 Y111.368 E0.01802
G1 X132.368 Y92.437 E0.83590
G1 X131.790 Y92.437 E0.01802
G1 X113.437 Y110.790 E0.81041
G1 X113.437 Y110.213 E0.01802
G1 X131.213 Y92.437 E0.78492
G1 X130.636 Y92.437 E0.01802
G1 X113.437 Y109.636 E0.75943
G1 X113.437 Y109.059 E0.01802
G1 X130.059 Y92.437 E0.73394
G1 X129.481 Y92.437 E0.01802
G1 X113.437 Y108.481 E0.70846
G1 X113.437 Y107.904 E0.01802
G1 X128.904 Y92.437 E0.68297
G1 X128.327 Y92.437 E0.01802
G1 X113.437 Y107.327 E0.65748
G1 X113.437 Y106.750 E0.01802
G1 X127.750 Y92.437 E0.63199
G1 X127.172 Y92.437 E0.01802
G1 X113.437 Y106.172 E0.60650
G1 X113.437 Y105.595 E0.01802
G1 X126.595 Y92.437 E0.58101
G1 X126.018 Y92.437 E0.01802
G1 X113.437 Y105.018 E0.55552
G1 X113.437 Y104.441 E0.01802
G1 X125.441 Y92.437 E0.53003
G1 X124.864 Y92.437 E0.01802
G1 X113.437 Y103.864 E0.50455
G1 X113.437 Y103.286 E0.01802
G1 X124.286 Y92.437 E0.47906
G1 X123.709 Y92.437 E0.01802
G1 X113.437 Y102.709 E0.45357
G1 X113.437 Y102.132 E0.01802
G1 X123.132 Y92.437 E0.42808
G1 X122.555 Y92.437 E0.01802
G1 X113.437 Y101.555 E0.40259
G1 X113.437 Y100.977 E0.01802
G1 X121.977 Y92.437 E0.37710
G1 X121.400 Y92.437 E0.01802
G1 X113.437 Y100.400 E0.35161
