; generated by Slic3r Prusa Edition 1.41.0+ on 2018-09-05 at 16:06:42

; 

; external perimeters extrusion width = 0.45mm
; perimeters extrusion width = 0.45mm
; infill extrusion width = 0.45mm
; solid infill extrusion width = 0.45mm
; top infill extrusion width = 0.40mm
; support material extrusion width = 0.35mm
; first layer extrusion width = 0.42mm

M201 X9000 Y9000 Z500 E10000 ; sets maximum accelerations, mm/sec^2
M203 X500 Y500 Z12 E120 ; sets maximum feedrates, mm/sec
M204 P2000 R1500 T2000 ; sets acceleration (P, T) and retract acceleration (R), mm/sec^2
M205 X10.00 Y10.00 Z0.20 E2.50 ; sets the jerk limits, mm/sec
M205 S0 T0 ; sets the minimum extruding and travel feed rate, mm/sec
M107
M115 U3.1.0 ; tell printer latest fw version
M83  ; extruder relative mode
M204 S2000 T1500 ; MK2 firmware only supports the old M204 format
M104 S230 ; set extruder temp
M140 S85 ; set bed temp
M190 S85 ; wait for bed temp
M109 S230 ; wait for extruder temp
G28 W ; home all without mesh bed level
G80 ; mesh bed leveling
G1 Y-3.0 F1000.0 ; go outside print area
G92 E0.0
G1 X60.0 E9.0  F1000.0 ; intro line
G1 X100.0 E12.5  F1000.0 ; intro line
G92 E0.0
M900 K45; Filament gcode
G21 ; set units to millimeters
G90 ; use absolute coordinates
M83 ; use relative distances for extrusion
;BEFORE_LAYER_CHANGE
G92 E0.0
;0.2


G1 E-0.80000 F2100.00000
G1 Z0.600 F10800.000
;AFTER_LAYER_CHANGE
;0.2
G1 X104.434 Y48.990
G1 Z0.200
G1 E0.80000 F2100.00000
M204 S1000
G1 F1200
G1 X104.919 Y48.364 E0.02484
G1 X105.600 Y47.950 E0.02496
G1 X106.383 Y47.807 E0.02496
G1 X134.886 Y47.987 E0.89372
G1 X146.220 Y50.376 E0.36317
G1 X146.708 Y50.589 E0.01669
G1 X147.129 Y50.913 E0.01669
G1 X147.460 Y51.330 E0.01669
G1 X147.681 Y51.815 E0.01669
G1 X147.782 Y52.455 E0.02032
G1 X147.780 Y63.278 E0.33935
G1 X143.254 Y157.896 E2.97008
G1 X143.120 Y158.541 E0.02066
G1 X142.799 Y159.117 E0.02066
G1 X142.322 Y159.571 E0.02066
G1 X141.727 Y159.864 E0.02078
G1 X141.087 Y159.965 E0.02032
G1 X128.940 Y159.964 E0.38086
G1 X110.807 Y158.993 E0.56936
G1 X109.889 Y158.818 E0.02932
G1 X109.301 Y158.603 E0.01963
G1 X108.186 Y157.915 E0.04107
G1 X107.303 Y156.949 E0.04105
G1 X106.981 Y156.410 E0.01966
G1 X106.635 Y155.532 E0.02961
G1 X106.452 Y154.287 E0.03945
G1 X104.189 Y67.300 E2.72833
G1 X104.203 Y49.752 E0.55023
G1 X104.416 Y49.047 E0.02308
; PURGING FINISHED
G1 F8640
G1 X104.919 Y48.364 E-0.19596
G1 X105.600 Y47.950 E-0.18379
G1 X106.383 Y47.807 E-0.18379
G1 X107.233 Y47.813 E-0.19646
G1 E-0.04000 F2100.00000
G1 Z0.800 F10800.000
G1 X106.378 Y49.996
G1 Z0.200
G1 E0.80000 F2100.00000
G1 F1200
G1 X106.378 Y67.294 E0.54238
G1 X107.132 Y67.294 E0.02365
G1 X107.132 Y50.166 E0.53706
G1 X107.886 Y50.166 E0.02365
G1 X107.886 Y67.801 E0.55293
G1 F8640
G1 X107.886 Y64.509 E-0.76000
G1 E-0.04000 F2100.00000
G1 Z0.800 F10800.000
G1 X108.640 Y52.992
G1 Z0.200
G1 E0.80000 F2100.00000
G1 F1200
G1 X108.640 Y64.269 E0.28794
G1 X109.147 Y64.269 E0.01295
G1 X109.147 Y53.131 E0.28441
G1 X109.654 Y53.131 E0.01295
G1 X109.654 Y64.269 E0.28441
G1 X110.161 Y64.269 E0.01295
G1 X110.161 Y53.131 E0.28442
G1 X110.668 Y53.131 E0.01295
G1 X110.668 Y64.291 E0.28497
G1 X110.869 Y64.491 E0.00723
G1 X110.869 Y64.666 E0.00447
G1 X110.947 Y64.666 E0.00201
G1 X110.947 Y57.745 E0.17673
G1 X111.175 Y57.745 E0.00583
G1 X111.175 Y53.131 E0.11782
G1 X111.682 Y53.131 E0.01295
G1 X111.682 Y57.745 E0.11782
G1 X112.190 Y57.745 E0.01295
G1 X112.190 Y53.131 E0.11782
G1 X112.697 Y53.131 E0.01295
G1 X112.697 Y57.745 E0.11782
G1 X113.204 Y57.745 E0.01295
G1 X113.204 Y53.131 E0.11782
G1 X113.711 Y53.131 E0.01295
G1 X113.711 Y55.438 E0.05891
G1 X114.218 Y55.438 E0.01295
G1 X114.218 Y53.131 E0.05891
G1 X114.725 Y53.131 E0.01295
G1 X114.725 Y55.438 E0.05891
G1 X115.232 Y55.438 E0.01295
G1 X115.232 Y53.131 E0.05891
G1 X115.739 Y53.131 E0.01295
G1 X115.739 Y55.438 E0.05891
G1 X116.246 Y55.438 E0.01295
G1 X116.246 Y53.131 E0.05891
G1 X116.753 Y53.131 E0.01295
G1 X116.753 Y55.438 E0.05891
G1 X117.260 Y55.438 E0.01295
G1 X117.260 Y53.131 E0.05891
G1 X117.767 Y53.131 E0.01295
G1 X117.767 Y55.438 E0.05891
G1 X118.275 Y55.438 E0.01295
G1 X118.275 Y53.131 E0.05891
G1 X118.782 Y53.131 E0.01295
G1 X118.782 Y55.438 E0.05891
G1 X119.289 Y55.438 E0.01295
G1 X119.289 Y53.131 E0.05891
G1 X119.796 Y53.131 E0.01295
G1 X119.796 Y55.438 E0.05891
G1 X120.303 Y55.438 E0.01295
G1 X120.303 Y53.131 E0.05891
G1 X120.810 Y53.131 E0.01295
G1 X120.810 Y55.438 E0.05891
G1 X121.317 Y55.438 E0.01295
G1 X121.317 Y53.131 E0.05891
G1 X121.824 Y53.131 E0.01295
G1 X121.824 Y55.438 E0.05891
G1 X122.331 Y55.438 E0.01295
G1 X122.331 Y53.131 E0.05891
G1 X122.838 Y53.131 E0.01295
G1 X122.838 Y55.438 E0.05891
G1 X123.345 Y55.438 E0.01295
G1 X123.345 Y55.311 E0.00324
G1 X123.105 Y55.249 E0.00634
G1 X123.168 Y54.745 E0.01298
G1 X123.345 Y54.745 E0.00452
G1 X123.345 Y53.131 E0.04121
G1 X123.852 Y53.131 E0.01295
G1 X123.852 Y54.654 E0.03891
G1 X124.359 Y54.654 E0.01295
G1 X124.359 Y53.131 E0.03891
G1 X124.867 Y53.131 E0.01295
G1 X124.867 Y54.654 E0.03891
G1 X124.925 Y54.655 E0.00151
G1 X125.374 Y54.655 E0.01144
G1 X125.374 Y53.131 E0.03891
G1 X125.881 Y53.131 E0.01295
G1 X125.881 Y54.655 E0.03891
G1 X126.388 Y54.654 E0.01295
G1 X126.388 Y53.131 E0.03891
G1 X126.895 Y53.131 E0.01295
G1 X126.895 Y54.654 E0.03891
G1 X127.402 Y54.654 E0.01295
G1 X127.402 Y53.131 E0.03891
G1 X127.909 Y53.131 E0.01295
G1 X127.909 Y54.654 E0.03891
G1 X128.214 Y54.654 E0.00778
G1 X128.416 Y54.675 E0.00519
G1 X128.416 Y53.131 E0.03945
G1 X128.923 Y53.131 E0.01295
G1 X128.923 Y54.833 E0.04347
G1 X129.430 Y55.060 E0.01419
G1 X129.430 Y53.131 E0.04927
G1 X129.937 Y53.131 E0.01295
G1 X129.937 Y55.287 E0.05506
G1 X130.444 Y55.523 E0.01428
G1 X130.444 Y53.131 E0.06109
G1 X130.951 Y53.131 E0.01295
G1 X130.951 Y55.789 E0.06788
G1 X131.459 Y56.055 E0.01462
G1 X131.459 Y53.131 E0.07467
G1 X131.711 Y53.131 E0.00644
G1 X131.711 Y55.438 E0.05891
G1 X131.966 Y55.438 E0.00651
G1 X131.966 Y56.321 E0.02255
G1 X132.473 Y56.587 E0.01462
G1 X132.473 Y55.438 E0.02934
G1 X132.980 Y55.438 E0.01295
G1 X132.980 Y57.745 E0.05891
G1 X133.487 Y57.745 E0.01295
G1 X133.487 Y55.438 E0.05891
G1 X133.994 Y55.438 E0.01295
G1 X133.994 Y57.745 E0.05891
G1 X134.501 Y57.745 E0.01295
G1 X134.501 Y55.438 E0.05891
G1 X135.008 Y55.438 E0.01295
G1 X135.008 Y57.745 E0.05891
G1 X135.515 Y57.745 E0.01295
G1 X135.515 Y55.438 E0.05891
G1 X136.022 Y55.438 E0.01295
G1 X136.022 Y57.745 E0.05891
G1 X136.325 Y57.745 E0.00773
G1 X136.325 Y60.052 E0.05891
G1 X136.529 Y60.052 E0.00522
G1 X136.529 Y55.438 E0.11782
G1 X137.036 Y55.438 E0.01295
G1 X137.036 Y60.052 E0.11782
G1 X137.544 Y60.052 E0.01295
G1 X137.544 Y55.438 E0.11782
G1 X138.051 Y55.438 E0.01295
G1 X138.051 Y60.052 E0.11782
G1 X138.558 Y60.052 E0.01295
G1 X138.558 Y55.438 E0.11782
G1 X139.065 Y55.438 E0.01295
G1 X139.065 Y60.052 E0.11782
G1 X139.572 Y60.052 E0.01295
G1 X139.572 Y55.438 E0.11782
G1 X140.079 Y55.438 E0.01295
G1 X140.079 Y60.052 E0.11782
G1 X140.586 Y60.052 E0.01295
G1 X140.586 Y55.438 E0.11782
G1 X141.093 Y55.438 E0.01295
G1 X141.093 Y60.052 E0.11782
G1 X141.600 Y60.052 E0.01295
G1 X141.600 Y55.438 E0.11782
G1 X142.107 Y55.438 E0.01295
G1 X142.107 Y60.052 E0.11782
G1 X142.614 Y60.052 E0.01295
G1 X142.614 Y55.438 E0.11782
G1 X143.121 Y55.438 E0.01295
G1 X143.121 Y60.190 E0.12135
G1 X143.331 Y63.186 F10800.000
G1 F1200
G1 X143.331 Y60.394 E0.08756
G1 X142.577 Y60.394 E0.02365
G1 X142.577 Y63.017 E0.08224
G1 X141.823 Y63.017 E0.02365
G1 X141.823 Y60.394 E0.08224
G1 X141.069 Y60.394 E0.02365
G1 X141.069 Y63.017 E0.08224
G1 X140.315 Y63.017 E0.02365
G1 X140.315 Y60.394 E0.08224
G1 X139.561 Y60.394 E0.02365
G1 X139.561 Y63.017 E0.08224
G1 X138.806 Y63.017 E0.02365
G1 X138.806 Y60.394 E0.08224
G1 X138.052 Y60.394 E0.02365
G1 X138.052 Y63.017 E0.08224
G1 X137.298 Y63.017 E0.02365
G1 X137.298 Y60.394 E0.08224
G1 X136.544 Y60.394 E0.02365
G1 X136.544 Y63.017 E0.08224
G1 X135.790 Y63.017 E0.02365
G1 X135.790 Y58.087 E0.15457
G1 X135.036 Y58.087 E0.02365
G1 X135.036 Y63.017 E0.15457
G1 X134.281 Y63.017 E0.02365
G1 X134.281 Y58.087 E0.15457
G1 X133.527 Y58.087 E0.02365
G1 X133.527 Y63.017 E0.15457
G1 X132.773 Y63.017 E0.02365
G1 X132.773 Y58.087 E0.15457
G1 X132.476 Y58.087 E0.00930
G1 X132.476 Y56.987 E0.03449
G1 X132.019 Y56.735 E0.01638
G1 X132.019 Y63.017 E0.19696
G1 X131.265 Y63.017 E0.02365
G1 X131.265 Y56.339 E0.20936
G1 X130.511 Y55.944 E0.02670
G1 X130.511 Y63.017 E0.22176
G1 X129.854 Y63.017 E0.02060
G1 X129.854 Y58.095 E0.15430
G1 X129.756 Y58.095 E0.00305
G1 X129.756 Y55.581 E0.07885
G1 X129.002 Y55.243 E0.02591
G1 X129.002 Y55.788 E0.01709
G1 X128.248 Y55.788 E0.02365
G1 X128.248 Y55.001 E0.02468
G1 X127.494 Y54.997 E0.02365
G1 X127.494 Y55.788 E0.02483
G1 X127.029 Y55.788 E0.01458
G1 X127.494 Y56.634 E0.03025
G1 X127.494 Y59.120 E0.07797
G1 X128.248 Y59.314 E0.02441
G1 X128.248 Y58.005 E0.04104
G1 X129.002 Y59.377 E0.04907
G1 X129.002 Y59.683 E0.00960
G1 X126.740 Y59.102 F10800.000
G1 F1200
G1 X126.740 Y54.997 E0.12872
G1 X125.986 Y54.997 E0.02365
G1 X125.986 Y58.733 E0.11716
G1 X125.231 Y58.539 E0.02441
G1 X125.231 Y54.827 E0.11640
G1 X123.723 Y55.336 F10800.000
G1 F1200
G1 X123.723 Y54.997 E0.01065
G1 X124.477 Y54.996 E0.02365
G1 X124.477 Y58.403 E0.10680
G1 X123.723 Y58.403 E0.02365
G1 X123.723 Y55.780 E0.08224
G1 X122.969 Y55.780 E0.02365
G1 X122.969 Y58.403 E0.08224
G1 X122.215 Y58.403 E0.02365
G1 X122.215 Y55.780 E0.08224
G1 X121.461 Y55.780 E0.02365
G1 X121.461 Y58.403 E0.08224
G1 X120.707 Y58.403 E0.02365
G1 X120.707 Y55.780 E0.08224
G1 X119.952 Y55.780 E0.02365
G1 X119.952 Y58.403 E0.08224
G1 X119.198 Y58.403 E0.02365
G1 X119.198 Y55.780 E0.08224
G1 X118.444 Y55.780 E0.02365
G1 X118.444 Y58.403 E0.08224
G1 X117.690 Y58.403 E0.02365
G1 X117.690 Y55.780 E0.08224
G1 X116.936 Y55.780 E0.02365
G1 X116.936 Y58.403 E0.08224
G1 X116.219 Y58.403 E0.02247
G1 X116.219 Y60.710 E0.07234
G1 X116.182 Y60.710 E0.00118
G1 X116.182 Y55.780 E0.15457
G1 X115.427 Y55.780 E0.02365
G1 X115.427 Y60.710 E0.15457
G1 X114.673 Y60.710 E0.02365
G1 X114.673 Y55.780 E0.15457
G1 X113.919 Y55.780 E0.02365
G1 X113.912 Y67.631 E0.37158
G1 X113.165 Y67.631 E0.02342
G1 X113.165 Y58.087 E0.29925
G1 X112.411 Y58.087 E0.02365
G1 X112.411 Y67.631 E0.29925
G1 X111.657 Y67.631 E0.02365
G1 X111.657 Y58.087 E0.29925
G1 X111.289 Y58.087 E0.01152
G1 X111.289 Y65.008 E0.21701
G1 X110.902 Y65.008 E0.01212
G1 X110.902 Y67.631 E0.08224
G1 X110.148 Y67.631 E0.02365
G1 X110.148 Y64.611 E0.09467
G1 X109.394 Y64.611 E0.02365
G1 X109.394 Y67.631 E0.09468
G1 X108.640 Y67.631 E0.02365
G1 X108.640 Y64.611 E0.09468
G1 X108.298 Y64.938 E0.01484
G1 X108.298 Y52.788 E0.38095
G1 X108.640 Y52.788 E0.01073
G1 X108.640 Y50.166 E0.08224
G1 X109.394 Y50.166 E0.02365
G1 X109.394 Y52.788 E0.08224
G1 X110.148 Y52.788 E0.02365
G1 X110.148 Y50.166 E0.08224
G1 X110.902 Y50.166 E0.02365
G1 X110.902 Y52.788 E0.08224
G1 X111.657 Y52.788 E0.02365
G1 X111.657 Y50.166 E0.08224
G1 X112.411 Y50.166 E0.02365
G1 X112.411 Y52.788 E0.08224
G1 X113.165 Y52.788 E0.02365
G1 X113.165 Y50.166 E0.08224
G1 X113.919 Y50.166 E0.02365
G1 X113.919 Y52.788 E0.08224
G1 X114.673 Y52.788 E0.02365
G1 X114.673 Y50.166 E0.08224
G1 X115.427 Y50.166 E0.02365
G1 X115.427 Y52.788 E0.08224
G1 X116.182 Y52.788 E0.02365
G1 X116.182 Y50.166 E0.08224
G1 X116.936 Y50.166 E0.02365
G1 X116.936 Y52.788 E0.08224
G1 X117.690 Y52.788 E0.02365
G1 X117.690 Y50.166 E0.08224
G1 X118.444 Y50.166 E0.02365
G1 X118.444 Y52.788 E0.08224
G1 X119.198 Y52.788 E0.02365
G1 X119.198 Y50.166 E0.08224
G1 X119.952 Y50.166 E0.02365
G1 X119.952 Y52.788 E0.08224
G1 X120.707 Y52.788 E0.02365
G1 X120.707 Y50.166 E0.08224
G1 X121.461 Y50.166 E0.02365
G1 X121.461 Y52.788 E0.08224
G1 X122.215 Y52.788 E0.02365
G1 X122.215 Y50.166 E0.08224
G1 X122.969 Y50.166 E0.02365
G1 X122.969 Y52.788 E0.08224
G1 X123.723 Y52.788 E0.02365
G1 X123.723 Y50.166 E0.08224
G1 X124.477 Y50.166 E0.02365
G1 X124.477 Y52.788 E0.08224
G1 X125.231 Y52.788 E0.02365
G1 X125.231 Y50.166 E0.08224
G1 X125.986 Y50.166 E0.02365
G1 X125.986 Y52.788 E0.08224
G1 X126.740 Y52.788 E0.02365
G1 X126.740 Y50.166 E0.08224
G1 X127.494 Y50.166 E0.02365
G1 X127.494 Y52.788 E0.08224
G1 X128.248 Y52.788 E0.02365
G1 X128.248 Y50.166 E0.08224
G1 X129.002 Y50.166 E0.02365
G1 X129.002 Y52.788 E0.08224
G1 X129.756 Y52.788 E0.02365
G1 X129.756 Y50.166 E0.08224
G1 X130.511 Y50.166 E0.02365
G1 X130.511 Y52.788 E0.08224
G1 X131.265 Y52.788 E0.02365
G1 X131.265 Y50.166 E0.08224
G1 X132.019 Y50.166 E0.02365
G1 X132.019 Y52.788 E0.08224
G1 X132.053 Y52.788 E0.00106
G1 X132.053 Y55.096 E0.07234
G1 X132.773 Y55.096 E0.02258
G1 X132.773 Y50.166 E0.15457
G1 X133.527 Y50.166 E0.02365
G1 X133.527 Y55.096 E0.15457
G1 X134.281 Y55.096 E0.02365
G1 X134.281 Y50.166 E0.15457
G1 X134.676 Y50.166 E0.01236
G1 X134.676 Y52.473 E0.07234
G1 X135.036 Y52.473 E0.01128
G1 X135.036 Y55.096 E0.08224
G1 X135.790 Y55.096 E0.02365
G1 X135.790 Y52.473 E0.08224
G1 X136.544 Y52.473 E0.02365
G1 X136.544 Y55.096 E0.08224
G1 X137.298 Y55.096 E0.02365
G1 X137.298 Y52.473 E0.08224
G1 X138.052 Y52.473 E0.02365
G1 X138.052 Y55.096 E0.08224
G1 X138.806 Y55.096 E0.02365
G1 X138.806 Y52.473 E0.08224
G1 X139.561 Y52.473 E0.02365
G1 X139.561 Y55.096 E0.08224
G1 X140.315 Y55.096 E0.02365
G1 X140.315 Y52.473 E0.08224
G1 X141.069 Y52.473 E0.02365
G1 X141.069 Y55.096 E0.08224
G1 X141.823 Y55.096 E0.02365
G1 X141.823 Y52.473 E0.08224
G1 X142.577 Y52.473 E0.02365
G1 X142.577 Y55.096 E0.08224
G1 X143.331 Y55.096 E0.02365
G1 X143.331 Y52.473 E0.08224
G1 X144.085 Y52.473 E0.02365
G1 X144.085 Y63.017 E0.33060
G1 X144.840 Y63.017 E0.02365
G1 X144.840 Y52.473 E0.33060
G1 X145.594 Y52.473 E0.02365
G1 X145.594 Y63.186 E0.33592
G1 F8640
G1 X145.594 Y59.895 E-0.76000
G1 E-0.04000 F2100.00000
G1 Z0.800 F10800.000
G1 X130.511 Y70.760
G1 Z0.200
G1 E0.80000 F2100.00000
G1 F1200
G1 X130.511 Y81.473 E0.33592
G1 X131.265 Y81.473 E0.02365
G1 X131.265 Y70.929 E0.33060
G1 X132.019 Y70.929 E0.02365
G1 X132.019 Y81.473 E0.33060
G1 X132.773 Y81.473 E0.02365
G1 X132.773 Y70.929 E0.33060
G1 X133.527 Y70.929 E0.02365
G1 X133.527 Y81.473 E0.33060
G1 X134.281 Y81.473 E0.02365
G1 X134.281 Y70.929 E0.33060
G1 X135.036 Y70.929 E0.02365
G1 X135.036 Y81.473 E0.33060
G1 X135.790 Y81.473 E0.02365
G1 X135.790 Y70.929 E0.33060
G1 X136.544 Y70.929 E0.02365
G1 X136.544 Y81.473 E0.33060
G1 X137.298 Y81.473 E0.02365
G1 X137.298 Y70.929 E0.33060
G1 X138.052 Y70.929 E0.02365
G1 X138.052 Y81.473 E0.33060
G1 X138.806 Y81.473 E0.02365
G1 X138.806 Y70.929 E0.33060
G1 X139.561 Y70.929 E0.02365
G1 X139.561 Y81.473 E0.33060
G1 X140.315 Y81.473 E0.02365
G1 X140.315 Y70.929 E0.33060
G1 X141.069 Y70.929 E0.02365
G1 X141.069 Y81.643 E0.33592
G1 F8640
G1 X141.069 Y78.352 E-0.76000
G1 E-0.04000 F2100.00000
G1 Z0.800 F10800.000
G1 X130.511 Y89.216
G1 Z0.200
G1 E0.80000 F2100.00000
G1 F1200
G1 X130.511 Y99.930 E0.33592
G1 X131.265 Y99.930 E0.02365
G1 X131.265 Y89.386 E0.33060
G1 X132.019 Y89.386 E0.02365
G1 X132.019 Y99.930 E0.33060
G1 X132.773 Y99.930 E0.02365
G1 X132.773 Y89.386 E0.33060
G1 X133.527 Y89.386 E0.02365
G1 X133.527 Y99.930 E0.33060
G1 X134.281 Y99.930 E0.02365
G1 X134.281 Y89.386 E0.33060
G1 X135.036 Y89.386 E0.02365
G1 X135.036 Y99.930 E0.33060
G1 X135.790 Y99.930 E0.02365
G1 X135.790 Y89.386 E0.33060
G1 X136.544 Y89.386 E0.02365
G1 X136.544 Y99.930 E0.33060
G1 X137.298 Y99.930 E0.02365
G1 X137.298 Y89.386 E0.33060
G1 X138.052 Y89.386 E0.02365
G1 X138.052 Y99.930 E0.33060
G1 X138.806 Y99.930 E0.02365
G1 X138.806 Y89.386 E0.33060
G1 X139.561 Y89.386 E0.02365
G1 X139.561 Y99.930 E0.33060
G1 X140.315 Y99.930 E0.02365
G1 X140.315 Y89.386 E0.33060
G1 X141.069 Y89.386 E0.02365
G1 X141.069 Y100.100 E0.33592
G1 F8640
G1 X141.069 Y96.808 E-0.76000
G1 E-0.04000 F2100.00000
G1 Z0.800 F10800.000
G1 X130.511 Y107.673
G1 Z0.200
G1 E0.80000 F2100.00000
G1 F1200
G1 X130.511 Y120.694 E0.40826
G1 X131.265 Y120.694 E0.02365
G1 X131.265 Y107.843 E0.40294
G1 X132.019 Y107.843 E0.02365
G1 X132.019 Y120.694 E0.40294
G1 X132.773 Y120.694 E0.02365
G1 X132.773 Y107.843 E0.40294
G1 X133.527 Y107.843 E0.02365
G1 X133.527 Y120.694 E0.40294
