; generated by Slic3r Prusa Edition 1.41.0+ on 2018-09-21 at 22:54:35

; 

; external perimeters extrusion width = 0.45mm
; perimeters extrusion width = 0.45mm
; infill extrusion width = 0.45mm
; solid infill extrusion width = 0.45mm
; top infill extrusion width = 0.40mm
; support material extrusion width = 0.35mm
; first layer extrusion width = 0.42mm

M201 X9000 Y9000 Z500 E10000 ; sets maximum accelerations, mm/sec^2
M203 X500 Y500 Z12 E120 ; sets maximum feedrates, mm/sec
M204 P2000 R1500 T2000 ; sets acceleration (P, T) and retract acceleration (R), mm/sec^2
M205 X10.00 Y10.00 Z0.20 E2.50 ; sets the jerk limits, mm/sec
M205 S0 T0 ; sets the minimum extruding and travel feed rate, mm/sec
M107
M115 U3.1.0 ; tell printer latest fw version
M83  ; extruder relative mode
M204 S2000 T1500 ; MK2 firmware only supports the old M204 format
M104 S230 ; set extruder temp
M140 S85 ; set bed temp
M190 S85 ; wait for bed temp
M109 S230 ; wait for extruder temp
G28 W ; home all without mesh bed level
G80 ; mesh bed leveling
G1 Y-3.0 F1000.0 ; go outside print area
G92 E0.0
G1 X60.0 E9.0  F1000.0 ; intro line
G1 X100.0 E12.5  F1000.0 ; intro line
G92 E0.0
M900 K45; Filament gcode
G21 ; set units to millimeters
G90 ; use absolute coordinates
M83 ; use relative distances for extrusion
;BEFORE_LAYER_CHANGE
G92 E0.0
;0.2


G1 E-0.80000 F2100.00000
G1 Z0.600 F10800.000
;AFTER_LAYER_CHANGE
;0.2
G1 X104.861 Y77.943
G1 Z0.200
G1 E0.80000 F2100.00000
M204 S1000
G1 F1200
G1 X105.587 Y77.149 E0.03374
G1 X106.250 Y76.661 E0.02581
G1 X107.186 Y76.222 E0.03240
G1 X130.407 Y69.267 E0.76003
G1 X131.030 Y69.177 E0.01976
G1 X143.398 Y69.368 E0.38782
G1 X144.055 Y69.569 E0.02157
G1 X144.618 Y69.965 E0.02157
G1 X145.030 Y70.516 E0.02157
G1 X145.251 Y71.167 E0.02157
G1 X145.947 Y76.327 E0.16324
G1 X149.047 Y118.339 E1.32084
G1 X149.052 Y119.217 E0.02754
G1 X145.220 Y140.445 E0.67637
G1 X144.982 Y141.033 E0.01987
G1 X144.585 Y141.527 E0.01987
G1 X144.064 Y141.887 E0.01987
G1 X143.461 Y142.083 E0.01987
G1 X130.989 Y141.944 E0.39108
G1 X130.385 Y141.848 E0.01919
G1 X106.734 Y133.598 E0.78539
G1 X105.701 Y132.950 E0.03823
G1 X104.885 Y132.090 E0.03718
G1 X104.298 Y131.038 E0.03775
G1 X104.003 Y129.943 E0.03556
G1 X103.951 Y129.252 E0.02172
G1 X103.951 Y80.739 E1.52109
G1 X104.076 Y79.672 E0.03370
G1 X104.322 Y78.905 E0.02524
G1 X104.831 Y77.995 E0.03269
; PURGING FINISHED
G1 F8640
G1 X105.587 Y77.149 E-0.26198
G1 X106.250 Y76.661 E-0.19009
G1 X107.186 Y76.222 E-0.23862
G1 X107.473 Y76.136 E-0.06932
G1 E-0.04000 F2100.00000
G1 Z0.800 F10800.000
G1 X131.027 Y71.365
G1 Z0.200
G1 E0.80000 F2100.00000
G1 F1200
G1 X131.027 Y75.726 E0.13672
G1 X131.781 Y75.640 E0.02380
G1 X131.781 Y71.535 E0.12870
G1 X132.536 Y71.535 E0.02365
G1 X132.536 Y75.554 E0.12601
G1 X133.055 Y75.495 E0.01639
G1 X133.290 Y75.493 E0.00737
G1 X133.290 Y71.535 E0.12411
G1 X134.044 Y71.535 E0.02365
G1 X134.044 Y75.493 E0.12411
G1 X134.798 Y75.493 E0.02365
G1 X134.798 Y71.535 E0.12411
G1 X135.552 Y71.535 E0.02365
G1 X135.552 Y82.079 E0.33060
G1 X136.306 Y82.079 E0.02365
G1 X136.306 Y71.535 E0.33060
G1 X137.061 Y71.535 E0.02365
G1 X137.061 Y82.079 E0.33060
G1 X137.815 Y82.079 E0.02365
G1 X137.815 Y71.535 E0.33060
G1 X138.569 Y71.535 E0.02365
G1 X138.569 Y82.079 E0.33060
G1 X139.323 Y82.079 E0.02365
G1 X139.323 Y71.535 E0.33060
G1 X140.077 Y71.535 E0.02365
G1 X140.077 Y82.079 E0.33060
G1 X140.831 Y82.079 E0.02365
G1 X140.831 Y71.535 E0.33060
G1 X141.585 Y71.535 E0.02365
G1 X141.585 Y82.079 E0.33060
G1 X142.340 Y82.079 E0.02365
G1 X142.340 Y71.535 E0.33060
G1 X143.094 Y71.535 E0.02365
G1 X143.094 Y82.249 E0.33592
G1 F8640
G1 X143.094 Y78.957 E-0.76000
G1 E-0.04000 F2100.00000
G1 Z0.800 F10800.000
G1 X135.552 Y89.822
G1 Z0.200
G1 E0.80000 F2100.00000
G1 F1200
G1 X135.552 Y100.536 E0.33592
G1 X136.306 Y100.536 E0.02365
G1 X136.306 Y89.992 E0.33060
G1 X137.061 Y89.992 E0.02365
G1 X137.061 Y100.536 E0.33060
G1 X137.815 Y100.536 E0.02365
G1 X137.815 Y89.992 E0.33060
G1 X138.569 Y89.992 E0.02365
G1 X138.569 Y100.536 E0.33060
G1 X139.323 Y100.536 E0.02365
G1 X139.323 Y89.992 E0.33060
G1 X140.077 Y89.992 E0.02365
G1 X140.077 Y100.536 E0.33060
G1 X140.831 Y100.536 E0.02365
G1 X140.831 Y89.992 E0.33060
G1 X141.585 Y89.992 E0.02365
G1 X141.585 Y100.536 E0.33060
G1 X142.340 Y100.536 E0.02365
G1 X142.340 Y89.992 E0.33060
G1 X143.094 Y89.992 E0.02365
G1 X143.094 Y100.705 E0.33592
G1 F8640
G1 X143.094 Y97.414 E-0.76000
G1 E-0.04000 F2100.00000
G1 Z0.800 F10800.000
G1 X146.865 Y119.162
G1 Z0.200
G1 E0.80000 F2100.00000
G1 F1200
G1 X146.865 Y118.496 E0.02088
G1 X146.110 Y117.742 E0.03344
G1 X146.110 Y118.992 E0.03921
G1 X145.356 Y118.992 E0.02365
G1 X145.356 Y116.988 E0.06285
G1 X144.602 Y116.233 E0.03344
G1 X144.602 Y118.992 E0.08650
G1 X143.848 Y118.992 E0.02365
G1 X143.848 Y115.479 E0.11015
G1 X143.192 Y114.823 E0.02908
G1 X143.192 Y114.604 E0.00687
G1 X143.711 Y114.340 E0.01827
G1 X143.711 Y108.448 E0.18472
G1 X143.094 Y108.448 E0.01936
G1 X143.094 Y118.992 E0.33060
G1 X142.340 Y118.992 E0.02365
G1 X142.340 Y108.448 E0.33060
G1 X141.585 Y108.448 E0.02365
G1 X141.585 Y118.992 E0.33060
G1 X140.831 Y118.992 E0.02365
G1 X140.831 Y108.448 E0.33060
G1 X140.077 Y108.448 E0.02365
G1 X140.077 Y118.992 E0.33060
G1 X139.323 Y118.992 E0.02365
G1 X139.323 Y108.448 E0.33060
G1 X138.569 Y108.448 E0.02365
G1 X138.569 Y118.992 E0.33060
G1 X137.815 Y118.992 E0.02365
G1 X137.815 Y108.448 E0.33060
G1 X137.061 Y108.448 E0.02365
G1 X137.061 Y118.992 E0.33060
G1 X136.306 Y118.992 E0.02365
G1 X136.306 Y108.448 E0.33060
G1 X135.552 Y108.448 E0.02365
G1 X135.552 Y119.162 E0.33592
G1 F8640
G1 X135.552 Y115.871 E-0.76000
G1 E-0.04000 F2100.00000
G1 Z0.800 F10800.000
G1 X131.027 Y134.103
G1 Z0.200
G1 E0.80000 F2100.00000
G1 F1200
G1 X131.027 Y139.756 E0.17724
G1 X131.781 Y139.756 E0.02365
G1 X131.781 Y134.360 E0.16919
G1 X132.536 Y134.446 E0.02380
G1 X132.536 Y139.756 E0.16649
G1 X133.290 Y139.756 E0.02365
G1 X133.290 Y134.507 E0.16459
G1 X134.044 Y134.507 E0.02365
G1 X134.044 Y139.756 E0.16459
G1 X134.798 Y139.756 E0.02365
G1 X134.798 Y134.507 E0.16459
G1 X135.111 Y134.507 E0.00982
G1 X135.354 Y134.264 E0.01074
G1 X135.354 Y126.905 E0.23075
G1 X135.552 Y126.905 E0.00623
G1 X135.552 Y139.756 E0.40294
G1 X136.306 Y139.756 E0.02365
G1 X136.306 Y126.905 E0.40294
G1 X137.061 Y126.905 E0.02365
G1 X137.061 Y139.756 E0.40294
G1 X137.815 Y139.756 E0.02365
G1 X137.815 Y126.905 E0.40294
G1 X138.569 Y126.905 E0.02365
G1 X138.569 Y139.756 E0.40294
G1 X139.323 Y139.756 E0.02365
G1 X139.323 Y126.905 E0.40294
G1 X140.077 Y126.905 E0.02365
G1 X140.077 Y139.756 E0.40294
G1 X140.831 Y139.756 E0.02365
G1 X140.831 Y126.905 E0.40294
G1 X141.585 Y126.905 E0.02365
G1 X141.585 Y139.756 E0.40294
G1 X142.340 Y139.756 E0.02365
G1 X142.340 Y126.905 E0.40294
G1 X143.094 Y126.905 E0.02365
G1 X143.094 Y139.926 E0.40826
G1 F8640
G1 X143.094 Y136.634 E-0.76000
G1 E-0.04000 F2100.00000
G1 Z0.800 F10800.000
G1 X134.353 Y133.506
G1 Z0.200
G1 E0.80000 F2100.00000
G1 F1200
G1 X133.123 Y133.506 E0.03855
G1 X113.973 Y131.321 E0.60433
G1 X113.973 Y130.582 E0.02317
G1 X125.590 Y130.582 E0.36424
G1 X125.988 Y130.532 E0.01255
G1 X126.375 Y130.432 E0.01255
G1 X126.747 Y130.285 E0.01255
G1 X127.098 Y130.092 E0.01256
G1 X127.422 Y129.857 E0.01255
G1 X127.714 Y129.582 E0.01255
G1 X127.969 Y129.274 E0.01255
G1 X128.184 Y128.936 E0.01255
G1 X128.354 Y128.574 E0.01256
G1 X128.478 Y128.193 E0.01255
G1 X128.553 Y127.800 E0.01255
G1 X128.577 Y127.418 E0.01198
G1 X128.577 Y82.582 E1.40583
G1 X128.553 Y82.200 E0.01198
G1 X128.478 Y81.807 E0.01255
G1 X128.354 Y81.426 E0.01255
G1 X128.184 Y81.064 E0.01256
G1 X127.969 Y80.726 E0.01255
G1 X127.714 Y80.418 E0.01255
G1 X127.422 Y80.143 E0.01255
G1 X127.098 Y79.908 E0.01255
G1 X126.747 Y79.715 E0.01256
G1 X126.375 Y79.568 E0.01255
G1 X125.988 Y79.468 E0.01255
G1 X125.590 Y79.418 E0.01255
G1 X113.973 Y79.418 E0.36426
G1 X113.973 Y78.679 E0.02317
G1 X133.123 Y76.494 E0.60435
G1 X134.353 Y76.494 E0.03855
G1 X134.353 Y133.446 E1.78570
G1 X134.730 Y133.883 F10800.000
G1 F1200
G1 X133.102 Y133.883 E0.05105
G1 X113.596 Y131.658 E0.61555
G1 X113.596 Y130.205 E0.04555
G1 X125.567 Y130.205 E0.37532
G1 X125.917 Y130.161 E0.01107
G1 X126.258 Y130.073 E0.01106
G1 X126.587 Y129.943 E0.01107
G1 X126.896 Y129.773 E0.01107
G1 X127.181 Y129.565 E0.01107
G1 X127.439 Y129.324 E0.01107
G1 X127.664 Y129.052 E0.01107
G1 X127.853 Y128.754 E0.01106
G1 X128.003 Y128.435 E0.01107
G1 X128.112 Y128.099 E0.01107
G1 X128.178 Y127.752 E0.01107
G1 X128.200 Y127.407 E0.01086
G1 X128.200 Y82.593 E1.40509
G1 X128.178 Y82.248 E0.01086
G1 X128.112 Y81.901 E0.01107
G1 X128.003 Y81.565 E0.01107
G1 X127.853 Y81.246 E0.01107
G1 X127.664 Y80.948 E0.01106
G1 X127.439 Y80.676 E0.01107
G1 X127.181 Y80.435 E0.01107
G1 X126.896 Y80.227 E0.01107
G1 X126.587 Y80.057 E0.01107
G1 X126.258 Y79.927 E0.01107
G1 X125.917 Y79.839 E0.01106
G1 X125.567 Y79.795 E0.01107
G1 X113.596 Y79.795 E0.37534
G1 X113.596 Y78.343 E0.04554
G1 X133.102 Y76.117 E0.61558
G1 X134.730 Y76.117 E0.05105
G1 X134.730 Y133.823 E1.80934
G1 X134.382 Y133.686 F10800.000
G1 F8640
G1 X133.102 Y133.883 E-0.37618
G1 X131.450 Y133.695 E-0.38382
G1 E-0.04000 F2100.00000
G1 Z0.800 F10800.000
G1 X114.951 Y131.319
G1 Z0.200
G1 E0.80000 F2100.00000
G1 F1200
G1 X114.497 Y130.865 E0.02018
G1 X115.032 Y130.865 E0.01680
G1 X115.362 Y131.195 E0.01467
G1 X115.965 Y131.264 E0.01909
G1 X115.566 Y130.865 E0.01773
G1 X116.101 Y130.865 E0.01680
G1 X116.569 Y131.333 E0.02079
G1 X117.172 Y131.401 E0.01909
G1 X116.636 Y130.865 E0.02385
G1 X117.170 Y130.865 E0.01680
G1 X117.776 Y131.470 E0.02692
G1 X118.379 Y131.539 E0.01909
G1 X117.705 Y130.865 E0.02998
G1 X118.239 Y130.865 E0.01680
G1 X118.983 Y131.608 E0.03304
G1 X119.586 Y131.677 E0.01909
G1 X118.774 Y130.865 E0.03610
G1 X119.308 Y130.865 E0.01680
G1 X120.189 Y131.746 E0.03916
G1 X120.793 Y131.815 E0.01909
G1 X119.843 Y130.865 E0.04222
G1 X120.378 Y130.865 E0.01680
G1 X121.396 Y131.883 E0.04528
G1 X122.000 Y131.952 E0.01909
G1 X120.912 Y130.865 E0.04834
G1 X121.447 Y130.865 E0.01680
G1 X122.603 Y132.021 E0.05140
G1 X123.206 Y132.090 E0.01909
G1 X121.981 Y130.865 E0.05446
G1 X122.516 Y130.865 E0.01680
G1 X123.810 Y132.159 E0.05752
G1 X124.413 Y132.228 E0.01909
G1 X123.050 Y130.865 E0.06058
G1 X123.585 Y130.865 E0.01680
G1 X125.017 Y132.296 E0.06364
G1 X125.620 Y132.365 E0.01909
G1 X124.120 Y130.865 E0.06670
G1 X124.654 Y130.865 E0.01680
G1 X126.224 Y132.434 E0.06976
G1 X126.827 Y132.503 E0.01909
G1 X125.189 Y130.865 E0.07282
G1 X125.710 Y130.852 E0.01640
G1 X127.430 Y132.572 E0.07646
G1 X128.034 Y132.641 E0.01909
G1 X126.170 Y130.777 E0.08285
G1 X126.582 Y130.654 E0.01351
G1 X128.637 Y132.710 E0.09135
G1 X129.241 Y132.778 E0.01909
G1 X126.955 Y130.493 E0.10158
G1 X127.295 Y130.298 E0.01231
G1 X129.844 Y132.847 E0.11329
G1 X130.447 Y132.916 E0.01909
G1 X127.605 Y130.073 E0.12637
G1 X127.880 Y129.814 E0.01189
G1 X131.051 Y132.985 E0.14093
G1 X131.654 Y133.054 E0.01909
G1 X128.127 Y129.527 E0.15678
G1 X128.345 Y129.210 E0.01208
G1 X132.258 Y133.123 E0.17392
G1 X132.861 Y133.192 E0.01909
G1 X128.531 Y128.862 E0.19246
G1 X128.618 Y128.678 E0.00638
G1 X128.683 Y128.478 E0.00659
G1 X133.427 Y133.223 E0.21091
G1 X133.962 Y133.223 E0.01680
G1 X128.793 Y128.054 E0.22978
G1 X128.834 Y127.835 E0.00699
G1 X128.850 Y127.577 E0.00813
G1 X134.070 Y132.797 E0.23201
G1 X134.070 Y132.262 E0.01680
G1 X128.860 Y127.052 E0.23159
G1 X128.860 Y126.517 E0.01680
G1 X134.070 Y131.728 E0.23159
G1 X134.070 Y131.193 E0.01680
G1 X128.860 Y125.983 E0.23159
G1 X128.860 Y125.448 E0.01680
G1 X134.070 Y130.659 E0.23159
G1 X134.070 Y130.124 E0.01680
G1 X128.860 Y124.914 E0.23159
G1 X128.860 Y124.379 E0.01680
G1 X134.070 Y129.589 E0.23159
G1 X134.070 Y129.055 E0.01680
G1 X128.860 Y123.845 E0.23159
G1 X128.860 Y123.310 E0.01680
G1 X134.070 Y128.520 E0.23159
G1 X134.070 Y127.986 E0.01680
G1 X128.860 Y122.775 E0.23159
G1 X128.860 Y122.241 E0.01680
G1 X134.070 Y127.451 E0.23159
G1 X134.070 Y126.917 E0.01680
G1 X128.860 Y121.706 E0.23159
G1 X128.860 Y121.172 E0.01680
G1 X134.070 Y126.382 E0.23159
G1 X134.070 Y125.847 E0.01680
G1 X128.860 Y120.637 E0.23159
G1 X128.860 Y120.103 E0.01680
G1 X134.070 Y125.313 E0.23159
G1 X134.070 Y124.778 E0.01680
G1 X128.860 Y119.568 E0.23159
G1 X128.860 Y119.033 E0.01680
G1 X134.070 Y124.244 E0.23159
G1 X134.070 Y123.709 E0.01680
G1 X128.860 Y118.499 E0.23159
G1 X128.860 Y117.964 E0.01680
G1 X134.070 Y123.175 E0.23159
G1 X134.070 Y122.640 E0.01680
G1 X128.860 Y117.430 E0.23159
G1 X128.860 Y116.895 E0.01680
G1 X134.070 Y122.105 E0.23159
G1 X134.070 Y121.571 E0.01680
G1 X128.860 Y116.361 E0.23159
G1 X128.860 Y115.826 E0.01680
G1 X134.070 Y121.036 E0.23159
G1 X134.070 Y120.502 E0.01680
G1 X128.860 Y115.291 E0.23159
G1 X128.860 Y114.757 E0.01680
G1 X134.070 Y119.967 E0.23159
G1 X134.070 Y119.433 E0.01680
G1 X128.860 Y114.222 E0.23159
G1 X128.860 Y113.688 E0.01680
G1 X134.070 Y118.898 E0.23159
G1 X134.070 Y118.363 E0.01680
G1 X128.860 Y113.153 E0.23159
G1 X128.860 Y112.619 E0.01680
G1 X134.070 Y117.829 E0.23159
G1 X134.070 Y117.294 E0.01680
G1 X128.860 Y112.084 E0.23159
G1 X128.860 Y111.549 E0.01680
G1 X134.070 Y116.760 E0.23159
G1 X134.070 Y116.225 E0.01680
G1 X128.860 Y111.015 E0.23159
G1 X128.860 Y110.480 E0.01680
G1 X134.070 Y115.691 E0.23159
G1 X134.070 Y115.156 E0.01680
G1 X128.860 Y109.946 E0.23159
G1 X128.860 Y109.411 E0.01680
G1 X134.070 Y114.621 E0.23159
G1 X134.070 Y114.087 E0.01680
G1 X128.860 Y108.877 E0.23159
G1 X128.860 Y108.342 E0.01680
G1 X134.070 Y113.552 E0.23159
G1 X134.070 Y113.018 E0.01680
G1 X128.860 Y107.807 E0.23159
G1 X128.860 Y107.273 E0.01680
G1 X134.070 Y112.483 E0.23159
G1 X134.070 Y111.949 E0.01680
G1 X128.860 Y106.738 E0.23159
G1 X128.860 Y106.204 E0.01680
G1 X134.070 Y111.414 E0.23159
G1 X134.070 Y110.879 E0.01680
G1 X128.860 Y105.669 E0.23159
G1 X128.860 Y105.135 E0.01680
G1 X134.070 Y110.345 E0.23159
G1 X134.070 Y109.810 E0.01680
G1 X128.860 Y104.600 E0.23159
G1 X128.860 Y104.065 E0.01680
G1 X134.070 Y109.276 E0.23159
G1 X134.070 Y108.741 E0.01680
G1 X128.860 Y103.531 E0.23159
G1 X128.860 Y102.996 E0.01680
G1 X134.070 Y108.207 E0.23159
G1 X134.070 Y107.672 E0.01680
G1 X128.860 Y102.462 E0.23159
G1 X128.860 Y101.927 E0.01680
G1 X134.070 Y107.137 E0.23159
G1 X134.070 Y106.603 E0.01680
G1 X128.860 Y101.393 E0.23159
G1 X128.860 Y100.858 E0.01680
G1 X134.070 Y106.068 E0.23159
G1 X134.070 Y105.534 E0.01680
G1 X128.860 Y100.323 E0.23159
G1 X128.860 Y99.789 E0.01680
G1 X134.070 Y104.999 E0.23159
G1 X134.070 Y104.465 E0.01680
G1 X128.860 Y99.254 E0.23159
G1 X128.860 Y98.720 E0.01680
G1 X134.070 Y103.930 E0.23159
G1 X134.070 Y103.395 E0.01680
G1 X128.860 Y98.185 E0.23159
G1 X128.860 Y97.651 E0.01680
G1 X134.070 Y102.861 E0.23159
G1 X134.070 Y102.326 E0.01680
G1 X128.860 Y97.116 E0.23159
G1 X128.860 Y96.581 E0.01680
G1 X134.070 Y101.792 E0.23159
G1 X134.070 Y101.257 E0.01680
G1 X128.860 Y96.047 E0.23159
G1 X128.860 Y95.512 E0.01680
G1 X134.070 Y100.723 E0.23159
G1 X134.070 Y100.188 E0.01680
G1 X128.860 Y94.978 E0.23159
G1 X128.860 Y94.443 E0.01680
G1 X134.070 Y99.653 E0.23159
G1 X134.070 Y99.119 E0.01680
G1 X128.860 Y93.909 E0.23159
G1 X128.860 Y93.374 E0.01680
G1 X134.070 Y98.584 E0.23159
G1 X134.070 Y98.050 E0.01680
G1 X128.860 Y92.839 E0.23159
G1 X128.860 Y92.305 E0.01680
G1 X134.070 Y97.515 E0.23159
G1 X134.070 Y96.981 E0.01680
G1 X128.860 Y91.770 E0.23159
G1 X128.860 Y91.236 E0.01680
G1 X134.070 Y96.446 E0.23159
G1 X134.070 Y95.911 E0.01680
G1 X128.860 Y90.701 E0.23159
G1 X128.860 Y90.167 E0.01680
G1 X134.070 Y95.377 E0.23159
G1 X134.070 Y94.842 E0.01680
G1 X128.860 Y89.632 E0.23159
G1 X128.860 Y89.097 E0.01680
G1 X134.070 Y94.308 E0.23159
G1 X134.070 Y93.773 E0.01680
G1 X128.860 Y88.563 E0.23159
G1 X128.860 Y88.028 E0.01680
G1 X134.070 Y93.239 E0.23159
G1 X134.070 Y92.704 E0.01680
G1 X128.860 Y87.494 E0.23159
G1 X128.860 Y86.959 E0.01680
G1 X134.070 Y92.169 E0.23159
G1 X134.070 Y91.635 E0.01680
G1 X128.860 Y86.425 E0.23159
G1 X128.860 Y85.890 E0.01680
G1 X134.070 Y91.100 E0.23159
G1 X134.070 Y90.566 E0.01680
G1 X128.860 Y85.356 E0.23159
