; generated by PrusaSlicer 2.4.1+x64 on 2022-04-06 at 16:53:21 UTC
;
;
;
;
; 
; external perimeters extrusion width = 0.45mm
; perimeters extrusion width = 0.45mm
; infill extrusion width = 0.45mm
; solid infill extrusion width = 0.45mm
; top infill extrusion width = 0.40mm
; first layer extrusion width = 0.42mm
M73 P0 R51
M201 X9000 Y9000 Z500 E10000 ; sets maximum accelerations, mm/sec^2
M203 X500 Y500 Z12 E120 ; sets maximum feedrates, mm / sec
M204 P2000 R1500 T2000 ; sets acceleration (P, T) and retract acceleration (R), mm/sec^2
M205 X10.00 Y10.00 Z0.20 E4.50 ; sets the jerk limits, mm/sec
M205 S0 T0 ; sets the minimum extruding and travel feed rate, mm/sec
M107
;TYPE:Custom
M83  ; extruder relative mode
M140 S85 ; set bed temp
M109 S160 ; Set extruder temp before bed level
M190 S85 ; wait for bed temp
G28 W ; home all without mesh bed level
G80 N7 ; mesh bed leveling
M109 S240 ; wait for extruder temp
M221 S100 ; Set flow to 100
G1 Y-3.0 F1000.0 ; go outside print area
G92 E0.0
G1 E8 ; Purge Bubble
G1 X60.0 E9.0 F1000.0 ; intro line
G1 X100.0 E12.5 F1000.0 ; intro line
G92 E0.0
G21 ; set units to millimeters
G90 ; use absolute coordinates
M83 ; use relative distances for extrusion
M900 K0.08 ; Filament gcode LA 1.5
M900 K45 ; Filament gcode LA 1.0
M107
;LAYER_CHANGE
M117 INDICATOR-Layer1
;Z:0.2
;HEIGHT:0.2
;BEFORE_LAYER_CHANGE
M117 DASHBOARD_LAYER_INDICATOR 1
G92 E0.0
;0.2
G1 E-1 F2100
G1 Z.2 F10800
;AFTER_LAYER_CHANGE
;0.2
G1 Z.4
G1 X93.292 Y87.751
G1 Z.2
G1 E1 F2100
M204 S1000
;TYPE:Skirt/Brim
;WIDTH:0.42
G1 F1200
G1 X94.155 Y87.411 E.0291
G1 X136.108 Y79.826 E1.33672
G1 X152.422 Y79.788 E.51152
G1 X153.729 Y80.18 E.04278
G1 X154.534 Y81.074 E.03774
G1 X161.112 Y93.812 E.44948
G1 X161.377 Y94.902 E.03519
G1 X161.377 Y125.835 E.96987
G1 X160.985 Y127.142 E.04278
G1 X159.94 Y128.018 E.04278
G1 X159 Y128.212 E.03008
G1 X126.64 Y128.187 E1.01464
G1 X88.654 Y122.602 E1.20381
G1 X87.418 Y122.024 E.04278
G1 X86.623 Y120.25 E.06096
G1 X86.623 Y102.351 E.56121
G1 X86.826 Y101.389 E.03084
G1 X92.404 Y88.788 E.43208
G1 X93.253 Y87.797 E.0409
@Object prusaheatbedcablecover_medyk3d.stl id:0 copy 0
;WIPE_START
G1 F8640
G1 X94.155 Y87.411 E-.22666
G1 X97.238 Y86.854 E-.72334
;WIPE_END
G1 E-.05 F2100
G1 Z.4 F10800
G1 X128.172 Y96.04
G1 Z.2
G1 E1 F2100
;TYPE:Perimeter
G1 F1200
G1 X128.172 Y95.224 E.02557
G1 X129.03 Y94.824 E.02968
G1 X128.912 Y94.935 E.00508
G1 X128.573 Y95.345 E.01668
G1 X128.288 Y95.794 E.01668
G1 X128.198 Y95.985 E.00662
G1 X128.264 Y96.877 F10800
;TYPE:External perimeter
G1 F1200
G1 X128.413 Y96.415 E.01522
G1 X128.619 Y95.976 E.0152
G1 X128.879 Y95.567 E.01519
G1 X129.187 Y95.194 E.01519
G1 X129.541 Y94.862 E.01519
G1 X129.933 Y94.577 E.01519
G1 X130.357 Y94.344 E.01519
G1 X130.808 Y94.166 E.01519
G1 X131.277 Y94.045 E.01519
G1 X131.758 Y93.984 E.01519
G1 X132.242 Y93.984 E.01519
G1 X132.723 Y94.045 E.01519
G1 X133.192 Y94.166 E.01519
G1 X133.643 Y94.344 E.01519
G1 X134.067 Y94.577 E.01519
G1 X134.459 Y94.862 E.01519
G1 X134.813 Y95.194 E.01519
G1 X135.121 Y95.567 E.01519
G1 X135.273 Y95.806 E.00887
G1 X135.381 Y95.976 E.00632
G1 X135.587 Y96.415 E.01519
G1 X135.737 Y96.875 E.01519
G1 X135.828 Y97.351 E.01519
G1 X135.858 Y97.835 E.01519
G1 X135.828 Y98.319 E.01519
G1 X135.737 Y98.795 E.01519
G1 X135.587 Y99.255 E.01519
G1 X135.381 Y99.694 E.01519
G1 X135.121 Y100.103 E.01519
G1 X134.813 Y100.476 E.01519
G1 X134.459 Y100.808 E.01519
G1 X134.067 Y101.093 E.01519
G1 X133.643 Y101.326 E.01519
G1 X133.192 Y101.504 E.01519
G1 X132.723 Y101.625 E.01519
G1 X132.242 Y101.686 E.01519
G1 X131.758 Y101.686 E.01519
G1 X131.277 Y101.625 E.01519
G1 X130.808 Y101.504 E.01519
G1 X130.357 Y101.326 E.01519
G1 X129.933 Y101.093 E.01519
G1 X129.541 Y100.808 E.01519
G1 X129.187 Y100.476 E.01519
G1 X128.879 Y100.103 E.01519
G1 X128.619 Y99.694 E.01519
G1 X128.413 Y99.255 E.0152
G1 X128.264 Y98.793 E.01522
G1 X128.177 Y98.315 E.01524
G1 X128.157 Y97.835 E.01505
G1 X128.177 Y97.355 E.01505
G1 X128.253 Y96.936 E.01336
G1 X127.976 Y96.599 F10800
;WIPE_START
G1 F8640
G1 X128.413 Y96.415 E-.12585
G1 X128.619 Y95.976 E-.11192
G1 X128.879 Y95.567 E-.11189
G1 X129.187 Y95.194 E-.11189
G1 X129.541 Y94.862 E-.11188
G1 X129.933 Y94.577 E-.11187
G1 X130.357 Y94.344 E-.11187
G1 X130.808 Y94.166 E-.11187
G1 X130.979 Y94.121 E-.04096
;WIPE_END
G1 E-.05 F2100
G1 Z.4 F10800
G1 X140.711 Y116.772
G1 Z.2
G1 E1 F2100
;TYPE:Perimeter
G1 F1200
G1 X141.196 Y116.502 E.01742
G1 X141.691 Y116.306 E.01668
G1 X142.206 Y116.174 E.01669
G1 X142.734 Y116.107 E.01668
G1 X143.266 Y116.107 E.01668
G1 X143.794 Y116.174 E.01668
G1 X144.309 Y116.306 E.01668
G1 X144.804 Y116.502 E.01668
G1 X145.27 Y116.758 E.01668
G1 X145.7 Y117.071 E.01668
G1 X146.088 Y117.435 E.01668
G1 X146.427 Y117.845 E.01668
G1 X146.712 Y118.294 E.01668
G1 X146.829 Y118.543 E.00862
G1 X146.939 Y118.776 E.00806
G1 X147.103 Y119.282 E.01668
G1 X147.203 Y119.804 E.01668
G1 X147.236 Y120.335 E.01668
G1 X147.203 Y120.866 E.01668
G1 X147.151 Y121.136 E.00862
G1 X147.103 Y121.388 E.00806
G1 X146.939 Y121.894 E.01668
G1 X146.712 Y122.376 E.01668
G1 X146.427 Y122.825 E.01668
G1 X146.088 Y123.235 E.01668
G1 X145.7 Y123.599 E.01668
G1 X145.27 Y123.912 E.01668
G1 X144.804 Y124.168 E.01668
G1 X144.309 Y124.364 E.01668
G1 X143.794 Y124.496 E.01668
G1 X143.266 Y124.563 E.01668
G1 X142.734 Y124.563 E.01668
G1 X142.206 Y124.496 E.01668
G1 X141.691 Y124.364 E.01668
G1 X141.196 Y124.168 E.01668
G1 X140.73 Y123.912 E.01668
G1 X140.3 Y123.599 E.01668
G1 X139.912 Y123.235 E.01668
G1 X139.573 Y122.825 E.01668
G1 X139.288 Y122.376 E.01668
G1 X139.192 Y122.172 E.00707
G1 X139.061 Y121.894 E.00961
G1 X138.897 Y121.388 E.01668
G1 X138.797 Y120.866 E.01668
G1 X138.764 Y120.335 E.01668
G1 X138.797 Y119.804 E.01668
G1 X138.897 Y119.282 E.01668
G1 X139.061 Y118.776 E.01668
G1 X139.288 Y118.294 E.01668
G1 X139.573 Y117.845 E.01668
G1 X139.912 Y117.435 E.01668
G1 X140.3 Y117.071 E.01668
G1 X140.662 Y116.808 E.01405
G1 X140.933 Y117.077 F10800
;TYPE:External perimeter
G1 F1200
G1 X141.357 Y116.844 E.01519
G1 X141.808 Y116.666 E.01519
G1 X142.277 Y116.545 E.01519
G1 X142.758 Y116.484 E.01519
G1 X143.242 Y116.484 E.01519
G1 X143.723 Y116.545 E.01519
G1 X144.192 Y116.666 E.01519
G1 X144.643 Y116.844 E.01519
G1 X145.067 Y117.077 E.01519
G1 X145.459 Y117.362 E.01519
G1 X145.813 Y117.694 E.01519
G1 X146.121 Y118.067 E.01519
G1 X146.381 Y118.476 E.01519
G1 X146.488 Y118.703 E.00787
G1 X146.587 Y118.915 E.00732
G1 X146.737 Y119.375 E.01519
G1 X146.828 Y119.851 E.01519
G1 X146.858 Y120.335 E.01519
G1 X146.828 Y120.819 E.01519
G1 X146.781 Y121.065 E.00787
G1 X146.737 Y121.295 E.00732
G1 X146.587 Y121.755 E.01519
G1 X146.381 Y122.194 E.01519
G1 X146.121 Y122.603 E.01519
G1 X145.813 Y122.976 E.01519
G1 X145.459 Y123.308 E.01519
G1 X145.067 Y123.593 E.01519
G1 X144.643 Y123.826 E.01519
G1 X144.192 Y124.004 E.01519
G1 X143.723 Y124.125 E.01519
G1 X143.242 Y124.186 E.01519
G1 X142.758 Y124.186 E.01519
G1 X142.277 Y124.125 E.01519
G1 X141.808 Y124.004 E.01519
G1 X141.357 Y123.826 E.01519
G1 X140.933 Y123.593 E.01519
G1 X140.541 Y123.308 E.01519
G1 X140.187 Y122.976 E.01519
G1 X139.879 Y122.603 E.01519
G1 X139.619 Y122.194 E.01519
G1 X139.533 Y122.011 E.00632
G1 X139.413 Y121.755 E.00887
G1 X139.263 Y121.295 E.01519
G1 X139.172 Y120.819 E.01519
G1 X139.142 Y120.335 E.01519
G1 X139.172 Y119.851 E.01519
G1 X139.263 Y119.375 E.01519
G1 X139.413 Y118.915 E.01519
G1 X139.619 Y118.476 E.01519
G1 X139.879 Y118.067 E.01519
G1 X140.187 Y117.694 E.01519
G1 X140.541 Y117.362 E.01519
G1 X140.884 Y117.113 E.01331
G1 X140.916 Y116.678 F10800
;WIPE_START
G1 F8640
G1 X141.357 Y116.844 E-.12563
G1 X141.808 Y116.666 E-.11187
G1 X142.277 Y116.545 E-.1119
G1 X142.758 Y116.484 E-.11188
G1 X143.242 Y116.484 E-.11187
G1 X143.723 Y116.545 E-.11188
G1 X144.192 Y116.666 E-.11189
G1 X144.643 Y116.844 E-.11188
G1 X144.799 Y116.93 E-.04121
;WIPE_END
G1 E-.05 F2100
G1 Z.4 F10800
G1 X150.881 Y92.817
G1 Z.2
G1 E1 F2100
;TYPE:Perimeter
G1 F1200
G1 X151.919 Y93.301 E.03591
G1 X151.325 Y93.62 E.02113
G1 X150.818 Y93.989 E.01966
G1 X150.361 Y94.418 E.01966
G1 X149.962 Y94.901 E.01966
G1 X149.626 Y95.43 E.01966
G1 X149.359 Y95.997 E.01965
G1 X149.165 Y96.594 E.01966
G1 X149.048 Y97.209 E.01966
G1 X149.008 Y97.835 E.01965
G1 X149.048 Y98.461 E.01965
G1 X149.165 Y99.076 E.01966
G1 X149.359 Y99.673 E.01966
G1 X149.626 Y100.24 E.01965
G1 X149.962 Y100.769 E.01966
G1 X150.361 Y101.252 E.01966
G1 X150.818 Y101.681 E.01965
G1 X151.325 Y102.05 E.01966
G1 X151.875 Y102.352 E.01965
G1 X152.457 Y102.582 E.01965
G1 X153.065 Y102.738 E.01966
G1 X153.687 Y102.817 E.01966
G1 X154.313 Y102.817 E.01965
G1 X154.935 Y102.738 E.01966
G1 X155.543 Y102.582 E.01966
G1 X156.125 Y102.352 E.01965
G1 X156.675 Y102.05 E.01966
G1 X157.059 Y101.771 E.01488
G1 X157.059 Y123.894 E.69365
G1 X146.488 Y123.894 E.33144
G1 X146.639 Y123.752 E.00649
G1 X147.038 Y123.269 E.01966
G1 X147.374 Y122.74 E.01966
G1 X147.641 Y122.173 E.01965
G1 X147.835 Y121.576 E.01965
G1 X147.952 Y120.961 E.01966
G1 X147.992 Y120.335 E.01965
G1 X147.952 Y119.709 E.01966
G1 X147.835 Y119.094 E.01965
G1 X147.641 Y118.497 E.01966
G1 X147.374 Y117.93 E.01966
G1 X147.038 Y117.401 E.01965
G1 X146.639 Y116.918 E.01965
G1 X146.182 Y116.489 E.01966
G1 X145.675 Y116.12 E.01966
G1 X145.125 Y115.818 E.01966
G1 X144.543 Y115.588 E.01965
G1 X143.935 Y115.432 E.01966
G1 X143.313 Y115.353 E.01966
G1 X142.687 Y115.353 E.01965
G1 X142.065 Y115.432 E.01965
G1 X141.77 Y115.507 E.00956
G1 X141.457 Y115.588 E.01011
G1 X140.875 Y115.818 E.01965
G1 X140.325 Y116.12 E.01965
G1 X139.818 Y116.489 E.01966
G1 X139.361 Y116.918 E.01966
G1 X138.962 Y117.401 E.01965
G1 X138.772 Y117.7 E.0111
G1 X138.626 Y117.93 E.00855
G1 X138.359 Y118.497 E.01965
G1 X138.165 Y119.094 E.01965
G1 X138.108 Y119.393 E.00955
G1 X138.048 Y119.709 E.0101
G1 X138.008 Y120.335 E.01965
G1 X138.048 Y120.961 E.01966
G1 X138.165 Y121.576 E.01965
G1 X138.359 Y122.173 E.01966
G1 X138.626 Y122.74 E.01966
G1 X138.962 Y123.269 E.01965
G1 X139.361 Y123.752 E.01966
G1 X139.512 Y123.894 E.00649
G1 X128.927 Y123.894 E.3319
G1 X128.927 Y101.76 E.69399
G1 X129.325 Y102.05 E.01545
G1 X129.875 Y102.352 E.01966
G1 X130.457 Y102.582 E.01965
G1 X131.065 Y102.738 E.01966
G1 X131.687 Y102.817 E.01966
G1 X132.313 Y102.817 E.01965
G1 X132.935 Y102.738 E.01965
G1 X133.543 Y102.582 E.01967
G1 X134.125 Y102.352 E.01965
G1 X134.675 Y102.05 E.01965
G1 X135.182 Y101.681 E.01966
G1 X135.639 Y101.252 E.01965
G1 X136.038 Y100.769 E.01966
G1 X136.202 Y100.512 E.00956
G1 X136.374 Y100.24 E.0101
G1 X136.641 Y99.673 E.01965
G1 X136.835 Y99.076 E.01966
G1 X136.892 Y98.777 E.00955
G1 X136.952 Y98.461 E.01011
G1 X136.992 Y97.835 E.01965
G1 X136.952 Y97.209 E.01965
G1 X136.892 Y96.893 E.01011
G1 X136.835 Y96.594 E.00955
G1 X136.641 Y95.997 E.01966
G1 X136.374 Y95.43 E.01965
G1 X136.228 Y95.2 E.00855
G1 X136.038 Y94.901 E.01111
G1 X135.639 Y94.418 E.01966
G1 X135.182 Y93.989 E.01966
G1 X134.675 Y93.62 E.01966
G1 X134.081 Y93.301 E.02113
G1 X135.088 Y92.831 E.03484
G1 X135.152 Y90.832 E.06271
G1 X135.248 Y89.834 E.03145
G1 X135.407 Y88.843 E.03145
G1 X135.629 Y87.865 E.03145
G1 X135.913 Y86.903 E.03145
G1 X136.258 Y85.961 E.03145
G1 X136.662 Y85.043 E.03145
G1 X137.123 Y84.153 E.03143
G1 X137.394 Y83.706 E.01638
G1 X150.881 Y83.706 E.42286
G1 X150.881 Y92.757 E.28378
M73 P1 R51
G1 X151.258 Y92.577 F10800
G1 F1200
G1 X152.929 Y93.356 E.05781
G1 X152.574 Y93.447 E.01148
G1 X152.035 Y93.66 E.01816
G1 X151.528 Y93.939 E.01816
G1 X151.059 Y94.28 E.01817
G1 X150.637 Y94.676 E.01817
G1 X150.267 Y95.123 E.01817
G1 X149.957 Y95.612 E.01817
G1 X149.71 Y96.136 E.01816
G1 X149.531 Y96.688 E.01817
G1 X149.422 Y97.257 E.01817
G1 X149.386 Y97.835 E.01817
G1 X149.422 Y98.413 E.01817
G1 X149.531 Y98.982 E.01817
G1 X149.71 Y99.534 E.01817
G1 X149.957 Y100.058 E.01816
G1 X150.267 Y100.547 E.01817
G1 X150.637 Y100.994 E.01817
G1 X151.059 Y101.39 E.01817
G1 X151.528 Y101.731 E.01817
G1 X152.035 Y102.01 E.01816
G1 X152.574 Y102.223 E.01817
G1 X153.135 Y102.367 E.01817
G1 X153.71 Y102.44 E.01817
G1 X154.29 Y102.44 E.01816
G1 X154.865 Y102.367 E.01817
G1 X155.426 Y102.223 E.01817
G1 X155.965 Y102.01 E.01816
G1 X156.472 Y101.731 E.01817
G1 X156.941 Y101.39 E.01816
G1 X157.436 Y100.906 E.02171
G1 X157.436 Y124.271 E.73259
G1 X145.399 Y124.271 E.3774
G1 X145.941 Y123.89 E.02076
G1 X146.363 Y123.493 E.01817
G1 X146.733 Y123.047 E.01817
G1 X146.91 Y122.768 E.01036
G1 X147.043 Y122.558 E.00781
G1 X147.29 Y122.034 E.01817
G1 X147.469 Y121.482 E.01817
G1 X147.522 Y121.206 E.00881
G1 X147.578 Y120.913 E.00936
G1 X147.614 Y120.335 E.01817
G1 X147.578 Y119.757 E.01817
G1 X147.469 Y119.188 E.01817
G1 X147.29 Y118.636 E.01817
G1 X147.17 Y118.382 E.00881
G1 X147.043 Y118.112 E.00936
G1 X146.733 Y117.623 E.01817
G1 X146.363 Y117.177 E.01817
G1 X145.941 Y116.78 E.01817
G1 X145.472 Y116.439 E.01817
G1 X144.965 Y116.16 E.01817
G1 X144.426 Y115.947 E.01816
G1 X143.865 Y115.803 E.01817
G1 X143.29 Y115.73 E.01817
G1 X142.71 Y115.73 E.01817
G1 X142.136 Y115.803 E.01817
G1 X141.574 Y115.947 E.01818
G1 X141.035 Y116.16 E.01816
G1 X140.528 Y116.439 E.01816
G1 X140.059 Y116.78 E.01817
G1 X139.637 Y117.177 E.01817
G1 X139.267 Y117.623 E.01817
G1 X139.09 Y117.902 E.01036
G1 X138.957 Y118.112 E.00781
G1 X138.71 Y118.636 E.01817
G1 X138.531 Y119.188 E.01817
G1 X138.422 Y119.757 E.01817
G1 X138.386 Y120.335 E.01817
G1 X138.422 Y120.913 E.01817
G1 X138.531 Y121.482 E.01817
G1 X138.71 Y122.034 E.01817
G1 X138.957 Y122.558 E.01817
G1 X139.267 Y123.047 E.01817
G1 X139.637 Y123.493 E.01817
G1 X140.059 Y123.89 E.01817
G1 X140.601 Y124.271 E.02076
G1 X128.549 Y124.271 E.37786
G1 X128.549 Y100.888 E.73315
G1 X128.637 Y100.994 E.00429
G1 X129.059 Y101.39 E.01817
G1 X129.528 Y101.731 E.01816
G1 X130.035 Y102.01 E.01817
G1 X130.574 Y102.223 E.01816
G1 X131.135 Y102.367 E.01817
G1 X131.71 Y102.44 E.01817
G1 X132.29 Y102.44 E.01816
G1 X132.865 Y102.367 E.01817
G1 X133.426 Y102.223 E.01818
G1 X133.965 Y102.01 E.01816
G1 X134.472 Y101.731 E.01816
G1 X134.941 Y101.39 E.01817
G1 X135.363 Y100.994 E.01817
G1 X135.733 Y100.547 E.01817
G1 X136.043 Y100.058 E.01817
G1 X136.29 Y99.534 E.01816
G1 X136.469 Y98.982 E.01817
G1 X136.578 Y98.413 E.01817
G1 X136.614 Y97.835 E.01817
G1 X136.578 Y97.257 E.01817
G1 X136.522 Y96.963 E.00936
G1 X136.469 Y96.688 E.00881
G1 X136.29 Y96.136 E.01817
G1 X136.043 Y95.612 E.01816
G1 X135.733 Y95.123 E.01817
G1 X135.363 Y94.676 E.01817
G1 X134.941 Y94.28 E.01817
G1 X134.472 Y93.939 E.01817
G1 X133.965 Y93.66 E.01816
G1 X133.426 Y93.447 E.01817
G1 X133.071 Y93.356 E.01148
G1 X134.719 Y92.588 E.057
G1 X134.776 Y90.808 E.05581
G1 X134.874 Y89.786 E.03221
G1 X135.037 Y88.772 E.03221
G1 X135.264 Y87.77 E.03221
G1 X135.555 Y86.785 E.03221
G1 X135.908 Y85.82 E.03221
G1 X136.321 Y84.88 E.03221
G1 X136.794 Y83.968 E.03221
G1 X137.182 Y83.329 E.02343
G1 X151.258 Y83.329 E.44133
G1 X151.258 Y92.517 E.28807
G1 X151.635 Y92.336 F10800
G1 F1200
G1 X154.395 Y93.624 E.09549
G1 X154.266 Y93.607 E.00408
G1 X153.734 Y93.607 E.01668
G1 X153.206 Y93.674 E.01668
G1 X152.691 Y93.806 E.01668
G1 X152.196 Y94.002 E.01668
G1 X151.73 Y94.258 E.01668
G1 X151.3 Y94.571 E.01668
G1 X150.912 Y94.935 E.01668
G1 X150.573 Y95.345 E.01668
G1 X150.288 Y95.794 E.01668
G1 X150.061 Y96.276 E.01668
G1 X149.897 Y96.782 E.01668
G1 X149.849 Y97.034 E.00806
G1 X149.797 Y97.304 E.00862
G1 X149.764 Y97.835 E.01668
G1 X149.797 Y98.366 E.01668
G1 X149.897 Y98.888 E.01668
G1 X150.061 Y99.394 E.01668
G1 X150.288 Y99.876 E.01668
G1 X150.409 Y100.066 E.00707
G1 X150.573 Y100.325 E.00962
G1 X150.912 Y100.735 E.01668
G1 X151.3 Y101.099 E.01668
G1 X151.73 Y101.412 E.01668
G1 X152.196 Y101.668 E.01668
G1 X152.691 Y101.864 E.01668
G1 X153.206 Y101.996 E.01668
G1 X153.734 Y102.063 E.01668
G1 X154.266 Y102.063 E.01668
G1 X154.794 Y101.996 E.01668
G1 X155.309 Y101.864 E.01668
G1 X155.804 Y101.668 E.01668
G1 X156.27 Y101.412 E.01668
G1 X156.7 Y101.099 E.01668
G1 X157.088 Y100.735 E.01668
G1 X157.427 Y100.325 E.01668
G1 X157.712 Y99.875 E.01669
G1 X157.813 Y99.661 E.00743
G1 X157.813 Y124.648 E.78345
