; generated by PrusaSlicer 2.1.0+ on 2019-10-12 at 08:51:58 UTC

; 

; external perimeters extrusion width = 0.45mm
; perimeters extrusion width = 0.45mm
; infill extrusion width = 0.45mm
; solid infill extrusion width = 0.45mm
; top infill extrusion width = 0.40mm
; support material extrusion width = 0.35mm
; first layer extrusion width = 0.42mm

M73 P0 R58
M201 X9000 Y9000 Z500 E10000 ; sets maximum accelerations, mm/sec^2
M203 X500 Y500 Z12 E120 ; sets maximum feedrates, mm/sec
M204 P2000 R1500 T2000 ; sets acceleration (P, T) and retract acceleration (R), mm/sec^2
M205 X10.00 Y10.00 Z0.20 E2.50 ; sets the jerk limits, mm/sec
M205 S0 T0 ; sets the minimum extruding and travel feed rate, mm/sec
M107
M83  ; extruder relative mode
M140 S75 ; set bed temp
M109 S160 ; Set extruder temp before bed level
M190 S75 ; wait for bed temp

G28 W ; home all without mesh bed level
G80 N7 ; mesh bed leveling

M109 S240 ; wait for extruder temp

M221 S100 ; Set flow to 100

G1 Y-3.0 F1000.0 ; go outside print area
G92 E0.0
G1 E8 ; Purge Bubble
M73 P0 R58
G1 X60.0 E9.0 F1000.0 ; intro line
G1 X100.0 E12.5 F1000.0 ; intro line
G92 E0.0
G21 ; set units to millimeters
G90 ; use absolute coordinates
M83 ; use relative distances for extrusion
M900 K45; Filament gcode
;BEFORE_LAYER_CHANGE
G92 E0.0
;0.2


G1 E-0.80000 F2100.00000
G1 Z0.600 F10800.000
;AFTER_LAYER_CHANGE
;0.2
G1 X76.602 Y81.165
G1 Z0.200
G1 E0.80000 F2100.00000
M204 S1000
G1 F1200
G1 X77.175 Y80.662 E0.02201
G1 X77.812 Y80.252 E0.02185
G1 X78.508 Y79.940 E0.02201
G1 X79.254 Y79.733 E0.02233
G1 X80.017 Y79.642 E0.02217
G1 X89.292 Y79.468 E0.26760
G1 X168.530 Y79.638 E2.28568
G1 X169.818 Y79.818 E0.03752
G1 X171.018 Y80.319 E0.03752
G1 X171.932 Y80.992 E0.03273
G1 X172.674 Y81.851 E0.03273
G1 X173.207 Y82.852 E0.03273
G1 X173.505 Y83.947 E0.03273
G1 X173.565 Y84.702 E0.02185
G1 X173.565 Y95.447 E0.30994
G1 X173.494 Y96.285 E0.02425
G1 X173.255 Y97.189 E0.02697
G1 X164.276 Y121.763 E0.75471
G1 X163.909 Y122.544 E0.02489
G1 X163.120 Y123.579 E0.03752
G1 X162.100 Y124.376 E0.03736
G1 X160.911 Y124.891 E0.03736
G1 X159.626 Y125.089 E0.03752
G1 X90.450 Y125.090 E1.99545
G1 X89.161 Y124.911 E0.03752
G1 X87.956 Y124.409 E0.03768
G1 X87.308 Y123.965 E0.02265
G1 X86.736 Y123.427 E0.02265
G1 X86.254 Y122.808 E0.02265
G1 X85.872 Y122.121 E0.02265
G1 X75.392 Y97.002 E0.78513
G1 X75.216 Y96.277 E0.02153
G1 X75.148 Y95.539 E0.02137
G1 X75.149 Y84.578 E0.31620
G1 X75.228 Y83.824 E0.02185
G1 X75.417 Y83.091 E0.02185
G1 X75.716 Y82.389 E0.02201
G1 X76.113 Y81.744 E0.02185
G1 X76.563 Y81.211 E0.02012
G1 F8640
G1 X77.175 Y80.662 E-0.18987
G1 X77.812 Y80.252 E-0.17488
G1 X78.508 Y79.940 E-0.17616
G1 X79.254 Y79.733 E-0.17873
G1 X79.428 Y79.713 E-0.04035
G1 E-0.04000 F2100.00000
G1 Z0.800 F10800.000
G1 X97.211 Y113.287
G1 Z0.200
G1 E0.80000 F2100.00000
G1 F1200
G1 X152.787 Y113.287 E1.60312
G1 X152.802 Y89.375 E0.68976
G1 X153.212 Y87.960 E0.04249
G1 X153.650 Y87.235 E0.02443
G1 X153.768 Y87.096 E0.00526
G1 X153.768 Y84.329 E0.07982
G1 X154.137 Y82.810 E0.04508
G1 X154.767 Y81.733 E0.03601
G1 X155.618 Y80.873 E0.03489
G1 X156.681 Y80.227 E0.03587
G1 X157.832 Y79.879 E0.03471
G1 X168.916 Y79.831 E0.31972
G1 X170.405 Y80.201 E0.04424
G1 X171.362 Y80.744 E0.03175
G1 X172.162 Y81.482 E0.03139
G1 X172.861 Y82.500 E0.03564
G1 X173.367 Y84.180 E0.05062
G1 X173.285 Y96.525 E0.35610
G1 X172.889 Y97.608 E0.03326
G1 X172.287 Y98.482 E0.03061
G1 X171.396 Y99.316 E0.03521
G1 X170.294 Y99.901 E0.03599
G1 X169.239 Y100.142 E0.03123
G1 X168.341 Y100.145 E0.02590
G1 X168.067 Y100.174 E0.00794
G1 X164.213 Y100.174 E0.11117
G1 X164.194 Y120.657 E0.59085
G1 X163.836 Y121.933 E0.03824
G1 X163.155 Y123.011 E0.03676
G1 X162.551 Y123.615 E0.02464
G1 X161.967 Y124.066 E0.02130
G1 X160.438 Y124.647 E0.04718
G1 X89.846 Y124.691 E2.03631
G1 X88.925 Y124.479 E0.02726
G1 X87.923 Y123.982 E0.03226
G1 X86.887 Y123.057 E0.04005
G1 X86.193 Y121.996 E0.03658
G1 X85.814 Y120.716 E0.03851
G1 X85.787 Y100.172 E0.59262
G1 X84.449 Y100.174 E0.03861
G1 X83.841 Y100.149 E0.01755
G1 X83.601 Y100.174 E0.00695
G1 X80.644 Y100.174 E0.08530
G1 X80.356 Y100.143 E0.00836
G1 X79.341 Y100.128 E0.02927
G1 X78.419 Y99.901 E0.02741
G1 X77.437 Y99.400 E0.03179
G1 X76.294 Y98.325 E0.04528
G1 X75.649 Y97.226 E0.03675
G1 X75.343 Y96.007 E0.03626
G1 X75.335 Y84.237 E0.33952
G1 X75.846 Y82.512 E0.05190
G1 X76.453 Y81.593 E0.03174
G1 X77.204 Y80.857 E0.03034
G1 X78.114 Y80.287 E0.03097
G1 X79.674 Y79.840 E0.04682
G1 X88.858 Y79.826 E0.26491
G1 X89.455 Y79.851 E0.01723
G1 X89.695 Y79.826 E0.00695
G1 X92.682 Y79.826 E0.08617
G1 X93.961 Y80.094 E0.03769
G1 X95.120 Y80.694 E0.03767
G1 X96.098 Y81.601 E0.03848
G1 X96.786 Y82.699 E0.03738
G1 X97.162 Y83.948 E0.03762
G1 X97.211 Y113.227 E0.84456
G1 X96.835 Y113.664 F10800.000
G1 F1200
G1 X153.164 Y113.664 E1.62486
G1 X153.171 Y89.454 E0.69834
G1 X153.567 Y88.090 E0.04097
G1 X153.961 Y87.449 E0.02170
G1 X154.145 Y87.243 E0.00798
G1 X154.145 Y84.351 E0.08341
G1 X154.477 Y82.975 E0.04083
G1 X155.052 Y81.981 E0.03314
G1 X155.869 Y81.156 E0.03349
G1 X156.854 Y80.563 E0.03315
G1 X157.914 Y80.248 E0.03189
G1 X168.894 Y80.208 E0.31675
G1 X170.241 Y80.541 E0.04002
G1 X171.156 Y81.061 E0.03036
G1 X171.890 Y81.744 E0.02892
G1 X172.509 Y82.639 E0.03141
G1 X172.990 Y84.207 E0.04732
G1 X172.919 Y96.426 E0.35247
G1 X172.543 Y97.456 E0.03162
G1 X172.015 Y98.220 E0.02680
G1 X171.157 Y99.023 E0.03388
G1 X170.141 Y99.556 E0.03309
G1 X169.217 Y99.765 E0.02734
G1 X168.319 Y99.768 E0.02591
G1 X168.056 Y99.797 E0.00762
G1 X163.836 Y99.797 E0.12173
G1 X163.824 Y120.582 E0.59956
G1 X163.501 Y121.757 E0.03515
G1 X162.873 Y122.759 E0.03412
G1 X162.294 Y123.339 E0.02365
G1 X161.760 Y123.749 E0.01941
G1 X160.338 Y124.282 E0.04380
G1 X89.907 Y124.318 E2.03164
G1 X89.071 Y124.131 E0.02471
G1 X88.114 Y123.656 E0.03083
G1 X87.159 Y122.795 E0.03709
G1 X86.525 Y121.815 E0.03365
G1 X86.184 Y120.637 E0.03538
G1 X86.164 Y99.794 E0.60124
G1 X84.452 Y99.797 E0.04938
G1 X83.827 Y99.771 E0.01803
G1 X83.590 Y99.797 E0.00688
G1 X80.655 Y99.797 E0.08467
G1 X80.380 Y99.766 E0.00797
G1 X79.368 Y99.752 E0.02920
G1 X78.569 Y99.555 E0.02376
G1 X77.674 Y99.106 E0.02888
G1 X76.604 Y98.108 E0.04220
G1 X76.007 Y97.105 E0.03366
G1 X75.720 Y95.983 E0.03343
G1 X75.712 Y84.265 E0.33802
G1 X76.199 Y82.648 E0.04871
G1 X76.730 Y81.849 E0.02766
G1 X77.453 Y81.141 E0.02918
G1 X78.290 Y80.622 E0.02841
G1 X79.751 Y80.210 E0.04381
G1 X88.846 Y80.203 E0.26235
G1 X89.468 Y80.229 E0.01796
G1 X89.705 Y80.203 E0.00688
G1 X92.663 Y80.203 E0.08531
G1 X93.812 Y80.441 E0.03386
G1 X94.885 Y80.989 E0.03475
G1 X95.793 Y81.825 E0.03561
G1 X96.432 Y82.833 E0.03443
G1 X96.793 Y84.031 E0.03607
G1 X96.835 Y113.604 E0.85306
G1 X96.458 Y114.041 F10800.000
G1 F1200
G1 X153.541 Y114.041 E1.64660
G1 X153.541 Y89.534 E0.70693
G1 X153.922 Y88.221 E0.03942
G1 X154.270 Y87.666 E0.01891
G1 X154.522 Y87.391 E0.01076
G1 X154.522 Y84.373 E0.08706
G1 X154.818 Y83.138 E0.03663
G1 X155.339 Y82.227 E0.03029
G1 X156.086 Y81.465 E0.03078
G1 X156.985 Y80.917 E0.03036
G1 X157.995 Y80.617 E0.03039
G1 X168.872 Y80.585 E0.31376
G1 X170.077 Y80.882 E0.03580
G1 X170.950 Y81.378 E0.02895
G1 X171.618 Y82.005 E0.02643
G1 X172.158 Y82.780 E0.02726
G1 X172.613 Y84.235 E0.04398
G1 X172.554 Y96.328 E0.34882
M73 P1 R57
G1 X172.197 Y97.303 E0.02997
G1 X171.741 Y97.960 E0.02306
G1 X170.958 Y98.701 E0.03109
G1 X169.988 Y99.210 E0.03160
G1 X169.196 Y99.388 E0.02343
G1 X168.296 Y99.391 E0.02595
G1 X168.045 Y99.420 E0.00730
G1 X163.459 Y99.420 E0.13227
G1 X163.453 Y120.509 E0.60833
G1 X163.166 Y121.583 E0.03206
G1 X162.591 Y122.508 E0.03143
G1 X162.036 Y123.063 E0.02265
G1 X161.554 Y123.432 E0.01750
G1 X160.239 Y123.917 E0.04041
G1 X89.967 Y123.945 E2.02707
G1 X89.218 Y123.782 E0.02213
G1 X88.305 Y123.330 E0.02937
G1 X87.432 Y122.533 E0.03410
G1 X86.858 Y121.637 E0.03072
G1 X86.554 Y120.560 E0.03226
G1 X86.541 Y99.416 E0.60992
G1 X84.455 Y99.420 E0.06015
G1 X83.813 Y99.393 E0.01854
G1 X83.579 Y99.420 E0.00680
G1 X80.667 Y99.420 E0.08401
G1 X80.406 Y99.389 E0.00758
G1 X79.395 Y99.375 E0.02916
G1 X78.716 Y99.207 E0.02017
G1 X77.908 Y98.809 E0.02598
G1 X76.912 Y97.890 E0.03911
G1 X76.365 Y96.983 E0.03056
G1 X76.097 Y95.958 E0.03056
G1 X76.090 Y84.293 E0.33649
G1 X76.551 Y82.785 E0.04548
G1 X77.009 Y82.104 E0.02367
G1 X77.670 Y81.450 E0.02683
G1 X78.465 Y80.957 E0.02700
G1 X79.827 Y80.580 E0.04075
G1 X88.842 Y80.580 E0.26006
G1 X89.483 Y80.607 E0.01849
G1 X89.717 Y80.580 E0.00680
G1 X92.644 Y80.580 E0.08444
G1 X93.664 Y80.789 E0.03002
G1 X94.689 Y81.313 E0.03323
G1 X95.518 Y82.083 E0.03263
G1 X96.099 Y83.011 E0.03156
G1 X96.424 Y84.111 E0.03310
G1 X96.458 Y113.981 E0.86162
G1 X96.081 Y114.418 F10800.000
G1 F1200
G1 X153.918 Y114.418 E1.66835
G1 X153.918 Y89.560 E0.71703
G1 X154.255 Y88.399 E0.03488
G1 X154.579 Y87.882 E0.01759
G1 X154.899 Y87.542 E0.01348
G1 X154.899 Y84.395 E0.09078
G1 X155.160 Y83.300 E0.03247
G1 X155.627 Y82.471 E0.02745
G1 X156.305 Y81.773 E0.02807
G1 X157.117 Y81.272 E0.02753
G1 X158.077 Y80.986 E0.02887
G1 X168.850 Y80.962 E0.31078
G1 X169.914 Y81.223 E0.03158
G1 X170.743 Y81.694 E0.02751
G1 X171.345 Y82.265 E0.02394
G1 X171.808 Y82.923 E0.02321
G1 X172.236 Y84.264 E0.04060
G1 X172.189 Y96.229 E0.34514
G1 X171.852 Y97.151 E0.02831
G1 X171.467 Y97.701 E0.01937
G1 X170.757 Y98.381 E0.02835
G1 X169.878 Y98.849 E0.02872
G1 X169.173 Y99.011 E0.02088
G1 X168.272 Y99.014 E0.02599
G1 X168.033 Y99.043 E0.00695
G1 X163.645 Y99.043 E0.12656
G1 X163.082 Y99.013 E0.01626
G1 X163.082 Y120.438 E0.61803
G1 X162.829 Y121.410 E0.02897
G1 X162.308 Y122.258 E0.02870
G1 X161.778 Y122.788 E0.02162
G1 X161.349 Y123.114 E0.01556
G1 X160.142 Y123.551 E0.03702
G1 X90.025 Y123.572 E2.02261
G1 X89.363 Y123.433 E0.01950
G1 X88.497 Y123.004 E0.02787
G1 X87.707 Y122.274 E0.03105
G1 X87.192 Y121.460 E0.02779
G1 X86.924 Y120.485 E0.02915
G1 X86.918 Y99.038 E0.61866
G1 X84.459 Y99.043 E0.07092
G1 X83.798 Y99.015 E0.01909
G1 X83.567 Y99.043 E0.00671
G1 X80.679 Y99.043 E0.08331
G1 X80.432 Y99.012 E0.00717
G1 X79.423 Y98.998 E0.02910
G1 X78.828 Y98.847 E0.01771
G1 X78.142 Y98.512 E0.02202
G1 X77.219 Y97.669 E0.03606
G1 X76.721 Y96.858 E0.02745
G1 X76.474 Y95.932 E0.02764
G1 X76.467 Y84.322 E0.33492
G1 X76.902 Y82.926 E0.04218
G1 X77.309 Y82.333 E0.02073
G1 X77.919 Y81.735 E0.02465
G1 X78.640 Y81.292 E0.02441
G1 X79.852 Y80.957 E0.03629
G1 X88.838 Y80.957 E0.25921
G1 X89.498 Y80.985 E0.01905
G1 X89.729 Y80.957 E0.00671
G1 X92.625 Y80.957 E0.08356
G1 X93.517 Y81.137 E0.02624
G1 X94.453 Y81.608 E0.03020
G1 X95.242 Y82.342 E0.03110
G1 X95.764 Y83.186 E0.02863
G1 X96.054 Y84.190 E0.03013
G1 X96.081 Y114.358 E0.87023
G1 X95.704 Y114.795 F10800.000
G1 F1200
G1 X154.295 Y114.795 E1.69010
G1 X154.295 Y89.587 E0.72714
G1 X154.588 Y88.577 E0.03034
G1 X154.888 Y88.100 E0.01626
G1 X155.276 Y87.695 E0.01619
G1 X155.276 Y84.417 E0.09456
G1 X155.501 Y83.462 E0.02830
G1 X155.943 Y82.679 E0.02594
G1 X156.557 Y82.055 E0.02524
G1 X157.291 Y81.607 E0.02481
G1 X158.156 Y81.356 E0.02597
G1 X168.828 Y81.339 E0.30786
G1 X169.750 Y81.564 E0.02738
G1 X170.536 Y82.010 E0.02605
G1 X171.071 Y82.525 E0.02143
G1 X171.459 Y83.069 E0.01927
G1 X171.859 Y84.294 E0.03717
G1 X171.823 Y96.130 E0.34144
G1 X171.506 Y96.997 E0.02662
G1 X171.191 Y97.443 E0.01574
G1 X170.554 Y98.062 E0.02563
G1 X169.766 Y98.488 E0.02584
G1 X169.150 Y98.634 E0.01827
G1 X168.247 Y98.637 E0.02605
G1 X168.020 Y98.666 E0.00659
G1 X163.661 Y98.666 E0.12575
G1 X163.468 Y98.645 E0.00559
G1 X162.705 Y98.649 E0.02200
G1 X162.705 Y120.413 E0.62779
G1 X162.473 Y121.285 E0.02605
G1 X162.027 Y122.006 E0.02445
G1 X161.521 Y122.512 E0.02062
G1 X161.146 Y122.795 E0.01358
G1 X160.047 Y123.185 E0.03361
G1 X90.080 Y123.199 E2.01829
G1 X89.508 Y123.084 E0.01683
G1 X88.690 Y122.679 E0.02631
G1 X87.983 Y122.017 E0.02795
G1 X87.527 Y121.285 E0.02486
G1 X87.295 Y120.413 E0.02605
G1 X87.295 Y98.661 E0.62746
G1 X84.475 Y98.666 E0.08135
G1 X84.283 Y98.645 E0.00556
G1 X83.773 Y98.638 E0.01471
G1 X83.554 Y98.666 E0.00637
G1 X80.692 Y98.666 E0.08258
G1 X80.460 Y98.636 E0.00674
G1 X79.452 Y98.621 E0.02906
G1 X78.942 Y98.487 E0.01523
G1 X78.374 Y98.214 E0.01818
G1 X77.524 Y97.446 E0.03303
G1 X77.077 Y96.730 E0.02435
G1 X76.851 Y95.906 E0.02465
G1 X76.844 Y84.351 E0.33331
G1 X77.252 Y83.069 E0.03881
G1 X77.607 Y82.565 E0.01779
G1 X78.134 Y82.045 E0.02137
G1 X78.814 Y81.627 E0.02302
G1 X79.878 Y81.334 E0.03181
G1 X88.822 Y81.334 E0.25800
G1 X89.013 Y81.355 E0.00554
G1 X89.523 Y81.362 E0.01471
G1 X89.741 Y81.334 E0.00637
G1 X92.607 Y81.334 E0.08267
G1 X93.371 Y81.486 E0.02245
G1 X94.258 Y81.932 E0.02865
G1 X94.964 Y82.598 E0.02800
G1 X95.428 Y83.359 E0.02571
G1 X95.684 Y84.266 E0.02719
G1 X95.704 Y114.735 E0.87889
G1 X95.328 Y115.172 F10800.000
G1 F1200
G1 X154.672 Y115.172 E1.71185
G1 X154.672 Y89.614 E0.73724
G1 X154.922 Y88.755 E0.02579
G1 X155.196 Y88.318 E0.01490
G1 X155.653 Y87.849 E0.01888
G1 X155.653 Y84.438 E0.09840
G1 X155.844 Y83.621 E0.02420
G1 X156.230 Y82.924 E0.02298
G1 X156.808 Y82.337 E0.02378
G1 X157.463 Y81.944 E0.02202
G1 X158.233 Y81.726 E0.02309
G1 X168.806 Y81.716 E0.30500
G1 X169.587 Y81.905 E0.02317
G1 X170.328 Y82.325 E0.02456
G1 X170.796 Y82.783 E0.01890
G1 X171.111 Y83.217 E0.01547
G1 X171.482 Y84.324 E0.03368
G1 X171.458 Y96.032 E0.33772
G1 X171.161 Y96.843 E0.02491
G1 X170.915 Y97.186 E0.01218
G1 X170.349 Y97.745 E0.02295
G1 X169.651 Y98.128 E0.02297
G1 X169.125 Y98.257 E0.01560
G1 X168.220 Y98.259 E0.02613
G1 X168.007 Y98.289 E0.00621
G1 X163.672 Y98.289 E0.12503
G1 X163.495 Y98.268 E0.00515
G1 X162.936 Y98.260 E0.01612
G1 X162.725 Y98.289 E0.00614
G1 X162.328 Y98.288 E0.01145
G1 X162.328 Y120.387 E0.63747
G1 X162.117 Y121.158 E0.02308
G1 X161.745 Y121.755 E0.02026
G1 X161.264 Y122.235 E0.01961
G1 X160.944 Y122.476 E0.01156
G1 X159.955 Y122.818 E0.03020
G1 X90.131 Y122.825 E2.01412
G1 X89.651 Y122.734 E0.01410
G1 X88.884 Y122.354 E0.02469
G1 X88.261 Y121.761 E0.02483
G1 X87.883 Y121.158 E0.02050
G1 X87.672 Y120.387 E0.02307
G1 X87.672 Y98.283 E0.63761
G1 X84.486 Y98.289 E0.09191
G1 X84.308 Y98.268 E0.00516
G1 X83.749 Y98.260 E0.01612
G1 X83.541 Y98.289 E0.00608
G1 X80.705 Y98.289 E0.08180
G1 X80.489 Y98.259 E0.00630
G1 X79.483 Y98.245 E0.02903
G1 X79.058 Y98.128 E0.01271
G1 X78.604 Y97.913 E0.01449
G1 X77.827 Y97.221 E0.03001
G1 X77.432 Y96.600 E0.02124
G1 X77.228 Y95.879 E0.02160
G1 X77.221 Y84.382 E0.33166
G1 X77.601 Y83.216 E0.03537
G1 X77.902 Y82.799 E0.01485
G1 X78.351 Y82.355 E0.01820
G1 X78.989 Y81.963 E0.02161
G1 X79.903 Y81.711 E0.02734
G1 X88.810 Y81.711 E0.25694
G1 X88.988 Y81.732 E0.00515
G1 X89.546 Y81.740 E0.01612
G1 X89.755 Y81.711 E0.00608
G1 X92.590 Y81.711 E0.08177
G1 X93.228 Y81.835 E0.01875
G1 X94.020 Y82.226 E0.02549
G1 X94.686 Y82.854 E0.02640
G1 X95.091 Y83.530 E0.02272
G1 X95.314 Y84.341 E0.02427
G1 X95.327 Y115.112 E0.88761
M73 P3 R56
G1 X94.951 Y115.549 F10800.000
G1 F1200
G1 X155.049 Y115.549 E1.73360
G1 X155.049 Y89.641 E0.74735
G1 X155.256 Y88.931 E0.02134
G1 X155.481 Y88.566 E0.01237
G1 X156.030 Y88.003 E0.02269
G1 X156.030 Y84.459 E0.10222
G1 X156.187 Y83.780 E0.02009
G1 X156.547 Y83.131 E0.02142
G1 X157.058 Y82.620 E0.02085
G1 X157.590 Y82.300 E0.01790
G1 X158.311 Y82.095 E0.02161
G1 X168.743 Y82.088 E0.30093
G1 X169.428 Y82.247 E0.02029
G1 X170.082 Y82.613 E0.02162
G1 X170.520 Y83.041 E0.01768
G1 X170.788 Y83.413 E0.01321
G1 X171.114 Y84.412 E0.03032
G1 X171.092 Y95.933 E0.33234
G1 X170.817 Y96.686 E0.02313
G1 X170.621 Y96.949 E0.00945
G1 X170.141 Y97.429 E0.01958
G1 X169.532 Y97.770 E0.02014
G1 X169.100 Y97.880 E0.01285
G1 X168.191 Y97.882 E0.02623
G1 X167.992 Y97.912 E0.00580
G1 X163.684 Y97.912 E0.12425
G1 X163.521 Y97.892 E0.00474
G1 X162.911 Y97.883 E0.01763
G1 X162.711 Y97.912 E0.00580
G1 X161.951 Y97.909 E0.02194
G1 X161.951 Y120.360 E0.64761
G1 X161.762 Y121.029 E0.02005
G1 X161.464 Y121.503 E0.01615
G1 X161.008 Y121.959 E0.01860
G1 X160.742 Y122.156 E0.00954
G1 X159.923 Y122.441 E0.02503
G1 X90.150 Y122.448 E2.01266
G1 X89.748 Y122.369 E0.01181
G1 X89.123 Y122.061 E0.02010
G1 X88.538 Y121.503 E0.02333
G1 X88.238 Y121.029 E0.01619
