; generated by PrusaSlicer 2.9.4 on 2026-03-10 at 13:21:56 UTC


;
;

;
;
; 

; external perimeters extrusion width = 0.45mm
; perimeters extrusion width = 0.45mm
; infill extrusion width = 0.45mm
; solid infill extrusion width = 0.45mm
; top infill extrusion width = 0.40mm
; first layer extrusion width = 0.42mm

M73 P0 R72
M201 X9000 Y9000 Z500 E10000 ; sets maximum accelerations, mm/sec^2
M203 X500 Y500 Z12 E120 ; sets maximum feedrates, mm / sec
M204 S2000 T1500 ; sets acceleration (S) and retract acceleration (R), mm/sec^2
M205 X10.00 Y10.00 Z0.20 E4.50 ; sets the jerk limits, mm/sec
M205 S0 T0 ; sets the minimum extruding and travel feed rate, mm/sec

; printing object e_cover.stl id:0 copy 0
; stop printing object e_cover.stl id:0 copy 0

;TYPE:Custom
M83  ; extruder relative mode
M140 S85 ; set bed temp
M109 S160 ; Set extruder temp before bed level
M190 S85 ; wait for bed temp

G28 W ; home all without mesh bed level
G80 N7 ; mesh bed leveling

M109 S240 ; wait for extruder temp

M221 S100 ; Set flow to 100

G1 Y-3.0 F1000.0 ; go outside print area
G92 E0.0
G1 E8 ; Purge Bubble
G1 X60.0 E9.0 F1000.0 ; intro line
G1 X100.0 E12.5 F1000.0 ; intro line
G92 E0.0
G21 ; set units to millimeters
G90 ; use absolute coordinates
M83 ; use relative distances for extrusion

M900 K0.08 ; Filament gcode LA 1.5
M900 K45 ; Filament gcode LA 1.0




M107
;LAYER_CHANGE
;Z:0.2
;HEIGHT:0.2
G1 E-1 F2100
G1 Z.4 F720
G1 X95.239 Y81.076 F10800
G1 Z.2 F720
G1 E1 F2100
M204 S800
;TYPE:Skirt/Brim
;WIDTH:0.42
G1 F1200
G1 X96.201 Y80.191 E.04099
G1 X97.134 Y79.982 E.02998
G1 X102.833 Y80.005 E.17869
G1 X154.728 Y87.602 E1.64447
G1 X155.958 Y88.22 E.04316
G1 X157.222 Y89.484 E.05605
G1 X157.864 Y91.032 E.05255
G1 X157.864 Y126.932 E1.12562
G1 X157.663 Y128.028 E.03494
G1 X157.118 Y128.971 E.03415
G1 X156.714 Y129.375 E.01791
G1 X156.012 Y129.82 E.02606
G1 X155.219 Y130.067 E.02604
G1 X154.675 Y130.12 E.01714
G1 X121.675 Y130.12 E1.03469
G1 X120.579 Y129.919 E.03494
G1 X119.544 Y129.3 E.03781
G1 X98.901 Y111.611 E.85237
G1 X98.238 Y110.848 E.03169
G1 X97.75 Y109.738 E.03802
G1 X92.316 Y87.348 E.7224
G1 X92.548 Y85.737 E.05103
G1 X95.209 Y81.128 E.16687
M204 S1000
;WIPE_START
G1 F8640
G1 X95.239 Y81.076 E-.01386
G1 X96.201 Y80.191 E-.30183
G1 X97.134 Y79.982 E-.22077
G1 X99.141 Y79.99 E-.46354
;WIPE_END
G1 Z.4 F720
; printing object e_cover.stl id:0 copy 0
G1 X132.514 Y114.369 F10800
G1 Z.2 F720
G1 E1 F2100
M204 S800
;TYPE:External perimeter
;WIDTH:0.419999
G1 F1200
G1 X132.331 Y114.357 E.00575
G1 X131.764 Y114.559 E.01887
G1 X130.734 Y115.048 E.03575
G1 X130.198 Y115.241 E.01786
G1 X129.699 Y115.347 E.01599
G1 X129.192 Y115.374 E.01592
G1 X128.672 Y115.333 E.01635
;WIDTH:0.434049
G1 X128.158 Y115.155 E.01769
G1 X127.715 Y114.867 E.01718
;WIDTH:0.431869
G1 X126.987 Y114.362 E.02865
G1 X126.66 Y114.063 E.01433
;WIDTH:0.428595
G1 X126.41 Y113.69 E.0144
;WIDTH:0.419999
G1 X126.252 Y113.293 E.0134
G1 X126.167 Y112.894 E.01279
G1 X126.148 Y112.348 E.01713
G1 X126.22 Y111.576 E.02431
G1 X126.422 Y110.847 E.02372
G1 X126.965 Y109.407 E.04825
G1 X127.05 Y108.858 E.01742
G1 X126.965 Y108.332 E.01671
G1 X126.625 Y107.487 E.02856
G1 X125.95 Y106.245 E.04432
G1 X125.738 Y105.799 E.01548
G1 X125.466 Y104.953 E.02786
G1 X125.37 Y104.057 E.02825
G1 X125.462 Y103.16 E.02827
G1 X125.74 Y102.265 E.02938
G1 X126.584 Y100.49 E.06162
G1 X126.919 Y99.678 E.02754
G1 X127.007 Y99.355 E.0105
G1 X127.04 Y98.79 E.01775
G1 X126.885 Y98.129 E.02129
G1 X126.361 Y96.926 E.04114
G1 X126.185 Y96.446 E.01603
G1 X126.033 Y95.929 E.0169
G1 X125.923 Y95.377 E.01765
G1 X125.87 Y94.798 E.01823
G1 X125.893 Y94.196 E.01889
G1 X125.99 Y93.683 E.01637
G1 X126.213 Y92.98 E.02312
G1 X126.467 Y92.45 E.01843
G1 X126.767 Y91.99 E.01722
G1 X127.105 Y91.604 E.01609
G1 X127.522 Y91.278 E.0166
;WIDTH:0.438499
G1 X127.94 Y91.078 E.01524
G1 X128.507 Y91 E.01883
;WIDTH:0.42286
G1 X128.971 Y90.986 E.01467
;WIDTH:0.426609
G1 X129.319 Y91.032 E.0112
G1 X129.811 Y91.196 E.01655
;WIDTH:0.419999
G1 X131.521 Y92.154 E.06146
G1 X131.989 Y92.34 E.01579
G1 X132.457 Y92.438 E.01499
G1 X132.92 Y92.341 E.01483
G1 X133.387 Y92.155 E.01576
G1 X133.835 Y91.923 E.01582
G1 X134.732 Y91.382 E.03284
G1 X135.203 Y91.147 E.0165
;WIDTH:0.422219
G1 X135.619 Y91.028 E.01365
G1 X136.008 Y90.984 E.01235
;WIDTH:0.419456
G1 X136.565 Y91.008 E.01746
;WIDTH:0.434715
G1 X137.012 Y91.095 E.01484
G1 X137.423 Y91.301 E.01498
;WIDTH:0.419999
G1 X137.803 Y91.604 E.01524
G1 X138.142 Y91.99 E.01611
G1 X138.429 Y92.429 E.01644
G1 X138.687 Y92.958 E.01845
G1 X138.893 Y93.557 E.01986
G1 X139.012 Y94.168 E.01952
G1 X139.039 Y94.773 E.01899
G1 X138.988 Y95.357 E.01838
G1 X138.877 Y95.924 E.01812
G1 X138.554 Y96.909 E.0325
G1 X138.023 Y98.129 E.04172
G1 X137.868 Y98.79 E.02129
G1 X137.901 Y99.355 E.01775
G1 X138.097 Y99.939 E.01931
G1 X138.324 Y100.49 E.01868
G1 X139.162 Y102.253 E.0612
G1 X139.331 Y102.716 E.01545
G1 X139.511 Y103.57 E.02736
G1 X139.518 Y104.467 E.02813
G1 X139.393 Y105.079 E.01958
G1 X139.266 Y105.529 E.01466
G1 X138.972 Y106.218 E.02349
G1 X138.313 Y107.431 E.04328
G1 X138.072 Y107.983 E.01889
G1 X137.889 Y108.537 E.01829
G1 X137.858 Y108.858 E.01011
G1 X137.943 Y109.407 E.01742
G1 X138.451 Y110.722 E.0442
G1 X138.633 Y111.365 E.02095
G1 X138.719 Y111.907 E.01721
G1 X138.772 Y112.48 E.01804
G1 X138.736 Y112.948 E.01472
G1 X138.549 Y113.609 E.02154
G1 X138.305 Y114.075 E.01649
G1 X138.029 Y114.42 E.01385
G1 X137.714 Y114.713 E.01349
G1 X137.281 Y115.014 E.01653
G1 X136.788 Y115.238 E.01698
G1 X136.264 Y115.362 E.01688
G1 X135.209 Y115.347 E.03308
G1 X134.713 Y115.242 E.0159
G1 X134.192 Y115.056 E.01735
G1 X133.201 Y114.593 E.0343
G1 X132.599 Y114.375 E.02007
G1 X132.574 Y114.373 E.00079
M204 S1000
;WIPE_START
G1 F8640
G1 X132.514 Y114.369 E-.01388
G1 X132.331 Y114.357 E-.04235
G1 X131.764 Y114.559 E-.13898
G1 X130.734 Y115.048 E-.26327
G1 X130.198 Y115.241 E-.13154
G1 X129.699 Y115.347 E-.11779
G1 X129.192 Y115.374 E-.11723
G1 X128.672 Y115.333 E-.12044
G1 X128.449 Y115.256 E-.05452
;WIPE_END
G1 Z.4 F720
G1 X126.147 Y114.395 F10800
G1 Z.2 F720
G1 E1 F2100
M204 S800
;WIDTH:0.44119
G1 F1200
G1 X126.52 Y114.52 E.01303
G1 X127.484 Y115.166 E.03843
;WIDTH:0.432762
G1 X127.901 Y115.458 E.0165
G1 X128.27 Y115.844 E.01731
;WIDTH:0.419999
G1 X128.394 Y115.99 E.00601
G1 X128.712 Y116.677 E.02374
G1 X128.836 Y117.136 E.01491
G1 X128.887 Y117.715 E.01822
G1 X128.836 Y118.327 E.01926
G1 X128.676 Y118.921 E.01929
G1 X128.415 Y119.477 E.01926
G1 X128.058 Y119.978 E.01929
G1 X127.62 Y120.408 E.01925
G1 X127.111 Y120.753 E.01928
G1 X126.55 Y121.004 E.01927
G1 X125.954 Y121.15 E.01924
G1 X125.341 Y121.189 E.01926
G1 X124.896 Y121.15 E.01401
G1 X124.331 Y121.014 E.01822
G1 X123.768 Y120.77 E.01924
G1 X123.256 Y120.429 E.01929
G1 X122.813 Y120.003 E.01927
G1 X122.452 Y119.506 E.01926
G1 X122.185 Y118.952 E.01928
G1 X122.02 Y118.36 E.01927
G1 X121.963 Y117.748 E.01927
G1 X122.014 Y117.136 E.01926
G1 X122.174 Y116.542 E.01929
G1 X122.435 Y115.986 E.01926
G1 X122.792 Y115.485 E.01929
G1 X123.23 Y115.055 E.01925
G1 X123.738 Y114.71 E.01925
G1 X124.3 Y114.46 E.01929
G1 X124.817 Y114.332 E.0167
G1 X125.51 Y114.277 E.0218
G1 X125.997 Y114.345 E.01542
;WIDTH:0.44119
G1 X126.09 Y114.376 E.00325
M204 S1000
;WIPE_START
G1 F8640
G1 X126.147 Y114.395 E-.01387
G1 X126.52 Y114.52 E-.09083
G1 X127.484 Y115.166 E-.26795
G1 X127.901 Y115.458 E-.11755
G1 X128.27 Y115.844 E-.1233
G1 X128.394 Y115.99 E-.04423
G1 X128.712 Y116.677 E-.1748
G1 X128.836 Y117.136 E-.10978
G1 X128.858 Y117.385 E-.05769
;WIPE_END
G1 Z.4 F720
G1 X144.328 Y123.7 F10800
G1 Z.2 F720
G1 E1 F2100
M204 S800
;WIDTH:0.419999
G1 F1200
G1 X144.345 Y123.716 E.00073
G1 X144.616 Y124.117 E.01518
G1 X144.794 Y124.667 E.01813
G1 X144.835 Y125.054 E.0122
G1 X144.771 Y125.535 E.01521
G1 X144.594 Y125.986 E.01519
G1 X144.315 Y126.382 E.01519
G1 X143.948 Y126.699 E.01521
G1 X143.517 Y126.919 E.01517
;WIDTH:0.448646
G1 X143.281 Y126.989 E.0083
;WIDTH:0.477292
G1 X143.045 Y127.059 E.00889
;WIDTH:0.483695
G1 X142.552 Y127.055 E.01807
G1 X142.322 Y126.979 E.00888
;WIDTH:0.451847
G1 X142.091 Y126.903 E.00827
;WIDTH:0.419999
G1 X141.664 Y126.673 E.01521
G1 X141.305 Y126.348 E.01518
G1 X141.034 Y125.946 E.0152
G1 X140.868 Y125.491 E.01519
G1 X140.815 Y125.009 E.0152
G1 X140.879 Y124.528 E.01521
G1 X141.056 Y124.077 E.01519
G1 X141.335 Y123.681 E.01519
G1 X141.702 Y123.364 E.01521
G1 X142.071 Y123.175 E.013
G1 X142.554 Y123.04 E.01572
G1 X143.06 Y123.034 E.01587
G1 X143.559 Y123.16 E.01614
G1 X143.986 Y123.39 E.01521
G1 X144.283 Y123.66 E.01259
M204 S1000
;WIPE_START
G1 F8640
G1 X144.328 Y123.7 E-.0139
G1 X144.345 Y123.716 E-.00539
G1 X144.616 Y124.117 E-.11175
G1 X144.794 Y124.667 E-.13348
G1 X144.835 Y125.054 E-.08986
G1 X144.771 Y125.535 E-.11204
G1 X144.594 Y125.986 E-.11187
G1 X144.315 Y126.382 E-.11185
G1 X143.948 Y126.699 E-.11198
G1 X143.517 Y126.919 E-.11173
G1 X143.281 Y126.989 E-.05684
G1 X143.159 Y127.025 E-.02931
;WIPE_END
G1 Z.4 F720
G1 X146.778 Y121.002 F10800
G1 Z.2 F720
G1 E1 F2100
M204 S800
;TYPE:Perimeter
G1 F1200
G1 X146.705 Y120.949 E.00283
G1 X146.288 Y120.544 E.01823
G1 X145.968 Y120.125 E.01653
G1 X145.755 Y119.801 E.01216
G1 X145.504 Y119.276 E.01825
G1 X145.333 Y118.706 E.01866
G1 X145.24 Y118.134 E.01817
G1 X145.223 Y117.518 E.01932
G1 X145.271 Y117.005 E.01615
G1 X145.441 Y116.363 E.02082
G1 X145.75 Y115.67 E.02379
G1 X146.179 Y115.046 E.02374
G1 X146.705 Y114.514 E.02346
G1 X147.165 Y114.187 E.0177
G1 X147.464 Y114.003 E.01101
G1 X147.996 Y113.769 E.01822
G1 X148.719 Y113.58 E.02343
G1 X149.248 Y113.523 E.01668
G1 X149.965 Y113.555 E.0225
G1 X150.695 Y113.716 E.02344
G1 X151.386 Y114.003 E.02346
G1 X152.014 Y114.408 E.02343
G1 X152.562 Y114.919 E.02349
G1 X153.01 Y115.518 E.02345
G1 X153.346 Y116.187 E.02347
G1 X153.557 Y116.904 E.02343
G1 X153.638 Y117.648 E.02347
G1 X153.587 Y118.394 E.02344
G1 X153.404 Y119.119 E.02344
G1 X153.095 Y119.801 E.02348
G1 X152.671 Y120.418 E.02347
G1 X152.145 Y120.949 E.02343
G1 X151.533 Y121.379 E.02345
G1 X150.854 Y121.694 E.02347
G1 X150.131 Y121.884 E.02344
G1 X149.602 Y121.94 E.01668
G1 X148.885 Y121.908 E.0225
G1 X148.155 Y121.747 E.02344
G1 X147.464 Y121.46 E.02346
G1 X147.037 Y121.191 E.01582
G1 X146.826 Y121.037 E.00819
M204 S1000
G1 X147.012 Y120.709 F10800
M204 S800
G1 F1200
G1 X146.551 Y120.274 E.01987
G1 X146.146 Y119.725 E.02139
G1 X145.845 Y119.114 E.02136
G1 X145.697 Y118.606 E.01659
G1 X145.616 Y118.101 E.01604
G1 X145.599 Y117.551 E.01725
G1 X145.651 Y117.025 E.01657
G1 X145.805 Y116.462 E.0183
G1 X146.091 Y115.833 E.02166
G1 X146.485 Y115.265 E.02167
G1 X146.968 Y114.785 E.02135
G1 X147.528 Y114.397 E.02136
G1 X148.148 Y114.114 E.02137
G1 X148.807 Y113.946 E.02132
G1 X149.363 Y113.897 E.0175
G1 X149.943 Y113.931 E.01822
G1 X150.607 Y114.082 E.02135
G1 X151.234 Y114.348 E.02136
G1 X151.804 Y114.721 E.02136
G1 X152.299 Y115.189 E.02136
G1 X152.704 Y115.738 E.02139
G1 X153.005 Y116.349 E.02136
G1 X153.193 Y117.004 E.02137
G1 X153.263 Y117.681 E.02134
G1 X153.211 Y118.36 E.02135
G1 X153.04 Y119.02 E.02138
G1 X152.755 Y119.639 E.02137
G1 X152.365 Y120.198 E.02137
G1 X151.882 Y120.678 E.02135
G1 X151.322 Y121.066 E.02136
G1 X150.702 Y121.349 E.02137
G1 X150.043 Y121.517 E.02132
G1 X149.52 Y121.567 E.01647
G1 X148.907 Y121.532 E.01925
G1 X148.243 Y121.381 E.02135
G1 X147.616 Y121.115 E.02136
G1 X147.057 Y120.749 E.02095
M204 S1000
G1 X147.245 Y120.418 F10800
M204 S800
;TYPE:External perimeter
G1 F1200
G1 X146.813 Y120.003 E.01878
G1 X146.452 Y119.506 E.01926
G1 X146.185 Y118.952 E.01928
G1 X146.02 Y118.36 E.01927
G1 X145.97 Y117.831 E.01666
G1 X146.009 Y117.2 E.01982
G1 X146.168 Y116.561 E.02065
G1 X146.431 Y115.995 E.01957
G1 X146.791 Y115.485 E.01957
G1 X147.23 Y115.055 E.01927
G1 X147.738 Y114.71 E.01925
G1 X148.3 Y114.46 E.01929
G1 X148.896 Y114.313 E.01925
G1 X149.341 Y114.274 E.01401
G1 X149.921 Y114.308 E.01822
G1 X150.519 Y114.449 E.01926
G1 X151.082 Y114.694 E.01925
G1 X151.593 Y115.034 E.01924
G1 X152.037 Y115.46 E.01929
G1 X152.398 Y115.957 E.01926
G1 X152.665 Y116.511 E.01928
G1 X152.83 Y117.103 E.01927
G1 X152.887 Y117.715 E.01927
G1 X152.836 Y118.327 E.01926
G1 X152.676 Y118.921 E.01929
G1 X152.415 Y119.477 E.01926
G1 X152.059 Y119.978 E.01927
G1 X151.62 Y120.408 E.01927
G1 X151.111 Y120.753 E.01928
G1 X150.55 Y121.004 E.01927
G1 X149.954 Y121.15 E.01924
G1 X149.509 Y121.189 E.01401
G1 X148.929 Y121.155 E.01822
G1 X148.331 Y121.014 E.01926
G1 X147.768 Y120.77 E.01924
G1 X147.293 Y120.454 E.01789
M204 S1000
;WIPE_START
G1 F8640
G1 X147.245 Y120.418 E-.01385
G1 X146.813 Y120.003 E-.13832
G1 X146.452 Y119.506 E-.14184
G1 X146.185 Y118.952 E-.142
G1 X146.02 Y118.36 E-.1419
G1 X145.97 Y117.831 E-.12269
G1 X146.009 Y117.2 E-.14598
G1 X146.168 Y116.561 E-.15205
G1 X146.171 Y116.556 E-.00137
;WIPE_END
G1 Z.4 F720
G1 X98.854 Y84.27 F10800
G1 Z.2 F720
G1 E1 F2100
M204 S800
;TYPE:Perimeter
G1 F1200
G1 X99.352 Y84.117 E.01633
;WIDTH:0.414285
G1 X100.045 Y84.087 E.02142
;WIDTH:0.420001
G1 X100.634 Y84.196 E.01878
G1 X101.225 Y84.46 E.0203
G1 X101.486 Y84.626 E.0097
G1 X101.964 Y85.088 E.02084
;WIDTH:0.417214
G1 X102.246 Y85.519 E.01603
;WIDTH:0.440411
G1 X102.486 Y86.057 E.01947
G1 X102.584 Y86.718 E.02209
;WIDTH:0.419999
G1 X102.531 Y87.381 E.02085
G1 X102.321 Y88.013 E.02088
G1 X101.965 Y88.576 E.02089
G1 X101.486 Y89.038 E.02087
G1 X100.91 Y89.371 E.02086
G1 X100.27 Y89.557 E.0209
G1 X99.605 Y89.584 E.02087
G1 X98.953 Y89.451 E.02086
G1 X98.351 Y89.167 E.02087
;WIDTH:0.42224
G1 X97.834 Y88.747 E.02101
;WIDTH:0.423921
G1 X97.443 Y88.208 E.0211
;WIDTH:0.44041
G1 X97.164 Y87.606 E.02193
G1 X97.066 Y86.945 E.02209
;WIDTH:0.426983
G1 X97.116 Y86.281 E.02126
;WIDTH:0.440413
G1 X97.164 Y86.057 E.00757
G1 X97.379 Y85.578 E.01735
;WIDTH:0.416084
G1 X97.67 Y85.112 E.01705
;WIDTH:0.419999
G1 X98.164 Y84.626 E.02173
G1 X98.683 Y84.322 E.01886
G1 X98.796 Y84.287 E.00371
M204 S1000
G1 X98.986 Y84.618 F10800
M204 S800
G1 F1200
G1 X99.453 Y84.477 E.0153
G1 X100.045 Y84.456 E.01857
G1 X100.544 Y84.562 E.01599
G1 X101.06 Y84.799 E.0178
G1 X101.236 Y84.908 E.00649
G1 X101.655 Y85.301 E.01801
G1 X101.968 Y85.784 E.01805
G1 X102.157 Y86.327 E.01803
G1 X102.21 Y86.9 E.01804
G1 X102.124 Y87.468 E.01801
G1 X101.905 Y88 E.01804
G1 X101.565 Y88.464 E.01804
G1 X101.125 Y88.832 E.01798
G1 X100.607 Y89.085 E.01808
G1 X100.045 Y89.207 E.01803
G1 X99.47 Y89.191 E.01804
G1 X98.916 Y89.037 E.01803
G1 X98.414 Y88.755 E.01805
G1 X98.027 Y88.404 E.01638
G1 X97.721 Y87.962 E.01686
G1 X97.526 Y87.468 E.01665
G1 X97.44 Y86.9 E.01801
G1 X97.493 Y86.327 E.01804
G1 X97.659 Y85.844 E.01601
G1 X97.985 Y85.316 E.01946
G1 X98.414 Y84.908 E.01856
G1 X98.858 Y84.656 E.01601
G1 X98.928 Y84.635 E.00229
M204 S1000
G1 X99.116 Y84.963 F10800
M204 S800
;TYPE:External perimeter
G1 F1200
G1 X99.554 Y84.84 E.01426
G1 X100.09 Y84.839 E.01681
G1 X100.491 Y84.942 E.01298
G1 X100.943 Y85.162 E.01576
G1 X101.345 Y85.516 E.01679
G1 X101.616 Y85.917 E.01518
G1 X101.782 Y86.373 E.01522
G1 X101.835 Y86.854 E.01517
G1 X101.771 Y87.335 E.01521
G1 X101.594 Y87.786 E.01519
G1 X101.315 Y88.182 E.01519
G1 X100.948 Y88.499 E.01521
G1 X100.517 Y88.719 E.01517
G1 X100.045 Y88.83 E.0152
G1 X99.56 Y88.824 E.01521
G1 X99.091 Y88.703 E.01519
G1 X98.664 Y88.473 E.01521
G1 X98.316 Y88.162 E.01463
G1 X98.034 Y87.746 E.01576
G1 X97.868 Y87.291 E.01519
G1 X97.815 Y86.809 E.0152
G1 X97.879 Y86.328 E.01521
G1 X98.029 Y85.942 E.01298
G1 X98.302 Y85.52 E.01576
G1 X98.702 Y85.164 E.01679
G1 X99.059 Y84.981 E.01258
M204 S1000
;WIPE_START
G1 F8640
G1 X99.116 Y84.963 E-.0138
G1 X99.554 Y84.84 E-.10505
G1 X100.09 Y84.839 E-.12376
G1 X100.491 Y84.942 E-.0956
G1 X100.943 Y85.162 E-.11607
G1 X101.345 Y85.516 E-.12368
G1 X101.616 Y85.917 E-.11175
G1 X101.782 Y86.373 E-.11205
G1 X101.835 Y86.854 E-.11174
G1 X101.786 Y87.225 E-.0865
;WIPE_END
G1 Z.4 F720
G1 X154.488 Y92.687 F10800
G1 Z.2 F720
G1 E1 F2100
M204 S800
;TYPE:Perimeter
;WIDTH:0.466314
G1 F1200
G1 X154.488 Y91.523 E.04098
M204 S1000
;WIPE_START
G1 F8640
G1 X154.488 Y92.687 E-.26877
;WIPE_END
G1 E-.73123 F2100
G1 Z.4 F720
G1 X154.48 Y99.197 F10800
