; generated by PrusaSlicer 2.2.0+win64 on 2020-09-27 at 12:17:26 UTC


;
;

;
;
; 

; external perimeters extrusion width = 0.45mm
; perimeters extrusion width = 0.45mm
; infill extrusion width = 0.45mm
; solid infill extrusion width = 0.45mm
; top infill extrusion width = 0.45mm
; first layer extrusion width = 0.42mm

M73 P0 R55
M201 X9000 Y9000 Z500 E10000 ; sets maximum accelerations, mm/sec^2
M203 X500 Y500 Z12 E120 ; sets maximum feedrates, mm/sec
M204 P2000 R1500 T2000 ; sets acceleration (P, T) and retract acceleration (R), mm/sec^2
M205 X10.00 Y10.00 Z0.20 E2.50 ; sets the jerk limits, mm/sec
M205 S0 T0 ; sets the minimum extruding and travel feed rate, mm/sec
M107
M83  ; extruder relative mode
M140 S85 ; set bed temp
M109 S160 ; Set extruder temp before bed level
M190 S85 ; wait for bed temp

G28 W ; home all without mesh bed level
G80 N7 ; mesh bed leveling

M109 S240 ; wait for extruder temp

M221 S100 ; Set flow to 100

G1 Y-3.0 F1000.0 ; go outside print area
G92 E0.0
G1 E8 ; Purge Bubble
M73 P0 R55
G1 X60.0 E9.0 F1000.0 ; intro line
G1 X100.0 E12.5 F1000.0 ; intro line
G92 E0.0
G21 ; set units to millimeters
G90 ; use absolute coordinates
M83 ; use relative distances for extrusion
M900 K0.08 ; Filament gcode LA 1.5
M900 K45 ; Filament gcode LA 1.0
;BEFORE_LAYER_CHANGE
G92 E0.0
;0.2


G1 E-1.40000 F2100.00000
G1 Z0.200 F10800.000
;AFTER_LAYER_CHANGE
;0.2
G1 Z0.400
G1 X184.017 Y130.049
G1 Z0.200
G1 E1.40000 F2100.00000
M204 S1000
G1 F1200.000
G1 X183.475 Y130.828 E0.02975
G1 X182.677 Y131.404 E0.03085
G1 X181.508 Y131.825 E0.03896
G1 X180.347 Y132.057 E0.03714
G1 X178.782 Y132.241 E0.04941
G1 X175.471 Y132.377 E0.10389
G1 X166.439 Y132.352 E0.28319
G1 X164.484 Y132.169 E0.06156
G1 X163.114 Y131.943 E0.04353
G1 X70.464 Y112.089 E2.97095
G1 X68.938 Y111.459 E0.05175
G1 X67.903 Y110.768 E0.03903
G1 X67.288 Y110.221 E0.02580
G1 X66.735 Y109.601 E0.02604
G1 X66.046 Y108.569 E0.03891
G1 X65.419 Y107.067 E0.05104
G1 X65.157 Y105.710 E0.04332
G1 X65.160 Y104.260 E0.04546
G1 X65.442 Y102.854 E0.04498
G1 X66.006 Y101.501 E0.04594
G1 X66.801 Y100.316 E0.04475
G1 X67.833 Y99.287 E0.04570
G1 X69.037 Y98.486 E0.04534
G1 X70.433 Y97.919 E0.04724
G1 X163.150 Y78.050 E2.97309
G1 X165.253 Y77.737 E0.06665
G1 X166.435 Y77.648 E0.03716
G1 X175.459 Y77.623 E0.28293
G1 X177.374 Y77.666 E0.06008
G1 X179.386 Y77.817 E0.06326
G1 X180.960 Y78.052 E0.04990
G1 X182.142 Y78.366 E0.03833
G1 X182.947 Y78.750 E0.02797
G1 X183.583 Y79.286 E0.02607
G1 X184.014 Y79.945 E0.02470
G1 X184.227 Y80.714 E0.02503
G1 X184.240 Y129.126 E1.51790
G1 X184.031 Y129.991 E0.02791
; printing object 3M Adhesive Removal Tool.stl id:0 copy 0
G1 F8640.000
G1 X183.475 Y130.828 E-0.23208
G1 X182.677 Y131.404 E-0.22717
G1 X181.508 Y131.825 E-0.28693
G1 X180.347 Y132.057 E-0.27350
G1 X179.012 Y132.214 E-0.31032
G1 E-0.07000 F2100.00000
G1 Z0.400 F10800.000
G1 X75.577 Y105.364
G1 Z0.200
G1 E1.40000 F2100.00000
G1 F1200.000
G1 X75.473 Y105.749 E0.01252
G1 X75.316 Y106.087 E0.01167
G1 X75.078 Y106.435 E0.01323
G1 X74.793 Y106.720 E0.01263
G1 X74.466 Y106.949 E0.01252
G1 X74.105 Y107.118 E0.01252
G1 X73.719 Y107.221 E0.01252
G1 X73.321 Y107.256 E0.01252
G1 X72.924 Y107.221 E0.01252
G1 X72.538 Y107.118 E0.01252
G1 X72.176 Y106.949 E0.01252
G1 X71.849 Y106.720 E0.01252
G1 X71.567 Y106.438 E0.01252
G1 X71.338 Y106.111 E0.01252
G1 X71.169 Y105.749 E0.01252
G1 X71.066 Y105.364 E0.01252
G1 X71.031 Y104.966 E0.01252
G1 X71.066 Y104.568 E0.01252
G1 X71.169 Y104.183 E0.01252
G1 X71.338 Y103.821 E0.01252
G1 X71.567 Y103.494 E0.01252
G1 X71.849 Y103.212 E0.01252
G1 X72.176 Y102.983 E0.01252
G1 X72.538 Y102.814 E0.01252
G1 X72.924 Y102.711 E0.01252
G1 X73.295 Y102.678 E0.01167
G1 X73.716 Y102.710 E0.01323
G1 X74.105 Y102.814 E0.01263
G1 X74.466 Y102.983 E0.01252
G1 X74.793 Y103.212 E0.01252
G1 X75.076 Y103.494 E0.01252
G1 X75.289 Y103.799 E0.01167
G1 X75.472 Y104.179 E0.01323
G1 X75.577 Y104.568 E0.01263
G1 X75.612 Y104.966 E0.01252
G1 X75.582 Y105.304 E0.01063
G1 X75.206 Y105.271 F10800.000
G1 F1200.000
G1 X75.118 Y105.620 E0.01128
G1 X74.987 Y105.899 E0.00968
G1 X74.787 Y106.194 E0.01116
G1 X74.550 Y106.430 E0.01049
G1 X74.277 Y106.621 E0.01045
G1 X73.975 Y106.762 E0.01045
G1 X73.653 Y106.848 E0.01045
G1 X73.321 Y106.877 E0.01045
G1 X72.989 Y106.848 E0.01045
G1 X72.668 Y106.762 E0.01045
G1 X72.366 Y106.621 E0.01045
G1 X72.093 Y106.430 E0.01045
G1 X71.857 Y106.195 E0.01045
G1 X71.666 Y105.922 E0.01045
G1 X71.525 Y105.620 E0.01045
G1 X71.439 Y105.298 E0.01045
G1 X71.410 Y104.966 E0.01045
G1 X71.439 Y104.634 E0.01045
G1 X71.525 Y104.312 E0.01045
G1 X71.666 Y104.010 E0.01045
G1 X71.857 Y103.737 E0.01045
G1 X72.093 Y103.502 E0.01045
G1 X72.366 Y103.310 E0.01045
G1 X72.668 Y103.170 E0.01045
G1 X72.989 Y103.083 E0.01045
G1 X73.297 Y103.056 E0.00968
G1 X73.652 Y103.083 E0.01116
G1 X73.975 Y103.170 E0.01049
G1 X74.277 Y103.310 E0.01045
G1 X74.550 Y103.502 E0.01045
G1 X74.786 Y103.737 E0.01045
G1 X74.963 Y103.990 E0.00968
G1 X75.117 Y104.311 E0.01116
G1 X75.204 Y104.634 E0.01049
G1 X75.233 Y104.966 E0.01045
G1 X75.212 Y105.211 E0.00772
G1 X75.484 Y105.499 F10800.000
G1 F8640.000
G1 X75.118 Y105.620 E-0.09679
G1 X74.987 Y105.899 E-0.07127
G1 X74.787 Y106.194 E-0.08222
G1 X74.550 Y106.430 E-0.07725
G1 X74.277 Y106.621 E-0.07694
G1 X73.975 Y106.762 E-0.07694
G1 X73.653 Y106.848 E-0.07694
G1 X73.321 Y106.877 E-0.07694
G1 X72.989 Y106.848 E-0.07694
G1 X72.668 Y106.762 E-0.07694
G1 X72.366 Y106.621 E-0.07694
G1 X72.093 Y106.430 E-0.07694
G1 X71.857 Y106.195 E-0.07694
G1 X71.666 Y105.922 E-0.07694
G1 X71.525 Y105.620 E-0.07694
G1 X71.439 Y105.298 E-0.07694
G1 X71.410 Y104.966 E-0.07694
G1 X71.411 Y104.956 E-0.00227
G1 E-0.07000 F2100.00000
G1 Z0.400 F10800.000
G1 X180.914 Y81.293
G1 Z0.200
G1 E1.40000 F2100.00000
G1 F1200.000
G1 X181.080 Y81.357 E0.00556
G1 X181.080 Y128.649 E1.48281
G1 X180.593 Y128.792 E0.01590
G1 X179.865 Y128.929 E0.02321
G1 X179.004 Y129.041 E0.02725
G1 X177.901 Y129.135 E0.03470
G1 X176.432 Y129.199 E0.04609
G1 X167.509 Y129.213 E0.27978
G1 X166.560 Y129.190 E0.02978
G1 X165.622 Y129.121 E0.02949
G1 X164.688 Y129.006 E0.02948
G1 X163.762 Y128.846 E0.02948
G1 X162.845 Y128.640 E0.02948
G1 X161.939 Y128.390 E0.02947
G1 X161.046 Y128.096 E0.02947
G1 X160.168 Y127.759 E0.02947
G1 X159.309 Y127.379 E0.02947
G1 X158.469 Y126.958 E0.02947
G1 X157.650 Y126.496 E0.02947
G1 X156.855 Y125.994 E0.02947
G1 X156.086 Y125.455 E0.02947
G1 X155.344 Y124.878 E0.02947
G1 X154.631 Y124.266 E0.02947
G1 X153.949 Y123.620 E0.02946
G1 X153.299 Y122.941 E0.02946
G1 X152.683 Y122.231 E0.02946
G1 X152.103 Y121.492 E0.02946
G1 X151.559 Y120.725 E0.02947
G1 X151.065 Y119.950 E0.02882
G1 X150.588 Y119.116 E0.03011
G1 X150.163 Y118.279 E0.02946
G1 X149.778 Y117.421 E0.02947
G1 X149.437 Y116.545 E0.02947
G1 X149.144 Y115.672 E0.02889
G1 X148.884 Y114.751 E0.03000
G1 X148.538 Y113.299 E0.04682
G1 X148.343 Y112.762 E0.01789
G1 X148.099 Y112.251 E0.01774
G1 X147.806 Y111.767 E0.01774
G1 X147.467 Y111.314 E0.01774
G1 X147.086 Y110.896 E0.01774
G1 X146.666 Y110.517 E0.01774
G1 X146.210 Y110.181 E0.01774
G1 X145.724 Y109.891 E0.01774
G1 X145.212 Y109.649 E0.01774
G1 X144.679 Y109.459 E0.01774
G1 X144.130 Y109.322 E0.01774
G1 X143.570 Y109.240 E0.01774
G1 X143.024 Y109.213 E0.01714
G1 X72.519 Y109.213 E2.21064
G1 X72.087 Y109.192 E0.01357
G1 X71.678 Y109.131 E0.01296
G1 X71.277 Y109.031 E0.01296
G1 X70.888 Y108.891 E0.01296
G1 X70.514 Y108.715 E0.01296
G1 X70.160 Y108.502 E0.01296
G1 X69.828 Y108.256 E0.01296
G1 X69.522 Y107.978 E0.01296
G1 X69.244 Y107.672 E0.01296
G1 X68.998 Y107.340 E0.01296
G1 X68.785 Y106.986 E0.01296
G1 X68.609 Y106.612 E0.01296
G1 X68.471 Y106.228 E0.01277
G1 X68.369 Y105.821 E0.01316
G1 X68.308 Y105.413 E0.01295
G1 X68.288 Y105.000 E0.01296
G1 X68.308 Y104.587 E0.01296
G1 X68.369 Y104.178 E0.01296
G1 X68.469 Y103.777 E0.01296
G1 X68.609 Y103.388 E0.01296
G1 X68.785 Y103.014 E0.01296
G1 X68.998 Y102.660 E0.01296
G1 X69.244 Y102.328 E0.01296
G1 X69.522 Y102.022 E0.01296
G1 X69.828 Y101.744 E0.01296
G1 X70.160 Y101.498 E0.01296
G1 X70.514 Y101.285 E0.01296
G1 X70.888 Y101.109 E0.01296
G1 X71.277 Y100.969 E0.01296
G1 X71.678 Y100.869 E0.01296
G1 X72.087 Y100.808 E0.01296
G1 X72.519 Y100.787 E0.01357
G1 X143.024 Y100.787 E2.21064
G1 X143.570 Y100.760 E0.01714
G1 X144.130 Y100.678 E0.01774
G1 X144.679 Y100.541 E0.01774
G1 X145.212 Y100.351 E0.01774
G1 X145.724 Y100.109 E0.01774
G1 X146.210 Y99.819 E0.01774
G1 X146.666 Y99.483 E0.01774
G1 X147.086 Y99.104 E0.01774
G1 X147.467 Y98.686 E0.01774
G1 X147.806 Y98.233 E0.01774
G1 X148.099 Y97.749 E0.01774
G1 X148.343 Y97.238 E0.01774
G1 X148.538 Y96.701 E0.01789
G1 X148.884 Y95.249 E0.04683
G1 X149.138 Y94.346 E0.02942
G1 X149.437 Y93.455 E0.02946
G1 X149.786 Y92.561 E0.03007
G1 X150.162 Y91.721 E0.02886
G1 X150.588 Y90.883 E0.02947
G1 X151.054 Y90.067 E0.02947
G1 X151.559 Y89.275 E0.02946
G1 X152.103 Y88.508 E0.02947
G1 X152.683 Y87.769 E0.02946
G1 X153.299 Y87.059 E0.02946
G1 X153.949 Y86.380 E0.02946
G1 X154.631 Y85.734 E0.02946
G1 X155.344 Y85.122 E0.02947
G1 X156.086 Y84.545 E0.02945
G1 X156.879 Y83.990 E0.03037
G1 X157.650 Y83.504 E0.02857
G1 X158.469 Y83.042 E0.02947
G1 X159.309 Y82.621 E0.02947
G1 X160.168 Y82.241 E0.02947
G1 X161.046 Y81.904 E0.02947
G1 X161.939 Y81.610 E0.02947
G1 X162.844 Y81.360 E0.02945
G1 X163.811 Y81.146 E0.03104
G1 X164.688 Y80.994 E0.02793
G1 X165.622 Y80.879 E0.02948
G1 X166.560 Y80.810 E0.02949
G1 X167.510 Y80.787 E0.02980
G1 X175.529 Y80.788 E0.25144
G1 X176.803 Y80.810 E0.03996
G1 X177.908 Y80.865 E0.03468
G1 X179.040 Y80.963 E0.03561
G1 X180.340 Y81.155 E0.04121
G1 X180.856 Y81.279 E0.01664
G1 X181.408 Y81.080 F10800.000
G1 F1200.000
G1 X181.457 Y81.115 E0.00189
G1 X181.457 Y128.892 E1.49801
G1 X181.289 Y128.975 E0.00587
G1 X181.023 Y129.069 E0.00882
G1 X180.676 Y129.160 E0.01127
G1 X179.925 Y129.302 E0.02397
G1 X179.044 Y129.416 E0.02785
G1 X177.925 Y129.512 E0.03520
G1 X176.441 Y129.577 E0.04659
G1 X167.505 Y129.590 E0.28018
G1 X166.541 Y129.566 E0.03023
G1 X165.585 Y129.496 E0.03007
G1 X164.633 Y129.379 E0.03006
G1 X163.689 Y129.216 E0.03006
G1 X162.753 Y129.006 E0.03005
G1 X161.829 Y128.751 E0.03005
G1 X160.919 Y128.451 E0.03005
G1 X160.025 Y128.107 E0.03005
G1 X159.148 Y127.720 E0.03005
G1 X158.291 Y127.291 E0.03005
G1 X157.457 Y126.820 E0.03005
G1 X156.646 Y126.308 E0.03004
G1 X155.862 Y125.758 E0.03004
G1 X155.105 Y125.170 E0.03004
G1 X154.378 Y124.546 E0.03004
G1 X153.683 Y123.887 E0.03004
G1 X153.020 Y123.195 E0.03004
G1 X152.392 Y122.471 E0.03004
G1 X151.801 Y121.717 E0.03004
G1 X151.246 Y120.935 E0.03004
G1 X150.742 Y120.145 E0.02940
G1 X150.256 Y119.296 E0.03069
G1 X149.822 Y118.441 E0.03004
G1 X149.431 Y117.567 E0.03004
G1 X149.082 Y116.674 E0.03005
G1 X148.783 Y115.783 E0.02946
G1 X148.519 Y114.846 E0.03053
G1 X148.176 Y113.407 E0.04639
G1 X147.995 Y112.908 E0.01664
G1 X147.767 Y112.431 E0.01659
G1 X147.493 Y111.978 E0.01659
G1 X147.176 Y111.554 E0.01659
G1 X146.820 Y111.163 E0.01659
G1 X146.427 Y110.809 E0.01659
G1 X146.001 Y110.495 E0.01659
G1 X145.547 Y110.224 E0.01659
G1 X145.068 Y109.998 E0.01659
G1 X144.570 Y109.821 E0.01659
G1 X144.057 Y109.693 E0.01659
G1 X143.533 Y109.615 E0.01659
G1 X143.015 Y109.590 E0.01627
G1 X72.510 Y109.590 E2.21064
G1 X72.050 Y109.567 E0.01444
G1 X71.605 Y109.501 E0.01412
G1 X71.168 Y109.392 E0.01412
G1 X70.744 Y109.240 E0.01412
G1 X70.337 Y109.048 E0.01412
G1 X69.950 Y108.816 E0.01412
G1 X69.588 Y108.548 E0.01412
G1 X69.255 Y108.245 E0.01412
G1 X68.952 Y107.912 E0.01412
G1 X68.684 Y107.550 E0.01412
G1 X68.452 Y107.163 E0.01412
G1 X68.260 Y106.756 E0.01412
G1 X68.110 Y106.338 E0.01392
G1 X67.999 Y105.895 E0.01433
G1 X67.933 Y105.450 E0.01412
G1 X67.910 Y105.000 E0.01412
G1 X67.933 Y104.550 E0.01412
G1 X67.999 Y104.105 E0.01412
G1 X68.108 Y103.668 E0.01412
G1 X68.260 Y103.244 E0.01412
G1 X68.452 Y102.837 E0.01412
G1 X68.684 Y102.450 E0.01412
G1 X68.952 Y102.088 E0.01412
G1 X69.255 Y101.755 E0.01412
G1 X69.588 Y101.452 E0.01412
G1 X69.950 Y101.184 E0.01412
G1 X70.337 Y100.952 E0.01412
G1 X70.744 Y100.760 E0.01412
G1 X71.168 Y100.608 E0.01412
G1 X71.605 Y100.499 E0.01412
G1 X72.050 Y100.433 E0.01412
G1 X72.510 Y100.410 E0.01444
G1 X143.015 Y100.410 E2.21064
G1 X143.533 Y100.385 E0.01627
G1 X144.057 Y100.307 E0.01659
G1 X144.570 Y100.179 E0.01659
G1 X145.068 Y100.002 E0.01659
G1 X145.547 Y99.776 E0.01659
G1 X146.001 Y99.505 E0.01659
G1 X146.427 Y99.191 E0.01659
G1 X146.820 Y98.837 E0.01659
G1 X147.176 Y98.446 E0.01659
G1 X147.493 Y98.022 E0.01659
G1 X147.767 Y97.569 E0.01659
G1 X147.995 Y97.092 E0.01659
G1 X148.176 Y96.593 E0.01664
G1 X148.519 Y95.154 E0.04639
G1 X148.778 Y94.235 E0.02995
G1 X149.082 Y93.326 E0.03004
G1 X149.438 Y92.416 E0.03065
G1 X149.822 Y91.559 E0.02944
G1 X150.256 Y90.704 E0.03005
G1 X150.731 Y89.872 E0.03004
G1 X151.247 Y89.064 E0.03004
G1 X151.801 Y88.283 E0.03004
G1 X152.392 Y87.529 E0.03004
G1 X153.020 Y86.805 E0.03004
G1 X153.683 Y86.113 E0.03004
G1 X154.378 Y85.454 E0.03004
G1 X155.105 Y84.830 E0.03004
G1 X155.862 Y84.242 E0.03004
G1 X156.671 Y83.676 E0.03095
G1 X157.457 Y83.180 E0.02914
G1 X158.291 Y82.709 E0.03005
G1 X159.148 Y82.280 E0.03005
G1 X160.025 Y81.893 E0.03005
G1 X160.919 Y81.549 E0.03005
G1 X161.829 Y81.249 E0.03005
G1 X162.753 Y80.994 E0.03004
G1 X163.738 Y80.776 E0.03162
G1 X164.633 Y80.621 E0.02849
G1 X165.585 Y80.504 E0.03006
G1 X166.541 Y80.434 E0.03007
G1 X167.505 Y80.410 E0.03023
G1 X175.532 Y80.411 E0.25169
G1 X176.816 Y80.434 E0.04025
G1 X177.933 Y80.489 E0.03508
G1 X179.079 Y80.588 E0.03606
G1 X179.659 Y80.660 E0.01831
G1 X180.415 Y80.785 E0.02403
G1 X181.026 Y80.933 E0.01973
G1 X181.352 Y81.058 E0.01094
G1 X181.408 Y81.140 F10800.000
G1 F8640.000
G1 X181.457 Y81.115 E-0.02752
G1 X181.457 Y86.756 E-1.30248
G1 E-0.07000 F2100.00000
G1 Z0.400 F10800.000
G1 X180.966 Y82.205
G1 Z0.200
G1 E1.40000 F2100.00000
G1 F1200.000
G1 X180.179 Y81.417 E0.03501
G1 X179.551 Y81.324 E0.01992
G1 X180.797 Y82.569 E0.05534
G1 X180.797 Y83.104 E0.01679
G1 X178.930 Y81.237 E0.08297
G1 X178.345 Y81.187 E0.01845
G1 X180.797 Y83.638 E0.10895
G1 X180.797 Y84.173 E0.01679
G1 X177.765 Y81.141 E0.13472
G1 X177.203 Y81.113 E0.01769
G1 X180.797 Y84.707 E0.15971
G1 X180.797 Y85.242 E0.01679
G1 X176.646 Y81.090 E0.18448
G1 X176.101 Y81.081 E0.01710
G1 X180.797 Y85.776 E0.20866
G1 X180.797 Y86.311 E0.01679
G1 X175.557 Y81.071 E0.23284
G1 X175.022 Y81.070 E0.01681
G1 X180.797 Y86.845 E0.25662
G1 X180.797 Y87.379 E0.01679
G1 X174.488 Y81.070 E0.28037
G1 X173.953 Y81.070 E0.01680
G1 X180.797 Y87.914 E0.30412
G1 X180.797 Y88.448 E0.01679
G1 X173.419 Y81.070 E0.32788
M73 P1 R54
G1 X172.884 Y81.070 E0.01680
G1 X180.797 Y88.983 E0.35163
G1 X180.797 Y89.517 E0.01679
G1 X172.350 Y81.070 E0.37538
G1 X171.815 Y81.070 E0.01680
G1 X180.797 Y90.052 E0.39913
G1 X180.797 Y90.586 E0.01679
G1 X171.281 Y81.070 E0.42288
G1 X170.746 Y81.070 E0.01680
G1 X180.797 Y91.121 E0.44664
G1 X180.797 Y91.655 E0.01679
G1 X170.212 Y81.070 E0.47039
G1 X169.677 Y81.070 E0.01680
G1 X180.797 Y92.189 E0.49414
G1 X180.797 Y92.724 E0.01679
G1 X169.143 Y81.070 E0.51789
G1 X168.608 Y81.070 E0.01680
G1 X180.797 Y93.258 E0.54164
G1 X180.797 Y93.793 E0.01679
G1 X168.074 Y81.070 E0.56540
G1 X167.539 Y81.070 E0.01680
G1 X180.797 Y94.327 E0.58915
G1 X180.797 Y94.862 E0.01679
G1 X167.017 Y81.082 E0.61236
G1 X166.499 Y81.098 E0.01629
G1 X180.797 Y95.396 E0.63538
G1 X180.797 Y95.931 E0.01679
G1 X166.001 Y81.135 E0.65750
G1 X165.510 Y81.178 E0.01550
G1 X180.797 Y96.465 E0.67934
G1 X180.797 Y96.999 E0.01679
G1 X165.034 Y81.237 E0.70049
G1 X164.565 Y81.302 E0.01487
G1 X180.797 Y97.534 E0.72131
G1 X180.797 Y98.068 E0.01679
G1 X164.110 Y81.381 E0.74156
G1 X163.662 Y81.468 E0.01432
G1 X180.797 Y98.603 E0.76144
G1 X180.797 Y99.137 E0.01679
G1 X163.225 Y81.565 E0.78088
G1 X162.793 Y81.668 E0.01396
G1 X180.797 Y99.672 E0.80009
G1 X180.797 Y100.206 E0.01679
G1 X162.374 Y81.783 E0.81870
G1 X161.958 Y81.901 E0.01360
G1 X180.797 Y100.741 E0.83720
G1 X180.797 Y101.275 E0.01679
G1 X161.555 Y82.034 E0.85507
G1 X161.153 Y82.166 E0.01330
G1 X180.797 Y101.809 E0.87293
