; generated by Slic3r 1.36.2-prusa3d on 2017-08-13 at 23:23:54

; 

; external perimeters extrusion width = 0.45mm
; perimeters extrusion width = 0.45mm
; infill extrusion width = 0.45mm
; solid infill extrusion width = 0.45mm
; top infill extrusion width = 0.40mm
; first layer extrusion width = 0.42mm

M107
M115 U3.0.12 ; tell printer latest fw version
M83  ; extruder relative mode
M104 S215 ; set extruder temp
M140 S55 ; set bed temp
M190 S55 ; wait for bed temp
M109 S215 ; wait for extruder temp
G28 W ; home all without mesh bed level
G80 ; mesh bed leveling
G1 Y-3.0 F1000.0 ; go outside pritn area
G1 X60.0 E9.0  F1000.0 ; intro line
G1 X100.0 E12.5  F1000.0 ; intro line
; Filament gcode

G21 ; set units to millimeters
G90 ; use absolute coordinates
M83 ; use relative distances for extrusion
G1 E-0.80000 F2100.00000
G1 Z0.200 F7200.000
G1 X105.125 Y86.790 F7200.000
G1 E0.80000 F2100.00000
M204 S1000
G1 F2100
G1 X105.961 Y86.623 E0.02564
G1 X144.004 Y86.623 E1.14433
G1 X144.888 Y86.795 E0.02710
G1 X145.645 Y87.284 E0.02710
G1 X146.166 Y88.020 E0.02710
G1 X146.375 Y88.896 E0.02710
G1 X146.376 Y121.053 E0.96728
G1 X146.163 Y121.986 E0.02879
G1 X145.596 Y122.762 E0.02890
G1 X144.872 Y123.212 E0.02564
G1 X144.035 Y123.377 E0.02564
G1 X105.992 Y123.377 E1.14433
G1 X105.505 Y123.325 E0.01475
G1 X105.035 Y123.172 E0.01487
G1 X104.606 Y122.926 E0.01487
G1 X104.238 Y122.596 E0.01487
G1 X103.790 Y121.875 E0.02553
G1 X103.623 Y121.043 E0.02553
G1 X103.623 Y88.989 E0.96419
G1 X103.676 Y88.501 E0.01475
G1 X103.829 Y88.031 E0.01487
G1 X104.074 Y87.606 E0.01475
G1 X104.404 Y87.238 E0.01487
G1 X105.074 Y86.822 E0.02372
G1 F5760
G1 X105.961 Y86.623 E-0.31477
G1 F5760
G1 X107.246 Y86.623 E-0.44523
G1 E-0.04000 F2100.00000
G1 X106.613 Y89.613 F7200.000
G1 E0.80000 F2100.00000
G1 F1680
G1 X121.387 Y89.613 E0.44440
G1 X121.387 Y120.387 E0.92568
G1 X106.613 Y120.387 E0.44440
G1 X106.613 Y89.673 E0.92388
G1 X106.990 Y89.990 F7200.000
G1 F1260
G1 X109.910 Y89.990 E0.08783
G1 X109.910 Y90.290 E0.00902
G1 X110.090 Y90.290 E0.00541
G1 X110.090 Y89.990 E0.00902
G1 X117.910 Y89.990 E0.23522
G1 X117.910 Y90.290 E0.00902
G1 X118.090 Y90.290 E0.00541
G1 X118.090 Y89.990 E0.00902
G1 X121.010 Y89.990 E0.08783
G1 X121.010 Y92.910 E0.08783
G1 X120.710 Y92.910 E0.00902
G1 X120.710 Y93.090 E0.00541
G1 X121.010 Y93.090 E0.00902
G1 X121.010 Y100.910 E0.23522
G1 X120.710 Y100.910 E0.00902
G1 X120.710 Y101.090 E0.00541
G1 X121.010 Y101.090 E0.00902
G1 X121.010 Y108.910 E0.23522
G1 X120.710 Y108.910 E0.00902
G1 X120.710 Y109.090 E0.00541
G1 X121.010 Y109.090 E0.00902
G1 X121.010 Y116.910 E0.23522
G1 X120.710 Y116.910 E0.00902
G1 X120.710 Y117.090 E0.00541
G1 X121.010 Y117.090 E0.00902
G1 X121.010 Y120.010 E0.08783
G1 X118.090 Y120.010 E0.08783
G1 X118.090 Y119.710 E0.00902
G1 X117.910 Y119.710 E0.00541
G1 X117.910 Y120.010 E0.00902
G1 X110.090 Y120.010 E0.23522
G1 X110.090 Y119.710 E0.00902
G1 X109.910 Y119.710 E0.00541
G1 X109.910 Y120.010 E0.00902
G1 X106.990 Y120.010 E0.08783
G1 X106.990 Y117.090 E0.08783
G1 X107.290 Y117.090 E0.00902
G1 X107.290 Y116.910 E0.00541
G1 X106.990 Y116.910 E0.00902
G1 X106.990 Y109.090 E0.23522
G1 X107.290 Y109.090 E0.00902
G1 X107.290 Y108.910 E0.00541
G1 X106.990 Y108.910 E0.00902
G1 X106.990 Y101.090 E0.23522
G1 X107.290 Y101.090 E0.00902
G1 X107.290 Y100.910 E0.00541
G1 X106.990 Y100.910 E0.00902
G1 X106.990 Y93.090 E0.23522
G1 X107.290 Y93.090 E0.00902
G1 X107.290 Y92.910 E0.00541
G1 X106.990 Y92.910 E0.00902
G1 X106.990 Y90.050 E0.08603
G1 X106.976 Y89.590 F7200.000
G1 X106.587 Y89.587 F7200.000
G1 F1680
G1 X121.413 Y89.587 E0.44596
G1 X121.413 Y120.413 E0.92724
G1 X106.587 Y120.413 E0.44596
G1 X106.587 Y89.647 E0.92543
G1 X106.210 Y89.210 F7200.000
G1 F1260
G1 X121.790 Y89.210 E0.46864
G1 X121.790 Y120.790 E0.94992
G1 X106.210 Y120.790 E0.46864
G1 X106.210 Y89.270 E0.94812
G1 X106.583 Y89.355 F7200.000
G1 F5760
G1 X108.404 Y89.262 E-0.76000
G1 E-0.04000 F2100.00000
G1 X113.324 Y110.477 F7200.000
G1 E0.80000 F2100.00000
G1 F840
G1 X113.992 Y110.389 E0.02028
G1 X114.676 Y110.477 E0.02072
G1 X115.306 Y110.738 E0.02052
G1 X115.847 Y111.153 E0.02051
G1 X116.262 Y111.694 E0.02051
G1 X116.523 Y112.324 E0.02051
G1 X116.612 Y113.000 E0.02051
G1 X116.523 Y113.676 E0.02051
G1 X116.262 Y114.306 E0.02051
G1 X115.847 Y114.847 E0.02051
G1 X115.306 Y115.262 E0.02051
G1 X114.676 Y115.523 E0.02051
G1 X114.000 Y115.612 E0.02051
G1 X113.324 Y115.523 E0.02051
G1 X112.701 Y115.265 E0.02028
G1 X112.153 Y114.847 E0.02072
G1 X111.738 Y114.306 E0.02052
G1 X111.477 Y113.676 E0.02051
G1 X111.388 Y113.000 E0.02051
G1 X111.477 Y112.324 E0.02051
G1 X111.738 Y111.694 E0.02051
G1 X112.153 Y111.153 E0.02051
G1 X112.694 Y110.738 E0.02051
G1 X113.269 Y110.500 E0.01870
G1 X113.428 Y110.091 F7200.000
G1 X113.210 Y110.053 F7200.000
G1 F840
G1 X114.010 Y109.951 E0.02424
G1 X114.790 Y110.053 E0.02367
G1 X115.525 Y110.358 E0.02395
G1 X116.157 Y110.843 E0.02395
G1 X116.642 Y111.475 E0.02395
G1 X116.947 Y112.210 E0.02395
G1 X117.051 Y113.000 E0.02395
G1 X116.947 Y113.790 E0.02395
G1 X116.642 Y114.525 E0.02395
G1 X116.157 Y115.157 E0.02394
G1 X115.516 Y115.646 E0.02424
G1 X114.790 Y115.947 E0.02367
G1 X114.000 Y116.051 E0.02395
G1 X113.210 Y115.947 E0.02395
G1 X112.475 Y115.642 E0.02395
G1 X111.843 Y115.157 E0.02395
G1 X111.358 Y114.525 E0.02395
G1 X111.053 Y113.790 E0.02395
G1 X110.949 Y113.000 E0.02395
G1 X111.053 Y112.210 E0.02395
G1 X111.358 Y111.475 E0.02395
G1 X111.843 Y110.843 E0.02395
G1 X112.475 Y110.358 E0.02395
G1 X113.155 Y110.076 E0.02214
G1 X113.492 Y110.337 F7200.000
G1 F5760
G1 X114.010 Y109.951 E-0.29924
G1 F5760
G1 X114.790 Y110.053 E-0.27250
G1 F5760
G1 X115.292 Y110.261 E-0.18825
G1 E-0.04000 F2100.00000
G1 X113.324 Y107.523 F7200.000
G1 E0.80000 F2100.00000
G1 F840
G1 X112.694 Y107.262 E0.02051
G1 X112.153 Y106.847 E0.02051
G1 X111.738 Y106.306 E0.02051
G1 X111.477 Y105.676 E0.02051
G1 X111.388 Y105.000 E0.02051
G1 X111.477 Y104.324 E0.02051
G1 X111.738 Y103.694 E0.02051
G1 X112.153 Y103.153 E0.02051
G1 X112.694 Y102.738 E0.02051
G1 X113.324 Y102.477 E0.02051
G1 X113.992 Y102.389 E0.02028
G1 X114.676 Y102.477 E0.02072
G1 X115.306 Y102.738 E0.02052
G1 X115.847 Y103.153 E0.02051
G1 X116.262 Y103.694 E0.02051
G1 X116.523 Y104.324 E0.02051
G1 X116.612 Y105.000 E0.02051
G1 X116.523 Y105.676 E0.02051
G1 X116.262 Y106.306 E0.02051
G1 X115.847 Y106.847 E0.02051
G1 X115.306 Y107.262 E0.02051
G1 X114.676 Y107.523 E0.02051
G1 X114.000 Y107.612 E0.02051
G1 X113.383 Y107.531 E0.01870
G1 X113.041 Y107.806 F7200.000
G1 X113.210 Y107.947 F7200.000
G1 F840
G1 X112.475 Y107.642 E0.02395
G1 X111.843 Y107.157 E0.02395
G1 X111.358 Y106.525 E0.02395
G1 X111.053 Y105.790 E0.02395
G1 X110.949 Y105.000 E0.02395
G1 X111.053 Y104.210 E0.02395
G1 X111.358 Y103.475 E0.02395
G1 X111.843 Y102.843 E0.02395
G1 X112.475 Y102.358 E0.02395
G1 X113.210 Y102.054 E0.02394
G1 X114.010 Y101.951 E0.02424
G1 X114.790 Y102.053 E0.02367
G1 X115.525 Y102.358 E0.02395
G1 X116.157 Y102.843 E0.02395
G1 X116.642 Y103.475 E0.02395
G1 X116.947 Y104.210 E0.02395
G1 X117.051 Y105.000 E0.02395
G1 X116.947 Y105.790 E0.02395
G1 X116.642 Y106.525 E0.02395
G1 X116.157 Y107.157 E0.02395
G1 X115.525 Y107.642 E0.02395
G1 X114.790 Y107.947 E0.02395
G1 X114.000 Y108.051 E0.02395
G1 X113.270 Y107.954 E0.02215
G1 X113.107 Y107.560 F7200.000
G1 F5760
G1 X112.475 Y107.642 E-0.29594
G1 F5760
G1 X111.843 Y107.157 E-0.27582
G1 F5760
G1 X111.512 Y106.726 E-0.18824
G1 E-0.04000 F2100.00000
G1 X114.000 Y99.612 F7200.000
G1 E0.80000 F2100.00000
G1 F840
G1 X113.324 Y99.523 E0.02051
G1 X112.694 Y99.262 E0.02051
G1 X112.153 Y98.847 E0.02051
G1 X111.738 Y98.306 E0.02051
G1 X111.477 Y97.676 E0.02051
G1 X111.388 Y97.000 E0.02051
G1 X111.477 Y96.324 E0.02051
G1 X111.738 Y95.694 E0.02051
G1 X112.153 Y95.153 E0.02051
G1 X112.694 Y94.738 E0.02051
G1 X113.324 Y94.477 E0.02051
G1 X113.992 Y94.389 E0.02028
G1 X114.676 Y94.477 E0.02072
G1 X115.306 Y94.738 E0.02052
G1 X115.847 Y95.153 E0.02051
G1 X116.262 Y95.694 E0.02051
G1 X116.523 Y96.324 E0.02051
G1 X116.612 Y97.000 E0.02051
G1 X116.523 Y97.676 E0.02051
G1 X116.262 Y98.306 E0.02051
G1 X115.847 Y98.847 E0.02051
G1 X115.306 Y99.262 E0.02051
G1 X114.676 Y99.523 E0.02051
G1 X114.059 Y99.604 E0.01870
G1 X113.800 Y99.958 F7200.000
G1 X114.000 Y100.051 F7200.000
G1 F840
G1 X113.210 Y99.947 E0.02395
G1 X112.475 Y99.642 E0.02395
G1 X111.843 Y99.157 E0.02395
G1 X111.358 Y98.525 E0.02395
G1 X111.053 Y97.790 E0.02395
G1 X110.949 Y97.000 E0.02395
G1 X111.053 Y96.210 E0.02395
G1 X111.358 Y95.475 E0.02395
G1 X111.843 Y94.843 E0.02395
G1 X112.475 Y94.358 E0.02395
G1 X113.210 Y94.054 E0.02394
G1 X114.010 Y93.951 E0.02424
G1 X114.790 Y94.053 E0.02367
G1 X115.525 Y94.358 E0.02395
G1 X116.157 Y94.843 E0.02395
G1 X116.642 Y95.475 E0.02395
G1 X116.947 Y96.210 E0.02395
G1 X117.051 Y97.000 E0.02395
G1 X116.947 Y97.790 E0.02395
G1 X116.642 Y98.525 E0.02395
G1 X116.157 Y99.157 E0.02395
G1 X115.525 Y99.642 E0.02395
G1 X114.790 Y99.947 E0.02395
G1 X114.059 Y100.043 E0.02215
G1 X113.800 Y99.704 F7200.000
G1 X114.031 Y99.827 F7200.000
G1 F1680
G1 X113.264 Y99.733 E-0.00000
G1 X112.584 Y99.452 E-0.00000
G1 X111.998 Y99.002 E-0.00000
G1 X111.548 Y98.416 E-0.00000
G1 X111.267 Y97.736 E-0.00000
G1 X111.169 Y97.000 E-0.00000
G1 X111.267 Y96.264 E-0.00000
G1 X111.548 Y95.584 E-0.00000
G1 X111.998 Y94.998 E-0.00000
G1 X112.584 Y94.548 E-0.00000
G1 X113.264 Y94.267 E-0.00000
G1 X113.996 Y94.171 E-0.00000
G1 X114.736 Y94.267 E-0.00000
G1 X115.416 Y94.548 E-0.00000
G1 X116.002 Y94.998 E-0.00000
G1 X116.453 Y95.588 E-0.00000
G1 X116.735 Y96.267 E-0.00000
G1 X116.831 Y97.000 E-0.00000
G1 X116.735 Y97.733 E-0.00000
G1 X116.453 Y98.412 E-0.00000
G1 X116.002 Y99.002 E-0.00000
G1 X115.412 Y99.453 E-0.00000
G1 X114.733 Y99.735 E-0.00000
G1 X114.091 Y99.819 E-0.00000
G1 F5760
G1 X113.264 Y99.733 E-0.28794
G1 F5760
G1 X112.584 Y99.452 E-0.25466
G1 F5760
G1 X112.086 Y99.070 E-0.21741
G1 E-0.03989 F2100.00000
G1 X114.009 Y102.171 F7200.000
G1 E0.80000 F2100.00000
G1 F1680
G1 X114.733 Y102.265 E-0.00000
G1 X115.412 Y102.547 E-0.00000
G1 X116.002 Y102.998 E-0.00000
G1 X116.453 Y103.588 E-0.00000
G1 X116.735 Y104.267 E-0.00000
G1 X116.831 Y105.000 E-0.00000
G1 X116.735 Y105.733 E-0.00000
G1 X116.453 Y106.412 E-0.00000
G1 X116.002 Y107.002 E-0.00000
G1 X115.416 Y107.452 E-0.00000
G1 X114.736 Y107.733 E-0.00000
G1 X114.000 Y107.831 E-0.00000
G1 X113.264 Y107.733 E-0.00000
G1 X112.584 Y107.452 E-0.00000
G1 X111.998 Y107.002 E-0.00000
G1 X111.548 Y106.416 E-0.00000
G1 X111.267 Y105.736 E-0.00000
G1 X111.169 Y105.000 E-0.00000
G1 X111.267 Y104.264 E-0.00000
G1 X111.548 Y103.584 E-0.00000
G1 X111.998 Y102.998 E-0.00000
G1 X112.588 Y102.547 E-0.00000
G1 X113.267 Y102.266 E-0.00000
G1 X113.950 Y102.177 E-0.00000
G1 F5760
G1 X114.733 Y102.265 E-0.27301
G1 F5760
G1 X115.412 Y102.547 E-0.25466
G1 F5760
G1 X115.945 Y102.954 E-0.23233
G1 E-0.03989 F2100.00000
G1 X113.996 Y110.171 F7200.000
G1 E0.80000 F2100.00000
G1 F1680
G1 X114.736 Y110.267 E-0.00000
G1 X115.416 Y110.548 E-0.00000
G1 X116.002 Y110.998 E-0.00000
G1 X116.453 Y111.588 E-0.00000
G1 X116.735 Y112.267 E-0.00000
G1 X116.831 Y113.000 E-0.00000
G1 X116.733 Y113.736 E-0.00000
G1 X116.452 Y114.416 E-0.00000
G1 X116.002 Y115.001 E-0.00000
G1 X115.407 Y115.455 E-0.00000
G1 X114.733 Y115.735 E-0.00000
G1 X114.000 Y115.831 E-0.00000
G1 X113.264 Y115.733 E-0.00000
G1 X112.585 Y115.451 E-0.00000
G1 X111.998 Y115.002 E-0.00000
G1 X111.548 Y114.416 E-0.00000
G1 X111.267 Y113.736 E-0.00000
G1 X111.169 Y113.000 E-0.00000
G1 X111.267 Y112.264 E-0.00000
G1 X111.548 Y111.584 E-0.00000
G1 X111.998 Y110.998 E-0.00000
G1 X112.588 Y110.547 E-0.00000
G1 X113.267 Y110.266 E-0.00000
G1 X113.936 Y110.178 E-0.00000
G1 F5760
G1 X114.736 Y110.267 E-0.27859
G1 F5760
G1 X115.416 Y110.548 E-0.25487
G1 F5760
G1 X115.934 Y110.946 E-0.22654
G1 E-0.03989 F2100.00000
G1 X143.387 Y120.387 F7200.000
G1 E0.80000 F2100.00000
G1 F1680
G1 X128.613 Y120.387 E0.44440
G1 X128.613 Y89.613 E0.92568
G1 X143.387 Y89.613 E0.44440
G1 X143.387 Y120.327 E0.92388
G1 X143.010 Y120.010 F7200.000
G1 F1260
G1 X140.090 Y120.010 E0.08783
G1 X140.090 Y119.710 E0.00902
G1 X139.910 Y119.710 E0.00541
G1 X139.910 Y120.010 E0.00902
G1 X132.090 Y120.010 E0.23522
G1 X132.090 Y119.710 E0.00902
G1 X131.910 Y119.710 E0.00541
G1 X131.910 Y120.010 E0.00902
G1 X128.990 Y120.010 E0.08783
G1 X128.990 Y117.090 E0.08783
G1 X129.290 Y117.090 E0.00902
G1 X129.290 Y116.910 E0.00541
G1 X128.990 Y116.910 E0.00902
G1 X128.990 Y109.090 E0.23522
G1 X129.290 Y109.090 E0.00902
G1 X129.290 Y108.910 E0.00541
G1 X128.990 Y108.910 E0.00902
G1 X128.990 Y101.090 E0.23522
G1 X129.290 Y101.090 E0.00902
G1 X129.290 Y100.910 E0.00541
G1 X128.990 Y100.910 E0.00902
G1 X128.990 Y93.090 E0.23522
G1 X129.290 Y93.090 E0.00902
G1 X129.290 Y92.910 E0.00541
G1 X128.990 Y92.910 E0.00902
G1 X128.990 Y89.990 E0.08783
G1 X131.910 Y89.990 E0.08783
G1 X131.910 Y90.290 E0.00902
G1 X132.090 Y90.290 E0.00541
G1 X132.090 Y89.990 E0.00902
G1 X139.910 Y89.990 E0.23522
G1 X139.910 Y90.290 E0.00902
G1 X140.090 Y90.290 E0.00541
G1 X140.090 Y89.990 E0.00902
G1 X143.010 Y89.990 E0.08783
G1 X143.010 Y92.910 E0.08783
G1 X142.710 Y92.910 E0.00902
G1 X142.710 Y93.090 E0.00541
G1 X143.010 Y93.090 E0.00902
G1 X143.010 Y100.910 E0.23522
G1 X142.710 Y100.910 E0.00902
G1 X142.710 Y101.090 E0.00541
G1 X143.010 Y101.090 E0.00902
G1 X143.010 Y108.910 E0.23522
G1 X142.710 Y108.910 E0.00902
G1 X142.710 Y109.090 E0.00541
G1 X143.010 Y109.090 E0.00902
G1 X143.010 Y116.910 E0.23522
G1 X142.710 Y116.910 E0.00902
G1 X142.710 Y117.090 E0.00541
G1 X143.010 Y117.090 E0.00902
G1 X143.010 Y119.950 E0.08603
G1 X143.024 Y120.410 F7200.000
G1 X143.413 Y120.413 F7200.000
G1 F1680
G1 X128.587 Y120.413 E0.44596
G1 X128.587 Y89.587 E0.92724
G1 X143.413 Y89.587 E0.44596
G1 X143.413 Y120.353 E0.92543
G1 X143.790 Y120.790 F7200.000
G1 F1260
G1 X128.210 Y120.790 E0.46864
G1 X128.210 Y89.210 E0.94992
G1 X143.790 Y89.210 E0.46864
G1 X143.790 Y120.730 E0.94812
G1 X143.417 Y120.645 F7200.000
G1 F5760
G1 X141.596 Y120.738 E-0.76000
G1 E-0.04000 F2100.00000
G1 X137.847 Y114.847 F7200.000
G1 E0.80000 F2100.00000
G1 F840
G1 X137.306 Y115.262 E0.02051
G1 X136.676 Y115.523 E0.02051
G1 X136.000 Y115.612 E0.02051
G1 X135.324 Y115.523 E0.02051
G1 X134.701 Y115.265 E0.02028
G1 X134.153 Y114.847 E0.02072
G1 X133.738 Y114.306 E0.02052
G1 X133.477 Y113.676 E0.02051
G1 X133.388 Y113.000 E0.02051
G1 X133.477 Y112.324 E0.02051
G1 X133.738 Y111.694 E0.02051
G1 X134.153 Y111.153 E0.02051
G1 X134.694 Y110.738 E0.02051
G1 X135.324 Y110.477 E0.02051
G1 X135.992 Y110.389 E0.02028
G1 X136.676 Y110.477 E0.02072
G1 X137.306 Y110.738 E0.02052
G1 X137.847 Y111.153 E0.02051
G1 X138.262 Y111.694 E0.02051
G1 X138.523 Y112.324 E0.02051
G1 X138.612 Y113.000 E0.02051
G1 X138.523 Y113.676 E0.02051
G1 X138.262 Y114.306 E0.02051
G1 X137.883 Y114.799 E0.01870
G1 X137.950 Y115.233 F7200.000
G1 X138.157 Y115.157 F7200.000
G1 F840
G1 X137.516 Y115.646 E0.02424
G1 X136.790 Y115.947 E0.02367
G1 X136.000 Y116.051 E0.02395
G1 X135.210 Y115.947 E0.02395
G1 X134.475 Y115.642 E0.02395
G1 X133.843 Y115.157 E0.02395
G1 X133.358 Y114.525 E0.02395
G1 X133.053 Y113.790 E0.02395
G1 X132.949 Y113.000 E0.02395
G1 X133.053 Y112.210 E0.02395
G1 X133.358 Y111.475 E0.02395
G1 X133.843 Y110.843 E0.02395
G1 X134.475 Y110.358 E0.02395
G1 X135.210 Y110.053 E0.02394
G1 X136.010 Y109.951 E0.02424
G1 X136.790 Y110.053 E0.02367
G1 X137.525 Y110.358 E0.02395
G1 X138.157 Y110.843 E0.02395
G1 X138.642 Y111.475 E0.02395
G1 X138.947 Y112.210 E0.02395
G1 X139.051 Y113.000 E0.02395
G1 X138.947 Y113.790 E0.02395
G1 X138.642 Y114.525 E0.02395
G1 X138.194 Y115.109 E0.02214
G1 X137.771 Y115.053 F7200.000
G1 F5760
G1 X137.516 Y115.646 E-0.29924
G1 F5760
G1 X136.790 Y115.947 E-0.27250
G1 F5760
G1 X136.251 Y116.018 E-0.18826
G1 E-0.04000 F2100.00000
G1 X136.676 Y107.523 F7200.000
G1 E0.80000 F2100.00000
G1 F840
G1 X136.000 Y107.612 E0.02051
G1 X135.324 Y107.523 E0.02051
G1 X134.694 Y107.262 E0.02051
G1 X134.153 Y106.847 E0.02051
G1 X133.738 Y106.306 E0.02051
G1 X133.477 Y105.676 E0.02051
