; generated by Slic3r Prusa Edition 1.41.0+ on 2018-09-27 at 14:00:10

; 

; external perimeters extrusion width = 0.45mm
; perimeters extrusion width = 0.45mm
; infill extrusion width = 0.45mm
; solid infill extrusion width = 0.45mm
; top infill extrusion width = 0.40mm
; support material extrusion width = 0.35mm
; first layer extrusion width = 0.42mm

M201 X9000 Y9000 Z500 E10000 ; sets maximum accelerations, mm/sec^2
M203 X500 Y500 Z12 E120 ; sets maximum feedrates, mm/sec
M204 P2000 R1500 T2000 ; sets acceleration (P, T) and retract acceleration (R), mm/sec^2
M205 X10.00 Y10.00 Z0.20 E2.50 ; sets the jerk limits, mm/sec
M205 S0 T0 ; sets the minimum extruding and travel feed rate, mm/sec
M107
G21 ; set units to millimeters
G90 ; use absolute positioning
M82 ; absolute extrusion mode
M104 S160 ; set extruder temp no wait
M140 S75 ; set bed temp no wait
M190 S75 ; wait for bed temp

G28 W ; home all without mesh bed level
G80 ; mesh bed leveling

M109 S240 ; wait for extruder temp

M900 K30 ; Linear Advance Value
M205 X8 ; jerk x standard 15
M205 Y8 ; jerk y standard 15
M205 E0.33 ; jerk e axis
M201 E180 ; e axis acceleration

G92 E0.0 ; reset extruder distance position
G1 Y-3.0 F1000.0 ; go outside print area
G1 X60.0 E9.0 F1000.0 ; intro line
M73 P0 R45
G1 X100.0 E21.5 F1000.0 ; intro line
G92 E0.0 ; reset extruder distance position
M900 K45; Filament gcode
G21 ; set units to millimeters
G90 ; use absolute coordinates
M83 ; use relative distances for extrusion
;BEFORE_LAYER_CHANGE
G92 E0.0
;0.2


G1 E-0.80000 F2100.00000
G1 Z0.600 F10800.000
;AFTER_LAYER_CHANGE
;0.2
; PURGING FINISHED
G1 X125.796 Y107.869
G1 Z0.200
G1 E0.80000 F2100.00000
M204 S1000
G1 F1200
G1 X125.796 Y110.104 E0.06449
G1 X125.042 Y110.104 E0.02175
G1 X125.042 Y108.039 E0.05959
G1 X124.287 Y108.039 E0.02175
G1 X124.287 Y121.275 E0.38181
G1 X125.042 Y121.275 E0.02175
G1 X125.042 Y114.569 E0.19345
G1 X125.796 Y114.569 E0.02175
G1 X125.796 Y121.275 E0.19345
G1 X126.550 Y121.275 E0.02175
G1 X126.550 Y108.039 E0.38181
G1 X127.304 Y108.039 E0.02175
G1 X127.304 Y121.275 E0.38181
G1 X128.058 Y121.275 E0.02175
G1 X128.058 Y108.039 E0.38181
G1 X128.812 Y108.039 E0.02175
G1 X128.812 Y121.275 E0.38181
G1 X129.567 Y121.275 E0.02175
G1 X129.567 Y108.039 E0.38181
G1 X130.321 Y108.039 E0.02175
G1 X130.321 Y118.968 E0.31526
G1 X131.075 Y118.968 E0.02175
G1 X131.075 Y108.039 E0.31526
G1 X131.829 Y108.039 E0.02175
G1 X131.829 Y119.137 E0.32016
G1 F8640
G1 X131.829 Y115.846 E-0.76000
G1 E-0.04000 F2100.00000
G1 Z0.800 F10800.000
G1 X123.533 Y121.445
G1 Z0.200
G1 E0.80000 F2100.00000
G1 F1200
G1 X123.533 Y108.039 E0.38671
G1 X122.779 Y108.039 E0.02175
G1 X122.779 Y121.275 E0.38181
G1 X122.025 Y121.275 E0.02175
G1 X122.025 Y108.039 E0.38181
G1 X121.271 Y108.039 E0.02175
G1 X121.271 Y121.275 E0.38181
G1 X120.517 Y121.275 E0.02175
G1 X120.517 Y108.039 E0.38181
G1 X119.762 Y108.039 E0.02175
G1 X119.762 Y121.445 E0.38671
G1 F8640
G1 X119.762 Y118.153 E-0.76000
G1 E-0.04000 F2100.00000
G1 Z0.800 F10800.000
G1 X125.296 Y113.568
G1 Z0.200
G1 E0.80000 F2100.00000
G1 F1200
G1 X125.296 Y111.105 E0.07104
G1 X125.503 Y111.105 E0.00595
G1 X125.503 Y113.568 E0.07104
G1 X125.356 Y113.568 E0.00424
G1 X124.919 Y113.945 F10800.000
G1 F1200
G1 X124.919 Y110.728 E0.09280
G1 X125.880 Y110.728 E0.02771
G1 X125.880 Y113.945 E0.09280
G1 X124.979 Y113.945 E0.02599
G1 X124.958 Y113.547 F10800.000
;BEFORE_LAYER_CHANGE
G92 E0.0
;0.4


G1 F8640
G1 X124.919 Y110.728 E-0.74294
G1 X124.993 Y110.728 E-0.01706
G1 E-0.04000 F2100.00000
G1 Z0.800 F10800.000
;AFTER_LAYER_CHANGE
;0.4
M104 S235 ; set temperature
M140 S80 ; set bed temperature
; PURGING FINISHED
G1 X124.995 Y113.523
G1 Z0.400
G1 E0.80000 F2100.00000
M204 S800
G1 F3600
G1 X124.995 Y110.318 E0.09980
G1 F1200
G1 X124.995 Y109.993 E0.01484
G1 X118.132 Y109.993 E0.31337
G1 X118.132 Y91.257 E0.85552
G1 X131.868 Y91.257 E0.62721
G1 X131.868 Y109.993 E0.85552
G1 X125.804 Y109.993 E0.27691
G1 X125.804 Y110.318 E0.01484
G1 F3600
G1 X125.804 Y113.523 E0.09980
G1 X125.055 Y113.523 E0.02333
M204 S1000
G1 X125.055 Y113.930 F10800.000
M204 S800
G1 F3000
G1 X124.588 Y113.930 E0.01455
G1 X124.588 Y110.400 E0.10993
G1 X124.509 Y110.400 E0.00244
G1 F1200
G1 X117.725 Y110.400 E0.30978
G1 X117.725 Y90.850 E0.89269
G1 X132.275 Y90.850 E0.66438
G1 X132.275 Y110.400 E0.89269
G1 X126.290 Y110.400 E0.27330
G1 F3000
G1 X126.211 Y110.400 E0.00246
G1 X126.211 Y113.930 E0.10993
G1 X125.115 Y113.930 E0.03414
M204 S1000
G1 X124.731 Y113.695 F10800.000
G1 X125.399 Y113.319
G1 F2400
G1 X125.399 Y109.789 E0.10858
G1 X125.390 Y109.666 F10800.000
G1 F1200
G1 X131.546 Y103.509 E0.40718
G1 X131.546 Y104.138 E0.02940
G1 X126.013 Y109.671 E0.36597
G1 X126.642 Y109.671 E0.02940
G1 X131.546 Y104.767 E0.32438
G1 X131.546 Y105.396 E0.02940
G1 X127.271 Y109.671 E0.28280
G1 X127.899 Y109.671 E0.02940
G1 X131.546 Y106.024 E0.24121
G1 X131.546 Y106.653 E0.02940
G1 X128.528 Y109.671 E0.19963
G1 X129.157 Y109.671 E0.02940
G1 X131.546 Y107.282 E0.15804
G1 X131.546 Y107.911 E0.02940
G1 X129.786 Y109.671 E0.11646
G1 X130.414 Y109.671 E0.02940
G1 X131.546 Y108.539 E0.07487
G1 X131.546 Y109.168 E0.02940
G1 X130.845 Y109.869 E0.04638
G1 F8640
G1 X131.546 Y109.168 E-0.22898
G1 X131.546 Y108.539 E-0.14517
G1 X130.414 Y109.671 E-0.36965
G1 X130.344 Y109.671 E-0.01620
G1 E-0.04000 F2100.00000
G1 Z1.000 F10800.000
G1 X124.558 Y109.869
G1 Z0.400
G1 E0.80000 F2100.00000
G1 F1200
G1 X131.546 Y102.881 E0.46223
G1 X131.546 Y102.252 E0.02940
G1 X124.127 Y109.671 E0.49072
G1 X123.498 Y109.671 E0.02940
G1 X131.546 Y101.623 E0.53230
G1 X131.546 Y100.995 E0.02940
G1 X122.870 Y109.671 E0.57389
G1 X122.241 Y109.671 E0.02940
G1 X131.546 Y100.366 E0.61547
G1 X131.546 Y99.737 E0.02940
G1 X121.612 Y109.671 E0.65706
G1 X120.983 Y109.671 E0.02940
G1 X131.546 Y99.108 E0.69864
G1 X131.546 Y98.480 E0.02940
G1 X120.355 Y109.671 E0.74023
G1 X119.726 Y109.671 E0.02940
G1 X131.546 Y97.851 E0.78181
G1 X131.546 Y97.222 E0.02940
G1 X119.097 Y109.671 E0.82340
G1 X118.469 Y109.671 E0.02940
G1 X131.546 Y96.594 E0.86498
G1 X131.546 Y95.965 E0.02940
G1 X118.454 Y109.057 E0.86596
G1 X118.454 Y108.429 E0.02940
G1 X131.546 Y95.336 E0.86596
G1 X131.546 Y94.707 E0.02940
G1 X118.454 Y107.800 E0.86596
G1 X118.454 Y107.171 E0.02940
G1 X131.546 Y94.079 E0.86596
G1 X131.546 Y93.450 E0.02940
G1 X118.454 Y106.542 E0.86596
G1 X118.454 Y105.914 E0.02940
G1 X131.546 Y92.821 E0.86596
G1 X131.546 Y92.193 E0.02940
G1 X118.454 Y105.285 E0.86596
G1 X118.454 Y104.656 E0.02940
G1 X131.531 Y91.579 E0.86498
G1 X130.903 Y91.579 E0.02940
G1 X118.454 Y104.028 E0.82339
G1 X118.454 Y103.399 E0.02940
G1 X130.274 Y91.579 E0.78181
G1 X129.645 Y91.579 E0.02940
G1 X118.454 Y102.770 E0.74022
G1 X118.454 Y102.141 E0.02940
G1 X129.016 Y91.579 E0.69864
G1 X128.388 Y91.579 E0.02940
G1 X118.454 Y101.513 E0.65705
G1 X118.454 Y100.884 E0.02940
G1 X127.759 Y91.579 E0.61547
G1 X127.130 Y91.579 E0.02940
G1 X118.454 Y100.255 E0.57388
G1 X118.454 Y99.627 E0.02940
G1 X126.502 Y91.579 E0.53230
G1 X125.873 Y91.579 E0.02940
G1 X118.454 Y98.998 E0.49071
G1 X118.454 Y98.369 E0.02940
G1 X125.244 Y91.579 E0.44913
G1 X124.615 Y91.579 E0.02940
G1 X118.454 Y97.740 E0.40754
G1 X118.454 Y97.112 E0.02940
G1 X123.987 Y91.579 E0.36596
G1 X123.358 Y91.579 E0.02940
G1 X118.454 Y96.483 E0.32437
G1 X118.454 Y95.854 E0.02940
G1 X122.729 Y91.579 E0.28279
G1 X122.101 Y91.579 E0.02940
G1 X118.454 Y95.226 E0.24121
G1 X118.454 Y94.597 E0.02940
G1 X121.472 Y91.579 E0.19962
G1 X120.843 Y91.579 E0.02940
G1 X118.454 Y93.968 E0.15804
G1 X118.454 Y93.339 E0.02940
G1 X120.214 Y91.579 E0.11645
G1 X119.586 Y91.579 E0.02940
G1 X118.454 Y92.711 E0.07487
G1 X118.454 Y92.082 E0.02940
G1 X119.155 Y91.381 E0.04637
;BEFORE_LAYER_CHANGE
G92 E0.0
;0.441667


G1 F8640
G1 X118.454 Y92.082 E-0.22895
G1 X118.454 Y92.711 E-0.14517
G1 X119.586 Y91.579 E-0.36962
G1 X119.656 Y91.579 E-0.01625
G1 E-0.04000 F2100.00000
G1 Z1.000 F10800.000
;AFTER_LAYER_CHANGE
;0.441667
; PURGING FINISHED
G1 X121.976 Y111.389
G1 Z0.442
G1 E0.80000 F2100.00000
G1 F1200
G1 X123.501 Y111.389 E0.04204
G1 X123.501 Y113.696 E0.06358
G1 X122.114 Y113.696 E0.03823
G1 X122.114 Y116.003 E0.06358
G1 X129.035 Y116.003 E0.19074
G1 X129.035 Y113.696 E0.06358
G1 X127.297 Y113.696 E0.04791
G1 X127.297 Y111.389 E0.06358
G1 X129.174 Y111.389 E0.05172
G1 F8640
G1 X127.297 Y111.389 E-0.43337
G1 X127.297 Y112.803 E-0.32663
G1 E-0.04000 F2100.00000
G1 Z1.042 F10800.000
G1 X126.867 Y118.310
G1 Z0.442
G1 E0.80000 F2100.00000
G1 F1200
G1 X121.976 Y118.310 E0.13478
;BEFORE_LAYER_CHANGE
G92 E0.0
;0.6


G1 F8640
G1 X125.267 Y118.310 E-0.76000
G1 E-0.04000 F2100.00000
G1 Z1.042 F10800.000
;AFTER_LAYER_CHANGE
;0.6
; PURGING FINISHED
G1 X124.648 Y113.523
G1 Z0.600
G1 E0.80000 F2100.00000
M204 S800
G1 F2662
G1 X124.648 Y109.993 E0.10993
G1 X118.132 Y109.993 E0.20292
G1 X118.132 Y91.257 E0.58345
G1 X131.868 Y91.257 E0.42775
G1 X131.868 Y109.993 E0.58345
M73 P2 R44
G1 X126.150 Y109.993 E0.17807
G1 X126.150 Y113.523 E0.10993
G1 X124.708 Y113.523 E0.04489
M204 S1000
G1 F8640
G1 X124.652 Y110.232 E-0.76000
G1 E-0.04000 F2100.00000
G1 Z1.200 F10800.000
G1 X126.557 Y110.400
G1 Z0.600
G1 E0.80000 F2100.00000
M204 S800
G1 F2662
G1 X126.557 Y113.930 E0.10993
G1 X124.241 Y113.930 E0.07211
G1 X124.241 Y110.400 E0.10993
G1 X117.725 Y110.400 E0.20292
G1 X117.725 Y90.850 E0.60880
G1 X132.275 Y90.850 E0.45310
G1 X132.275 Y110.400 E0.60880
G1 X126.617 Y110.400 E0.17620
M204 S1000
G1 X126.193 Y110.566 F10800.000
G1 F8640
G1 X126.561 Y113.691 E-0.76000
G1 E-0.04000 F2100.00000
G1 Z1.200 F10800.000
G1 X126.028 Y111.564
G1 Z0.600
G1 E0.80000 F2100.00000
M204 S1250
G1 F2662
G1 X124.954 Y110.489 E0.04790
G1 X124.954 Y111.072 E0.01838
G1 X125.844 Y111.963 E0.03973
G1 X125.844 Y112.546 E0.01839
G1 X124.954 Y111.655 E0.03973
G1 X124.954 Y112.238 E0.01838
G1 X125.844 Y113.129 E0.03973
G1 X125.844 Y113.218 E0.00278
G1 X125.350 Y113.218 E0.01560
G1 X124.770 Y112.638 E0.02584
M204 S1000
G1 F8640
G1 X125.350 Y113.218 E-0.18919
G1 X125.844 Y113.218 E-0.11424
G1 X125.844 Y113.129 E-0.02038
G1 X124.954 Y112.238 E-0.29093
G1 X124.954 Y111.655 E-0.13461
G1 X124.986 Y111.688 E-0.01065
G1 E-0.04000 F2100.00000
G1 Z1.200 F10800.000
G1 X118.254 Y109.037
G1 Z0.600
G1 E0.80000 F2100.00000
M204 S1250
G1 F2662
G1 X118.905 Y109.688 E0.02901
G1 X119.488 Y109.688 E0.01838
G1 X118.437 Y108.637 E0.04685
G1 X118.437 Y108.054 E0.01838
G1 X120.071 Y109.688 E0.07285
G1 X120.654 Y109.688 E0.01838
G1 X118.437 Y107.471 E0.09885
G1 X118.437 Y106.888 E0.01838
G1 X121.237 Y109.688 E0.12485
G1 X121.820 Y109.688 E0.01838
G1 X118.437 Y106.305 E0.15085
G1 X118.437 Y105.722 E0.01838
G1 X122.403 Y109.688 E0.17685
G1 X122.986 Y109.688 E0.01838
G1 X118.437 Y105.139 E0.20285
G1 X118.437 Y104.556 E0.01838
G1 X123.569 Y109.688 E0.22885
G1 X124.152 Y109.688 E0.01838
G1 X118.437 Y103.973 E0.25485
G1 X118.437 Y103.390 E0.01838
G1 X125.844 Y110.797 E0.33034
G1 X125.844 Y110.214 E0.01839
G1 X118.437 Y102.807 E0.33034
G1 X118.437 Y102.224 E0.01838
G1 X125.901 Y109.688 E0.33285
G1 X126.484 Y109.688 E0.01838
G1 X118.437 Y101.641 E0.35885
G1 X118.437 Y101.058 E0.01838
G1 X127.067 Y109.688 E0.38485
G1 X127.650 Y109.688 E0.01839
G1 X118.437 Y100.475 E0.41085
G1 X118.437 Y99.892 E0.01838
G1 X128.233 Y109.688 E0.43685
G1 X128.816 Y109.688 E0.01838
G1 X118.437 Y99.309 E0.46285
G1 X118.437 Y98.726 E0.01838
G1 X129.399 Y109.688 E0.48885
G1 X129.982 Y109.688 E0.01838
G1 X118.437 Y98.143 E0.51485
G1 X118.437 Y97.560 E0.01838
G1 X130.565 Y109.688 E0.54085
G1 X131.148 Y109.688 E0.01838
G1 X118.437 Y96.977 E0.56685
G1 X118.437 Y96.394 E0.01838
G1 X131.563 Y109.520 E0.58536
G1 X131.563 Y108.937 E0.01838
G1 X118.437 Y95.811 E0.58536
G1 X118.437 Y95.228 E0.01838
G1 X131.563 Y108.354 E0.58536
G1 X131.563 Y107.771 E0.01838
G1 X118.437 Y94.645 E0.58536
G1 X118.437 Y94.062 E0.01838
G1 X131.563 Y107.188 E0.58536
G1 X131.563 Y106.605 E0.01838
G1 X118.437 Y93.479 E0.58536
G1 X118.437 Y92.896 E0.01838
G1 X131.563 Y106.022 E0.58536
G1 X131.563 Y105.439 E0.01838
G1 X118.437 Y92.313 E0.58536
G1 X118.437 Y91.730 E0.01838
G1 X131.563 Y104.856 E0.58536
G1 X131.563 Y104.273 E0.01838
G1 X118.852 Y91.562 E0.56685
G1 X119.435 Y91.562 E0.01838
G1 X131.563 Y103.690 E0.54085
G1 X131.563 Y103.107 E0.01838
G1 X120.018 Y91.562 E0.51485
G1 X120.601 Y91.562 E0.01838
G1 X131.563 Y102.524 E0.48885
G1 X131.563 Y101.941 E0.01838
G1 X121.184 Y91.562 E0.46285
G1 X121.767 Y91.562 E0.01838
G1 X131.563 Y101.358 E0.43685
G1 X131.563 Y100.775 E0.01838
G1 X122.350 Y91.562 E0.41085
G1 X122.933 Y91.562 E0.01838
G1 X131.563 Y100.192 E0.38485
G1 X131.563 Y99.609 E0.01838
G1 X123.516 Y91.562 E0.35885
G1 X124.099 Y91.562 E0.01838
G1 X131.563 Y99.026 E0.33285
G1 X131.563 Y98.443 E0.01838
G1 X124.682 Y91.562 E0.30685
G1 X125.265 Y91.562 E0.01838
G1 X131.563 Y97.860 E0.28085
G1 X131.563 Y97.277 E0.01838
G1 X125.848 Y91.562 E0.25485
G1 X126.431 Y91.562 E0.01838
G1 X131.563 Y96.694 E0.22885
G1 X131.563 Y96.111 E0.01838
G1 X127.014 Y91.562 E0.20285
G1 X127.597 Y91.562 E0.01838
G1 X131.563 Y95.528 E0.17685
G1 X131.563 Y94.945 E0.01838
G1 X128.180 Y91.562 E0.15085
G1 X128.763 Y91.562 E0.01838
G1 X131.563 Y94.362 E0.12485
G1 X131.563 Y93.779 E0.01838
G1 X129.346 Y91.562 E0.09885
G1 X129.929 Y91.562 E0.01838
G1 X131.563 Y93.196 E0.07285
G1 X131.563 Y92.613 E0.01838
G1 X130.512 Y91.562 E0.04685
G1 X131.095 Y91.562 E0.01838
G1 X131.746 Y92.213 E0.02902
M204 S1000
;BEFORE_LAYER_CHANGE
G92 E0.0
;0.683333


G1 F8640
G1 X131.095 Y91.562 E-0.21247
G1 X130.512 Y91.562 E-0.13461
G1 X131.563 Y92.613 E-0.34303
G1 X131.563 Y92.916 E-0.06988
G1 E-0.04000 F2100.00000
G1 Z1.200 F10800.000
;AFTER_LAYER_CHANGE
;0.683333
; PURGING FINISHED
G1 X129.174 Y111.389
G1 Z0.683
G1 E0.80000 F2100.00000
G1 F1200
G1 X127.412 Y111.389 E0.04854
G1 X127.412 Y113.696 E0.06358
G1 X129.035 Y113.696 E0.04473
G1 X129.035 Y116.003 E0.06358
G1 X122.114 Y116.003 E0.19074
G1 X122.114 Y113.696 E0.06358
G1 X123.386 Y113.696 E0.03505
G1 X123.386 Y111.389 E0.06358
G1 X121.976 Y111.389 E0.03886
G1 X121.976 Y118.310 F10800.000
G1 F1200
G1 X126.867 Y118.310 E0.13478
M106 S153
;BEFORE_LAYER_CHANGE
G92 E0.0
;0.8


G1 F8640
G1 X123.575 Y118.310 E-0.76000
G1 E-0.04000 F2100.00000
G1 Z1.283 F10800.000
;AFTER_LAYER_CHANGE
;0.8
; PURGING FINISHED
G1 X126.286 Y113.523
G1 Z0.800
G1 E0.80000 F2100.00000
M204 S800
G1 F2675
G1 X124.512 Y113.523 E0.05525
G1 X124.512 Y109.993 E0.10993
G1 X118.132 Y109.993 E0.19868
G1 X118.132 Y91.257 E0.58345
G1 X131.868 Y91.257 E0.42775
G1 X131.868 Y109.993 E0.58345
G1 X126.286 Y109.993 E0.17382
G1 X126.286 Y113.463 E0.10806
M204 S1000
G1 F8640
G1 X124.512 Y113.523 E-0.40987
G1 X124.512 Y112.007 E-0.35013
G1 E-0.04000 F2100.00000
G1 Z1.400 F10800.000
G1 X126.693 Y110.400
G1 Z0.800
G1 E0.80000 F2100.00000
M204 S800
G1 F2675
G1 X126.693 Y113.930 E0.10993
G1 X124.105 Y113.930 E0.08060
G1 X124.105 Y110.400 E0.10993
G1 X117.725 Y110.400 E0.19868
G1 X117.725 Y90.850 E0.60880
G1 X132.275 Y90.850 E0.45310
G1 X132.275 Y110.400 E0.60880
G1 X126.753 Y110.400 E0.17195
M204 S1000
G1 X126.330 Y110.567 F10800.000
G1 F8640
G1 X126.697 Y113.691 E-0.76000
G1 E-0.04000 F2100.00000
G1 Z1.400 F10800.000
G1 X124.634 Y110.319
G1 Z0.800
G1 E0.80000 F2100.00000
M204 S1250
G1 F2675
G1 X131.563 Y103.390 E0.30899
G1 X131.563 Y102.807 E0.01838
G1 X124.682 Y109.688 E0.30685
G1 X124.099 Y109.688 E0.01838
G1 X131.563 Y102.224 E0.33285
G1 X131.563 Y101.641 E0.01838
G1 X123.516 Y109.688 E0.35885
G1 X122.933 Y109.688 E0.01838
G1 X131.563 Y101.058 E0.38485
G1 X131.563 Y100.475 E0.01838
G1 X122.350 Y109.688 E0.41085
G1 X121.767 Y109.688 E0.01838
G1 X131.563 Y99.892 E0.43685
G1 X131.563 Y99.309 E0.01838
G1 X121.184 Y109.688 E0.46285
G1 X120.601 Y109.688 E0.01838
G1 X131.563 Y98.726 E0.48885
G1 X131.563 Y98.143 E0.01838
G1 X120.018 Y109.688 E0.51485
G1 X119.435 Y109.688 E0.01838
G1 X131.563 Y97.560 E0.54085
G1 X131.563 Y96.977 E0.01838
G1 X118.852 Y109.688 E0.56685
G1 X118.437 Y109.688 E0.01308
G1 X118.437 Y109.520 E0.00530
G1 X131.563 Y96.394 E0.58536
G1 X131.563 Y95.811 E0.01838
G1 X118.437 Y108.937 E0.58536
G1 X118.437 Y108.354 E0.01838
