; generated by PrusaSlicer 2.4.1+x64 on 2022-04-12 at 12:55:03 UTC


;
;

;
;
; 

; external perimeters extrusion width = 0.45mm
; perimeters extrusion width = 0.45mm
; infill extrusion width = 0.45mm
; solid infill extrusion width = 0.45mm
; top infill extrusion width = 0.40mm
; first layer extrusion width = 0.42mm

M73 P0 R47
M107
;TYPE:Custom
M83  ; extruder relative mode
M140 S85 ; set bed temp
M109 S160 ; Set extruder temp before bed level
M190 S85 ; wait for bed temp

G28 W ; home all without mesh bed level
G80 N7 ; mesh bed leveling

M109 S240 ; wait for extruder temp

M221 S100 ; Set flow to 100

G1 Y-3.0 F1000.0 ; go outside print area
G92 E0.0
G1 E8 ; Purge Bubble
G1 X60.0 E9.0 F1000.0 ; intro line
G1 X100.0 E12.5 F1000.0 ; intro line
G92 E0.0
G21 ; set units to millimeters
G90 ; use absolute coordinates
M83 ; use relative distances for extrusion
M900 K0.08 ; Filament gcode LA 1.5
M900 K45 ; Filament gcode LA 1.0
M107
;LAYER_CHANGE
;Z:0.2
;HEIGHT:0.2
;BEFORE_LAYER_CHANGE
G92 E0.0
;0.2


M73 P0 R46
G1 E-1 F2100
G1 Z.2 F720
;AFTER_LAYER_CHANGE
;0.2
G1 Z.4
G1 X99.524 Y81.329 F6000
G1 Z.2 F720
G1 E1 F2100
M204 S800
;TYPE:Skirt/Brim
;WIDTH:0.42
G1 F1200
G1 X100.459 Y80.335 E.04278
G1 X101.65 Y80.015 E.03868
G1 X141.829 Y80.015 E1.25977
G1 X143.51 Y80.711 E.05704
G1 X150.281 Y87.482 E.30023
G1 X150.977 Y89.163 E.05704
G1 X150.977 Y91.425 E.07095
G1 X150.281 Y93.106 E.05704
G1 X109.198 Y134.189 E1.82168
G1 X107.997 Y134.836 E.04278
G1 X106.637 Y134.717 E.04278
G1 X105.836 Y134.189 E.03008
G1 X99.719 Y128.073 E.27121
G1 X99.023 Y126.392 E.05704
G1 X99.023 Y82.892 E1.36391
G1 X99.274 Y81.829 E.03425
G1 X99.497 Y81.382 E.01565
M204 S1000
; printing object lcd_support_b.stl id:0 copy 0
;WIPE_START
G1 F4800
G1 X100.459 Y80.335 E-.59102
G1 X101.293 Y80.111 E-.35898
;WIPE_END
G1 E-.05 F2100
G1 Z.4 F720
G1 X147.833 Y90.848 F6000
G1 Z.2 F720
G1 E1 F2100
M204 S800
;TYPE:Perimeter
G1 F1200
G1 X147.824 Y91.089 E.00755
G1 X147.186 Y91.727 E.02829
G1 X147.095 Y91.636 E.00402
G1 X147.485 Y91.244 E.01733
G1 X147.793 Y90.894 E.01464
M204 S1000
;WIPE_START
G1 F4800
G1 X147.824 Y91.089 E-.08236
G1 X147.186 Y91.727 E-.37496
G1 X147.095 Y91.636 E-.05327
G1 X147.485 Y91.244 E-.22967
G1 X147.793 Y90.894 E-.19409
;WIPE_END
G1 E-.06565 F2100
G1 Z.4 F720
G1 X133.378 Y86.728 F6000
G1 Z.2 F720
G1 E1 F2100
M204 S800
G1 F1200
G1 X133.378 Y91.747 E.15737
G1 X105.773 Y119.352 E1.22405
G1 X104.336 Y118.756 E.04878
G1 X104.336 Y93.037 E.80642
G1 X110.645 Y86.728 E.27976
G1 X133.318 Y86.728 E.7109
M204 S1000
G1 X133.001 Y87.105 F6000
M204 S800
G1 F1200
G1 X133.001 Y91.591 E.14065
G1 X105.685 Y118.907 E1.21125
G1 X104.713 Y118.504 E.03298
G1 X104.713 Y93.193 E.79362
G1 X110.802 Y87.105 E.26996
G1 X132.941 Y87.105 E.69418
M204 S1000
G1 X132.624 Y87.482 F6000
M204 S800
;TYPE:External perimeter
M73 P1 R46
G1 F1200
G1 X132.624 Y91.434 E.12393
G1 X105.597 Y118.462 E1.19845
G1 X105.09 Y118.252 E.01718
G1 X105.09 Y93.349 E.78082
G1 X110.958 Y87.482 E.26017
G1 X132.564 Y87.482 E.67746
M204 S1000
G1 X133.023 Y87.454 F6000
;WIPE_START
G1 F4800
G1 X132.599 Y89.767 E-.95
;WIPE_END
G1 E-.05 F2100
G1 Z.4 F720
G1 X132.564 Y83.956 F6000
G1 Z.2 F720
G1 E1 F2100
M204 S800
;TYPE:Perimeter
G1 F1200
G1 X141.747 Y83.956 E.28791
G1 X145.401 Y87.604 E.16189
G1 X142.377 Y90.627 E.13407
G1 X139.69 Y87.94 E.11915
G1 X105.163 Y122.467 E1.53098
G1 X107.85 Y125.154 E.11915
G1 X104.83 Y128.175 E.13394
G1 X102.564 Y125.91 E.10045
G1 X102.564 Y83.956 E1.31543
G1 X132.504 Y83.956 E.93874
M204 S1000
;WIPE_START
G1 F4800
G1 X134.79 Y83.956 E-.95
;WIPE_END
G1 E-.05 F2100
G1 Z.4 F720
G1 X145.934 Y87.604 F6000
G1 Z.2 F720
G1 E1 F2100
M204 S800
G1 F1200
G1 X142.377 Y91.161 E.15773
G1 X139.69 Y88.474 E.11915
G1 X105.697 Y122.467 E1.50733
G1 X108.384 Y125.154 E.11915
G1 X104.83 Y128.708 E.15758
G1 X102.187 Y126.066 E.11717
G1 X102.187 Y83.579 E1.33215
G1 X141.903 Y83.579 E1.24525
G1 X145.892 Y87.561 E.17673
M204 S1000
;WIPE_START
G1 F4800
G1 X144.295 Y89.197 E-.95
;WIPE_END
G1 E-.05 F2100
G1 Z.4 F720
G1 X108.86 Y129.874 F6000
G1 Z.2 F720
G1 E1 F2100
M204 S800
G1 F1200
G1 X108.949 Y129.963 E.00395
G1 X107.517 Y131.395 E.06352
G1 X107.428 Y131.306 E.00395
G1 X108.818 Y129.916 E.06164
M204 S1000
;WIPE_START
G1 F4800
G1 X108.949 Y129.963 E-.05794
G1 X107.517 Y131.395 E-.84199
G1 X107.432 Y131.31 E-.05006
;WIPE_END
G1 E-.05 F2100
G1 Z.4 F720
G1 X148.005 Y90.082 F6000
G1 Z.2 F720
G1 E1 F2100
M204 S800
;TYPE:External perimeter
G1 F1200
G1 X147.237 Y89.206 E.03653
G1 X146.054 Y88.017 E.05259
G1 X142.377 Y91.694 E.16306
G1 X139.69 Y89.007 E.11915
G1 X106.23 Y122.467 E1.48369
G1 X108.917 Y125.154 E.11915
G1 X105.24 Y128.831 E.16304
G1 X107.305 Y130.896 E.09155
G1 X108.86 Y129.34 E.06898
G1 X109.483 Y129.963 E.02759
G1 X107.517 Y131.928 E.08717
G1 X101.81 Y126.222 E.25303
G1 X101.81 Y83.202 E1.34887
G1 X142.059 Y83.202 E1.26197
M73 P2 R46
G1 X148.208 Y89.341 E.27243
G1 X148.257 Y90.067 E.02281
G1 X148.196 Y91.251 E.03719
G1 X147.186 Y92.26 E.04476
G1 X146.563 Y91.637 E.02762
G1 X147.209 Y90.986 E.02875
G1 X147.965 Y90.127 E.03589
M204 S1000
G1 X148.296 Y89.808 F6000
G1 X148.038 Y89.629
M204 S800
;TYPE:Gap fill
;WIDTH:0.299673
G1 F1200
G1 X147.456 Y89.007 E.0182
M204 S1000
M204 S800
;WIDTH:0.256072
G1 X147.451 Y89.002 E.00012
M204 S1000
M204 S800
;WIDTH:0.255831
G1 X146.128 Y87.677 E.03315
M204 S1000
;WIPE_START
G1 F4800
M73 P2 R45
G1 X147.451 Y89.002 E-.77827
;WIPE_END
G1 E-.22173 F2100
G1 Z.4 F720
G1 X141.465 Y84.069 F6000
G1 Z.2 F720
G1 E1 F2100
M204 S800
;TYPE:Solid infill
;WIDTH:0.421644
G1 F1200
G1 X145 Y87.605 E.15746
G1 X144.732 Y87.872 E.01193
G1 X141.099 Y84.239 E.16183
G1 X140.563 Y84.239 E.01687
G1 X144.464 Y88.14 E.17375
G1 X144.197 Y88.408 E.01193
G1 X140.027 Y84.239 E.18568
G1 X139.492 Y84.239 E.01687
G1 X143.929 Y88.676 E.19761
G1 X143.661 Y88.944 E.01193
G1 X138.956 Y84.239 E.20953
G1 X138.421 Y84.239 E.01687
G1 X143.393 Y89.211 E.22146
G1 X143.126 Y89.479 E.01193
G1 X137.885 Y84.239 E.23339
G1 X137.349 Y84.239 E.01687
G1 X142.858 Y89.747 E.24531
G1 X142.59 Y90.015 E.01193
G1 X136.814 Y84.239 E.25724
G1 X136.278 Y84.239 E.01687
G1 X139.635 Y87.596 E.1495
G1 X139.367 Y87.863 E.01193
G1 X135.743 Y84.239 E.16142
G1 X135.207 Y84.239 E.01687
G1 X139.1 Y88.131 E.17335
G1 X138.832 Y88.399 E.01193
G1 X134.671 Y84.239 E.18528
G1 X134.136 Y84.239 E.01687
G1 X138.564 Y88.667 E.1972
G1 X138.296 Y88.935 E.01193
G1 X133.6 Y84.239 E.20913
G1 X133.065 Y84.239 E.01687
G1 X138.028 Y89.202 E.22106
G1 X137.761 Y89.47 E.01193
G1 X132.529 Y84.239 E.23298
G1 X131.993 Y84.239 E.01687
G1 X137.493 Y89.738 E.24491
G1 X137.225 Y90.006 E.01193
G1 X131.458 Y84.239 E.25684
G1 X130.922 Y84.239 E.01687
G1 X133.128 Y86.445 E.09825
G1 X133.661 Y86.445 E.01678
G1 X133.661 Y86.978 E.01678
G1 X136.957 Y90.274 E.14679
G1 X136.689 Y90.541 E.01193
G1 X133.661 Y87.513 E.13486
G1 X133.661 Y88.049 E.01687
G1 X136.422 Y90.809 E.12293
G1 X136.154 Y91.077 E.01193
G1 X133.661 Y88.584 E.11101
G1 X133.661 Y89.12 E.01687
G1 X135.886 Y91.345 E.09908
G1 X135.618 Y91.613 E.01193
G1 X133.661 Y89.656 E.08716
G1 X133.661 Y90.191 E.01687
G1 X135.35 Y91.88 E.07523
G1 X135.083 Y92.148 E.01193
G1 X133.661 Y90.727 E.0633
G1 X133.661 Y91.262 E.01687
G1 X134.815 Y92.416 E.05138
G1 X134.547 Y92.684 E.01193
G1 X133.661 Y91.798 E.03945
G1 X133.661 Y91.864 E.00208
G1 X133.426 Y92.099 E.01046
G1 X134.279 Y92.952 E.03798
G1 X134.011 Y93.219 E.01193
G1 X133.159 Y92.367 E.03798
G1 X132.891 Y92.634 E.01193
G1 X133.744 Y93.487 E.03798
G1 X133.476 Y93.755 E.01193
G1 X132.623 Y92.902 E.03798
G1 X132.355 Y93.17 E.01193
G1 X133.208 Y94.023 E.03798
G1 X132.94 Y94.291 E.01193
G1 X132.087 Y93.438 E.03798
G1 X131.82 Y93.706 E.01193
G1 X132.672 Y94.558 E.03798
G1 X132.405 Y94.826 E.01193
G1 X131.552 Y93.973 E.03798
G1 X131.284 Y94.241 E.01193
G1 X132.137 Y95.094 E.03798
G1 X131.869 Y95.362 E.01193
G1 X131.016 Y94.509 E.03798
G1 X130.748 Y94.777 E.01193
G1 X131.601 Y95.63 E.03798
G1 X131.333 Y95.897 E.01193
G1 X130.481 Y95.045 E.03798
G1 X130.213 Y95.312 E.01193
G1 X131.066 Y96.165 E.03798
G1 X130.798 Y96.433 E.01193
G1 X129.945 Y95.58 E.03798
G1 X129.677 Y95.848 E.01193
G1 X130.53 Y96.701 E.03798
G1 X130.262 Y96.969 E.01193
G1 X129.409 Y96.116 E.03798
G1 X129.142 Y96.384 E.01193
G1 X129.994 Y97.236 E.03798
G1 X129.727 Y97.504 E.01193
G1 X128.874 Y96.651 E.03798
G1 X128.606 Y96.919 E.01193
G1 X129.459 Y97.772 E.03798
G1 X129.191 Y98.04 E.01193
G1 X128.338 Y97.187 E.03798
G1 X128.07 Y97.455 E.01193
G1 X128.923 Y98.308 E.03798
G1 X128.655 Y98.575 E.01193
G1 X127.803 Y97.722 E.03798
G1 X127.535 Y97.99 E.01193
G1 X128.388 Y98.843 E.03798
G1 X128.12 Y99.111 E.01193
G1 X127.267 Y98.258 E.03798
G1 X126.999 Y98.526 E.01193
G1 X127.852 Y99.379 E.03798
G1 X127.584 Y99.647 E.01193
G1 X126.731 Y98.794 E.03798
G1 X126.464 Y99.061 E.01193
G1 X127.316 Y99.914 E.03798
G1 X127.049 Y100.182 E.01193
G1 X126.196 Y99.329 E.03798
G1 X125.928 Y99.597 E.01193
G1 X126.781 Y100.45 E.03798
G1 X126.513 Y100.718 E.01193
G1 X125.66 Y99.865 E.03798
G1 X125.392 Y100.133 E.01193
G1 X126.245 Y100.986 E.03798
G1 X125.977 Y101.253 E.01193
G1 X125.125 Y100.4 E.03798
G1 X124.857 Y100.668 E.01193
G1 X125.71 Y101.521 E.03798
G1 X125.442 Y101.789 E.01193
G1 X124.589 Y100.936 E.03798
G1 X124.321 Y101.204 E.01193
G1 X125.174 Y102.057 E.03798
G1 X124.906 Y102.325 E.01193
G1 X124.053 Y101.472 E.03798
G1 X123.786 Y101.739 E.01193
G1 X124.638 Y102.592 E.03798
G1 X124.371 Y102.86 E.01193
G1 X123.518 Y102.007 E.03798
G1 X123.25 Y102.275 E.01193
G1 X124.103 Y103.128 E.03798
G1 X123.835 Y103.396 E.01193
G1 X122.982 Y102.543 E.03798
G1 X122.714 Y102.811 E.01193
G1 X123.567 Y103.663 E.03798
G1 X123.299 Y103.931 E.01193
G1 X122.447 Y103.078 E.03798
G1 X122.179 Y103.346 E.01193
G1 X123.032 Y104.199 E.03798
G1 X122.764 Y104.467 E.01193
G1 X121.911 Y103.614 E.03798
G1 X121.643 Y103.882 E.01193
G1 X122.496 Y104.735 E.03798
G1 X122.228 Y105.002 E.01193
G1 X121.375 Y104.15 E.03798
G1 X121.108 Y104.417 E.01193
G1 X121.96 Y105.27 E.03798
G1 X121.693 Y105.538 E.01193
G1 X120.84 Y104.685 E.03798
G1 X120.572 Y104.953 E.01193
G1 X121.425 Y105.806 E.03798
G1 X121.157 Y106.074 E.01193
G1 X120.304 Y105.221 E.03798
G1 X120.036 Y105.489 E.01193
G1 X120.889 Y106.341 E.03798
G1 X120.621 Y106.609 E.01193
G1 X119.769 Y105.756 E.03798
G1 X119.501 Y106.024 E.01193
G1 X120.354 Y106.877 E.03798
G1 X120.086 Y107.145 E.01193
G1 X119.233 Y106.292 E.03798
G1 X118.965 Y106.56 E.01193
G1 X119.818 Y107.413 E.03798
G1 X119.55 Y107.68 E.01193
G1 X118.697 Y106.828 E.03798
G1 X118.43 Y107.095 E.01193
G1 X119.282 Y107.948 E.03798
G1 X119.015 Y108.216 E.01193
G1 X118.162 Y107.363 E.03798
G1 X117.894 Y107.631 E.01193
G1 X118.747 Y108.484 E.03798
G1 X118.479 Y108.752 E.01193
G1 X117.626 Y107.899 E.03798
G1 X117.358 Y108.167 E.01193
G1 X118.211 Y109.019 E.03798
G1 X117.943 Y109.287 E.01193
G1 X117.091 Y108.434 E.03798
G1 X116.823 Y108.702 E.01193
G1 X117.676 Y109.555 E.03798
G1 X117.408 Y109.823 E.01193
G1 X116.555 Y108.97 E.03798
G1 X116.287 Y109.238 E.01193
G1 X117.14 Y110.091 E.03798
G1 X116.872 Y110.358 E.01193
G1 X116.019 Y109.506 E.03798
G1 X115.752 Y109.773 E.01193
G1 X116.604 Y110.626 E.03798
G1 X116.337 Y110.894 E.01193
G1 X115.484 Y110.041 E.03798
G1 X115.216 Y110.309 E.01193
G1 X116.069 Y111.162 E.03798
G1 X115.801 Y111.43 E.01193
G1 X114.948 Y110.577 E.03798
G1 X114.68 Y110.845 E.01193
G1 X115.533 Y111.697 E.03798
G1 X115.265 Y111.965 E.01193
G1 X114.413 Y111.112 E.03798
G1 X114.145 Y111.38 E.01193
G1 X114.998 Y112.233 E.03798
G1 X114.73 Y112.501 E.01193
G1 X113.877 Y111.648 E.03798
G1 X113.609 Y111.916 E.01193
G1 X114.462 Y112.769 E.03798
G1 X114.194 Y113.036 E.01193
G1 X113.341 Y112.184 E.03798
G1 X113.074 Y112.451 E.01193
G1 X113.926 Y113.304 E.03798
G1 X113.659 Y113.572 E.01193
G1 X112.806 Y112.719 E.03798
G1 X112.538 Y112.987 E.01193
G1 X113.391 Y113.84 E.03798
G1 X113.123 Y114.108 E.01193
G1 X112.27 Y113.255 E.03798
G1 X112.002 Y113.523 E.01193
G1 X112.855 Y114.375 E.03798
G1 X112.587 Y114.643 E.01193
G1 X111.735 Y113.79 E.03798
G1 X111.467 Y114.058 E.01193
G1 X112.32 Y114.911 E.03798
G1 X112.052 Y115.179 E.01193
G1 X111.199 Y114.326 E.03798
G1 X110.931 Y114.594 E.01193
G1 X111.784 Y115.447 E.03798
G1 X111.516 Y115.714 E.01193
G1 X110.663 Y114.862 E.03798
G1 X110.396 Y115.129 E.01193
G1 X111.248 Y115.982 E.03798
G1 X110.981 Y116.25 E.01193
G1 X110.128 Y115.397 E.03798
G1 X109.86 Y115.665 E.01193
G1 X110.713 Y116.518 E.03798
G1 X110.445 Y116.786 E.01193
G1 X109.592 Y115.933 E.03798
G1 X109.324 Y116.201 E.01193
G1 X110.177 Y117.053 E.03798
G1 X109.909 Y117.321 E.01193
G1 X109.057 Y116.468 E.03798
G1 X108.789 Y116.736 E.01193
G1 X109.642 Y117.589 E.03798
G1 X109.374 Y117.857 E.01193
G1 X108.521 Y117.004 E.03798
G1 X108.253 Y117.272 E.01193
G1 X109.106 Y118.125 E.03798
G1 X108.838 Y118.392 E.01193
G1 X107.985 Y117.54 E.03798
G1 X107.718 Y117.807 E.01193
G1 X108.57 Y118.66 E.03798
G1 X108.303 Y118.928 E.01193
G1 X107.45 Y118.075 E.03798
G1 X107.182 Y118.343 E.01193
G1 X108.035 Y119.196 E.03798
G1 X107.767 Y119.464 E.01193
G1 X106.914 Y118.611 E.03798
G1 X106.646 Y118.879 E.01193
G1 X107.499 Y119.731 E.03798
G1 X107.232 Y119.999 E.01193
G1 X106.379 Y119.146 E.03798
G1 X106.111 Y119.414 E.01193
G1 X106.964 Y120.267 E.03798
G1 X106.696 Y120.535 E.01193
G1 X105.537 Y119.376 E.05159
M204 S1000
;WIPE_START
G1 F4800
G1 X106.696 Y120.535 E-.68094
G1 X106.964 Y120.267 E-.15741
G1 X106.774 Y120.077 E-.11165
;WIPE_END
G1 E-.05 F2100
G1 Z.4 F720
G1 X132.762 Y86.614 F6000
G1 Z.2 F720
G1 E1 F2100
M204 S800
G1 F1200
G1 X130.387 Y84.239 E.10581
G1 X129.851 Y84.239 E.01687
G1 X132.057 Y86.445 E.09825
G1 X131.522 Y86.445 E.01687
G1 X129.315 Y84.239 E.09825
G1 X128.78 Y84.239 E.01687
G1 X130.986 Y86.445 E.09825
G1 X130.45 Y86.445 E.01687
G1 X128.244 Y84.239 E.09825
G1 X127.709 Y84.239 E.01687
G1 X129.915 Y86.445 E.09825
G1 X129.379 Y86.445 E.01687
G1 X127.173 Y84.239 E.09825
G1 X126.637 Y84.239 E.01687
G1 X128.844 Y86.445 E.09825
G1 X128.308 Y86.445 E.01687
G1 X126.102 Y84.239 E.09825
G1 X125.566 Y84.239 E.01687
G1 X127.772 Y86.445 E.09825
G1 X127.237 Y86.445 E.01687
G1 X125.031 Y84.239 E.09825
G1 X124.495 Y84.239 E.01687
G1 X126.701 Y86.445 E.09825
G1 X126.166 Y86.445 E.01687
G1 X123.96 Y84.239 E.09825
G1 X123.424 Y84.239 E.01687
G1 X125.63 Y86.445 E.09825
G1 X125.094 Y86.445 E.01687
G1 X122.888 Y84.239 E.09825
G1 X122.353 Y84.239 E.01687
G1 X124.559 Y86.445 E.09825
G1 X124.023 Y86.445 E.01687
G1 X121.817 Y84.239 E.09825
G1 X121.282 Y84.239 E.01687
G1 X123.488 Y86.445 E.09825
G1 X122.952 Y86.445 E.01687
G1 X120.746 Y84.239 E.09825
G1 X120.21 Y84.239 E.01687
G1 X122.416 Y86.445 E.09825
G1 X121.881 Y86.445 E.01687
G1 X119.675 Y84.239 E.09825
G1 X119.139 Y84.239 E.01687
G1 X121.345 Y86.445 E.09825
G1 X120.81 Y86.445 E.01687
G1 X118.604 Y84.239 E.09825
G1 X118.068 Y84.239 E.01687
G1 X120.274 Y86.445 E.09825
G1 X119.738 Y86.445 E.01687
G1 X117.532 Y84.239 E.09825
G1 X116.997 Y84.239 E.01687
M73 P3 R45
G1 X119.203 Y86.445 E.09825
G1 X118.667 Y86.445 E.01687
G1 X116.461 Y84.239 E.09825
G1 X115.926 Y84.239 E.01687
G1 X118.132 Y86.445 E.09825
G1 X117.596 Y86.445 E.01687
G1 X115.39 Y84.239 E.09825
G1 X114.854 Y84.239 E.01687
G1 X117.06 Y86.445 E.09825
G1 X116.525 Y86.445 E.01687
G1 X114.319 Y84.239 E.09825
G1 X113.783 Y84.239 E.01687
G1 X115.989 Y86.445 E.09825
G1 X115.454 Y86.445 E.01687
G1 X113.248 Y84.239 E.09825
G1 X112.712 Y84.239 E.01687
G1 X114.918 Y86.445 E.09825
G1 X114.382 Y86.445 E.01687
G1 X112.176 Y84.239 E.09825
G1 X111.641 Y84.239 E.01687
G1 X113.847 Y86.445 E.09825
G1 X113.311 Y86.445 E.01687
G1 X111.105 Y84.239 E.09825
G1 X110.57 Y84.239 E.01687
G1 X112.776 Y86.445 E.09825
G1 X112.24 Y86.445 E.01687
G1 X110.034 Y84.239 E.09825
G1 X109.498 Y84.239 E.01687
G1 X111.704 Y86.445 E.09825
G1 X111.169 Y86.445 E.01687
G1 X108.963 Y84.239 E.09825
G1 X108.427 Y84.239 E.01687
G1 X110.633 Y86.445 E.09825
G1 X110.528 Y86.445 E.00331
G1 X110.313 Y86.66 E.00959
G1 X107.892 Y84.239 E.10783
G1 X107.356 Y84.239 E.01687
G1 X110.045 Y86.928 E.11976
G1 X109.777 Y87.196 E.01193
G1 X106.82 Y84.239 E.13169
G1 X106.285 Y84.239 E.01687
