; generated by PrusaSlicer 2.2.0+win64 on 2020-09-11 at 19:15:03 UTC


;
;

;
;
; 

; external perimeters extrusion width = 0.45mm
; perimeters extrusion width = 0.45mm
; infill extrusion width = 0.45mm
; solid infill extrusion width = 0.45mm
; top infill extrusion width = 0.40mm
; first layer extrusion width = 0.42mm

M73 P0 R44
M201 X9000 Y9000 Z500 E10000 ; sets maximum accelerations, mm/sec^2
M203 X500 Y500 Z12 E120 ; sets maximum feedrates, mm/sec
M204 P2000 R1500 T2000 ; sets acceleration (P, T) and retract acceleration (R), mm/sec^2
M205 X10.00 Y10.00 Z0.20 E2.50 ; sets the jerk limits, mm/sec
M205 S0 T0 ; sets the minimum extruding and travel feed rate, mm/sec
M107
M83  ; extruder relative mode
M140 S75 ; set bed temp
M109 S160 ; Set extruder temp before bed level
M190 S75 ; wait for bed temp

G28 W ; home all without mesh bed level
G80 N7 ; mesh bed leveling

M109 S240 ; wait for extruder temp

M221 S100 ; Set flow to 100

G1 Y-3.0 F1000.0 ; go outside print area
G92 E0.0
G1 E8 ; Purge Bubble
M73 P0 R44
G1 X60.0 E9.0 F1000.0 ; intro line
G1 X100.0 E12.5 F1000.0 ; intro line
G92 E0.0
G21 ; set units to millimeters
G90 ; use absolute coordinates
M83 ; use relative distances for extrusion
M900 K45; Filament gcode
;BEFORE_LAYER_CHANGE
G92 E0.0
;0.2


G1 E-0.80000 F2100.00000
G1 Z0.600 F10800.000
;AFTER_LAYER_CHANGE
;0.2
G1 X66.316 Y53.166
G1 Z0.200
G1 E0.80000 F2100.00000
M204 S1000
G1 F1200.000
G1 X67.147 Y53.012 E0.02437
G1 X182.845 Y53.012 E3.33742
G1 X183.747 Y53.191 E0.02653
G1 X184.511 Y53.697 E0.02642
G1 X185.026 Y54.454 E0.02642
G1 X185.218 Y55.354 E0.02653
G1 X185.218 Y154.630 E2.86373
G1 X185.162 Y155.125 E0.01437
G1 X185.002 Y155.601 E0.01448
G1 X184.746 Y156.032 E0.01448
G1 X184.408 Y156.398 E0.01437
G1 X183.684 Y156.834 E0.02437
G1 X182.853 Y156.988 E0.02437
G1 X67.155 Y156.988 E3.33742
G1 X66.656 Y156.934 E0.01448
G1 X66.176 Y156.775 E0.01459
G1 X65.744 Y156.521 E0.01448
G1 X65.372 Y156.178 E0.01459
G1 X64.937 Y155.454 E0.02437
G1 X64.782 Y154.624 E0.02437
G1 X64.782 Y55.385 E2.86263
G1 X64.836 Y54.886 E0.01448
G1 X64.995 Y54.406 E0.01459
G1 X65.249 Y53.974 E0.01448
G1 X65.592 Y53.602 E0.01459
G1 X66.265 Y53.197 E0.02264
; printing object Part_Part_Whole.stl id:0 copy 0
G1 F8640.000
G1 X67.147 Y53.012 E-0.20812
G1 X69.537 Y53.012 E-0.55188
G1 E-0.04000 F2100.00000
G1 Z0.800 F10800.000
G1 X130.513 Y122.854
G1 Z0.200
G1 E0.80000 F2100.00000
G1 F1200.000
G1 X129.854 Y123.193 E0.02139
G1 X129.166 Y123.472 E0.02139
G1 X128.457 Y123.688 E0.02139
G1 X127.732 Y123.840 E0.02139
G1 X126.995 Y123.926 E0.02139
G1 X126.254 Y123.947 E0.02139
G1 X125.514 Y123.901 E0.02139
G1 X124.781 Y123.789 E0.02139
G1 X124.061 Y123.612 E0.02139
G1 X123.360 Y123.371 E0.02139
G1 X122.683 Y123.069 E0.02139
G1 X122.036 Y122.708 E0.02139
G1 X121.423 Y122.290 E0.02139
G1 X120.851 Y121.819 E0.02139
G1 X120.322 Y121.299 E0.02139
G1 X119.894 Y120.793 E0.01912
G1 X119.417 Y120.130 E0.02357
G1 X119.044 Y119.486 E0.02146
G1 X118.731 Y118.814 E0.02139
G1 X118.480 Y118.116 E0.02139
G1 X118.292 Y117.399 E0.02139
G1 X118.169 Y116.668 E0.02139
G1 X118.112 Y115.929 E0.02139
G1 X118.120 Y115.187 E0.02139
G1 X118.195 Y114.450 E0.02139
G1 X118.336 Y113.722 E0.02139
G1 X118.541 Y113.009 E0.02139
G1 X118.781 Y112.391 E0.01912
G1 X119.137 Y111.656 E0.02357
G1 X119.525 Y111.021 E0.02146
G1 X119.919 Y110.489 E0.01912
G1 X120.457 Y109.874 E0.02357
G1 X121.000 Y109.364 E0.02146
G1 X121.584 Y108.907 E0.02139
G1 X122.206 Y108.504 E0.02139
G1 X122.862 Y108.158 E0.02139
G1 X123.546 Y107.873 E0.02139
G1 X124.253 Y107.649 E0.02139
G1 X124.977 Y107.489 E0.02139
G1 X125.712 Y107.395 E0.02139
G1 X126.374 Y107.370 E0.01912
G1 X127.191 Y107.404 E0.02357
G1 X127.927 Y107.509 E0.02146
G1 X128.649 Y107.678 E0.02139
G1 X129.353 Y107.911 E0.02139
G1 X130.033 Y108.206 E0.02139
G1 X130.684 Y108.561 E0.02139
G1 X131.301 Y108.972 E0.02139
G1 X131.879 Y109.437 E0.02139
G1 X132.413 Y109.951 E0.02139
G1 X132.847 Y110.452 E0.01912
G1 X133.331 Y111.110 E0.02357
G1 X133.710 Y111.750 E0.02146
G1 X134.030 Y112.419 E0.02139
G1 X134.289 Y113.114 E0.02139
G1 X134.484 Y113.829 E0.02139
G1 X134.615 Y114.559 E0.02139
G1 X134.681 Y115.297 E0.02139
G1 X134.680 Y116.039 E0.02139
G1 X134.612 Y116.777 E0.02139
G1 X134.480 Y117.506 E0.02139
G1 X134.282 Y118.221 E0.02139
G1 X134.021 Y118.915 E0.02139
G1 X133.700 Y119.583 E0.02139
G1 X133.320 Y120.220 E0.02139
G1 X132.869 Y120.838 E0.02209
G1 X144.591 Y134.459 E0.51836
G1 X145.237 Y134.121 E0.02104
G1 X145.904 Y133.844 E0.02084
G1 X146.593 Y133.625 E0.02084
G1 X147.298 Y133.466 E0.02087
G1 X147.298 Y123.922 E0.27532
G1 X146.548 Y123.739 E0.02227
G1 X145.848 Y123.497 E0.02138
G1 X145.171 Y123.194 E0.02138
G1 X144.525 Y122.832 E0.02138
G1 X143.914 Y122.413 E0.02138
G1 X143.342 Y121.941 E0.02138
G1 X142.815 Y121.420 E0.02138
G1 X142.336 Y120.854 E0.02138
G1 X141.910 Y120.248 E0.02138
G1 X141.540 Y119.606 E0.02138
G1 X141.229 Y118.933 E0.02138
G1 X140.979 Y118.235 E0.02138
G1 X140.792 Y117.518 E0.02138
G1 X140.670 Y116.787 E0.02138
G1 X140.614 Y116.048 E0.02138
G1 X140.624 Y115.307 E0.02138
G1 X140.700 Y114.570 E0.02138
G1 X140.842 Y113.843 E0.02138
G1 X141.049 Y113.131 E0.02138
G1 X141.318 Y112.440 E0.02138
G1 X141.647 Y111.776 E0.02138
G1 X142.035 Y111.145 E0.02138
G1 X142.477 Y110.550 E0.02138
G1 X142.971 Y109.998 E0.02138
G1 X143.513 Y109.491 E0.02138
G1 X144.035 Y109.084 E0.01911
G1 X144.717 Y108.635 E0.02356
G1 X145.376 Y108.289 E0.02145
G1 X146.060 Y108.004 E0.02138
G1 X146.767 Y107.782 E0.02138
G1 X147.129 Y107.703 E0.01069
G1 X147.491 Y107.624 E0.01069
G1 X148.226 Y107.530 E0.02138
G1 X148.967 Y107.504 E0.02138
G1 X149.707 Y107.543 E0.02138
G1 X150.441 Y107.648 E0.02138
G1 X151.162 Y107.819 E0.02138
G1 X151.865 Y108.053 E0.02138
G1 X152.545 Y108.349 E0.02138
G1 X153.195 Y108.704 E0.02138
G1 X153.811 Y109.116 E0.02138
G1 X154.387 Y109.582 E0.02138
G1 X154.920 Y110.097 E0.02138
G1 X155.405 Y110.658 E0.02138
G1 X155.837 Y111.260 E0.02138
G1 X156.214 Y111.898 E0.02138
G1 X156.499 Y112.496 E0.01911
G1 X156.790 Y113.260 E0.02356
G1 X156.985 Y113.977 E0.02145
G1 X157.114 Y114.707 E0.02138
G1 X157.178 Y115.445 E0.02138
G1 X157.176 Y116.186 E0.02138
G1 X157.108 Y116.924 E0.02138
G1 X156.974 Y117.653 E0.02138
G1 X156.775 Y118.367 E0.02138
G1 X156.513 Y119.061 E0.02138
G1 X156.191 Y119.728 E0.02138
G1 X155.810 Y120.364 E0.02138
G1 X155.374 Y120.963 E0.02138
G1 X154.886 Y121.521 E0.02138
G1 X154.350 Y122.033 E0.02138
G1 X153.771 Y122.495 E0.02138
G1 X153.152 Y122.904 E0.02138
G1 X152.500 Y123.255 E0.02138
G1 X151.819 Y123.547 E0.02138
G1 X151.114 Y123.777 E0.02138
G1 X150.373 Y123.946 E0.02194
G1 X150.373 Y133.487 E0.27521
G1 X151.054 Y133.648 E0.02021
G1 X151.725 Y133.868 E0.02036
G1 X152.375 Y134.144 E0.02036
G1 X152.994 Y134.471 E0.02019
G1 X164.856 Y120.878 E0.52042
G1 X164.411 Y120.249 E0.02223
G1 X164.041 Y119.607 E0.02138
G1 X163.729 Y118.935 E0.02138
G1 X163.479 Y118.237 E0.02138
G1 X163.292 Y117.520 E0.02138
G1 X163.170 Y116.789 E0.02138
G1 X163.120 Y116.128 E0.01911
G1 X163.124 Y115.312 E0.02356
G1 X163.200 Y114.572 E0.02145
G1 X163.342 Y113.844 E0.02138
G1 X163.548 Y113.132 E0.02138
G1 X163.817 Y112.442 E0.02138
G1 X164.146 Y111.778 E0.02138
G1 X164.340 Y111.462 E0.01069
G1 X164.534 Y111.146 E0.01069
G1 X164.976 Y110.551 E0.02138
G1 X165.470 Y109.999 E0.02138
G1 X166.011 Y109.492 E0.02138
G1 X166.595 Y109.036 E0.02138
G1 X167.218 Y108.634 E0.02138
G1 X167.874 Y108.290 E0.02138
G1 X168.558 Y108.005 E0.02138
G1 X169.265 Y107.782 E0.02138
G1 X169.989 Y107.624 E0.02138
G1 X170.646 Y107.540 E0.01911
G1 X171.462 Y107.503 E0.02356
G1 X172.205 Y107.543 E0.02145
G1 X172.939 Y107.648 E0.02138
G1 X173.660 Y107.818 E0.02138
G1 X174.363 Y108.052 E0.02138
G1 X174.703 Y108.200 E0.01069
G1 X175.043 Y108.348 E0.01069
G1 X175.693 Y108.703 E0.02138
G1 X176.309 Y109.115 E0.02138
G1 X176.886 Y109.581 E0.02138
G1 X177.419 Y110.096 E0.02138
G1 X177.904 Y110.656 E0.02138
G1 X178.336 Y111.258 E0.02138
G1 X178.713 Y111.896 E0.02138
G1 X179.032 Y112.565 E0.02138
G1 X179.290 Y113.260 E0.02138
G1 X179.484 Y113.975 E0.02138
G1 X179.614 Y114.705 E0.02138
G1 X179.678 Y115.443 E0.02138
G1 X179.676 Y116.184 E0.02138
G1 X179.608 Y116.922 E0.02138
G1 X179.474 Y117.651 E0.02138
G1 X179.276 Y118.365 E0.02138
G1 X179.014 Y119.059 E0.02138
G1 X178.726 Y119.655 E0.01911
G1 X178.313 Y120.360 E0.02356
G1 X177.875 Y120.961 E0.02145
G1 X177.439 Y121.460 E0.01911
G1 X176.854 Y122.030 E0.02356
G1 X176.272 Y122.494 E0.02145
G1 X175.654 Y122.902 E0.02138
G1 X175.002 Y123.254 E0.02138
G1 X174.321 Y123.546 E0.02138
G1 X173.616 Y123.776 E0.02138
G1 X172.894 Y123.943 E0.02138
G1 X172.160 Y124.044 E0.02138
G1 X171.419 Y124.079 E0.02138
G1 X170.679 Y124.048 E0.02138
G1 X169.944 Y123.950 E0.02138
G1 X169.221 Y123.788 E0.02138
G1 X168.515 Y123.561 E0.02138
G1 X167.833 Y123.273 E0.02138
G1 X167.161 Y122.913 E0.02198
G1 X155.320 Y136.480 E0.51944
G1 X155.780 Y137.111 E0.02251
G1 X156.163 Y137.756 E0.02165
G1 X156.487 Y138.433 E0.02165
G1 X156.749 Y139.137 E0.02165
G1 X156.947 Y139.861 E0.02165
G1 X157.079 Y140.600 E0.02165
G1 X157.145 Y141.347 E0.02165
G1 X157.143 Y142.098 E0.02165
G1 X157.075 Y142.846 E0.02165
G1 X156.939 Y143.584 E0.02165
G1 X156.738 Y144.307 E0.02165
G1 X156.473 Y145.009 E0.02165
G1 X156.146 Y145.685 E0.02165
G1 X155.760 Y146.329 E0.02165
G1 X155.317 Y146.935 E0.02165
G1 X154.822 Y147.500 E0.02165
G1 X154.279 Y148.017 E0.02165
G1 X153.691 Y148.484 E0.02165
G1 X153.064 Y148.897 E0.02165
G1 X152.403 Y149.252 E0.02165
G1 X151.712 Y149.546 E0.02165
G1 X150.998 Y149.777 E0.02165
G1 X150.266 Y149.943 E0.02165
G1 X149.522 Y150.043 E0.02165
G1 X148.772 Y150.075 E0.02165
G1 X148.022 Y150.041 E0.02165
G1 X147.278 Y149.939 E0.02165
G1 X146.547 Y149.771 E0.02165
G1 X145.833 Y149.539 E0.02165
G1 X145.143 Y149.243 E0.02165
G1 X144.482 Y148.887 E0.02165
G1 X143.856 Y148.473 E0.02165
G1 X143.270 Y148.004 E0.02165
G1 X142.727 Y147.485 E0.02165
G1 X142.234 Y146.919 E0.02165
G1 X141.793 Y146.312 E0.02165
G1 X141.408 Y145.667 E0.02165
G1 X141.083 Y144.991 E0.02165
G1 X140.820 Y144.288 E0.02165
G1 X140.620 Y143.564 E0.02165
G1 X140.487 Y142.825 E0.02165
G1 X140.419 Y142.078 E0.02165
G1 X140.420 Y141.327 E0.02165
G1 X140.487 Y140.580 E0.02165
G1 X140.621 Y139.841 E0.02165
G1 X140.821 Y139.117 E0.02165
G1 X141.085 Y138.415 E0.02165
G1 X141.410 Y137.738 E0.02165
G1 X141.795 Y137.094 E0.02165
G1 X142.258 Y136.462 E0.02260
G1 X130.557 Y122.865 E0.51744
G1 X130.609 Y122.348 F10800.000
G1 F1200.000
G1 X130.326 Y122.527 E0.00967
G1 X129.696 Y122.850 E0.02041
G1 X129.040 Y123.116 E0.02041
G1 X128.364 Y123.322 E0.02041
G1 X127.671 Y123.467 E0.02041
G1 X126.968 Y123.550 E0.02041
G1 X126.261 Y123.569 E0.02041
G1 X125.554 Y123.525 E0.02041
G1 X124.855 Y123.419 E0.02041
G1 X124.168 Y123.250 E0.02041
G1 X123.498 Y123.020 E0.02041
G1 X122.852 Y122.732 E0.02041
G1 X122.234 Y122.387 E0.02041
G1 X121.650 Y121.988 E0.02041
G1 X121.103 Y121.538 E0.02041
G1 X120.599 Y121.042 E0.02041
G1 X120.191 Y120.561 E0.01819
G1 X119.734 Y119.925 E0.02260
G1 X119.379 Y119.312 E0.02044
G1 X119.080 Y118.670 E0.02041
G1 X118.841 Y118.004 E0.02041
G1 X118.661 Y117.320 E0.02041
G1 X118.544 Y116.622 E0.02041
G1 X118.489 Y115.916 E0.02041
G1 X118.497 Y115.209 E0.02041
G1 X118.569 Y114.505 E0.02041
G1 X118.703 Y113.810 E0.02041
G1 X118.899 Y113.130 E0.02041
G1 X119.127 Y112.542 E0.01819
G1 X119.468 Y111.837 E0.02260
G1 X119.838 Y111.232 E0.02044
G1 X120.213 Y110.725 E0.01819
G1 X120.729 Y110.136 E0.02260
G1 X121.246 Y109.651 E0.02044
G1 X121.803 Y109.215 E0.02041
G1 X122.397 Y108.830 E0.02041
G1 X123.023 Y108.500 E0.02041
G1 X123.676 Y108.227 E0.02041
G1 X124.350 Y108.013 E0.02041
G1 X125.041 Y107.861 E0.02041
G1 X125.743 Y107.771 E0.02041
G1 X126.373 Y107.747 E0.01819
G1 X127.156 Y107.780 E0.02260
G1 X127.858 Y107.880 E0.02044
G1 X128.547 Y108.041 E0.02041
G1 X129.218 Y108.264 E0.02041
G1 X129.868 Y108.545 E0.02041
G1 X130.489 Y108.884 E0.02041
G1 X131.078 Y109.276 E0.02041
G1 X131.629 Y109.720 E0.02041
G1 X132.139 Y110.211 E0.02041
G1 X132.552 Y110.688 E0.01819
G1 X133.016 Y111.319 E0.02260
G1 X133.377 Y111.928 E0.02044
G1 X133.683 Y112.567 E0.02041
G1 X133.929 Y113.230 E0.02041
G1 X134.116 Y113.912 E0.02041
G1 X134.241 Y114.609 E0.02041
G1 X134.304 Y115.314 E0.02041
G1 X134.303 Y116.021 E0.02041
G1 X134.238 Y116.726 E0.02041
G1 X134.112 Y117.422 E0.02041
G1 X133.923 Y118.104 E0.02041
G1 X133.674 Y118.767 E0.02041
G1 X133.368 Y119.404 E0.02041
G1 X133.005 Y120.012 E0.02041
G1 X132.589 Y120.585 E0.02041
G1 X132.370 Y120.837 E0.00964
G1 X144.518 Y134.952 E0.53720
G1 X144.785 Y134.782 E0.00915
G1 X145.397 Y134.463 E0.01990
G1 X146.034 Y134.198 E0.01990
G1 X146.691 Y133.989 E0.01990
G1 X147.364 Y133.838 E0.01990
G1 X147.675 Y133.796 E0.00906
G1 X147.675 Y123.599 E0.29415
G1 X147.342 Y123.547 E0.00974
G1 X146.655 Y123.377 E0.02041
G1 X145.987 Y123.146 E0.02040
G1 X145.341 Y122.857 E0.02040
G1 X144.724 Y122.511 E0.02041
G1 X144.141 Y122.111 E0.02041
G1 X143.595 Y121.661 E0.02040
G1 X143.092 Y121.164 E0.02041
G1 X142.635 Y120.624 E0.02040
G1 X142.228 Y120.045 E0.02041
G1 X141.875 Y119.432 E0.02040
G1 X141.578 Y118.790 E0.02041
G1 X141.339 Y118.124 E0.02041
G1 X141.161 Y117.440 E0.02040
G1 X141.045 Y116.742 E0.02041
G1 X140.991 Y116.036 E0.02041
G1 X141.001 Y115.329 E0.02041
G1 X141.074 Y114.626 E0.02041
G1 X141.209 Y113.931 E0.02040
G1 X141.406 Y113.252 E0.02041
G1 X141.663 Y112.593 E0.02040
G1 X141.977 Y111.959 E0.02041
G1 X142.347 Y111.356 E0.02041
G1 X142.770 Y110.789 E0.02041
G1 X143.241 Y110.261 E0.02040
G1 X143.758 Y109.778 E0.02040
G1 X144.255 Y109.390 E0.01819
G1 X144.909 Y108.960 E0.02259
G1 X145.536 Y108.631 E0.02043
G1 X146.189 Y108.359 E0.02041
G1 X146.864 Y108.147 E0.02040
G1 X147.210 Y108.071 E0.01020
G1 X147.555 Y107.995 E0.01020
G1 X148.257 Y107.907 E0.02041
G1 X148.964 Y107.881 E0.02040
G1 X149.670 Y107.919 E0.02041
G1 X150.370 Y108.019 E0.02040
G1 X151.059 Y108.182 E0.02040
G1 X151.730 Y108.405 E0.02041
G1 X152.378 Y108.688 E0.02041
G1 X152.999 Y109.027 E0.02041
G1 X153.587 Y109.420 E0.02040
G1 X153.836 Y109.622 E0.00924
G1 X154.137 Y109.865 E0.01117
G1 X154.646 Y110.357 E0.02040
G1 X155.108 Y110.892 E0.02041
G1 X155.521 Y111.466 E0.02041
G1 X155.881 Y112.075 E0.02040
G1 X156.152 Y112.644 E0.01819
G1 X156.431 Y113.376 E0.02259
G1 X156.616 Y114.060 E0.02043
G1 X156.740 Y114.756 E0.02041
G1 X156.801 Y115.461 E0.02040
G1 X156.799 Y116.168 E0.02041
G1 X156.734 Y116.873 E0.02041
G1 X156.606 Y117.568 E0.02040
G1 X156.416 Y118.250 E0.02041
G1 X156.167 Y118.912 E0.02040
G1 X155.859 Y119.549 E0.02041
G1 X155.495 Y120.156 E0.02041
G1 X155.079 Y120.727 E0.02041
G1 X154.613 Y121.260 E0.02040
G1 X154.102 Y121.749 E0.02041
G1 X153.549 Y122.190 E0.02040
G1 X152.959 Y122.580 E0.02041
G1 X152.336 Y122.915 E0.02041
G1 X151.686 Y123.194 E0.02041
G1 X151.013 Y123.413 E0.02040
G1 X150.324 Y123.572 E0.02040
G1 X149.995 Y123.617 E0.00956
G1 X149.995 Y133.811 E0.29406
G1 X150.296 Y133.856 E0.00876
G1 X150.952 Y134.011 E0.01945
G1 X151.592 Y134.222 E0.01945
G1 X152.213 Y134.485 E0.01945
G1 X152.809 Y134.800 E0.01945
G1 X153.064 Y134.963 E0.00875
G1 X165.354 Y120.882 E0.53913
G1 X165.136 Y120.625 E0.00971
G1 X164.729 Y120.046 E0.02040
G1 X164.376 Y119.433 E0.02041
G1 X164.079 Y118.792 E0.02041
G1 X163.840 Y118.126 E0.02041
G1 X163.661 Y117.441 E0.02041
G1 X163.545 Y116.744 E0.02040
G1 X163.497 Y116.115 E0.01819
G1 X163.501 Y115.332 E0.02259
G1 X163.573 Y114.627 E0.02043
G1 X163.709 Y113.933 E0.02040
G1 X163.905 Y113.253 E0.02041
G1 X164.162 Y112.594 E0.02040
G1 X164.477 Y111.961 E0.02041
G1 X164.661 Y111.659 E0.01020
G1 X164.846 Y111.358 E0.01020
G1 X165.269 Y110.790 E0.02041
G1 X165.740 Y110.263 E0.02041
G1 X166.256 Y109.779 E0.02041
G1 X166.814 Y109.344 E0.02040
G1 X167.408 Y108.960 E0.02041
G1 X168.034 Y108.631 E0.02040
G1 X168.688 Y108.359 E0.02041
G1 X169.362 Y108.147 E0.02040
G1 X170.053 Y107.996 E0.02041
G1 X170.679 Y107.916 E0.01819
G1 X171.461 Y107.881 E0.02259
G1 X172.168 Y107.918 E0.02043
G1 X172.869 Y108.019 E0.02041
G1 X173.557 Y108.181 E0.02040
G1 X174.228 Y108.404 E0.02041
G1 X174.553 Y108.546 E0.01020
