; generated by PrusaSlicer 2.2.0+win64 on 2020-09-24 at 11:05:24 UTC


;
;

;
;
; 

; external perimeters extrusion width = 0.45mm
; perimeters extrusion width = 0.45mm
; infill extrusion width = 0.45mm
; solid infill extrusion width = 0.45mm
; top infill extrusion width = 0.40mm
; first layer extrusion width = 0.42mm

M73 P0 R21
M201 X9000 Y9000 Z500 E10000 ; sets maximum accelerations, mm/sec^2
M203 X500 Y500 Z12 E120 ; sets maximum feedrates, mm/sec
M204 P2000 R1500 T2000 ; sets acceleration (P, T) and retract acceleration (R), mm/sec^2
M205 X10.00 Y10.00 Z0.20 E2.50 ; sets the jerk limits, mm/sec
M205 S0 T0 ; sets the minimum extruding and travel feed rate, mm/sec
M107
M83  ; extruder relative mode
M140 S75 ; set bed temp
M109 S160 ; Set extruder temp before bed level
M190 S75 ; wait for bed temp

G28 W ; home all without mesh bed level
G80 N7 ; mesh bed leveling

M109 S240 ; wait for extruder temp

M221 S100 ; Set flow to 100

G1 Y-3.0 F1000.0 ; go outside print area
G92 E0.0
G1 E8 ; Purge Bubble
M73 P0 R21
G1 X60.0 E9.0 F1000.0 ; intro line
G1 X100.0 E12.5 F1000.0 ; intro line
G92 E0.0
G21 ; set units to millimeters
G90 ; use absolute coordinates
M83 ; use relative distances for extrusion
M900 K45; Filament gcode
;BEFORE_LAYER_CHANGE
G92 E0.0
;0.2


G1 E-0.80000 F2100.00000
G1 Z0.600 F10800.000
;AFTER_LAYER_CHANGE
;0.2
G1 X82.065 Y96.979
G1 Z0.200
G1 E0.80000 F2100.00000
M204 S1000
G1 F1200.000
G1 X83.317 Y95.957 E0.04663
G1 X85.721 Y94.389 E0.08278
G1 X137.230 Y67.269 E1.67920
G1 X139.185 Y66.357 E0.06222
G1 X141.476 Y65.411 E0.07150
G1 X143.783 Y64.586 E0.07067
G1 X146.112 Y63.884 E0.07019
G1 X148.015 Y63.415 E0.05653
G1 X150.262 Y62.999 E0.06591
G1 X152.431 Y62.753 E0.06298
G1 X154.544 Y62.679 E0.06100
G1 X156.585 Y62.783 E0.05894
G1 X157.972 Y62.965 E0.04035
G1 X159.798 Y63.358 E0.05388
G1 X161.367 Y63.845 E0.04738
G1 X162.868 Y64.453 E0.04672
G1 X164.324 Y65.188 E0.04706
G1 X165.703 Y66.032 E0.04663
G1 X167.315 Y67.224 E0.05785
G1 X168.579 Y68.338 E0.04860
G1 X170.167 Y70.009 E0.06649
G1 X171.094 Y71.158 E0.04260
G1 X172.291 Y72.882 E0.06053
G1 X173.072 Y74.192 E0.04399
G1 X174.062 Y76.139 E0.06300
G1 X174.664 Y77.544 E0.04410
G1 X175.410 Y79.632 E0.06395
G1 X175.861 Y81.187 E0.04672
G1 X176.375 Y83.462 E0.06727
G1 X176.634 Y85.042 E0.04620
G1 X176.877 Y87.347 E0.06685
G1 X176.959 Y89.580 E0.06446
G1 X176.925 Y91.123 E0.04450
G1 X176.773 Y93.018 E0.05484
G1 X176.419 Y95.284 E0.06617
G1 X176.079 Y96.748 E0.04335
G1 X175.443 Y98.807 E0.06215
G1 X174.906 Y100.185 E0.04266
G1 X173.996 Y102.103 E0.06124
G1 X172.941 Y103.930 E0.06086
G1 X171.860 Y105.528 E0.05566
G1 X170.661 Y107.079 E0.05655
G1 X169.351 Y108.570 E0.05726
G1 X167.957 Y109.969 E0.05698
G1 X166.445 Y111.308 E0.05824
G1 X164.838 Y112.554 E0.05867
G1 X163.125 Y113.701 E0.05945
G1 X111.258 Y144.748 E1.74373
G1 X109.765 Y145.558 E0.04900
G1 X108.190 Y146.222 E0.04930
G1 X106.649 Y146.702 E0.04654
G1 X105.064 Y147.042 E0.04677
G1 X103.465 Y147.240 E0.04646
G1 X101.790 Y147.309 E0.04836
G1 X100.039 Y147.253 E0.05056
G1 X98.299 Y147.073 E0.05045
G1 X96.557 Y146.775 E0.05097
G1 X94.818 Y146.365 E0.05155
G1 X93.023 Y145.823 E0.05409
G1 X91.143 Y145.115 E0.05795
G1 X88.052 Y143.610 E0.09914
G1 X85.150 Y141.758 E0.09932
G1 X83.560 Y140.523 E0.05806
G1 X82.048 Y139.185 E0.05825
G1 X80.186 Y137.274 E0.07696
G1 X78.160 Y134.761 E0.09311
G1 X76.696 Y132.541 E0.07671
G1 X75.381 Y130.033 E0.08169
G1 X74.344 Y127.372 E0.08237
G1 X73.741 Y125.196 E0.06514
G1 X73.237 Y122.239 E0.08653
G1 X73.059 Y119.594 E0.07646
G1 X73.134 Y116.550 E0.08784
G1 X73.499 Y113.459 E0.08978
G1 X74.156 Y110.382 E0.09077
G1 X75.080 Y107.457 E0.08849
G1 X76.266 Y104.692 E0.08677
G1 X77.689 Y102.152 E0.08400
G1 X79.353 Y99.819 E0.08266
G1 X80.838 Y98.145 E0.06454
G1 X82.021 Y97.020 E0.04710
; printing object right_eye_thick.stl id:1 copy 0
G1 F8640.000
G1 X83.317 Y95.957 E-0.38705
G1 X84.670 Y95.074 E-0.37295
G1 E-0.04000 F2100.00000
G1 Z0.800 F10800.000
G1 X84.455 Y99.665
G1 Z0.200
G1 E0.80000 F2100.00000
G1 F1200.000
G1 X85.435 Y98.860 E0.03658
G1 X86.354 Y98.208 E0.03249
G1 X87.302 Y97.624 E0.03212
G1 X88.276 Y97.110 E0.03178
G1 X89.176 Y96.707 E0.02843
G1 X90.098 Y96.359 E0.02844
G1 X91.048 Y96.069 E0.02865
G1 X92.027 Y95.836 E0.02902
G1 X93.036 Y95.661 E0.02955
G1 X94.079 Y95.545 E0.03026
G1 X95.212 Y95.489 E0.03271
G1 X96.268 Y95.493 E0.03046
G1 X97.241 Y95.544 E0.02811
G1 X98.241 Y95.639 E0.02897
G1 X99.265 Y95.777 E0.02983
G1 X100.313 Y95.957 E0.03066
G1 X101.381 Y96.178 E0.03147
G1 X102.470 Y96.440 E0.03231
G1 X104.126 Y96.906 E0.04962
G1 X105.428 Y97.326 E0.03947
G1 X106.910 Y97.859 E0.04542
G1 X107.656 Y98.148 E0.02307
G1 X109.126 Y98.760 E0.04593
G1 X110.574 Y99.418 E0.04590
G1 X111.987 Y100.115 E0.04544
G1 X113.349 Y100.844 E0.04457
G1 X114.014 Y101.223 E0.02207
G1 X115.278 Y101.990 E0.04266
G1 X116.687 Y102.933 E0.04890
G1 X117.799 Y103.760 E0.03998
G1 X118.489 Y104.321 E0.02563
G1 X119.132 Y104.883 E0.02462
G1 X119.730 Y105.449 E0.02377
G1 X120.531 Y106.295 E0.03359
G1 X121.011 Y106.867 E0.02155
G1 X121.561 Y107.606 E0.02659
G1 X122.040 Y108.351 E0.02555
G1 X122.446 Y109.101 E0.02459
G1 X122.630 Y109.493 E0.01249
G1 X122.938 Y110.262 E0.02389
G1 X123.185 Y111.053 E0.02391
G1 X123.374 Y111.859 E0.02387
G1 X123.451 Y112.282 E0.01240
G1 X123.563 Y113.124 E0.02451
G1 X123.630 Y114.057 E0.02698
G1 X123.642 Y115.028 E0.02802
G1 X123.600 Y116.039 E0.02920
G1 X123.435 Y117.612 E0.04562
G1 X123.255 Y118.714 E0.03220
G1 X123.022 Y119.848 E0.03340
G1 X122.734 Y121.018 E0.03474
G1 X122.409 Y122.166 E0.03443
G1 X122.052 Y123.287 E0.03395
G1 X121.435 Y125.001 E0.05254
G1 X120.968 Y126.168 E0.03626
G1 X120.195 Y127.923 E0.05531
G1 X119.630 Y129.098 E0.03762
G1 X119.028 Y130.266 E0.03790
G1 X118.420 Y131.373 E0.03644
G1 X117.503 Y132.916 E0.05175
G1 X116.861 Y133.917 E0.03431
G1 X116.200 Y134.886 E0.03384
G1 X115.520 Y135.821 E0.03337
G1 X114.476 Y137.140 E0.04852
G1 X113.761 Y137.965 E0.03149
G1 X113.074 Y138.698 E0.02898
G1 X112.097 Y139.641 E0.03915
G1 X111.433 Y140.218 E0.02537
G1 X110.443 Y140.986 E0.03617
G1 X109.767 Y141.448 E0.02359
G1 X108.759 Y142.046 E0.03382
G1 X107.678 Y142.570 E0.03465
G1 X106.855 Y142.894 E0.02553
G1 X106.025 Y143.159 E0.02514
G1 X105.184 Y143.370 E0.02499
G1 X104.333 Y143.529 E0.02498
G1 X103.470 Y143.637 E0.02508
G1 X102.592 Y143.700 E0.02540
G1 X101.257 Y143.712 E0.03852
G1 X99.885 Y143.635 E0.03963
G1 X98.492 Y143.469 E0.04045
G1 X97.092 Y143.218 E0.04105
G1 X96.379 Y143.058 E0.02106
G1 X94.977 Y142.679 E0.04190
G1 X93.580 Y142.216 E0.04245
G1 X92.206 Y141.672 E0.04264
G1 X91.518 Y141.365 E0.02171
G1 X90.192 Y140.702 E0.04278
G1 X88.840 Y139.917 E0.04510
G1 X87.551 Y139.061 E0.04462
G1 X86.917 Y138.598 E0.02267
G1 X85.710 Y137.636 E0.04452
G1 X85.119 Y137.124 E0.02254
G1 X84.004 Y136.074 E0.04419
G1 X83.463 Y135.521 E0.02230
G1 X82.447 Y134.398 E0.04370
G1 X81.502 Y133.234 E0.04326
G1 X80.634 Y132.040 E0.04256
G1 X79.849 Y130.824 E0.04175
G1 X79.481 Y130.194 E0.02104
G1 X78.821 Y128.930 E0.04114
G1 X78.516 Y128.270 E0.02099
G1 X77.982 Y126.941 E0.04130
G1 X77.743 Y126.243 E0.02127
G1 X77.341 Y124.837 E0.04221
G1 X77.170 Y124.097 E0.02190
G1 X76.903 Y122.599 E0.04388
G1 X76.744 Y121.235 E0.03962
G1 X76.667 Y120.057 E0.03404
G1 X76.642 Y118.847 E0.03492
G1 X76.670 Y117.613 E0.03559
G1 X76.751 Y116.363 E0.03616
G1 X76.886 Y115.101 E0.03661
G1 X77.076 Y113.833 E0.03696
G1 X77.321 Y112.567 E0.03720
G1 X77.617 Y111.327 E0.03678
G1 X77.962 Y110.124 E0.03611
G1 X78.357 Y108.945 E0.03587
G1 X78.801 Y107.798 E0.03547
G1 X79.043 Y107.229 E0.01785
G1 X79.557 Y106.133 E0.03489
G1 X80.117 Y105.075 E0.03453
G1 X80.721 Y104.062 E0.03402
G1 X81.367 Y103.098 E0.03347
G1 X82.104 Y102.124 E0.03523
G1 X82.881 Y101.212 E0.03457
G1 X83.697 Y100.363 E0.03396
G1 X84.411 Y99.705 E0.02800
G1 X84.666 Y99.983 F10800.000
G1 F1200.000
G1 X85.663 Y99.160 E0.03728
G1 X86.562 Y98.523 E0.03178
G1 X87.489 Y97.952 E0.03140
G1 X88.442 Y97.449 E0.03107
G1 X89.319 Y97.056 E0.02774
G1 X90.220 Y96.717 E0.02776
G1 X91.147 Y96.433 E0.02797
G1 X92.103 Y96.205 E0.02834
G1 X93.089 Y96.034 E0.02888
G1 X94.109 Y95.921 E0.02960
G1 X95.220 Y95.866 E0.03209
G1 X96.257 Y95.870 E0.02990
G1 X97.213 Y95.920 E0.02762
G1 X98.198 Y96.013 E0.02852
G1 X99.208 Y96.149 E0.02942
G1 X100.243 Y96.327 E0.03028
G1 X101.299 Y96.546 E0.03111
G1 X102.375 Y96.805 E0.03193
G1 X104.017 Y97.267 E0.04921
G1 X105.307 Y97.683 E0.03908
G1 X106.778 Y98.212 E0.04510
G1 X107.515 Y98.498 E0.02280
G1 X108.975 Y99.105 E0.04562
G1 X110.413 Y99.759 E0.04555
G1 X111.815 Y100.450 E0.04509
G1 X113.167 Y101.175 E0.04425
G1 X113.823 Y101.548 E0.02178
G1 X115.078 Y102.310 E0.04235
G1 X116.468 Y103.240 E0.04825
G1 X117.568 Y104.058 E0.03954
G1 X118.246 Y104.609 E0.02520
G1 X118.878 Y105.162 E0.02420
G1 X119.463 Y105.716 E0.02327
G1 X120.249 Y106.546 E0.03297
G1 X120.715 Y107.101 E0.02090
G1 X121.251 Y107.821 E0.02589
G1 X121.715 Y108.543 E0.02477
G1 X122.110 Y109.271 E0.02387
G1 X122.284 Y109.643 E0.01186
G1 X122.582 Y110.388 E0.02315
G1 X122.821 Y111.152 E0.02309
G1 X123.005 Y111.935 E0.02320
G1 X123.078 Y112.340 E0.01186
G1 X123.187 Y113.162 E0.02393
G1 X123.253 Y114.073 E0.02633
G1 X123.265 Y115.022 E0.02740
G1 X123.223 Y116.012 E0.02856
G1 X123.061 Y117.562 E0.04497
G1 X122.884 Y118.646 E0.03166
G1 X122.654 Y119.765 E0.03296
G1 X122.370 Y120.921 E0.03434
G1 X122.048 Y122.057 E0.03406
G1 X121.694 Y123.166 E0.03358
G1 X121.082 Y124.867 E0.05215
G1 X120.620 Y126.022 E0.03588
G1 X119.853 Y127.765 E0.05494
G1 X119.292 Y128.930 E0.03729
G1 X118.695 Y130.089 E0.03761
G1 X118.092 Y131.186 E0.03611
G1 X117.182 Y132.717 E0.05138
G1 X116.546 Y133.709 E0.03397
G1 X115.892 Y134.669 E0.03352
G1 X115.219 Y135.593 E0.03298
G1 X114.186 Y136.900 E0.04805
G1 X113.481 Y137.712 E0.03103
G1 X112.805 Y138.433 E0.02850
G1 X111.842 Y139.363 E0.03860
G1 X111.194 Y139.926 E0.02478
G1 X110.220 Y140.681 E0.03554
G1 X109.565 Y141.129 E0.02292
G1 X108.580 Y141.714 E0.03302
G1 X107.527 Y142.225 E0.03377
G1 X106.728 Y142.539 E0.02476
G1 X105.921 Y142.797 E0.02444
G1 X105.104 Y143.002 E0.02431
G1 X104.275 Y143.156 E0.02432
G1 X103.433 Y143.262 E0.02447
G1 X102.577 Y143.323 E0.02477
G1 X101.265 Y143.335 E0.03782
G1 X99.918 Y143.259 E0.03893
G1 X98.548 Y143.096 E0.03980
G1 X97.166 Y142.848 E0.04049
G1 X96.470 Y142.691 E0.02059
G1 X95.085 Y142.318 E0.04136
G1 X93.709 Y141.862 E0.04183
G1 X92.352 Y141.325 E0.04209
G1 X91.680 Y141.024 E0.02124
G1 X90.369 Y140.368 E0.04229
G1 X89.041 Y139.599 E0.04426
G1 X87.767 Y138.752 E0.04414
G1 X87.145 Y138.298 E0.02220
G1 X85.951 Y137.346 E0.04406
G1 X85.372 Y136.844 E0.02210
G1 X84.268 Y135.804 E0.04375
G1 X83.738 Y135.263 E0.02187
G1 X82.733 Y134.152 E0.04319
G1 X81.801 Y133.004 E0.04267
G1 X80.945 Y131.827 E0.04197
G1 X80.171 Y130.626 E0.04121
G1 X79.812 Y130.011 E0.02054
G1 X79.159 Y128.764 E0.04061
G1 X78.862 Y128.120 E0.02044
G1 X78.336 Y126.809 E0.04075
G1 X78.103 Y126.130 E0.02070
G1 X77.706 Y124.742 E0.04164
G1 X77.540 Y124.021 E0.02135
G1 X77.276 Y122.542 E0.04334
G1 X77.120 Y121.204 E0.03886
G1 X77.044 Y120.041 E0.03361
G1 X77.019 Y118.847 E0.03444
G1 X77.047 Y117.630 E0.03513
G1 X77.127 Y116.395 E0.03570
G1 X77.260 Y115.149 E0.03616
G1 X77.448 Y113.897 E0.03650
G1 X77.690 Y112.647 E0.03673
G1 X77.982 Y111.423 E0.03630
G1 X78.322 Y110.236 E0.03563
G1 X78.712 Y109.073 E0.03539
G1 X79.150 Y107.940 E0.03504
G1 X79.388 Y107.383 E0.01747
G1 X79.894 Y106.302 E0.03444
G1 X80.446 Y105.260 E0.03400
G1 X81.040 Y104.264 E0.03346
G1 X81.674 Y103.317 E0.03288
G1 X82.398 Y102.360 E0.03461
G1 X83.161 Y101.465 E0.03393
G1 X83.961 Y100.633 E0.03330
G1 X84.622 Y100.024 E0.02594
G1 X84.589 Y99.591 F10800.000
G1 X84.346 Y99.721
G1 F1200.000
G1 X84.946 Y99.209 E0.02275
G1 X85.481 Y98.789 E0.01962
G1 X86.028 Y98.393 E0.01947
G1 X87.093 Y97.711 E0.03650
G1 X87.730 Y97.354 E0.02105
G1 X88.858 Y96.811 E0.03612
G1 X89.532 Y96.536 E0.02099
G1 X90.155 Y96.314 E0.01909
G1 X90.725 Y96.136 E0.01722
G1 X91.500 Y95.929 E0.02313
G1 X92.634 Y95.699 E0.03339
G1 X93.738 Y95.554 E0.03213
G1 X94.888 Y95.477 E0.03322
G1 X95.960 Y95.467 E0.03095
G1 X96.687 Y95.489 E0.02098
G1 X97.947 Y95.584 E0.03644
G1 X98.582 Y95.656 E0.01842
G1 X99.896 Y95.854 E0.03835
G1 X101.244 Y96.120 E0.03963
G1 X102.402 Y96.395 E0.03431
G1 X103.732 Y96.761 E0.03981
G1 X104.803 Y97.091 E0.03231
G1 X106.538 Y97.689 E0.05296
G1 X107.507 Y98.056 E0.02989
G1 X108.687 Y98.538 E0.03675
G1 X110.385 Y99.292 E0.05360
G1 X111.420 Y99.794 E0.03319
G1 X112.984 Y100.609 E0.05087
G1 X114.759 Y101.636 E0.05915
G1 X115.835 Y102.320 E0.03678
G1 X116.780 Y102.967 E0.03302
G1 X117.364 Y103.395 E0.02090
G1 X118.198 Y104.046 E0.03052
G1 X119.053 Y104.778 E0.03246
G1 X119.444 Y105.140 E0.01536
G1 X120.180 Y105.879 E0.03011
G1 X120.836 Y106.618 E0.02848
G1 X121.412 Y107.357 E0.02706
G1 X121.910 Y108.097 E0.02572
G1 X122.354 Y108.877 E0.02588
G1 X122.732 Y109.685 E0.02573
G1 X123.046 Y110.524 E0.02585
G1 X123.291 Y111.380 E0.02568
G1 X123.473 Y112.262 E0.02600
G1 X123.595 Y113.177 E0.02661
G1 X123.659 Y114.127 E0.02748
G1 X123.667 Y115.120 E0.02864
G1 X123.650 Y115.621 E0.01447
G1 X123.579 Y116.620 E0.02888
G1 X123.457 Y117.648 E0.02988
G1 X123.284 Y118.708 E0.03096
G1 X122.929 Y120.368 E0.04899
G1 X122.630 Y121.506 E0.03393
G1 X122.083 Y123.278 E0.05351
G1 X121.657 Y124.488 E0.03700
G1 X121.131 Y125.843 E0.04192
G1 X120.547 Y127.214 E0.04299
G1 X119.908 Y128.591 E0.04378
G1 X119.219 Y129.962 E0.04427
G1 X118.482 Y131.317 E0.04448
G1 X117.702 Y132.644 E0.04440
G1 X116.884 Y133.932 E0.04403
G1 X116.031 Y135.172 E0.04340
G1 X115.252 Y136.216 E0.03758
G1 X114.454 Y137.204 E0.03664
G1 X113.639 Y138.131 E0.03560
G1 X112.811 Y138.992 E0.03446
G1 X111.972 Y139.782 E0.03324
G1 X111.127 Y140.498 E0.03194
G1 X110.280 Y141.132 E0.03054
G1 X109.429 Y141.689 E0.02932
G1 X108.625 Y142.143 E0.02664
G1 X107.814 Y142.534 E0.02596
G1 X106.994 Y142.864 E0.02549
G1 X106.164 Y143.138 E0.02523
G1 X105.322 Y143.358 E0.02508
G1 X104.467 Y143.528 E0.02517
G1 X103.174 Y143.687 E0.03758
G1 X102.251 Y143.737 E0.02667
G1 X101.271 Y143.741 E0.02826
G1 X100.281 Y143.697 E0.02857
G1 X99.286 Y143.605 E0.02882
G1 X97.770 Y143.380 E0.04421
G1 X96.763 Y143.174 E0.02965
G1 X95.233 Y142.780 E0.04560
G1 X94.166 Y142.447 E0.03223
G1 X93.052 Y142.042 E0.03421
G1 X91.949 Y141.581 E0.03448
G1 X90.862 Y141.067 E0.03468
G1 X89.797 Y140.501 E0.03479
G1 X88.757 Y139.888 E0.03482
G1 X87.748 Y139.229 E0.03477
G1 X86.774 Y138.526 E0.03463
G1 X85.836 Y137.781 E0.03456
G1 X84.934 Y136.999 E0.03444
G1 X84.072 Y136.185 E0.03419
G1 X83.251 Y135.343 E0.03393
G1 X82.472 Y134.475 E0.03366
G1 X81.735 Y133.582 E0.03338
G1 X81.045 Y132.669 E0.03301
G1 X80.089 Y131.256 E0.04921
G1 X79.458 Y130.196 E0.03561
G1 X78.886 Y129.106 E0.03550
G1 X78.373 Y127.983 E0.03563
G1 X78.144 Y127.418 E0.01757
G1 X77.724 Y126.243 E0.03598
G1 X77.371 Y125.034 E0.03635
G1 X77.081 Y123.778 E0.03716
G1 X76.964 Y123.144 E0.01861
G1 X76.777 Y121.816 E0.03869
G1 X76.683 Y120.802 E0.02939
G1 X76.622 Y119.498 E0.03765
G1 X76.624 Y118.164 E0.03849
G1 X76.690 Y116.803 E0.03930
G1 X76.820 Y115.425 E0.03991
G1 X77.015 Y114.041 E0.04034
G1 X77.276 Y112.659 E0.04056
G1 X77.604 Y111.286 E0.04072
G1 X77.790 Y110.615 E0.02008
G1 X78.204 Y109.306 E0.03961
G1 X78.666 Y108.061 E0.03830
G1 X79.184 Y106.854 E0.03789
G1 X79.757 Y105.691 E0.03740
G1 X80.382 Y104.576 E0.03687
G1 X81.055 Y103.514 E0.03626
G1 X81.772 Y102.512 E0.03557
G1 X82.530 Y101.572 E0.03482
G1 X83.414 Y100.608 E0.03774
G1 X84.302 Y99.762 E0.03537
G1 X84.048 Y99.483 F10800.000
G1 F1200.000
G1 X84.707 Y98.916 E0.02509
G1 X85.254 Y98.488 E0.02003
G1 X85.812 Y98.083 E0.01989
G1 X86.902 Y97.385 E0.03734
G1 X87.553 Y97.021 E0.02149
G1 X88.156 Y96.717 E0.01948
G1 X88.709 Y96.465 E0.01753
G1 X89.397 Y96.184 E0.02145
G1 X90.035 Y95.956 E0.01955
G1 X90.620 Y95.773 E0.01767
G1 X91.414 Y95.562 E0.02369
G1 X92.572 Y95.327 E0.03409
G1 X93.701 Y95.179 E0.03286
G1 X94.873 Y95.100 E0.03389
G1 X95.964 Y95.090 E0.03147
G1 X96.707 Y95.113 E0.02144
G1 X97.983 Y95.209 E0.03690
G1 X98.631 Y95.282 E0.01882
G1 X99.961 Y95.482 E0.03880
