; generated by PrusaSlicer 2.9.4 on 2026-04-21 at 18:56:21 UTC


;
;

;
;
; 

; external perimeters extrusion width = 0.45mm
; perimeters extrusion width = 0.45mm
; infill extrusion width = 0.45mm
; solid infill extrusion width = 0.45mm
; top infill extrusion width = 0.40mm
; support material extrusion width = 0.35mm
; first layer extrusion width = 0.42mm

M73 P0 R96
M201 X9000 Y9000 Z500 E10000 ; sets maximum accelerations, mm/sec^2
M203 X500 Y500 Z12 E120 ; sets maximum feedrates, mm / sec
M204 S2000 T1500 ; sets acceleration (S) and retract acceleration (R), mm/sec^2
M205 X10.00 Y10.00 Z0.20 E4.50 ; sets the jerk limits, mm/sec
M205 S0 T0 ; sets the minimum extruding and travel feed rate, mm/sec

; printing object SSD_holder_V2.stl id:0 copy 0
; stop printing object SSD_holder_V2.stl id:0 copy 0

;TYPE:Custom
M83  ; extruder relative mode
M140 S85 ; set bed temp
M109 S160 ; Set extruder temp before bed level
M190 S85 ; wait for bed temp

G28 W ; home all without mesh bed level
G80 N7 ; mesh bed leveling

M109 S250 ; wait for extruder temp

M221 S100 ; Set flow to 100

G1 Y-3.0 F1000.0 ; go outside print area
G92 E0.0
G1 E8 ; Purge Bubble
G1 X60.0 E9.0 F1000.0 ; intro line
G1 X100.0 E12.5 F1000.0 ; intro line
G92 E0.0
G21 ; set units to millimeters
G90 ; use absolute coordinates
M83 ; use relative distances for extrusion

M900 K0.08 ; Filament gcode LA 1.5
M900 K45 ; Filament gcode LA 1.0




M107
;LAYER_CHANGE
;Z:0.2
;HEIGHT:0.2
G1 E-1 F2100
G1 Z.4 F720
G1 X67.446 Y45.139 F6000
G1 Z.2 F720
G1 E1 F2100
M204 S800
;TYPE:Skirt/Brim
;WIDTH:0.42
G1 F1200
G1 X74.367 Y38.218 E.30689
G1 X75.915 Y37.577 E.05253
G1 X174.085 Y37.577 E3.07805
G1 X175.633 Y38.218 E.05253
G1 X182.554 Y45.139 E.30689
G1 X183.195 Y46.687 E.05253
G1 X183.195 Y163.313 E3.65673
G1 X182.554 Y164.861 E.05253
G1 X175.633 Y171.782 E.30689
G1 X174.085 Y172.423 E.05253
G1 X75.915 Y172.423 E3.07805
G1 X74.367 Y171.782 E.05253
G1 X67.446 Y164.861 E.30689
G1 X66.805 Y163.313 E.05253
G1 X66.805 Y46.687 E3.65673
G1 X67.423 Y45.195 E.05063
M204 S1000
;WIPE_START
G1 F4800
G1 X67.446 Y45.139 E-.02516
G1 X69.105 Y43.48 E-.97484
;WIPE_END
G1 Z.4 F720
; printing object SSD_holder_V2.stl id:0 copy 0
G1 X181.006 Y163.313 F6000
G1 Z.2 F720
G1 E1 F2100
M204 S800
;TYPE:Support material
G1 F1200
G1 X178.699 Y163.313 E.07233
G1 X178.699 Y165.62 E.07233
G1 X174.085 Y165.62 E.14467
G1 X174.085 Y170.235 E.1447
G1 X163.584 Y170.235 E.32925
G1 X163.584 Y155.119 E.47395
M73 P0 R95
G1 X170.505 Y155.119 E.217
G1 X170.505 Y140.773 E.44981
G1 X172.038 Y140.519 E.04872
G1 X173.778 Y139.632 E.06124
G1 X175.265 Y138.146 E.06591
G1 X176.151 Y136.406 E.06122
G1 X176.477 Y134.424 E.06298
G1 X176.48 Y129.742 E.1468
G1 X181.006 Y129.742 E.14191
G1 X181.006 Y163.257 E1.05084
M204 S1000
G1 X180.305 Y163.144 F6000
M204 S800
G1 F1200
G1 X180.305 Y130.081 E1.03667
G1 X179.886 Y130.081 E.01314
G1 X179.886 Y162.974 E1.03134
G1 X179.467 Y162.974 E.01314
G1 X179.467 Y130.081 E1.03134
G1 X179.048 Y130.081 E.01314
G1 X179.048 Y162.974 E1.03134
G1 X178.629 Y162.974 E.01314
G1 X178.629 Y130.081 E1.03134
G1 X178.21 Y130.081 E.01314
G1 X178.21 Y165.281 E1.10367
G1 X177.791 Y165.281 E.01314
G1 X177.791 Y130.081 E1.10367
G1 X177.372 Y130.081 E.01314
G1 X177.372 Y165.281 E1.10367
G1 X176.953 Y165.281 E.01314
G1 X176.953 Y130.081 E1.10367
G1 X176.819 Y130.081 E.0042
G1 X176.819 Y134.4 E.13542
G1 X176.534 Y136.233 E.05816
G1 X176.534 Y165.281 E.91078
G1 X176.115 Y165.281 E.01314
G1 X176.115 Y137.224 E.87971
G1 X175.696 Y138.046 E.02893
M73 P1 R95
G1 X175.696 Y165.281 E.85393
G1 X175.277 Y165.281 E.01314
G1 X175.277 Y138.63 E.83562
G1 X174.858 Y139.049 E.01858
G1 X174.858 Y165.281 E.82249
G1 X174.439 Y165.281 E.01314
G1 X174.439 Y139.468 E.80935
G1 X174.02 Y139.876 E.01834
G1 X174.02 Y165.281 E.79656
G1 X173.746 Y165.281 E.00859
G1 X173.746 Y169.895 E.14467
G1 X173.601 Y169.895 E.00455
G1 X173.601 Y140.103 E.93411
G1 X173.182 Y140.317 E.01475
G1 X173.182 Y169.895 E.9274
G1 X172.763 Y169.895 E.01314
G1 X172.763 Y140.53 E.92072
G1 X172.344 Y140.744 E.01475
G1 X172.344 Y169.895 E.91401
G1 X171.925 Y169.895 E.01314
G1 X171.925 Y140.892 E.90937
G1 X171.506 Y140.959 E.0133
G1 X171.506 Y169.895 E.90727
G1 X171.087 Y169.895 E.01314
G1 X171.087 Y141.025 E.9052
G1 X170.845 Y141.063 E.00768
G1 X170.845 Y155.459 E.45138
G1 X170.668 Y155.459 E.00555
G1 X170.668 Y169.895 E.45263
G1 X170.25 Y169.895 E.01311
G1 X170.25 Y155.459 E.45263
G1 X169.831 Y155.459 E.01314
G1 X169.831 Y169.895 E.45263
G1 X169.412 Y169.895 E.01314
G1 X169.412 Y155.459 E.45263
G1 X168.993 Y155.459 E.01314
G1 X168.993 Y169.895 E.45263
G1 X168.574 Y169.895 E.01314
G1 X168.574 Y155.459 E.45263
G1 X168.155 Y155.459 E.01314
G1 X168.155 Y169.895 E.45263
G1 X167.736 Y169.895 E.01314
G1 X167.736 Y155.459 E.45263
G1 X167.317 Y155.459 E.01314
G1 X167.317 Y169.895 E.45263
G1 X166.898 Y169.895 E.01314
G1 X166.898 Y155.459 E.45263
G1 X166.479 Y155.459 E.01314
G1 X166.479 Y169.895 E.45263
G1 X166.06 Y169.895 E.01314
G1 X166.06 Y155.459 E.45263
G1 X165.641 Y155.459 E.01314
G1 X165.641 Y169.895 E.45263
G1 X165.222 Y169.895 E.01314
G1 X165.222 Y155.459 E.45263
G1 X164.803 Y155.459 E.01314
G1 X164.803 Y169.895 E.45263
G1 X164.384 Y169.895 E.01314
G1 X164.384 Y155.459 E.45263
G1 X163.965 Y155.459 E.01314
G1 X163.965 Y170.065 E.45796
M204 S1000
;WIPE_START
G1 F4800
G1 X163.965 Y167.659 E-1
;WIPE_END
G1 Z.4 F720
G1 X73.52 Y134.386 F6000
G1 Z.2 F720
G1 E1 F2100
M204 S800
G1 F1200
G1 X73.849 Y136.406 E.06417
G1 X74.78 Y138.207 E.06357
G1 X76.222 Y139.632 E.06356
G1 X77.962 Y140.519 E.06124
G1 X79.495 Y140.773 E.04872
G1 X79.495 Y155.119 E.44981
G1 X86.416 Y155.119 E.217
G1 X86.416 Y170.235 E.47395
G1 X75.915 Y170.235 E.32925
G1 X75.915 Y165.62 E.1447
G1 X71.301 Y165.62 E.14467
G1 X71.301 Y163.313 E.07233
G1 X68.994 Y163.313 E.07233
G1 X68.994 Y129.742 E1.0526
G1 X73.52 Y129.742 E.14191
M73 P1 R94
G1 X73.52 Y134.33 E.14385
M204 S1000
;WIPE_START
G1 F4800
G1 X73.52 Y131.924 E-1
;WIPE_END
G1 Z.4 F720
G1 X86.035 Y170.065 F6000
G1 Z.2 F720
G1 E1 F2100
M204 S800
G1 F1200
G1 X86.035 Y155.459 E.45796
G1 X85.616 Y155.459 E.01314
G1 X85.616 Y169.895 E.45263
G1 X85.197 Y169.895 E.01314
G1 X85.197 Y155.459 E.45263
G1 X84.778 Y155.459 E.01314
G1 X84.778 Y169.895 E.45263
G1 X84.359 Y169.895 E.01314
G1 X84.359 Y155.459 E.45263
G1 X83.94 Y155.459 E.01314
G1 X83.94 Y169.895 E.45263
G1 X83.521 Y169.895 E.01314
G1 X83.521 Y155.459 E.45263
G1 X83.102 Y155.459 E.01314
G1 X83.102 Y169.895 E.45263
G1 X82.683 Y169.895 E.01314
G1 X82.683 Y155.459 E.45263
G1 X82.264 Y155.459 E.01314
G1 X82.264 Y169.895 E.45263
G1 X81.845 Y169.895 E.01314
G1 X81.845 Y155.459 E.45263
G1 X81.426 Y155.459 E.01314
G1 X81.426 Y169.895 E.45263
G1 X81.007 Y169.895 E.01314
G1 X81.007 Y155.459 E.45263
G1 X80.588 Y155.459 E.01314
G1 X80.588 Y169.895 E.45263
G1 X80.169 Y169.895 E.01314
G1 X80.169 Y155.459 E.45263
G1 X79.75 Y155.459 E.01314
G1 X79.75 Y169.895 E.45263
G1 X79.332 Y169.895 E.01311
G1 X79.332 Y155.459 E.45263
G1 X79.155 Y155.459 E.00555
G1 X79.155 Y141.063 E.45138
G1 X78.913 Y141.025 E.00768
G1 X78.913 Y169.895 E.9052
G1 X78.494 Y169.895 E.01314
G1 X78.494 Y140.959 E.90727
G1 X78.075 Y140.892 E.0133
G1 X78.075 Y169.895 E.90937
G1 X77.656 Y169.895 E.01314
G1 X77.656 Y140.744 E.91401
G1 X77.237 Y140.53 E.01475
M73 P2 R94
G1 X77.237 Y169.895 E.92072
G1 X76.818 Y169.895 E.01314
G1 X76.818 Y140.317 E.9274
G1 X76.399 Y140.103 E.01475
G1 X76.399 Y169.895 E.93411
G1 X76.254 Y169.895 E.00455
G1 X76.254 Y165.281 E.14467
G1 X75.98 Y165.281 E.00859
G1 X75.98 Y139.876 E.79656
G1 X75.561 Y139.468 E.01834
G1 X75.561 Y165.281 E.80935
G1 X75.142 Y165.281 E.01314
G1 X75.142 Y139.049 E.82249
G1 X74.723 Y138.63 E.01858
G1 X74.723 Y165.281 E.83562
G1 X74.304 Y165.281 E.01314
G1 X74.304 Y138.046 E.85393
G1 X73.885 Y137.224 E.02893
G1 X73.885 Y165.281 E.87971
G1 X73.466 Y165.281 E.01314
G1 X73.466 Y136.233 E.91078
G1 X73.181 Y134.4 E.05816
G1 X73.181 Y130.081 E.13542
G1 X73.047 Y130.081 E.0042
G1 X73.047 Y165.281 E1.10367
G1 X72.628 Y165.281 E.01314
G1 X72.628 Y130.081 E1.10367
G1 X72.209 Y130.081 E.01314
G1 X72.209 Y165.281 E1.10367
G1 X71.79 Y165.281 E.01314
G1 X71.79 Y130.081 E1.10367
G1 X71.371 Y130.081 E.01314
G1 X71.371 Y162.974 E1.03134
G1 X70.952 Y162.974 E.01314
G1 X70.952 Y130.081 E1.03134
G1 X70.533 Y130.081 E.01314
G1 X70.533 Y162.974 E1.03134
G1 X70.114 Y162.974 E.01314
G1 X70.114 Y130.081 E1.03134
G1 X69.695 Y130.081 E.01314
G1 X69.695 Y163.144 E1.03667
M204 S1000
;WIPE_START
G1 F4800
G1 X69.695 Y160.738 E-1
;WIPE_END
G1 Z.4 F720
G1 X86.416 Y48.994 F6000
G1 Z.2 F720
G1 E1 F2100
M204 S800
G1 F1200
G1 X95.644 Y48.994 E.28934
G1 X95.644 Y52.388 E.10642
G1 X90.006 Y52.388 E.17678
G1 X87.987 Y52.716 E.06413
G1 X86.247 Y53.603 E.06124
G1 X84.805 Y55.028 E.06356
G1 X83.874 Y56.829 E.06357
G1 X83.808 Y57.166 E.01077
G1 X82.836 Y56.933 E.03134
G1 X82.836 Y54.881 E.06434
G1 X79.495 Y54.881 E.10475
G1 X79.495 Y66.445 E.36258
G1 X77.233 Y67.159 E.07437
G1 X75.716 Y68.157 E.05693
G1 X74.535 Y69.536 E.05693
G1 X73.784 Y71.189 E.05693
G1 X73.52 Y73.002 E.05744
G1 X73.52 Y82.566 E.29987
G1 X68.994 Y82.566 E.14191
G1 X68.994 Y46.687 E1.12496
G1 X71.301 Y46.687 E.07233
G1 X71.301 Y44.38 E.07233
G1 X75.915 Y44.38 E.14467
G1 X75.915 Y39.765 E.1447
G1 X86.416 Y39.765 E.32925
G1 X86.416 Y48.937 E.28758
M73 P2 R93
M204 S1000
G1 X95.253 Y52.218 F6000
M204 S800
G1 F1200
G1 X95.253 Y49.333 E.09046
G1 X94.834 Y49.333 E.01314
G1 X94.834 Y52.048 E.08513
G1 X94.415 Y52.048 E.01314
G1 X94.415 Y49.333 E.08513
G1 X93.996 Y49.333 E.01314
G1 X93.996 Y52.048 E.08513
G1 X93.577 Y52.048 E.01314
G1 X93.577 Y49.333 E.08513
G1 X93.158 Y49.333 E.01314
G1 X93.158 Y52.048 E.08513
G1 X92.739 Y52.048 E.01314
G1 X92.739 Y49.333 E.08513
G1 X92.32 Y49.333 E.01314
G1 X92.32 Y52.048 E.08513
G1 X91.901 Y52.048 E.01314
G1 X91.901 Y49.333 E.08513
G1 X91.482 Y49.333 E.01314
G1 X91.482 Y52.048 E.08513
G1 X91.063 Y52.048 E.01314
G1 X91.063 Y49.333 E.08513
G1 X90.644 Y49.333 E.01314
G1 X90.644 Y52.048 E.08513
G1 X90.225 Y52.048 E.01314
G1 X90.225 Y49.333 E.08513
G1 X89.806 Y49.333 E.01314
G1 X89.806 Y52.073 E.08591
G1 X89.387 Y52.139 E.0133
G1 X89.387 Y49.333 E.08798
G1 X88.968 Y49.333 E.01314
G1 X88.968 Y52.205 E.09005
G1 X88.549 Y52.272 E.0133
G1 X88.549 Y49.333 E.09215
G1 X88.13 Y49.333 E.01314
G1 X88.13 Y52.338 E.09422
G1 X87.711 Y52.476 E.01383
G1 X87.711 Y49.333 E.09855
G1 X87.292 Y49.333 E.01314
G1 X87.292 Y52.689 E.10523
G1 X86.873 Y52.903 E.01475
G1 X86.873 Y49.333 E.11193
G1 X86.454 Y49.333 E.01314
G1 X86.454 Y53.116 E.11861
G1 X86.035 Y53.337 E.01485
G1 X86.035 Y40.105 E.41488
G1 X85.616 Y40.105 E.01314
G1 X85.616 Y53.737 E.42742
G1 X85.197 Y54.156 E.01858
G1 X85.197 Y40.105 E.44056
G1 X84.778 Y40.105 E.01314
G1 X84.778 Y54.575 E.4537
G1 X84.359 Y55.129 E.02178
G1 X84.359 Y40.105 E.47107
G1 X83.94 Y40.105 E.01314
G1 X83.94 Y55.951 E.49684
G1 X83.521 Y56.748 E.02823
G1 X83.521 Y40.105 E.52183
G1 X83.102 Y40.105 E.01314
G1 X83.102 Y54.541 E.45263
G1 X82.683 Y54.541 E.01314
G1 X82.683 Y40.105 E.45263
G1 X82.264 Y40.105 E.01314
G1 X82.264 Y54.541 E.45263
G1 X81.845 Y54.541 E.01314
G1 X81.845 Y40.105 E.45263
G1 X81.426 Y40.105 E.01314
G1 X81.426 Y54.541 E.45263
G1 X81.007 Y54.541 E.01314
G1 X81.007 Y40.105 E.45263
G1 X80.588 Y40.105 E.01314
G1 X80.588 Y54.541 E.45263
G1 X80.169 Y54.541 E.01314
G1 X80.169 Y40.105 E.45263
G1 X79.75 Y40.105 E.01314
G1 X79.75 Y54.541 E.45263
G1 X79.332 Y54.541 E.01311
G1 X79.332 Y40.105 E.45263
G1 X78.913 Y40.105 E.01314
G1 X78.913 Y66.273 E.82048
G1 X78.494 Y66.405 E.01377
G1 X78.494 Y40.105 E.82462
G1 X78.075 Y40.105 E.01314
M73 P3 R93
G1 X78.075 Y66.538 E.82879
G1 X77.656 Y66.67 E.01377
G1 X77.656 Y40.105 E.83293
G1 X77.237 Y40.105 E.01314
G1 X77.237 Y66.802 E.83707
G1 X76.818 Y67.016 E.01475
G1 X76.818 Y40.105 E.84378
G1 X76.399 Y40.105 E.01314
G1 X76.399 Y67.295 E.85252
G1 X75.98 Y67.574 E.01578
G1 X75.98 Y44.719 E.7166
G1 X75.561 Y44.719 E.01314
G1 X75.561 Y67.853 E.72535
G1 X75.142 Y68.295 E.0191
G1 X75.142 Y44.719 E.73921
G1 X74.723 Y44.719 E.01314
G1 X74.723 Y68.79 E.75473
G1 X74.304 Y69.284 E.02031
G1 X74.304 Y44.719 E.77022
G1 X73.885 Y44.719 E.01314
G1 X73.885 Y70.134 E.79687
G1 X73.466 Y71.068 E.0321
G1 X73.466 Y44.719 E.82615
G1 X73.047 Y44.719 E.01314
G1 X73.047 Y82.226 E1.17601
G1 X72.628 Y82.226 E.01314
G1 X72.628 Y44.719 E1.17601
G1 X72.209 Y44.719 E.01314
G1 X72.209 Y82.226 E1.17601
G1 X71.79 Y82.226 E.01314
G1 X71.79 Y44.719 E1.17601
G1 X71.64 Y44.719 E.0047
G1 X71.64 Y47.026 E.07233
G1 X71.371 Y47.026 E.00843
G1 X71.371 Y82.226 E1.10367
G1 X70.952 Y82.226 E.01314
G1 X70.952 Y47.026 E1.10367
G1 X70.533 Y47.026 E.01314
G1 X70.533 Y82.226 E1.10367
G1 X70.114 Y82.226 E.01314
G1 X70.114 Y47.026 E1.10367
G1 X69.695 Y47.026 E.01314
G1 X69.695 Y82.396 E1.109
M204 S1000
;WIPE_START
G1 F4800
G1 X69.695 Y79.99 E-1
;WIPE_END
G1 Z.4 F720
G1 X174.085 Y44.38 F6000
G1 Z.2 F720
G1 E1 F2100
M204 S800
G1 F1200
G1 X178.699 Y44.38 E.14467
G1 X178.699 Y46.687 E.07233
G1 X181.006 Y46.687 E.07233
G1 X181.006 Y82.566 E1.12496
G1 X176.48 Y82.566 E.14191
G1 X176.48 Y73.166 E.29473
G1 X176.216 Y71.352 E.05748
G1 X175.465 Y69.7 E.0569
G1 X174.284 Y68.321 E.05693
G1 X172.767 Y67.323 E.05693
G1 X170.505 Y66.609 E.07437
G1 X170.505 Y54.881 E.36772
G1 X167.164 Y54.881 E.10475
G1 X167.164 Y56.933 E.06434
G1 X166.192 Y57.166 E.03134
G1 X166.126 Y56.829 E.01077
G1 X165.195 Y55.028 E.06357
G1 X163.814 Y53.647 E.06124
G1 X162.013 Y52.716 E.06357
G1 X159.994 Y52.388 E.06413
G1 X154.356 Y52.388 E.17678
G1 X154.356 Y48.994 E.10642
G1 X163.584 Y48.994 E.28934
G1 X163.584 Y39.765 E.28937
G1 X174.085 Y39.765 E.32925
M73 P3 R92
G1 X174.085 Y44.323 E.14291
M204 S1000
G1 X180.305 Y82.396 F6000
M204 S800
G1 F1200
G1 X180.305 Y47.026 E1.109
G1 X179.886 Y47.026 E.01314
G1 X179.886 Y82.226 E1.10367
G1 X179.467 Y82.226 E.01314
G1 X179.467 Y47.026 E1.10367
G1 X179.048 Y47.026 E.01314
G1 X179.048 Y82.226 E1.10367
G1 X178.629 Y82.226 E.01314
G1 X178.629 Y47.026 E1.10367
G1 X178.36 Y47.026 E.00843
G1 X178.36 Y44.719 E.07233
G1 X178.21 Y44.719 E.0047
G1 X178.21 Y82.226 E1.17601
G1 X177.791 Y82.226 E.01314
G1 X177.791 Y44.719 E1.17601
G1 X177.372 Y44.719 E.01314
G1 X177.372 Y82.226 E1.17601
G1 X176.953 Y82.226 E.01314
G1 X176.953 Y44.719 E1.17601
G1 X176.534 Y44.719 E.01314
M73 P4 R92
G1 X176.534 Y71.232 E.8313
G1 X176.115 Y70.298 E.0321
G1 X176.115 Y44.719 E.80201
G1 X175.696 Y44.719 E.01314
G1 X175.696 Y69.448 E.77536
G1 X175.277 Y68.953 E.02033
G1 X175.277 Y44.719 E.75984
G1 X174.858 Y44.719 E.01314
G1 X174.858 Y68.459 E.74435
G1 X174.439 Y68.016 E.01912
G1 X174.439 Y44.719 E.73046
G1 X174.02 Y44.719 E.01314
G1 X174.02 Y67.738 E.72174
G1 X173.601 Y67.459 E.01578
G1 X173.601 Y40.105 E.85767
G1 X173.182 Y40.105 E.01314
G1 X173.182 Y67.18 E.84892
G1 X172.763 Y66.966 E.01475
G1 X172.763 Y40.105 E.84221
G1 X172.344 Y40.105 E.01314
G1 X172.344 Y66.834 E.83807
G1 X171.925 Y66.701 E.01378
G1 X171.925 Y40.105 E.8339
G1 X171.506 Y40.105 E.01314
G1 X171.506 Y66.569 E.82976
G1 X171.087 Y66.437 E.01377
G1 X171.087 Y40.105 E.82562
G1 X170.668 Y40.105 E.01314
G1 X170.668 Y54.541 E.45263
G1 X170.25 Y54.541 E.01311
G1 X170.25 Y40.105 E.45263
G1 X169.831 Y40.105 E.01314
G1 X169.831 Y54.541 E.45263
G1 X169.412 Y54.541 E.01314
G1 X169.412 Y40.105 E.45263
G1 X168.993 Y40.105 E.01314
G1 X168.993 Y54.541 E.45263
G1 X168.574 Y54.541 E.01314
G1 X168.574 Y40.105 E.45263
G1 X168.155 Y40.105 E.01314
G1 X168.155 Y54.541 E.45263
G1 X167.736 Y54.541 E.01314
G1 X167.736 Y40.105 E.45263
G1 X167.317 Y40.105 E.01314
G1 X167.317 Y54.541 E.45263
G1 X166.898 Y54.541 E.01314
G1 X166.898 Y40.105 E.45263
G1 X166.479 Y40.105 E.01314
G1 X166.479 Y56.748 E.52183
G1 X166.06 Y55.951 E.02823
G1 X166.06 Y40.105 E.49684
G1 X165.641 Y40.105 E.01314
G1 X165.641 Y55.129 E.47107
G1 X165.222 Y54.575 E.02178
G1 X165.222 Y40.105 E.4537
G1 X164.803 Y40.105 E.01314
G1 X164.803 Y54.156 E.44056
G1 X164.384 Y53.737 E.01858
G1 X164.384 Y40.105 E.42742
G1 X163.965 Y40.105 E.01314
G1 X163.965 Y53.337 E.41488
G1 X163.546 Y53.116 E.01485
G1 X163.546 Y49.333 E.11861
G1 X163.127 Y49.333 E.01314
G1 X163.127 Y52.903 E.11193
