; generated by PrusaSlicer 2.2.0+ on 2020-04-19 at 17:41:15 UTC

; 

; external perimeters extrusion width = 0.45mm
; perimeters extrusion width = 0.45mm
; infill extrusion width = 0.45mm
; solid infill extrusion width = 0.45mm
; top infill extrusion width = 0.40mm
; first layer extrusion width = 0.42mm

M73 P0 R26
M201 X9000 Y9000 Z500 E10000 ; sets maximum accelerations, mm/sec^2
M203 X500 Y500 Z12 E120 ; sets maximum feedrates, mm/sec
M204 P2000 R1500 T2000 ; sets acceleration (P, T) and retract acceleration (R), mm/sec^2
M205 X10.00 Y10.00 Z0.20 E2.50 ; sets the jerk limits, mm/sec
M205 S0 T0 ; sets the minimum extruding and travel feed rate, mm/sec
M107
M83  ; extruder relative mode
M140 S75 ; set bed temp
M109 S160 ; Set extruder temp before bed level
M190 S75 ; wait for bed temp

G28 W ; home all without mesh bed level
G80 N7 ; mesh bed leveling

M109 S240 ; wait for extruder temp

M221 S100 ; Set flow to 100

G1 Y-3.0 F1000.0 ; go outside print area
G92 E0.0
G1 E8 ; Purge Bubble
M73 P0 R26
G1 X60.0 E9.0 F1000.0 ; intro line
G1 X100.0 E12.5 F1000.0 ; intro line
G92 E0.0
G21 ; set units to millimeters
G90 ; use absolute coordinates
M83 ; use relative distances for extrusion
M900 K45; Filament gcode
;BEFORE_LAYER_CHANGE
G92 E0.0
;0.2


G1 E-0.80000 F2100.00000
G1 Z0.600 F10800.000
;AFTER_LAYER_CHANGE
;0.2
G1 X109.031 Y90.971
G1 Z0.200
G1 E0.80000 F2100.00000
M204 S1000
G1 F1200.000
G1 X114.709 Y85.256 E0.23239
G1 X115.231 Y84.889 E0.01840
G1 X115.832 Y84.674 E0.01840
G1 X116.320 Y84.623 E0.01415
G1 X139.054 Y84.623 E0.65579
G1 X139.938 Y84.795 E0.02599
G1 X140.692 Y85.281 E0.02588
G1 X141.212 Y86.013 E0.02588
G1 X141.424 Y86.885 E0.02588
G1 X141.427 Y123.030 E1.04266
G1 X141.305 Y123.752 E0.02112
G1 X140.969 Y124.403 E0.02112
G1 X140.597 Y124.805 E0.01579
G1 X140.143 Y125.111 E0.01579
G1 X139.632 Y125.305 E0.01579
G1 X139.089 Y125.377 E0.01579
G1 X110.912 Y125.377 E0.81280
G1 X110.194 Y125.254 E0.02101
G1 X109.547 Y124.919 E0.02101
G1 X109.145 Y124.547 E0.01579
G1 X108.839 Y124.093 E0.01579
G1 X108.645 Y123.582 E0.01579
G1 X108.573 Y123.035 E0.01590
G1 X108.573 Y92.340 E0.88544
G1 X108.696 Y91.618 E0.02112
G1 X109.004 Y91.024 E0.01928
G1 F8640.000
G1 X111.318 Y88.684 E-0.76000
G1 E-0.04000 F2100.00000
G1 Z0.800 F10800.000
G1 X112.112 Y110.901
G1 Z0.200
G1 E0.80000 F2100.00000
G1 F1200.000
G1 X112.573 Y116.180 E0.15285
G1 X114.068 Y116.049 E0.04327
G1 X114.571 Y121.799 E0.16649
G1 X114.147 Y121.836 E0.01225
G1 X112.114 Y121.836 E0.05866
G1 X112.112 Y110.961 E0.31369
G1 F8640.000
G1 X112.402 Y114.240 E-0.76000
G1 E-0.04000 F2100.00000
G1 Z0.800 F10800.000
G1 X112.916 Y115.771
G1 Z0.200
G1 E0.80000 F2100.00000
G1 F1200.000
G1 X114.410 Y115.641 E0.04327
G1 X114.979 Y122.142 E0.18824
G1 X114.164 Y122.213 E0.02361
G1 X111.737 Y122.213 E0.07001
G1 X111.734 Y102.229 E0.57644
G1 X112.911 Y115.712 E0.39038
G1 F8640.000
G1 X114.410 Y115.641 E-0.34666
G1 X114.566 Y117.424 E-0.41334
G1 E-0.04000 F2100.00000
G1 Z0.800 F10800.000
G1 X131.010 Y108.045
G1 Z0.200
G1 E0.80000 F2100.00000
G1 F1200.000
G1 X130.868 Y107.428 E0.01827
G1 X130.832 Y106.999 E0.01241
G1 X130.878 Y106.463 E0.01553
G1 X131.017 Y105.941 E0.01558
G1 X131.244 Y105.451 E0.01558
G1 X131.553 Y105.007 E0.01558
G1 X131.933 Y104.624 E0.01558
G1 X132.364 Y104.318 E0.01523
G1 X132.743 Y104.127 E0.01225
G1 X133.246 Y103.963 E0.01527
G1 X133.781 Y103.887 E0.01558
G1 X134.321 Y103.904 E0.01558
G1 X134.849 Y104.014 E0.01558
G1 X135.351 Y104.214 E0.01558
G1 X135.808 Y104.496 E0.01549
G1 X136.132 Y104.781 E0.01245
G1 X136.542 Y105.265 E0.01830
G1 X136.807 Y105.753 E0.01603
G1 X136.979 Y106.265 E0.01558
G1 X137.059 Y106.788 E0.01525
G1 X137.059 Y107.212 E0.01225
G1 X136.979 Y107.735 E0.01525
G1 X136.807 Y108.247 E0.01558
G1 X136.550 Y108.722 E0.01558
G1 X136.214 Y109.145 E0.01558
G1 X135.810 Y109.503 E0.01558
G1 X135.351 Y109.786 E0.01555
G1 X134.849 Y109.986 E0.01558
G1 X134.321 Y110.096 E0.01558
G1 X133.781 Y110.113 E0.01558
G1 X133.246 Y110.037 E0.01558
G1 X132.743 Y109.873 E0.01527
G1 X132.364 Y109.682 E0.01225
G1 X131.933 Y109.376 E0.01523
G1 X131.553 Y108.993 E0.01558
G1 X131.244 Y108.549 E0.01558
G1 X131.036 Y108.099 E0.01432
G1 X131.378 Y107.940 F10800.000
G1 F1200.000
G1 X131.241 Y107.369 E0.01695
G1 X131.210 Y106.999 E0.01070
G1 X131.251 Y106.528 E0.01365
G1 X131.373 Y106.069 E0.01369
G1 X131.573 Y105.639 E0.01369
G1 X131.844 Y105.249 E0.01369
G1 X132.177 Y104.912 E0.01368
G1 X132.559 Y104.642 E0.01347
G1 X132.887 Y104.477 E0.01061
G1 X133.332 Y104.332 E0.01350
G1 X133.802 Y104.265 E0.01369
G1 X134.276 Y104.280 E0.01369
G1 X134.740 Y104.377 E0.01369
G1 X135.181 Y104.552 E0.01368
G1 X135.583 Y104.800 E0.01362
G1 X135.862 Y105.046 E0.01073
G1 X136.229 Y105.479 E0.01638
G1 X136.460 Y105.904 E0.01396
G1 X136.611 Y106.354 E0.01368
G1 X136.682 Y106.816 E0.01349
G1 X136.682 Y107.184 E0.01061
G1 X136.611 Y107.646 E0.01349
G1 X136.460 Y108.096 E0.01368
G1 X136.234 Y108.513 E0.01369
G1 X135.939 Y108.884 E0.01369
G1 X135.584 Y109.199 E0.01369
G1 X135.181 Y109.448 E0.01365
G1 X134.740 Y109.623 E0.01368
G1 X134.276 Y109.720 E0.01369
G1 X133.802 Y109.735 E0.01369
G1 X133.332 Y109.668 E0.01369
G1 X132.887 Y109.523 E0.01350
G1 X132.559 Y109.358 E0.01061
G1 X132.177 Y109.088 E0.01347
G1 X131.844 Y108.751 E0.01368
G1 X131.573 Y108.361 E0.01369
G1 X131.403 Y107.995 E0.01164
G1 X131.745 Y107.836 F10800.000
G1 F1200.000
G1 X131.615 Y107.310 E0.01564
G1 X131.589 Y107.000 E0.00899
G1 X131.624 Y106.593 E0.01177
G1 X131.729 Y106.198 E0.01180
G1 X131.901 Y105.827 E0.01180
G1 X132.134 Y105.491 E0.01179
G1 X132.422 Y105.201 E0.01179
G1 X132.754 Y104.966 E0.01171
G1 X133.031 Y104.826 E0.00897
G1 X133.418 Y104.700 E0.01172
G1 X133.822 Y104.643 E0.01179
G1 X134.231 Y104.656 E0.01179
G1 X134.631 Y104.739 E0.01180
G1 X135.011 Y104.890 E0.01179
G1 X135.358 Y105.104 E0.01175
G1 X135.592 Y105.310 E0.00901
G1 X135.917 Y105.693 E0.01447
G1 X136.113 Y106.055 E0.01189
G1 X136.244 Y106.443 E0.01179
G1 X136.304 Y106.845 E0.01172
G1 X136.304 Y107.155 E0.00897
G1 X136.244 Y107.557 E0.01172
G1 X136.113 Y107.945 E0.01179
G1 X135.918 Y108.304 E0.01179
G1 X135.664 Y108.624 E0.01180
G1 X135.358 Y108.896 E0.01180
G1 X135.011 Y109.110 E0.01176
G1 X134.631 Y109.261 E0.01179
G1 X134.231 Y109.344 E0.01180
G1 X133.822 Y109.357 E0.01179
G1 X133.418 Y109.300 E0.01179
G1 X133.031 Y109.174 E0.01172
G1 X132.754 Y109.034 E0.00897
G1 X132.422 Y108.799 E0.01171
G1 X132.134 Y108.509 E0.01179
G1 X131.901 Y108.173 E0.01179
G1 X131.770 Y107.891 E0.00897
G1 X131.352 Y107.762 F10800.000
G1 F8640.000
G1 X131.615 Y107.310 E-0.13879
G1 X131.589 Y107.000 E-0.07194
G1 X131.624 Y106.593 E-0.09421
G1 X131.729 Y106.198 E-0.09443
G1 X131.901 Y105.827 E-0.09442
G1 X132.134 Y105.491 E-0.09440
G1 X132.422 Y105.201 E-0.09439
G1 X132.696 Y105.007 E-0.07743
G1 E-0.04000 F2100.00000
G1 Z0.800 F10800.000
G1 X123.472 Y91.486
G1 Z0.200
G1 E0.80000 F2100.00000
G1 F1200.000
G1 X136.514 Y91.486 E0.37621
G1 X136.514 Y102.514 E0.31812
G1 X124.437 Y102.514 E0.34838
G1 X123.477 Y91.546 E0.31761
G1 X123.884 Y91.863 F10800.000
G1 F1200.000
G1 X136.137 Y91.863 E0.35346
G1 X136.137 Y102.137 E0.29637
G1 X124.783 Y102.137 E0.32753
G1 X123.889 Y91.923 E0.29577
G1 X124.295 Y92.240 F10800.000
G1 F1200.000
G1 X135.760 Y92.240 E0.33071
G1 X135.760 Y101.760 E0.27461
G1 X125.128 Y101.760 E0.30669
G1 X124.300 Y92.300 E0.27393
G1 X124.180 Y91.857 F10800.000
G1 F8640.000
G1 X127.592 Y92.283 E-0.76000
G1 E-0.04000 F2100.00000
G1 Z0.800 F10800.000
G1 X124.063 Y120.968
G1 Z0.200
G1 E0.80000 F2100.00000
G1 F1200.000
G1 X122.768 Y121.082 E0.03750
G1 X122.265 Y115.332 E0.16649
G1 X123.759 Y115.201 E0.04327
G1 X121.647 Y91.064 E0.69891
G1 X113.157 Y91.813 E0.24586
G1 X116.806 Y88.164 E0.14886
G1 X137.886 Y88.164 E0.60806
G1 X137.886 Y121.836 E0.97129
G1 X124.139 Y121.836 E0.39655
G1 X124.068 Y121.028 E0.02339
G1 X123.720 Y121.377 F10800.000
G1 F1200.000
G1 X122.425 Y121.490 E0.03750
G1 X121.856 Y114.989 E0.18824
G1 X123.350 Y114.858 E0.04327
G1 X121.304 Y91.473 E0.67715
G1 X112.621 Y92.239 E0.25145
G1 X112.128 Y92.307 E0.01435
G1 X116.650 Y87.787 E0.18442
G1 X138.263 Y87.787 E0.62344
G1 X138.263 Y122.213 E0.99305
G1 X123.793 Y122.213 E0.41740
G1 X123.725 Y121.437 E0.02248
G1 X123.377 Y121.785 F10800.000
G1 F1200.000
G1 X122.082 Y121.899 E0.03750
G1 X121.448 Y114.646 E0.21000
G1 X122.942 Y114.516 E0.04327
G1 X120.962 Y91.882 E0.65538
G1 X112.663 Y92.614 E0.24031
G1 X111.970 Y92.709 E0.02017
G1 X111.836 Y92.975 E0.00861
G1 X111.613 Y93.048 E0.00677
G1 X111.648 Y93.491 E0.01282
G1 X111.555 Y93.804 E0.00942
G1 X111.768 Y98.278 E0.12921
G1 X113.259 Y115.363 E0.49469
G1 X114.753 Y115.232 E0.04327
G1 X115.388 Y122.484 E0.21000
G1 X114.180 Y122.590 E0.03496
G1 X111.360 Y122.590 E0.08136
G1 X111.356 Y98.297 E0.70074
G1 X111.181 Y93.863 E0.12801
G1 X111.322 Y92.558 E0.03788
G1 X111.910 Y91.994 E0.02349
G1 X116.494 Y87.410 E0.18699
G1 X138.640 Y87.410 E0.63883
G1 X138.640 Y122.590 E1.01480
G1 X123.448 Y122.590 E0.43824
G1 X123.382 Y121.845 E0.02157
G1 X123.163 Y121.447 F10800.000
G1 F8640.000
G1 X122.082 Y121.899 E-0.30049
G1 X121.909 Y119.916 E-0.45951
G1 E-0.04000 F2100.00000
G1 Z0.800 F10800.000
G1 X124.176 Y120.963
G1 Z0.200
G1 E0.80000 F2100.00000
G1 F1200.000
G1 X124.935 Y121.723 E0.03111
G1 F8640.000
G1 X124.176 Y120.963 E-0.24801
G1 E-0.55199 F2100.00000
G1 Z0.800 F10800.000
G1 X122.797 Y120.120
G1 Z0.200
G1 E0.80000 F2100.00000
G1 F1200.000
G1 X123.418 Y120.741 E0.02544
G1 X123.910 Y120.698 E0.01432
G1 X122.932 Y119.720 E0.04006
G1 X122.881 Y119.133 E0.01706
G1 X125.301 Y121.553 E0.09914
G1 X125.837 Y121.553 E0.01551
G1 X122.830 Y118.546 E0.12318
G1 X122.778 Y117.959 E0.01706
G1 X126.372 Y121.553 E0.14722
G1 X126.908 Y121.553 E0.01551
G1 X122.727 Y117.372 E0.17126
G1 X122.676 Y116.786 E0.01706
G1 X127.443 Y121.553 E0.19530
G1 X127.979 Y121.553 E0.01551
G1 X122.624 Y116.199 E0.21934
G1 X122.573 Y115.612 E0.01706
G1 X128.514 Y121.553 E0.24337
G1 X129.050 Y121.553 E0.01551
G1 X123.044 Y115.548 E0.24601
G1 X123.537 Y115.505 E0.01432
G1 X129.585 Y121.553 E0.24778
G1 X130.121 Y121.553 E0.01551
G1 X124.029 Y115.461 E0.24954
G1 X124.065 Y115.458 E0.00106
G1 X124.018 Y114.915 E0.01581
G1 X130.656 Y121.553 E0.27194
G1 X131.192 Y121.553 E0.01551
G1 X123.966 Y114.328 E0.29598
G1 X123.915 Y113.741 E0.01706
G1 X131.727 Y121.553 E0.32002
G1 X132.263 Y121.553 E0.01551
G1 X123.864 Y113.154 E0.34406
G1 X123.812 Y112.567 E0.01706
G1 X132.798 Y121.553 E0.36810
G1 X133.334 Y121.553 E0.01551
G1 X123.761 Y111.980 E0.39214
G1 X123.710 Y111.394 E0.01706
G1 X133.869 Y121.553 E0.41618
M73 P3 R25
G1 X134.405 Y121.553 E0.01551
G1 X123.658 Y110.807 E0.44022
G1 X123.607 Y110.220 E0.01706
G1 X134.940 Y121.553 E0.46426
G1 X135.476 Y121.553 E0.01551
G1 X123.556 Y109.633 E0.48830
G1 X123.504 Y109.046 E0.01706
G1 X136.011 Y121.553 E0.51233
G1 X136.547 Y121.553 E0.01551
G1 X123.453 Y108.459 E0.53637
G1 X123.402 Y107.873 E0.01706
G1 X137.082 Y121.553 E0.56041
G1 X137.603 Y121.553 E0.01509
G1 X123.350 Y107.286 E0.58416
G1 X123.299 Y106.699 E0.01706
G1 X137.603 Y121.003 E0.58596
G1 X137.603 Y120.468 E0.01551
G1 X123.248 Y106.112 E0.58807
G1 X123.196 Y105.525 E0.01706
G1 X137.603 Y119.932 E0.59017
G1 X137.603 Y119.397 E0.01551
G1 X123.145 Y104.938 E0.59227
G1 X123.094 Y104.352 E0.01706
G1 X137.603 Y118.861 E0.59438
G1 X137.603 Y118.326 E0.01551
G1 X123.042 Y103.765 E0.59648
G1 X122.991 Y103.178 E0.01706
G1 X137.603 Y117.790 E0.59858
G1 X137.603 Y117.255 E0.01551
G1 X122.940 Y102.591 E0.60069
G1 X122.888 Y102.004 E0.01706
G1 X137.773 Y116.889 E0.60974
G1 F8640.000
G1 X135.445 Y114.561 E-0.76000
G1 E-0.04000 F2100.00000
G1 Z0.800 F10800.000
G1 X132.182 Y109.691
G1 Z0.200
G1 E0.80000 F2100.00000
G1 F1200.000
G1 X137.603 Y115.113 E0.22208
G1 X137.603 Y114.577 E0.01551
G1 X133.366 Y110.340 E0.17359
G1 X133.765 Y110.397 E0.01169
G1 X133.952 Y110.391 E0.00542
G1 X137.603 Y114.042 E0.14956
G1 X137.603 Y113.506 E0.01551
G1 X134.454 Y110.357 E0.12900
G1 X134.897 Y110.265 E0.01311
G1 X137.603 Y112.971 E0.11084
G1 X137.603 Y112.435 E0.01551
G1 X135.285 Y110.117 E0.09497
G1 X135.479 Y110.040 E0.00604
G1 X135.642 Y109.939 E0.00557
G1 X137.603 Y111.900 E0.08032
G1 X137.603 Y111.364 E0.01551
G1 X135.973 Y109.735 E0.06675
G1 X136.258 Y109.483 E0.01099
G1 X137.603 Y110.829 E0.05510
G1 X137.603 Y110.293 E0.01551
G1 X136.522 Y109.212 E0.04430
G1 X136.759 Y108.913 E0.01104
G1 X137.603 Y109.758 E0.03459
G1 X137.603 Y109.222 E0.01551
G1 X136.953 Y108.572 E0.02664
G1 X137.068 Y108.360 E0.00697
G1 X137.120 Y108.204 E0.00478
G1 X137.603 Y108.687 E0.01978
G1 X137.603 Y108.151 E0.01551
G1 X137.255 Y107.803 E0.01426
G1 X137.326 Y107.338 E0.01362
G1 X137.603 Y107.616 E0.01137
G1 X137.603 Y107.080 E0.01551
G1 X137.341 Y106.818 E0.01072
G1 X137.255 Y106.196 E0.01820
G1 X137.603 Y106.545 E0.01428
G1 X137.603 Y106.009 E0.01551
G1 X134.391 Y102.797 E0.13159
G1 X134.926 Y102.797 E0.01551
G1 X137.603 Y105.474 E0.10965
G1 X137.603 Y104.938 E0.01551
G1 X135.462 Y102.797 E0.08771
G1 X135.997 Y102.797 E0.01551
G1 X137.603 Y104.403 E0.06578
G1 X137.603 Y103.867 E0.01551
G1 X136.533 Y102.797 E0.04384
G1 X136.797 Y102.797 E0.00765
G1 X136.797 Y102.526 E0.00786
G1 X137.603 Y103.332 E0.03302
G1 X137.603 Y102.796 E0.01551
G1 X136.797 Y101.990 E0.03302
G1 X136.797 Y101.455 E0.01551
G1 X137.603 Y102.261 E0.03302
G1 X137.603 Y101.725 E0.01551
G1 X136.797 Y100.919 E0.03302
G1 X136.797 Y100.384 E0.01551
G1 X137.603 Y101.190 E0.03302
G1 X137.603 Y100.654 E0.01551
G1 X136.797 Y99.848 E0.03302
G1 X136.797 Y99.313 E0.01551
G1 X137.603 Y100.119 E0.03302
G1 X137.603 Y99.583 E0.01551
G1 X136.797 Y98.777 E0.03302
G1 X136.797 Y98.242 E0.01551
G1 X137.603 Y99.048 E0.03302
G1 X137.603 Y98.512 E0.01551
G1 X136.797 Y97.706 E0.03302
G1 X136.797 Y97.171 E0.01551
G1 X137.603 Y97.977 E0.03302
G1 X137.603 Y97.441 E0.01551
G1 X136.797 Y96.635 E0.03302
G1 X136.797 Y96.100 E0.01551
G1 X137.603 Y96.906 E0.03302
G1 X137.603 Y96.370 E0.01551
G1 X136.797 Y95.564 E0.03302
G1 X136.797 Y95.029 E0.01551
G1 X137.603 Y95.835 E0.03302
G1 X137.603 Y95.299 E0.01551
G1 X136.797 Y94.493 E0.03302
G1 X136.797 Y93.958 E0.01551
G1 X137.603 Y94.764 E0.03302
G1 X137.603 Y94.228 E0.01551
G1 X136.797 Y93.422 E0.03302
G1 X136.797 Y92.887 E0.01551
G1 X137.603 Y93.693 E0.03302
G1 X137.603 Y93.157 E0.01551
G1 X136.797 Y92.351 E0.03302
G1 X136.797 Y91.816 E0.01551
G1 X137.773 Y92.791 E0.03997
G1 F8640.000
G1 X136.797 Y91.816 E-0.31864
G1 X136.797 Y92.351 E-0.12365
G1 X137.603 Y93.157 E-0.26323
G1 X137.603 Y93.393 E-0.05448
G1 E-0.04000 F2100.00000
G1 Z0.800 F10800.000
G1 X137.773 Y89.043
G1 Z0.200
G1 E0.80000 F2100.00000
G1 F1200.000
G1 X137.177 Y88.447 E0.02441
G1 X136.641 Y88.447 E0.01551
G1 X137.603 Y89.409 E0.03940
G1 X137.603 Y89.944 E0.01551
G1 X136.106 Y88.447 E0.06133
G1 X135.570 Y88.447 E0.01551
G1 X137.603 Y90.480 E0.08327
G1 X137.603 Y91.015 E0.01551
G1 X135.035 Y88.447 E0.10521
G1 X134.499 Y88.447 E0.01551
G1 X137.603 Y91.551 E0.12714
G1 X137.603 Y92.086 E0.01551
G1 X133.964 Y88.447 E0.14908
G1 X133.428 Y88.447 E0.01551
G1 X136.184 Y91.203 E0.11290
G1 X135.649 Y91.203 E0.01551
G1 X132.893 Y88.447 E0.11290
G1 X132.357 Y88.447 E0.01551
G1 X135.113 Y91.203 E0.11290
G1 X134.578 Y91.203 E0.01551
G1 X131.822 Y88.447 E0.11290
G1 X131.286 Y88.447 E0.01551
G1 X134.042 Y91.203 E0.11290
G1 X133.507 Y91.203 E0.01551
G1 X130.751 Y88.447 E0.11290
G1 X130.215 Y88.447 E0.01551
G1 X132.971 Y91.203 E0.11290
G1 X132.436 Y91.203 E0.01551
G1 X129.680 Y88.447 E0.11290
G1 X129.144 Y88.447 E0.01551
G1 X131.900 Y91.203 E0.11290
G1 X131.365 Y91.203 E0.01551
G1 X128.609 Y88.447 E0.11290
G1 X128.073 Y88.447 E0.01551
G1 X130.829 Y91.203 E0.11290
G1 X130.294 Y91.203 E0.01551
G1 X127.538 Y88.447 E0.11290
G1 X127.002 Y88.447 E0.01551
G1 X129.758 Y91.203 E0.11290
G1 X129.223 Y91.203 E0.01551
G1 X126.467 Y88.447 E0.11290
G1 X125.931 Y88.447 E0.01551
G1 X128.687 Y91.203 E0.11290
G1 X128.152 Y91.203 E0.01551
G1 X125.396 Y88.447 E0.11290
G1 X124.860 Y88.447 E0.01551
G1 X127.616 Y91.203 E0.11290
G1 X127.081 Y91.203 E0.01551
G1 X124.325 Y88.447 E0.11290
G1 X123.789 Y88.447 E0.01551
G1 X126.545 Y91.203 E0.11290
