; generated by PrusaSlicer 2.2.0+ on 2020-04-15 at 22:35:56 UTC

; 

; external perimeters extrusion width = 0.45mm
; perimeters extrusion width = 0.45mm
; infill extrusion width = 0.45mm
; solid infill extrusion width = 0.45mm
; top infill extrusion width = 0.40mm
; first layer extrusion width = 0.42mm

M73 P0 R35
M201 X9000 Y9000 Z500 E10000 ; sets maximum accelerations, mm/sec^2
M203 X500 Y500 Z12 E120 ; sets maximum feedrates, mm/sec
M204 P2000 R1500 T2000 ; sets acceleration (P, T) and retract acceleration (R), mm/sec^2
M205 X10.00 Y10.00 Z0.20 E2.50 ; sets the jerk limits, mm/sec
M205 S0 T0 ; sets the minimum extruding and travel feed rate, mm/sec
M107
M83  ; extruder relative mode
M140 S100 ; set bed temp
M109 S160 ; Set extruder temp before bed level
M190 S100 ; wait for bed temp

G28 W ; home all without mesh bed level
G80 N7 ; mesh bed leveling

M109 S255 ; wait for extruder temp

M221 S100 ; Set flow to 100

G1 Y-3.0 F1000.0 ; go outside print area
G92 E0.0
G1 E8 ; Purge Bubble
M73 P0 R35
G1 X60.0 E9.0 F1000.0 ; intro line
G1 X100.0 E12.5 F1000.0 ; intro line
G92 E0.0
G21 ; set units to millimeters
G90 ; use absolute coordinates
M83 ; use relative distances for extrusion
M900 K30 ; Filament gcode
;BEFORE_LAYER_CHANGE
G92 E0.0
;0.2


G1 E-0.80000 F2100.00000
G1 Z0.600 F10800.000
;AFTER_LAYER_CHANGE
;0.2
G1 X102.333 Y100.404
G1 Z0.200
G1 E0.80000 F2100.00000
M204 S1000
G1 F1200.000
G1 X112.554 Y90.454 E0.44725
G1 X112.980 Y90.135 E0.01668
G1 X113.466 Y89.918 E0.01668
G1 X114.175 Y89.807 E0.02249
G1 X135.819 Y89.807 E0.67864
G1 X136.664 Y89.964 E0.02696
G1 X137.399 Y90.411 E0.02696
G1 X147.670 Y100.407 E0.44938
G1 X147.989 Y100.828 E0.01657
G1 X149.122 Y102.852 E0.07272
G1 X149.807 Y104.571 E0.05801
G1 X150.235 Y106.413 E0.05932
G1 X150.375 Y108.193 E0.05596
G1 X150.377 Y114.056 E0.18384
G1 X150.228 Y115.965 E0.06003
G1 X149.796 Y117.836 E0.06021
G1 X149.082 Y119.639 E0.06081
G1 X148.105 Y121.314 E0.06081
G1 X146.877 Y122.835 E0.06128
G1 X146.135 Y123.561 E0.03257
G1 X144.745 Y124.654 E0.05544
G1 X142.975 Y125.665 E0.06390
G1 X142.014 Y126.069 E0.03269
G1 X140.312 Y126.575 E0.05568
G1 X138.199 Y126.866 E0.06687
G1 X111.610 Y126.855 E0.83369
G1 X109.677 Y126.573 E0.06124
G1 X107.990 Y126.070 E0.05520
G1 X107.084 Y125.692 E0.03078
G1 X105.327 Y124.704 E0.06318
G1 X103.769 Y123.475 E0.06223
G1 X103.053 Y122.759 E0.03174
G1 X101.944 Y121.382 E0.05544
G1 X100.915 Y119.632 E0.06366
G1 X100.498 Y118.672 E0.03281
G1 X99.971 Y116.980 E0.05556
G1 X99.657 Y114.947 E0.06449
G1 X99.623 Y108.251 E0.20997
G1 X99.774 Y106.359 E0.05950
G1 X100.152 Y104.704 E0.05323
G1 X100.507 Y103.690 E0.03367
G1 X101.262 Y102.127 E0.05443
G1 X102.301 Y100.455 E0.06174
G1 F8640.000
G1 X104.658 Y98.157 E-0.76000
G1 E-0.04000 F2100.00000
G1 Z0.800 F10800.000
G1 X142.164 Y109.846
G1 Z0.200
G1 E0.80000 F2100.00000
G1 F1200.000
G1 X135.315 Y109.846 E0.21474
G1 X135.201 Y109.821 E0.00367
G1 X135.173 Y109.778 E0.00163
G1 X135.164 Y109.695 E0.00261
G1 X135.164 Y104.846 E0.15203
G1 X114.836 Y104.846 E0.63738
G1 X114.836 Y109.695 E0.15203
G1 X114.827 Y109.778 E0.00261
G1 X114.799 Y109.821 E0.00163
G1 X114.685 Y109.846 E0.00367
G1 X107.836 Y109.846 E0.21474
G1 X107.836 Y122.094 E0.38402
G1 X107.299 Y121.762 E0.01978
G1 X106.730 Y121.348 E0.02206
G1 X106.194 Y120.893 E0.02206
G1 X105.693 Y120.399 E0.02206
G1 X105.232 Y119.868 E0.02206
G1 X104.811 Y119.304 E0.02206
G1 X104.434 Y118.710 E0.02206
G1 X104.103 Y118.089 E0.02206
G1 X103.820 Y117.445 E0.02206
G1 X103.586 Y116.782 E0.02206
G1 X103.403 Y116.103 E0.02206
G1 X103.271 Y115.412 E0.02206
G1 X103.191 Y114.713 E0.02206
G1 X103.164 Y113.988 E0.02274
G1 X103.164 Y108.303 E0.17825
G1 X103.190 Y107.621 E0.02140
G1 X103.264 Y106.965 E0.02072
G1 X103.386 Y106.315 E0.02072
G1 X103.557 Y105.677 E0.02072
G1 X103.776 Y105.054 E0.02072
G1 X104.038 Y104.452 E0.02057
G1 X104.420 Y103.746 E0.02518
G1 X114.693 Y93.748 E0.44945
G1 X135.307 Y93.748 E0.64635
G1 X145.580 Y103.746 E0.44945
G1 X145.962 Y104.452 E0.02518
G1 X146.224 Y105.054 E0.02057
G1 X146.443 Y105.677 E0.02072
G1 X146.614 Y106.315 E0.02072
G1 X146.736 Y106.965 E0.02071
G1 X146.810 Y107.621 E0.02072
G1 X146.836 Y108.303 E0.02140
G1 X146.836 Y113.988 E0.17825
G1 X146.809 Y114.713 E0.02274
G1 X146.729 Y115.412 E0.02206
G1 X146.597 Y116.103 E0.02206
G1 X146.414 Y116.782 E0.02206
G1 X146.180 Y117.445 E0.02206
G1 X145.897 Y118.089 E0.02206
G1 X145.566 Y118.710 E0.02206
G1 X145.189 Y119.304 E0.02206
G1 X144.768 Y119.868 E0.02206
G1 X144.307 Y120.399 E0.02206
G1 X143.806 Y120.893 E0.02206
G1 X143.270 Y121.348 E0.02206
G1 X142.701 Y121.762 E0.02206
G1 X142.164 Y122.094 E0.01978
G1 X142.164 Y109.906 E0.38213
G1 X141.787 Y110.223 F10800.000
G1 F1200.000
G1 X135.294 Y110.223 E0.20358
G1 X135.148 Y110.207 E0.00461
G1 X134.964 Y110.118 E0.00639
G1 X134.837 Y109.959 E0.00639
G1 X134.804 Y109.862 E0.00322
G1 X134.787 Y109.716 E0.00461
G1 X134.787 Y105.223 E0.14087
G1 X115.213 Y105.223 E0.61373
G1 X115.213 Y109.716 E0.14087
G1 X115.196 Y109.862 E0.00461
G1 X115.163 Y109.959 E0.00322
G1 X115.036 Y110.118 E0.00639
G1 X114.852 Y110.207 E0.00639
G1 X114.706 Y110.223 E0.00461
G1 X108.213 Y110.223 E0.20358
G1 X108.213 Y122.720 E0.39182
G1 X107.711 Y122.460 E0.01771
G1 X107.089 Y122.075 E0.02295
G1 X106.497 Y121.645 E0.02295
G1 X105.939 Y121.171 E0.02295
G1 X105.418 Y120.657 E0.02295
G1 X104.938 Y120.105 E0.02295
G1 X104.500 Y119.518 E0.02295
G1 X104.108 Y118.900 E0.02295
G1 X103.764 Y118.254 E0.02295
G1 X103.469 Y117.584 E0.02295
G1 X103.226 Y116.894 E0.02295
G1 X103.035 Y116.188 E0.02295
G1 X102.898 Y115.469 E0.02295
G1 X102.815 Y114.741 E0.02295
G1 X102.787 Y113.995 E0.02341
G1 X102.787 Y108.296 E0.17869
G1 X102.813 Y107.593 E0.02206
G1 X102.891 Y106.908 E0.02160
G1 X103.019 Y106.231 E0.02160
G1 X103.197 Y105.566 E0.02160
G1 X103.424 Y104.916 E0.02160
G1 X103.699 Y104.287 E0.02151
G1 X104.116 Y103.516 E0.02748
G1 X114.540 Y93.371 E0.45606
G1 X135.460 Y93.371 E0.65595
G1 X145.884 Y103.516 E0.45606
G1 X146.301 Y104.287 E0.02748
G1 X146.576 Y104.916 E0.02151
G1 X146.803 Y105.566 E0.02160
G1 X146.981 Y106.231 E0.02160
G1 X147.109 Y106.908 E0.02160
G1 X147.187 Y107.593 E0.02160
G1 X147.213 Y108.296 E0.02206
G1 X147.213 Y113.995 E0.17869
G1 X147.185 Y114.741 E0.02341
G1 X147.102 Y115.469 E0.02295
G1 X146.965 Y116.188 E0.02295
G1 X146.774 Y116.894 E0.02295
G1 X146.531 Y117.584 E0.02295
G1 X146.236 Y118.254 E0.02295
G1 X145.892 Y118.900 E0.02295
G1 X145.500 Y119.518 E0.02295
G1 X145.062 Y120.105 E0.02295
G1 X144.582 Y120.657 E0.02295
G1 X144.061 Y121.171 E0.02295
G1 X143.503 Y121.645 E0.02295
G1 X142.911 Y122.075 E0.02295
G1 X142.289 Y122.460 E0.02295
G1 X141.787 Y122.720 E0.01771
G1 X141.787 Y110.283 E0.38994
G1 X141.410 Y110.600 F10800.000
G1 F1200.000
G1 X135.273 Y110.600 E0.19242
G1 X135.064 Y110.576 E0.00661
G1 X134.887 Y110.515 E0.00588
G1 X134.728 Y110.415 E0.00588
G1 X134.595 Y110.282 E0.00588
G1 X134.496 Y110.123 E0.00588
G1 X134.434 Y109.946 E0.00588
G1 X134.410 Y109.737 E0.00661
G1 X134.410 Y105.600 E0.12971
G1 X115.590 Y105.600 E0.59009
G1 X115.590 Y109.737 E0.12971
G1 X115.566 Y109.946 E0.00661
G1 X115.504 Y110.123 E0.00588
G1 X115.405 Y110.282 E0.00588
G1 X115.272 Y110.415 E0.00588
G1 X115.113 Y110.515 E0.00588
G1 X114.936 Y110.576 E0.00588
G1 X114.727 Y110.600 E0.00661
G1 X108.590 Y110.600 E0.19242
G1 X108.590 Y122.860 E0.38440
G1 X109.586 Y123.220 E0.03320
G1 X110.342 Y123.426 E0.02456
G1 X111.108 Y123.569 E0.02446
G1 X111.950 Y123.668 E0.02657
G1 X112.034 Y123.725 E0.00318
G1 X112.065 Y123.771 E0.00173
G1 X112.086 Y123.879 E0.00343
G1 X112.051 Y123.982 E0.00343
G1 X112.015 Y124.024 E0.00173
G1 X111.917 Y124.073 E0.00343
G1 X111.105 Y124.003 E0.02555
G1 X110.356 Y123.869 E0.02384
G1 X109.620 Y123.680 E0.02384
G1 X108.900 Y123.436 E0.02384
G1 X108.201 Y123.138 E0.02384
G1 X107.525 Y122.788 E0.02384
G1 X106.879 Y122.389 E0.02384
G1 X106.264 Y121.942 E0.02384
G1 X105.684 Y121.449 E0.02384
G1 X105.143 Y120.915 E0.02384
G1 X104.644 Y120.342 E0.02384
G1 X104.190 Y119.732 E0.02384
G1 X103.782 Y119.090 E0.02384
G1 X103.425 Y118.419 E0.02384
G1 X103.118 Y117.723 E0.02384
G1 X102.865 Y117.006 E0.02384
G1 X102.667 Y116.272 E0.02384
G1 X102.525 Y115.525 E0.02384
G1 X102.439 Y114.770 E0.02384
G1 X102.410 Y114.002 E0.02408
G1 X102.410 Y108.289 E0.17914
G1 X102.437 Y107.565 E0.02273
G1 X102.517 Y106.852 E0.02249
G1 X102.651 Y106.147 E0.02249
G1 X102.836 Y105.455 E0.02248
G1 X103.073 Y104.778 E0.02249
G1 X103.360 Y104.121 E0.02245
G1 X103.812 Y103.286 E0.02979
G1 X114.386 Y92.994 E0.46267
G1 X135.614 Y92.994 E0.66556
G1 X146.188 Y103.286 E0.46267
G1 X146.640 Y104.121 E0.02979
G1 X146.927 Y104.778 E0.02245
G1 X147.164 Y105.455 E0.02249
G1 X147.349 Y106.147 E0.02249
G1 X147.483 Y106.852 E0.02248
G1 X147.563 Y107.565 E0.02249
G1 X147.590 Y108.289 E0.02273
G1 X147.590 Y114.002 E0.17914
G1 X147.561 Y114.770 E0.02408
G1 X147.475 Y115.525 E0.02384
G1 X147.333 Y116.272 E0.02384
G1 X147.135 Y117.006 E0.02384
G1 X146.882 Y117.723 E0.02384
G1 X146.575 Y118.419 E0.02384
G1 X146.218 Y119.090 E0.02384
G1 X145.810 Y119.732 E0.02384
G1 X145.356 Y120.342 E0.02384
G1 X144.857 Y120.915 E0.02384
G1 X144.316 Y121.449 E0.02384
G1 X143.736 Y121.942 E0.02384
G1 X143.121 Y122.389 E0.02384
G1 X142.475 Y122.788 E0.02384
G1 X141.799 Y123.138 E0.02384
G1 X141.100 Y123.436 E0.02384
G1 X140.380 Y123.680 E0.02384
G1 X139.644 Y123.869 E0.02384
G1 X138.895 Y124.003 E0.02384
G1 X138.083 Y124.073 E0.02555
G1 X137.985 Y124.024 E0.00343
G1 X137.949 Y123.982 E0.00173
G1 X137.914 Y123.879 E0.00343
G1 X137.935 Y123.771 E0.00343
G1 X137.966 Y123.725 E0.00173
G1 X138.050 Y123.668 E0.00318
G1 X138.892 Y123.569 E0.02657
G1 X139.658 Y123.426 E0.02446
G1 X140.414 Y123.220 E0.02456
G1 X141.410 Y122.860 E0.03320
G1 X141.410 Y110.660 E0.38252
G1 X141.420 Y110.200 F10800.000
G1 F8640.000
G1 X138.119 Y110.628 E-0.76000
G1 E-0.04000 F2100.00000
G1 Z0.800 F10800.000
G1 X139.911 Y109.733
G1 Z0.200
G1 E0.80000 F2100.00000
G1 F1200.000
G1 X135.447 Y105.269 E0.19892
G1 X135.447 Y105.805 E0.01689
G1 X139.205 Y109.563 E0.16748
G1 X138.669 Y109.563 E0.01689
G1 X135.447 Y106.341 E0.14359
G1 X135.447 Y106.877 E0.01689
G1 X138.133 Y109.563 E0.11971
G1 X137.597 Y109.563 E0.01689
G1 X135.447 Y107.413 E0.09583
G1 X135.447 Y107.949 E0.01689
G1 X137.061 Y109.563 E0.07195
G1 X136.526 Y109.563 E0.01689
G1 X135.447 Y108.484 E0.04807
G1 X135.447 Y109.020 E0.01689
G1 X135.990 Y109.563 E0.02418
G1 X135.454 Y109.563 E0.01689
G1 X135.277 Y109.387 E0.00786
G1 F8640.000
G1 X135.454 Y109.563 E-0.05762
G1 X135.990 Y109.563 E-0.12375
G1 X135.447 Y109.020 E-0.17721
G1 X135.447 Y108.484 E-0.12375
G1 X136.297 Y109.335 E-0.27768
G1 E-0.04000 F2100.00000
G1 Z0.800 F10800.000
G1 X139.647 Y123.674
G1 Z0.200
G1 E0.80000 F2100.00000
G1 F1200.000
G1 X138.641 Y123.814 E0.00453
G1 X138.643 Y123.832 F10800.000
G1 F1200.000
G1 X139.702 Y123.635 E0.00501
G1 X139.815 Y123.605 F10800.000
G1 F1200.000
G1 X140.451 Y123.431 E0.00315
G1 X140.610 Y123.377 F10800.000
G1 F1200.000
G1 X141.184 Y123.169 E0.00298
G1 F8640.000
G1 X140.610 Y123.377 E-0.14096
G1 E-0.65904 F2100.00000
G1 Z0.800 F10800.000
G1 X142.694 Y121.627
G1 Z0.200
G1 E0.80000 F2100.00000
G1 F1200.000
G1 X142.447 Y121.380 E0.01102
G1 X142.447 Y120.844 E0.01689
G1 X142.883 Y121.280 E0.01944
G1 X143.187 Y121.048 E0.01205
G1 X142.447 Y120.308 E0.03298
G1 X142.447 Y119.772 E0.01689
G1 X143.477 Y120.802 E0.04589
G1 X143.756 Y120.545 E0.01195
G1 X142.447 Y119.236 E0.05833
G1 X142.447 Y118.700 E0.01689
G1 X144.026 Y120.279 E0.07035
G1 X144.281 Y119.998 E0.01196
G1 X142.447 Y118.164 E0.08171
G1 X142.447 Y117.628 E0.01689
G1 X144.530 Y119.711 E0.09282
G1 X144.760 Y119.406 E0.01206
G1 X142.447 Y117.092 E0.10309
G1 X142.447 Y116.556 E0.01689
G1 X144.986 Y119.096 E0.11315
G1 X145.194 Y118.768 E0.01224
G1 X142.447 Y116.020 E0.12242
G1 X142.447 Y115.485 E0.01689
G1 X145.394 Y118.431 E0.13131
G1 X145.580 Y118.082 E0.01248
G1 X142.447 Y114.949 E0.13962
G1 X142.447 Y114.413 E0.01689
G1 X145.751 Y117.717 E0.14725
G1 X145.915 Y117.345 E0.01281
G1 X142.447 Y113.877 E0.15455
G1 X142.447 Y113.341 E0.01689
G1 X146.055 Y116.949 E0.16079
G1 X146.185 Y116.543 E0.01342
G1 X142.447 Y112.805 E0.16660
G1 X142.447 Y112.269 E0.01689
G1 X146.299 Y116.121 E0.17168
G1 X146.391 Y115.677 E0.01430
G1 X142.447 Y111.733 E0.17575
G1 X142.447 Y111.197 E0.01689
G1 X146.467 Y115.217 E0.17913
G1 X146.521 Y114.736 E0.01526
G1 X142.447 Y110.661 E0.18156
G1 X142.447 Y110.125 E0.01689
G1 X146.708 Y114.386 E0.18987
G1 F8640.000
G1 X144.380 Y112.059 E-0.76000
G1 E-0.04000 F2100.00000
G1 Z0.800 F10800.000
G1 X145.773 Y104.340
G1 Z0.200
G1 E0.80000 F2100.00000
G1 F1200.000
G1 X135.192 Y94.031 E0.46550
G1 X134.928 Y94.031 E0.00834
G1 X145.889 Y104.993 E0.48848
G1 X146.191 Y105.830 E0.02805
G1 X134.392 Y94.031 E0.52580
G1 X133.856 Y94.031 E0.01689
G1 X146.369 Y106.544 E0.55763
G1 X146.477 Y107.188 E0.02057
G1 X133.320 Y94.031 E0.58632
G1 X132.784 Y94.031 E0.01689
G1 X146.533 Y107.780 E0.61271
G1 X146.553 Y108.336 E0.01752
G1 X132.248 Y94.031 E0.63747
G1 X131.712 Y94.031 E0.01689
G1 X146.553 Y108.872 E0.66136
G1 X146.553 Y109.408 E0.01689
G1 X131.176 Y94.031 E0.68524
G1 X130.640 Y94.031 E0.01689
G1 X146.553 Y109.944 E0.70912
G1 X146.553 Y110.480 E0.01689
G1 X130.104 Y94.031 E0.73300
G1 X129.568 Y94.031 E0.01689
G1 X146.553 Y111.016 E0.75688
M73 P2 R34
G1 X146.553 Y111.552 E0.01689
G1 X129.032 Y94.031 E0.78077
G1 X128.496 Y94.031 E0.01689
G1 X146.553 Y112.088 E0.80465
G1 X146.553 Y112.624 E0.01689
G1 X127.960 Y94.031 E0.82853
G1 X127.425 Y94.031 E0.01689
G1 X146.553 Y113.159 E0.85241
G1 X146.553 Y113.695 E0.01689
G1 X126.889 Y94.031 E0.87630
G1 X126.353 Y94.031 E0.01689
G1 X141.885 Y109.563 E0.69215
G1 X141.349 Y109.563 E0.01689
G1 X125.817 Y94.031 E0.69215
G1 X125.281 Y94.031 E0.01689
G1 X140.813 Y109.563 E0.69215
G1 X140.277 Y109.563 E0.01689
G1 X124.745 Y94.031 E0.69215
G1 X124.209 Y94.031 E0.01689
G1 X134.741 Y104.563 E0.46934
G1 X134.205 Y104.563 E0.01689
G1 X123.673 Y94.031 E0.46934
G1 X123.137 Y94.031 E0.01689
G1 X133.669 Y104.563 E0.46934
G1 X133.133 Y104.563 E0.01689
G1 X122.601 Y94.031 E0.46934
G1 X122.065 Y94.031 E0.01689
G1 X132.597 Y104.563 E0.46934
G1 X132.061 Y104.563 E0.01689
G1 X121.529 Y94.031 E0.46934
G1 X120.993 Y94.031 E0.01689
G1 X131.526 Y104.563 E0.46934
G1 X130.990 Y104.563 E0.01689
G1 X120.458 Y94.031 E0.46934
G1 X119.922 Y94.031 E0.01689
G1 X130.454 Y104.563 E0.46934
G1 X129.918 Y104.563 E0.01689
G1 X119.386 Y94.031 E0.46934
G1 X118.850 Y94.031 E0.01689
G1 X129.382 Y104.563 E0.46934
G1 X128.846 Y104.563 E0.01689
G1 X118.314 Y94.031 E0.46934
G1 X117.778 Y94.031 E0.01689
G1 X128.310 Y104.563 E0.46934
G1 X127.774 Y104.563 E0.01689
G1 X117.242 Y94.031 E0.46934
G1 X116.706 Y94.031 E0.01689
G1 X127.238 Y104.563 E0.46934
G1 X126.702 Y104.563 E0.01689
G1 X116.170 Y94.031 E0.46934
G1 X115.634 Y94.031 E0.01689
G1 X126.166 Y104.563 E0.46934
G1 X125.630 Y104.563 E0.01689
G1 X115.098 Y94.031 E0.46934
G1 X114.808 Y94.031 E0.00915
G1 X114.683 Y94.152 E0.00547
G1 X125.094 Y104.563 E0.46394
G1 X124.559 Y104.563 E0.01689
G1 X114.412 Y94.416 E0.45216
G1 X114.140 Y94.681 E0.01194
G1 X124.023 Y104.563 E0.44038
G1 X123.487 Y104.563 E0.01689
G1 X113.869 Y94.945 E0.42861
G1 X113.597 Y95.209 E0.01194
G1 X122.951 Y104.563 E0.41683
G1 X122.415 Y104.563 E0.01689
G1 X113.325 Y95.474 E0.40505
G1 X113.054 Y95.738 E0.01194
G1 X121.879 Y104.563 E0.39327
G1 X121.343 Y104.563 E0.01689
G1 X112.782 Y96.002 E0.38149
G1 X112.511 Y96.267 E0.01194
G1 X120.807 Y104.563 E0.36971
G1 X120.271 Y104.563 E0.01689
G1 X112.239 Y96.531 E0.35793
G1 X111.967 Y96.795 E0.01194
G1 X119.735 Y104.563 E0.34615
G1 X119.199 Y104.563 E0.01689
G1 X111.696 Y97.060 E0.33437
G1 X111.424 Y97.324 E0.01194
G1 X118.663 Y104.563 E0.32259
G1 X118.127 Y104.563 E0.01689
G1 X111.153 Y97.588 E0.31082
G1 X110.881 Y97.853 E0.01194
G1 X117.591 Y104.563 E0.29904
G1 X117.056 Y104.563 E0.01689
G1 X110.609 Y98.117 E0.28726
G1 X110.338 Y98.381 E0.01194
G1 X116.520 Y104.563 E0.27548
G1 X115.984 Y104.563 E0.01689
G1 X110.066 Y98.646 E0.26370
G1 X109.795 Y98.910 E0.01194
G1 X115.448 Y104.563 E0.25192
