; generated by PrusaSlicer 2.3.1+win64 on 2021-06-13 at 18:03:36 UTC


;
;

;
;
; 

; external perimeters extrusion width = 0.45mm
; perimeters extrusion width = 0.45mm
; infill extrusion width = 0.45mm
; solid infill extrusion width = 0.45mm
; top infill extrusion width = 0.40mm
; first layer extrusion width = 0.42mm

M73 P0 R174
M201 X9000 Y9000 Z500 E10000 ; sets maximum accelerations, mm/sec^2
M203 X500 Y500 Z12 E120 ; sets maximum feedrates, mm/sec
M204 P2000 R1500 T2000 ; sets acceleration (P, T) and retract acceleration (R), mm/sec^2
M205 X10.00 Y10.00 Z0.20 E2.50 ; sets the jerk limits, mm/sec
M205 S0 T0 ; sets the minimum extruding and travel feed rate, mm/sec
M107
;TYPE:Custom
M83  ; extruder relative mode
M140 S85 ; set bed temp
M109 S160 ; Set extruder temp before bed level
M190 S85 ; wait for bed temp

G28 W ; home all without mesh bed level
G80 N7 ; mesh bed leveling

M109 S240 ; wait for extruder temp

M221 S100 ; Set flow to 100

G1 Y-3.0 F1000.0 ; go outside print area
G92 E0.0
G1 E8 ; Purge Bubble
G1 X60.0 E9.0 F1000.0 ; intro line
G1 X100.0 E12.5 F1000.0 ; intro line
G92 E0.0
G21 ; set units to millimeters
G90 ; use absolute coordinates
M83 ; use relative distances for extrusion
M900 K45 ; Filament gcode
;LAYER_CHANGE
;Z:0.2
;HEIGHT:0.2
;BEFORE_LAYER_CHANGE
M117 INDICATOR-Layer1
G92 E0.0
;0.2


G1 E-1.40000 F2100.000
G1 Z0.200 F10800.000
;AFTER_LAYER_CHANGE
;0.2
G1 Z0.400
G1 X66.141 Y88.629
G1 Z0.200
G1 E1.40000 F2100.000
M204 S1000
;TYPE:Skirt
;WIDTH:0.42
G1 F1200.000
G1 X66.939 Y88.219 E0.02813
G1 X152.069 Y68.163 E2.74225
M73 P0 R173
G1 X174.302 Y68.123 E0.69712
G1 X175.083 Y68.256 E0.02484
G1 X175.777 Y68.639 E0.02484
G1 X176.307 Y69.228 E0.02484
G1 X176.614 Y69.963 E0.02496
G1 X189.587 Y133.864 E2.04447
G1 X189.668 Y135.301 E0.04512
G1 X189.555 Y136.314 E0.03195
G1 X189.151 Y137.731 E0.04621
G1 X188.460 Y139.054 E0.04681
G1 X187.847 Y139.859 E0.03171
G1 X186.765 Y140.871 E0.04645
G1 X185.498 Y141.645 E0.04657
G1 X184.562 Y142.020 E0.03159
G1 X183.216 Y142.318 E0.04324
G1 X182.343 Y142.377 E0.02743
G1 X172.272 Y142.377 E0.31579
G1 X171.557 Y142.258 E0.02272
G1 X66.475 Y107.230 E3.47301
G1 X65.671 Y106.732 E0.02966
G1 X61.311 Y102.374 E0.19326
G1 X60.957 Y101.913 E0.01823
G1 X60.725 Y101.376 E0.01835
G1 X60.506 Y99.940 E0.04557
G1 X60.565 Y99.422 E0.01633
G1 X60.734 Y98.934 E0.01621
G1 X65.550 Y89.310 E0.33744
G1 X66.102 Y88.675 E0.02637
@Object PSU_Bottom_Bracket.stl id:0 copy 0
;WIPE_START
G1 F8640.000
G1 X66.939 Y88.219 E-0.22012
G1 X71.618 Y87.117 E-1.10988
;WIPE_END
G1 E-0.07000 F2100.000
G1 Z0.400 F10800.000
G1 X180.147 Y134.217
G1 Z0.200
G1 E1.40000 F2100.000
;TYPE:Perimeter
G1 F1200.000
G1 X180.315 Y133.855 E0.01252
G1 X180.544 Y133.528 E0.01252
G1 X180.826 Y133.246 E0.01252
G1 X181.153 Y133.017 E0.01252
G1 X181.515 Y132.848 E0.01252
G1 X181.901 Y132.745 E0.01252
G1 X182.263 Y132.713 E0.01141
G1 X182.692 Y132.743 E0.01346
G1 X183.082 Y132.848 E0.01267
G1 X183.444 Y133.017 E0.01252
G1 X183.771 Y133.246 E0.01252
G1 X184.053 Y133.528 E0.01252
G1 X184.282 Y133.855 E0.01252
G1 X184.450 Y134.217 E0.01252
G1 X184.554 Y134.602 E0.01252
G1 X184.589 Y135.000 E0.01252
G1 X184.554 Y135.398 E0.01252
G1 X184.450 Y135.783 E0.01252
G1 X184.282 Y136.145 E0.01252
G1 X184.053 Y136.472 E0.01252
G1 X183.771 Y136.754 E0.01252
G1 X183.444 Y136.983 E0.01252
G1 X183.082 Y137.152 E0.01252
G1 X182.696 Y137.255 E0.01252
G1 X182.299 Y137.290 E0.01252
G1 X181.901 Y137.255 E0.01252
G1 X181.515 Y137.152 E0.01252
G1 X181.153 Y136.983 E0.01252
G1 X180.826 Y136.754 E0.01252
G1 X180.544 Y136.472 E0.01252
G1 X180.315 Y136.145 E0.01252
G1 X180.147 Y135.783 E0.01252
G1 X180.043 Y135.398 E0.01252
G1 X180.008 Y135.000 E0.01252
G1 X180.043 Y134.602 E0.01252
G1 X180.131 Y134.275 E0.01064
G1 X180.495 Y134.372 F10800.000
;TYPE:External perimeter
G1 F1200.000
G1 X180.643 Y134.044 E0.01128
G1 X180.834 Y133.771 E0.01045
G1 X181.070 Y133.536 E0.01045
G1 X181.343 Y133.345 E0.01045
G1 X181.645 Y133.204 E0.01045
G1 X181.967 Y133.117 E0.01045
G1 X182.266 Y133.091 E0.00944
G1 X182.629 Y133.117 E0.01139
G1 X182.952 Y133.204 E0.01050
G1 X183.254 Y133.345 E0.01045
G1 X183.527 Y133.536 E0.01045
G1 X183.763 Y133.771 E0.01045
G1 X183.954 Y134.044 E0.01045
G1 X184.095 Y134.346 E0.01045
G1 X184.181 Y134.668 E0.01045
G1 X184.210 Y135.000 E0.01045
G1 X184.181 Y135.332 E0.01045
G1 X184.095 Y135.654 E0.01045
G1 X183.954 Y135.956 E0.01045
G1 X183.763 Y136.229 E0.01045
G1 X183.527 Y136.464 E0.01045
G1 X183.254 Y136.655 E0.01045
G1 X182.952 Y136.796 E0.01045
G1 X182.630 Y136.883 E0.01045
G1 X182.299 Y136.912 E0.01045
G1 X181.967 Y136.883 E0.01045
G1 X181.645 Y136.796 E0.01045
G1 X181.343 Y136.655 E0.01045
G1 X181.070 Y136.464 E0.01045
G1 X180.834 Y136.229 E0.01045
G1 X180.643 Y135.956 E0.01045
G1 X180.502 Y135.654 E0.01045
G1 X180.416 Y135.332 E0.01045
G1 X180.387 Y135.000 E0.01045
G1 X180.416 Y134.668 E0.01045
G1 X180.480 Y134.430 E0.00772
G1 X180.261 Y134.099 F10800.000
;WIPE_START
G1 F8640.000
G1 X180.643 Y134.044 E-0.09679
G1 X180.834 Y133.771 E-0.07694
G1 X181.070 Y133.536 E-0.07694
G1 X181.343 Y133.345 E-0.07694
G1 X181.645 Y133.204 E-0.07694
G1 X181.967 Y133.117 E-0.07694
G1 X182.266 Y133.091 E-0.06948
G1 X182.629 Y133.117 E-0.08390
G1 X182.952 Y133.204 E-0.07734
G1 X183.254 Y133.345 E-0.07694
G1 X183.527 Y133.536 E-0.07694
G1 X183.763 Y133.771 E-0.07694
G1 X183.954 Y134.044 E-0.07694
G1 X184.095 Y134.346 E-0.07694
G1 X184.181 Y134.668 E-0.07694
G1 X184.210 Y135.000 E-0.07694
G1 X184.181 Y135.332 E-0.07694
G1 X184.178 Y135.342 E-0.00229
;WIPE_END
G1 E-0.07000 F2100.000
G1 Z0.400 F10800.000
G1 X173.511 Y130.787
G1 Z0.200
G1 E1.40000 F2100.000
;TYPE:Perimeter
G1 F1200.000
G1 X182.277 Y130.787 E0.27484
G1 X182.754 Y130.813 E0.01497
G1 X183.204 Y130.887 E0.01430
G1 X183.643 Y131.009 E0.01430
G1 X184.067 Y131.178 E0.01430
G1 X184.470 Y131.391 E0.01430
G1 X184.847 Y131.647 E0.01430
G1 X185.195 Y131.942 E0.01430
G1 X185.509 Y132.273 E0.01430
G1 X185.785 Y132.636 E0.01430
G1 X186.020 Y133.027 E0.01430
G1 X186.211 Y133.441 E0.01430
G1 X186.357 Y133.873 E0.01430
G1 X186.455 Y134.319 E0.01430
G1 X186.504 Y134.772 E0.01430
G1 X186.504 Y135.228 E0.01430
G1 X186.455 Y135.681 E0.01430
G1 X186.357 Y136.127 E0.01430
G1 X186.211 Y136.559 E0.01430
G1 X186.020 Y136.973 E0.01430
G1 X185.785 Y137.364 E0.01430
G1 X185.509 Y137.727 E0.01430
G1 X185.195 Y138.058 E0.01430
G1 X184.847 Y138.353 E0.01430
G1 X184.470 Y138.609 E0.01430
G1 X184.067 Y138.822 E0.01430
G1 X183.643 Y138.991 E0.01430
G1 X183.204 Y139.113 E0.01430
G1 X182.754 Y139.187 E0.01430
G1 X182.277 Y139.213 E0.01497
G1 X172.426 Y139.213 E0.30887
G1 X67.724 Y104.312 E3.46045
G1 X63.927 Y100.515 E0.16835
G1 X68.341 Y91.687 E0.30948
G1 X132.997 Y91.687 E2.02725
G1 X152.997 Y71.687 E0.88683
G1 X173.511 Y71.687 E0.64321
G1 X173.511 Y130.727 E1.85116
G1 X173.889 Y130.410 F10800.000
;TYPE:External perimeter
G1 F1200.000
G1 X182.287 Y130.410 E0.26334
G1 X182.795 Y130.438 E0.01593
G1 X183.285 Y130.518 E0.01558
G1 X183.764 Y130.651 E0.01558
G1 X184.226 Y130.835 E0.01558
G1 X184.665 Y131.068 E0.01558
G1 X185.076 Y131.346 E0.01558
G1 X185.455 Y131.668 E0.01558
G1 X185.796 Y132.029 E0.01558
G1 X186.097 Y132.424 E0.01558
G1 X186.353 Y132.850 E0.01558
G1 X186.562 Y133.301 E0.01558
G1 X186.721 Y133.772 E0.01558
G1 X186.827 Y134.258 E0.01558
G1 X186.881 Y134.752 E0.01558
G1 X186.881 Y135.248 E0.01558
G1 X186.827 Y135.742 E0.01558
G1 X186.721 Y136.228 E0.01558
G1 X186.562 Y136.699 E0.01558
G1 X186.353 Y137.150 E0.01558
G1 X186.097 Y137.576 E0.01558
G1 X185.796 Y137.971 E0.01558
G1 X185.455 Y138.332 E0.01558
G1 X185.076 Y138.654 E0.01558
G1 X184.665 Y138.932 E0.01558
G1 X184.226 Y139.165 E0.01558
G1 X183.764 Y139.349 E0.01558
G1 X183.285 Y139.482 E0.01558
G1 X182.795 Y139.562 E0.01558
G1 X182.287 Y139.590 E0.01593
G1 X172.365 Y139.590 E0.31111
G1 X67.520 Y104.642 E3.46516
G1 X63.468 Y100.590 E0.17966
G1 X68.108 Y91.310 E0.32531
G1 X132.841 Y91.310 E2.02966
G1 X152.841 Y71.310 E0.88683
G1 X173.889 Y71.310 E0.65993
G1 X173.889 Y130.350 E1.85116
G1 X173.934 Y130.807 F10800.000
;WIPE_START
G1 F8640.000
G1 X179.648 Y130.391 E-1.33000
;WIPE_END
G1 E-0.07000 F2100.000
G1 Z0.400 F10800.000
G1 X180.145 Y136.047
G1 Z0.200
G1 E1.40000 F2100.000
;TYPE:Solid infill
;WIDTH:0.421389
G1 F1200.000
G1 X175.168 Y131.070 E0.22149
G1 X175.703 Y131.070 E0.01684
G1 X179.733 Y135.100 E0.17937
G1 X179.725 Y135.000 E0.00316
G1 X179.760 Y134.592 E0.01289
G1 X176.238 Y131.070 E0.15675
G1 X176.773 Y131.070 E0.01684
G1 X179.868 Y134.164 E0.13771
G1 X180.032 Y133.793 E0.01277
G1 X177.309 Y131.070 E0.12120
G1 X177.844 Y131.070 E0.01684
G1 X180.241 Y133.467 E0.10670
G1 X180.327 Y133.345 E0.00468
G1 X180.491 Y133.181 E0.00730
G1 X178.379 Y131.070 E0.09398
G1 X178.914 Y131.070 E0.01684
G1 X180.779 Y132.934 E0.08296
G1 X181.012 Y132.771 E0.00895
G1 X181.106 Y132.727 E0.00329
G1 X179.450 Y131.070 E0.07373
G1 X179.985 Y131.070 E0.01684
G1 X181.480 Y132.565 E0.06653
G1 X181.910 Y132.460 E0.01394
G1 X180.520 Y131.070 E0.06187
G1 X181.055 Y131.070 E0.01684
G1 X182.610 Y132.624 E0.06918
;WIPE_START
G1 F8640.000
G1 X181.055 Y131.070 E-0.50757
G1 X180.520 Y131.070 E-0.12359
G1 X181.910 Y132.460 E-0.45394
G1 X181.480 Y132.565 E-0.10230
G1 X181.043 Y132.128 E-0.14260
;WIPE_END
G1 E-0.07000 F2100.000
G1 Z0.400 F10800.000
G1 X183.891 Y131.229
G1 Z0.200
G1 E1.40000 F2100.000
G1 F1200.000
G1 X185.691 Y133.029 E0.08011
G1 X185.948 Y133.546 E0.01817
G1 X186.086 Y133.960 E0.01373
G1 X183.346 Y131.220 E0.12195
G1 X183.143 Y131.163 E0.00663
G1 X182.684 Y131.092 E0.01463
G1 X186.202 Y134.611 E0.15660
G1 X186.221 Y134.787 E0.00558
G1 X186.221 Y135.165 E0.01190
G1 X182.126 Y131.070 E0.18227
G1 X181.591 Y131.070 E0.01684
G1 X183.074 Y132.553 E0.06601
G1 X183.179 Y132.581 E0.00342
G1 X183.585 Y132.771 E0.01412
G1 X183.953 Y133.028 E0.01412
G1 X184.270 Y133.345 E0.01412
G1 X184.528 Y133.713 E0.01412
G1 X184.717 Y134.120 E0.01412
G1 X184.745 Y134.225 E0.00342
G1 X186.172 Y135.651 E0.06349
G1 X186.072 Y136.086 E0.01405
G1 X184.862 Y134.876 E0.05386
G1 X184.872 Y135.000 E0.00391
G1 X184.839 Y135.388 E0.01226
G1 X185.934 Y136.484 E0.04876
G1 X185.764 Y136.849 E0.01268
G1 X184.734 Y135.819 E0.04585
G1 X184.572 Y136.192 E0.01281
G1 X185.563 Y137.183 E0.04411
G1 X185.334 Y137.489 E0.01203
G1 X184.365 Y136.520 E0.04314
G1 X184.270 Y136.655 E0.00517
G1 X184.117 Y136.808 E0.00682
G1 X185.079 Y137.769 E0.04279
G1 X184.798 Y138.024 E0.01192
G1 X183.831 Y137.057 E0.04303
G1 X183.505 Y137.266 E0.01219
G1 X184.491 Y138.253 E0.04389
G1 X184.158 Y138.454 E0.01227
G1 X183.134 Y137.431 E0.04555
G1 X182.707 Y137.538 E0.01388
G1 X183.795 Y138.626 E0.04843
G1 X183.553 Y138.723 E0.00820
G1 X183.399 Y138.766 E0.00503
G1 X182.198 Y137.565 E0.05343
G1 X181.852 Y137.535 E0.01096
G1 X181.553 Y137.455 E0.00974
G1 X182.964 Y138.866 E0.06281
G1 X182.723 Y138.906 E0.00768
G1 X182.481 Y138.919 E0.00763
G1 X174.633 Y131.070 E0.34931
G1 X174.097 Y131.070 E0.01684
G1 X181.958 Y138.930 E0.34982
G1 X181.422 Y138.930 E0.01684
G1 X133.788 Y91.296 E2.11996
G1 X134.056 Y91.028 E0.01191
G1 X173.229 Y130.201 E1.74339
M73 P0 R172
G1 X173.229 Y129.666 E0.01684
G1 X134.323 Y90.761 E1.73148
G1 X134.591 Y90.493 E0.01191
G1 X173.229 Y129.131 E1.71956
G1 X173.229 Y128.596 E0.01684
G1 X134.859 Y90.226 E1.70765
G1 X135.126 Y89.958 E0.01191
G1 X173.229 Y128.060 E1.69574
G1 X173.229 Y127.525 E0.01684
G1 X135.394 Y89.690 E1.68383
G1 X135.662 Y89.423 E0.01191
G1 X173.229 Y126.990 E1.67192
G1 X173.229 Y126.455 E0.01684
G1 X135.929 Y89.155 E1.66001
G1 X136.197 Y88.888 E0.01191
G1 X173.229 Y125.919 E1.64810
G1 X173.229 Y125.384 E0.01684
G1 X136.464 Y88.620 E1.63619
G1 X136.732 Y88.352 E0.01191
G1 X173.229 Y124.849 E1.62428
G1 X173.229 Y124.314 E0.01684
G1 X137.000 Y88.085 E1.61237
G1 X137.267 Y87.817 E0.01191
G1 X173.229 Y123.778 E1.60046
M73 P1 R172
G1 X173.229 Y123.243 E0.01684
G1 X137.535 Y87.549 E1.58855
G1 X137.803 Y87.282 E0.01191
G1 X173.229 Y122.708 E1.57664
G1 X173.229 Y122.173 E0.01684
G1 X138.070 Y87.014 E1.56473
G1 X138.338 Y86.747 E0.01191
G1 X173.229 Y121.637 E1.55282
G1 X173.229 Y121.102 E0.01684
G1 X138.605 Y86.479 E1.54091
G1 X138.873 Y86.211 E0.01191
G1 X173.229 Y120.567 E1.52900
G1 X173.229 Y120.032 E0.01684
G1 X139.141 Y85.944 E1.51709
G1 X139.408 Y85.676 E0.01191
G1 X173.229 Y119.496 E1.50518
G1 X173.229 Y118.961 E0.01684
G1 X139.676 Y85.408 E1.49327
G1 X139.943 Y85.141 E0.01191
G1 X173.229 Y118.426 E1.48136
G1 X173.229 Y117.891 E0.01684
G1 X140.211 Y84.873 E1.46945
M73 P1 R171
G1 X140.479 Y84.606 E0.01191
G1 X173.229 Y117.356 E1.45754
G1 X173.229 Y116.820 E0.01684
G1 X140.746 Y84.338 E1.44563
G1 X141.014 Y84.070 E0.01191
G1 X173.229 Y116.285 E1.43372
G1 X173.229 Y115.750 E0.01684
G1 X141.282 Y83.803 E1.42181
G1 X141.549 Y83.535 E0.01191
G1 X173.229 Y115.215 E1.40990
G1 X173.229 Y114.679 E0.01684
G1 X141.817 Y83.268 E1.39799
G1 X142.084 Y83.000 E0.01191
G1 X173.229 Y114.144 E1.38607
G1 X173.229 Y113.609 E0.01684
G1 X142.352 Y82.732 E1.37416
G1 X142.620 Y82.465 E0.01191
G1 X173.229 Y113.074 E1.36225
G1 X173.229 Y112.538 E0.01684
G1 X142.887 Y82.197 E1.35034
G1 X143.155 Y81.929 E0.01191
G1 X173.229 Y112.003 E1.33843
G1 X173.229 Y111.468 E0.01684
G1 X143.423 Y81.662 E1.32652
G1 X143.690 Y81.394 E0.01191
G1 X173.229 Y110.933 E1.31461
G1 X173.229 Y110.397 E0.01684
G1 X143.958 Y81.127 E1.30270
G1 X144.225 Y80.859 E0.01191
G1 X173.229 Y109.862 E1.29079
G1 X173.229 Y109.327 E0.01684
G1 X144.493 Y80.591 E1.27888
G1 X144.761 Y80.324 E0.01191
G1 X173.229 Y108.792 E1.26697
G1 X173.229 Y108.257 E0.01684
G1 X145.028 Y80.056 E1.25506
G1 X145.296 Y79.789 E0.01191
G1 X173.229 Y107.721 E1.24315
G1 X173.229 Y107.186 E0.01684
G1 X145.563 Y79.521 E1.23124
G1 X145.831 Y79.253 E0.01191
G1 X173.229 Y106.651 E1.21933
G1 X173.229 Y106.116 E0.01684
G1 X146.099 Y78.986 E1.20742
G1 X146.366 Y78.718 E0.01191
G1 X173.229 Y105.580 E1.19551
G1 X173.229 Y105.045 E0.01684
G1 X146.634 Y78.450 E1.18360
G1 X146.902 Y78.183 E0.01191
G1 X173.229 Y104.510 E1.17169
G1 X173.229 Y103.975 E0.01684
G1 X147.169 Y77.915 E1.15978
G1 X147.437 Y77.648 E0.01191
G1 X173.229 Y103.439 E1.14787
G1 X173.229 Y102.904 E0.01684
G1 X147.704 Y77.380 E1.13596
G1 X147.972 Y77.112 E0.01191
G1 X173.229 Y102.369 E1.12405
M73 P1 R170
G1 X173.229 Y101.834 E0.01684
G1 X148.240 Y76.845 E1.11214
G1 X148.507 Y76.577 E0.01191
G1 X173.229 Y101.298 E1.10023
G1 X173.229 Y100.763 E0.01684
G1 X148.775 Y76.309 E1.08832
G1 X149.042 Y76.042 E0.01191
G1 X173.229 Y100.228 E1.07641
G1 X173.229 Y99.693 E0.01684
G1 X149.310 Y75.774 E1.06450
G1 X149.578 Y75.507 E0.01191
G1 X173.229 Y99.158 E1.05258
G1 X173.229 Y98.622 E0.01684
G1 X149.845 Y75.239 E1.04067
G1 X150.113 Y74.971 E0.01191
G1 X173.229 Y98.087 E1.02876
G1 X173.229 Y97.552 E0.01684
G1 X150.381 Y74.704 E1.01685
M73 P2 R170
G1 X150.648 Y74.436 E0.01191
G1 X173.229 Y97.017 E1.00494
G1 X173.229 Y96.481 E0.01684
G1 X150.916 Y74.169 E0.99303
G1 X151.183 Y73.901 E0.01191
G1 X173.229 Y95.946 E0.98112
G1 X173.229 Y95.411 E0.01684
G1 X151.451 Y73.633 E0.96921
G1 X151.719 Y73.366 E0.01191
G1 X173.229 Y94.876 E0.95730
G1 X173.229 Y94.340 E0.01684
G1 X151.986 Y73.098 E0.94539
G1 X152.254 Y72.830 E0.01191
G1 X173.229 Y93.805 E0.93348
G1 X173.229 Y93.270 E0.01684
G1 X152.522 Y72.563 E0.92157
G1 X152.789 Y72.295 E0.01191
G1 X173.229 Y92.735 E0.90966
G1 X173.229 Y92.199 E0.01684
G1 X153.057 Y72.028 E0.89775
G1 X153.114 Y71.970 E0.00257
G1 X153.534 Y71.970 E0.01321
G1 X173.229 Y91.664 E0.87650
G1 X173.229 Y91.129 E0.01684
G1 X154.070 Y71.970 E0.85268
G1 X154.605 Y71.970 E0.01684
G1 X173.229 Y90.594 E0.82886
G1 X173.229 Y90.059 E0.01684
G1 X155.140 Y71.970 E0.80504
G1 X155.675 Y71.970 E0.01684
G1 X173.229 Y89.523 E0.78121
G1 X173.229 Y88.988 E0.01684
G1 X156.210 Y71.970 E0.75739
G1 X156.746 Y71.970 E0.01684
G1 X173.229 Y88.453 E0.73357
G1 X173.229 Y87.918 E0.01684
G1 X157.281 Y71.970 E0.70975
G1 X157.816 Y71.970 E0.01684
G1 X173.229 Y87.382 E0.68593
G1 X173.229 Y86.847 E0.01684
G1 X158.351 Y71.970 E0.66211
G1 X158.887 Y71.970 E0.01684
G1 X173.229 Y86.312 E0.63829
G1 X173.229 Y85.777 E0.01684
G1 X159.422 Y71.970 E0.61447
G1 X159.957 Y71.970 E0.01684
