; generated by PrusaSlicer 2.9.2 on 2025-05-21 at 15:23:20 UTC


;
;

;
;
; 

; external perimeters extrusion width = 0.45mm
; perimeters extrusion width = 0.45mm
; infill extrusion width = 0.45mm
; solid infill extrusion width = 0.45mm
; top infill extrusion width = 0.40mm
; first layer extrusion width = 0.42mm

M73 P0 R21
M201 X9000 Y9000 Z500 E10000 ; sets maximum accelerations, mm/sec^2
M203 X500 Y500 Z12 E120 ; sets maximum feedrates, mm / sec
M204 S2000 T1500 ; sets acceleration (S) and retract acceleration (R), mm/sec^2
M205 X10.00 Y10.00 Z0.20 E4.50 ; sets the jerk limits, mm/sec
M205 S0 T0 ; sets the minimum extruding and travel feed rate, mm/sec

; printing object parametric-hose-adapter-D15-D8-2-20-5-0.stl id:0 copy 0
; stop printing object parametric-hose-adapter-D15-D8-2-20-5-0.stl id:0 copy 0

;TYPE:Custom
M83  ; extruder relative mode
M140 S85 ; set bed temp
M109 S160 ; Set extruder temp before bed level
M190 S85 ; wait for bed temp

G28 W ; home all without mesh bed level
G80 N7 ; mesh bed leveling

M109 S250 ; wait for extruder temp

M221 S100 ; Set flow to 100

G1 Y-3.0 F1000.0 ; go outside print area
G92 E0.0
G1 E8 ; Purge Bubble
G1 X60.0 E9.0 F1000.0 ; intro line
G1 X100.0 E12.5 F1000.0 ; intro line
M73 P0 R20
G92 E0.0
G21 ; set units to millimeters
G90 ; use absolute coordinates
M83 ; use relative distances for extrusion

M900 K0.08 ; Filament gcode LA 1.5
M900 K45 ; Filament gcode LA 1.0




M107
;LAYER_CHANGE
;Z:0.2
;HEIGHT:0.2
G1 E-1 F2100
G1 Z.4 F720
G1 X112.518 Y94.572 F6000
G1 Z.2 F720
G1 E1 F2100
M204 S800
;TYPE:Skirt/Brim
;WIDTH:0.42
G1 F1200
G1 X113.752 Y93.253 E.05663
G1 X114.755 Y92.368 E.04194
G1 X116.219 Y91.31 E.05663
G1 X117.304 Y90.673 E.03945
G1 X118.94 Y89.907 E.05664
G1 X120.465 Y89.385 E.05054
G1 X122.03 Y89.009 E.05047
G1 X123.821 Y88.779 E.05662
G1 X125.079 Y88.736 E.03947
G1 X126.882 Y88.845 E.05664
G1 X128.125 Y89.039 E.03945
G1 X129.875 Y89.484 E.05662
G1 X131.134 Y89.937 E.04195
G1 X132.766 Y90.71 E.05662
G1 X134.137 Y91.55 E.05041
G1 X135.428 Y92.518 E.05059
G1 X136.747 Y93.752 E.05663
G1 X137.632 Y94.755 E.04194
G1 X138.69 Y96.219 E.05663
G1 X139.328 Y97.304 E.03946
G1 X140.093 Y98.94 E.05663
G1 X140.516 Y100.125 E.03945
G1 X140.961 Y101.875 E.05662
G1 X141.188 Y103.467 E.05042
G1 X141.264 Y105.079 E.0506
G1 X141.155 Y106.881 E.0566
G1 X140.961 Y108.125 E.03948
G1 X140.516 Y109.875 E.05662
G1 X140.063 Y111.134 E.04195
G1 X139.29 Y112.766 E.05662
G1 X138.45 Y114.137 E.05041
G1 X137.482 Y115.428 E.05059
G1 X136.248 Y116.747 E.05663
G1 X135.245 Y117.632 E.04194
G1 X133.781 Y118.69 E.05663
G1 X132.696 Y119.328 E.03946
G1 X131.06 Y120.093 E.05663
G1 X129.536 Y120.614 E.0505
G1 X127.97 Y120.991 E.0505
G1 X126.179 Y121.221 E.05662
G1 X124.921 Y121.264 E.03947
G1 X123.118 Y121.155 E.05664
G1 X121.875 Y120.961 E.03945
G1 X120.125 Y120.516 E.05662
G1 X118.866 Y120.063 E.04195
G1 X117.234 Y119.29 E.05662
G1 X115.863 Y118.45 E.05041
G1 X114.572 Y117.482 E.05059
G1 X113.253 Y116.248 E.05663
G1 X112.368 Y115.245 E.04194
G1 X111.31 Y113.781 E.05663
G1 X110.673 Y112.696 E.03945
G1 X109.907 Y111.061 E.05661
G1 X109.484 Y109.875 E.03948
G1 X109.039 Y108.125 E.05662
G1 X108.812 Y106.533 E.05042
G1 X108.736 Y104.921 E.0506
G1 X108.845 Y103.119 E.0566
G1 X109.039 Y101.875 E.03948
G1 X109.484 Y100.125 E.05662
G1 X109.937 Y98.866 E.04195
M73 P1 R20
G1 X110.709 Y97.234 E.05661
G1 X111.55 Y95.863 E.05043
G1 X112.482 Y94.62 E.04871
M204 S1000
G1 X112.784 Y94.846 F6000
M204 S800
G1 F1200
G1 X112.809 Y94.813 E.0013
G1 X114.018 Y93.52 E.0555
G1 X114.987 Y92.666 E.0405
G1 X116.421 Y91.628 E.05551
G1 X117.475 Y91.008 E.03834
G1 X119.078 Y90.258 E.05549
G1 X120.568 Y89.748 E.04938
G1 X122.1 Y89.38 E.0494
G1 X123.856 Y89.154 E.05551
G1 X125.079 Y89.113 E.03837
G1 X126.846 Y89.221 E.05551
G1 X128.054 Y89.409 E.03833
G1 X129.77 Y89.846 E.05552
G1 X130.984 Y90.283 E.04046
G1 X132.585 Y91.04 E.05553
G1 X133.927 Y91.863 E.04936
G1 X135.188 Y92.809 E.04943
G1 X136.48 Y94.019 E.0555
G1 X137.334 Y94.987 E.04047
G1 X138.372 Y96.421 E.05551
G1 X138.992 Y97.475 E.03834
G1 X139.742 Y99.078 E.05549
G1 X140.252 Y100.566 E.04932
G1 X140.62 Y102.1 E.04946
G1 X140.846 Y103.856 E.05551
G1 X140.887 Y105.079 E.03837
G1 X140.779 Y106.846 E.05551
G1 X140.591 Y108.054 E.03833
G1 X140.154 Y109.769 E.05549
G1 X139.717 Y110.984 E.04048
G1 X138.96 Y112.585 E.05553
G1 X138.138 Y113.925 E.04929
G1 X137.191 Y115.188 E.0495
G1 X135.981 Y116.48 E.0555
G1 X135.013 Y117.334 E.04047
G1 X133.579 Y118.372 E.05551
G1 X132.525 Y118.992 E.03834
G1 X130.922 Y119.742 E.05549
G1 X129.434 Y120.252 E.04932
G1 X127.9 Y120.62 E.04946
G1 X126.144 Y120.846 E.05551
G1 X124.921 Y120.887 E.03837
G1 X123.154 Y120.779 E.05551
G1 X121.946 Y120.591 E.03833
G1 X120.23 Y120.154 E.05552
G1 X119.016 Y119.717 E.04046
G1 X117.415 Y118.96 E.05553
G1 X116.075 Y118.138 E.04929
G1 X114.812 Y117.191 E.0495
G1 X113.52 Y115.981 E.0555
G1 X112.666 Y115.013 E.04047
G1 X111.628 Y113.579 E.05551
G1 X111.008 Y112.525 E.03834
G1 X110.258 Y110.922 E.05549
G1 X109.846 Y109.77 E.03836
G1 X109.409 Y108.054 E.05552
G1 X109.188 Y106.497 E.04931
G1 X109.113 Y104.921 E.04947
G1 X109.221 Y103.155 E.05548
G1 X109.409 Y101.946 E.03836
G1 X109.846 Y100.231 E.05549
G1 X110.283 Y99.016 E.04048
G1 X111.04 Y97.416 E.0555
G1 X111.863 Y96.073 E.04939
G1 X112.748 Y94.894 E.04622
M204 S1000
;WIPE_START
G1 F4800
G1 X112.784 Y94.846 E-.02494
G1 X112.809 Y94.813 E-.01721
G1 X114.018 Y93.52 E-.73573
G1 X114.419 Y93.167 E-.22212
;WIPE_END
G1 Z.4 F720
G1 X114.673 Y96.47 F6000
G1 Z.2 F720
G1 E1 F2100
M204 S800
G1 F1200
G1 X115.016 Y96.051 E.01698
G1 X115.929 Y95.121 E.04086
G1 X116.884 Y94.327 E.03894
G1 X117.938 Y93.598 E.04018
G1 X119.028 Y92.995 E.03906
G1 X120.203 Y92.475 E.04029
G1 X121.363 Y92.095 E.03827
G1 X122.551 Y91.813 E.03828
G1 X124.097 Y91.618 E.04886
G1 X125.54 Y91.603 E.04525
G1 X126.746 Y91.701 E.03794
G1 X128.272 Y91.993 E.04871
G1 X129.472 Y92.36 E.03935
G1 X130.628 Y92.826 E.03908
G1 X131.794 Y93.441 E.04133
G1 X132.907 Y94.167 E.04167
G1 X133.934 Y95.002 E.0415
G1 X134.879 Y95.928 E.04148
G1 X135.658 Y96.865 E.03821
G1 X136.359 Y97.868 E.03837
G1 X137.109 Y99.232 E.04881
G1 X137.612 Y100.45 E.04132
G1 X138.007 Y101.726 E.04188
G1 X138.299 Y103.254 E.04878
G1 X138.398 Y104.473 E.03835
G1 X138.394 Y105.693 E.03825
G1 X138.256 Y107.009 E.04149
G1 X137.998 Y108.307 E.04149
G1 X137.603 Y109.575 E.04164
G1 X137.096 Y110.793 E.04137
G1 X136.503 Y111.888 E.03904
G1 X135.812 Y112.937 E.03939
G1 X134.822 Y114.134 E.0487
G1 X133.954 Y114.981 E.03803
G1 X132.834 Y115.887 E.04517
G1 X131.519 Y116.722 E.04884
G1 X130.437 Y117.256 E.03783
G1 X129.288 Y117.708 E.03871
G1 X128.051 Y118.056 E.04029
G1 X126.831 Y118.286 E.03893
G1 X125.551 Y118.396 E.04028
G1 X124.308 Y118.394 E.03897
G1 X122.99 Y118.256 E.04155
G1 X121.695 Y117.998 E.0414
G1 X120.424 Y117.603 E.04173
G1 X119.207 Y117.096 E.04134
G1 X118.112 Y116.503 E.03904
G1 X117.063 Y115.813 E.03937
G1 X115.866 Y114.822 E.04872
G1 X115.021 Y113.955 E.03796
G1 X114.113 Y112.834 E.04523
G1 X113.278 Y111.519 E.04884
G1 X112.744 Y110.438 E.0378
G1 X112.292 Y109.288 E.03874
G1 X111.944 Y108.051 E.04029
G1 X111.714 Y106.831 E.03893
G1 X111.604 Y105.551 E.04028
G1 X111.606 Y104.308 E.03897
G1 X111.741 Y103.011 E.04089
G1 X111.994 Y101.726 E.04106
G1 X112.374 Y100.488 E.0406
G1 X112.868 Y99.282 E.04086
G1 X113.484 Y98.134 E.04085
G1 X114.197 Y97.052 E.04063
G1 X114.635 Y96.516 E.0217
M204 S1000
G1 X114.927 Y96.754 F6000
M204 S800
G1 F1200
G1 X115.291 Y96.309 E.01803
G1 X116.178 Y95.404 E.03973
G1 X117.106 Y94.632 E.03785
G1 X118.129 Y93.923 E.03903
G1 X119.189 Y93.337 E.03798
G1 X120.33 Y92.83 E.03915
G1 X122.616 Y92.184 E.07448
G1 X124.125 Y91.994 E.04769
G1 X125.518 Y91.979 E.04368
G1 X126.693 Y92.075 E.03696
G1 X128.184 Y92.359 E.04759
G1 X129.339 Y92.713 E.03788
G1 X130.461 Y93.164 E.03792
G1 X131.596 Y93.762 E.04022
G1 X132.677 Y94.466 E.04045
G1 X133.676 Y95.278 E.04036
G1 X134.595 Y96.177 E.04031
G1 X136.038 Y98.066 E.07453
G1 X136.77 Y99.397 E.04763
G1 X137.26 Y100.586 E.04032
G1 X137.64 Y101.814 E.0403
G1 X137.925 Y103.307 E.04766
G1 X138.017 Y105.682 E.07452
G1 X137.882 Y106.961 E.04032
G1 X137.63 Y108.223 E.04035
G1 X137.246 Y109.455 E.04046
G1 X136.752 Y110.639 E.04023
G1 X136.175 Y111.701 E.0379
G1 X135.51 Y112.711 E.03792
G1 X134.543 Y113.88 E.04757
G1 X133.697 Y114.704 E.03703
G1 X132.616 Y115.579 E.04361
G1 X131.332 Y116.394 E.04768
G1 X129.159 Y117.354 E.07449
G1 X127.957 Y117.691 E.03914
G1 X126.77 Y117.914 E.03787
G1 X125.527 Y118.02 E.03911
G1 X124.318 Y118.017 E.03791
G1 X123.039 Y117.882 E.04032
G1 X121.778 Y117.63 E.04032
M73 P2 R20
G1 X120.545 Y117.245 E.0405
G1 X119.361 Y116.752 E.04021
G1 X118.299 Y116.175 E.0379
G1 X117.289 Y115.511 E.0379
G1 X116.12 Y114.543 E.04759
G1 X115.297 Y113.698 E.03698
G1 X114.421 Y112.617 E.04363
G1 X113.606 Y111.333 E.04768
G1 X112.646 Y109.159 E.07451
G1 X112.309 Y107.957 E.03914
G1 X112.086 Y106.77 E.03787
G1 X111.98 Y105.527 E.03911
G1 X111.983 Y104.319 E.03788
G1 X112.115 Y103.059 E.03972
G1 X112.357 Y101.827 E.03937
G1 X112.727 Y100.622 E.03952
G1 X113.205 Y99.451 E.03966
G1 X113.804 Y98.334 E.03974
G1 X114.495 Y97.283 E.03944
G1 X114.889 Y96.801 E.01952
M204 S1000
G1 X115.181 Y97.039 F6000
M204 S800
G1 F1200
G1 X115.567 Y96.566 E.01914
G1 X116.426 Y95.688 E.03851
G1 X117.328 Y94.937 E.0368
G1 X118.32 Y94.248 E.03787
G1 X119.35 Y93.678 E.03691
G1 X120.457 Y93.186 E.03798
G1 X121.568 Y92.821 E.03667
G1 X122.681 Y92.556 E.03587
G1 X124.154 Y92.37 E.04655
G1 X125.497 Y92.356 E.04211
G1 X126.641 Y92.448 E.03599
G1 X128.095 Y92.726 E.04641
G1 X129.206 Y93.066 E.03643
G1 X130.294 Y93.503 E.03676
G1 X131.398 Y94.083 E.0391
G1 X132.447 Y94.765 E.03923
G1 X133.419 Y95.554 E.03925
G1 X134.312 Y96.426 E.03913
G1 X135.059 Y97.323 E.0366
G1 X135.717 Y98.263 E.03598
G1 X136.431 Y99.562 E.04648
G1 X136.903 Y100.706 E.0388
G1 X137.274 Y101.903 E.03929
G1 X137.552 Y103.359 E.04648
G1 X137.644 Y104.502 E.03595
G1 X137.64 Y105.671 E.03665
G1 X137.508 Y106.912 E.03913
G1 X137.262 Y108.139 E.03924
G1 X136.888 Y109.334 E.03926
G1 X136.408 Y110.484 E.03907
G1 X135.848 Y111.514 E.03676
G1 X135.209 Y112.485 E.03645
G1 X134.265 Y113.626 E.04643
G1 X133.44 Y114.428 E.03608
G1 X132.399 Y115.271 E.042
G1 X131.146 Y116.066 E.04653
G1 X130.118 Y116.573 E.03594
G1 X129.03 Y116.999 E.03664
G1 X127.864 Y117.325 E.03796
G1 X126.71 Y117.542 E.03682
G1 X125.503 Y117.644 E.03798
G1 X124.329 Y117.64 E.03681
G1 X123.087 Y117.508 E.03916
G1 X121.862 Y117.263 E.03917
G1 X120.666 Y116.888 E.0393
G1 X119.516 Y116.408 E.03907
G1 X118.486 Y115.848 E.03676
G1 X117.515 Y115.209 E.03645
G1 X116.375 Y114.265 E.04641
G1 X115.573 Y113.441 E.03605
G1 X114.729 Y112.399 E.04204
G1 X113.934 Y111.146 E.04653
G1 X113.428 Y110.119 E.0359
G1 X113.001 Y109.03 E.03668
G1 X112.675 Y107.864 E.03796
G1 X112.458 Y106.71 E.03682
G1 X112.356 Y105.503 E.03798
G1 X112.36 Y104.33 E.03678
G1 X112.489 Y103.107 E.03856
G1 X112.725 Y101.91 E.03825
G1 X113.084 Y100.741 E.03834
G1 X113.55 Y99.603 E.03856
G1 X114.123 Y98.534 E.03803
G1 X114.793 Y97.514 E.03826
G1 X115.143 Y97.085 E.01736
M204 S1000
G1 X115.435 Y97.324 F6000
M204 S800
G1 F1200
G1 X115.842 Y96.824 E.02021
G1 X116.675 Y95.971 E.03738
G1 X117.55 Y95.242 E.03571
G1 X118.512 Y94.573 E.03674
G1 X119.511 Y94.019 E.03582
G1 X120.584 Y93.541 E.03683
G1 X122.747 Y92.927 E.0705
G1 X124.182 Y92.746 E.04535
G1 X125.475 Y92.732 E.04054
G1 X126.588 Y92.822 E.03501
G1 X128.007 Y93.092 E.04529
G1 X130.128 Y93.841 E.07053
G1 X131.2 Y94.404 E.03797
G1 X132.218 Y95.064 E.03804
G1 X133.162 Y95.83 E.03812
G1 X134.028 Y96.675 E.03794
G1 X135.396 Y98.461 E.07054
G1 X136.092 Y99.727 E.0453
G1 X136.551 Y100.841 E.03778
G1 X136.907 Y101.992 E.03778
G1 X137.178 Y103.412 E.04533
G1 X137.263 Y105.659 E.0705
G1 X137.134 Y106.863 E.03797
G1 X136.895 Y108.055 E.03812
G1 X136.531 Y109.212 E.03803
G1 X136.064 Y110.33 E.03799
G1 X134.907 Y112.259 E.07053
G1 X133.986 Y113.371 E.04527
G1 X133.183 Y114.152 E.03512
G1 X132.181 Y114.963 E.04042
G1 X130.96 Y115.738 E.04534
G1 X128.902 Y116.644 E.0705
G1 X127.77 Y116.96 E.03685
G1 X126.651 Y117.169 E.03569
G1 X125.48 Y117.267 E.03684
G1 X124.341 Y117.263 E.03571
G1 X123.136 Y117.134 E.038
G1 X121.947 Y116.895 E.03803
G1 X120.787 Y116.531 E.03812
G1 X119.67 Y116.064 E.03796
G1 X117.741 Y114.907 E.07053
G1 X116.629 Y113.986 E.04527
G1 X115.849 Y113.184 E.03508
G1 X115.037 Y112.181 E.04046
G1 X114.262 Y110.96 E.04534
G1 X113.356 Y108.902 E.0705
G1 X113.04 Y107.771 E.03682
G1 X112.831 Y106.651 E.03572
G1 X112.733 Y105.48 E.03684
G1 X112.737 Y104.341 E.03571
G1 X112.863 Y103.155 E.0374
G1 X113.089 Y102.011 E.03656
G1 X113.437 Y100.876 E.03722
G1 X113.888 Y99.772 E.03739
G1 X114.443 Y98.733 E.03693
G1 X115.092 Y97.744 E.03709
G1 X115.397 Y97.37 E.01513
M204 S1000
G1 X115.689 Y97.608 F6000
M204 S800
G1 F1200
G1 X116.118 Y97.081 E.02131
G1 X116.924 Y96.255 E.03619
G1 X117.773 Y95.547 E.03466
G1 X118.703 Y94.898 E.03556
G1 X119.672 Y94.36 E.03475
G1 X120.711 Y93.896 E.03568
G1 X121.759 Y93.55 E.0346
G1 X122.813 Y93.299 E.03397
G1 X124.21 Y93.122 E.04415
G1 X125.454 Y93.109 E.03901
G1 X126.536 Y93.195 E.03403
G1 X127.918 Y93.459 E.04412
G1 X128.955 Y93.777 E.03401
G1 X129.978 Y94.187 E.03456
G1 X131.017 Y94.734 E.03682
G1 X132.004 Y95.375 E.0369
G1 X132.905 Y96.106 E.03638
G1 X133.745 Y96.924 E.03676
G1 X134.45 Y97.769 E.0345
G1 X135.074 Y98.659 E.03408
G1 X135.753 Y99.892 E.04413
G1 X136.193 Y100.961 E.03625
G1 X136.541 Y102.081 E.03677
G1 X136.805 Y103.464 E.04415
G1 X136.891 Y104.546 E.03403
G1 X136.886 Y105.648 E.03455
G1 X136.76 Y106.814 E.03677
G1 X136.532 Y107.951 E.03636
G1 X136.18 Y109.075 E.03693
G1 X135.728 Y110.158 E.0368
G1 X135.201 Y111.126 E.03456
G1 X134.605 Y112.033 E.03403
G1 X133.708 Y113.117 E.04412
G1 X132.927 Y113.875 E.03412
G1 X131.963 Y114.656 E.0389
G1 X130.773 Y115.41 E.04417
G1 X129.799 Y115.889 E.03403
G1 X128.773 Y116.29 E.03454
G1 X127.678 Y116.594 E.03563
G1 X126.591 Y116.797 E.03467
G1 X125.458 Y116.891 E.03565
G1 X124.352 Y116.886 E.03468
G1 X123.185 Y116.76 E.0368
G1 X122.05 Y116.532 E.0363
G1 X120.924 Y116.18 E.03699
G1 X119.842 Y115.728 E.03677
G1 X118.874 Y115.201 E.03456
G1 X117.967 Y114.605 E.03403
G1 X116.883 Y113.708 E.04412
G1 X116.126 Y112.928 E.03408
G1 X115.345 Y111.963 E.03892
G1 X114.59 Y110.774 E.04416
G1 X114.112 Y109.801 E.03399
G1 X113.71 Y108.773 E.03461
G1 X113.406 Y107.678 E.03563
G1 X113.203 Y106.591 E.03467
G1 X113.109 Y105.458 E.03565
G1 X113.114 Y104.352 E.03468
M73 P3 R20
G1 X113.237 Y103.203 E.03623
G1 X113.457 Y102.094 E.03545
G1 X113.795 Y100.995 E.03605
G1 X114.225 Y99.941 E.03569
G1 X114.764 Y98.933 E.03584
G1 X115.391 Y97.975 E.0359
G1 X115.651 Y97.654 E.01295
M204 S1000
G1 X115.945 Y97.916 F6000
M204 S800
G1 F1200
G1 X117.174 Y96.538 E.05789
G1 X118.895 Y95.223 E.06791
G1 X120.839 Y94.251 E.06815
G1 X122.878 Y93.67 E.06648
G1 X124.239 Y93.498 E.04301
G1 X125.432 Y93.486 E.03741
G1 X126.484 Y93.569 E.03309
G1 X127.829 Y93.826 E.04293
G1 X129.828 Y94.534 E.06649
G1 X130.833 Y95.063 E.03561
G1 X131.775 Y95.675 E.03522
G1 X132.648 Y96.382 E.03522
G1 X133.462 Y97.174 E.03561
G1 X134.753 Y98.856 E.06648
G1 X135.414 Y100.057 E.04298
G1 X135.841 Y101.097 E.03525
G1 X136.174 Y102.17 E.03523
G1 X136.431 Y103.517 E.043
G1 X136.509 Y105.636 E.06648
G1 X136.386 Y106.765 E.03561
G1 X136.164 Y107.867 E.03525
G1 X135.829 Y108.938 E.03518
G1 X135.392 Y109.987 E.03563
G1 X134.302 Y111.807 E.06652
G1 X133.429 Y112.862 E.04294
G1 X132.67 Y113.599 E.03317
G1 X131.745 Y114.348 E.03732
G1 X130.587 Y115.082 E.04299
G1 X128.645 Y115.935 E.0665
G1 X126.532 Y116.424 E.068
G1 X124.364 Y116.509 E.06803
G1 X123.234 Y116.386 E.03564
G1 X122.134 Y116.164 E.03519
G1 X121.061 Y115.828 E.03525
G1 X120.013 Y115.392 E.03559
G1 X118.193 Y114.303 E.0665
G1 X117.138 Y113.429 E.04296
G1 X116.403 Y112.672 E.03308
G1 X115.652 Y111.745 E.03741
G1 X114.918 Y110.587 E.04299
G1 X114.065 Y108.645 E.0665
G1 X113.576 Y106.532 E.068
G1 X113.491 Y104.364 E.06803
G1 X113.825 Y102.177 E.06937
G1 X114.57 Y100.093 E.06939
G1 X115.701 Y98.19 E.06941
