; generated by PrusaSlicer 2.9.4 on 2026-03-22 at 15:48:10 UTC


;
;

;
;
; 

; external perimeters extrusion width = 0.45mm
; perimeters extrusion width = 0.45mm
; infill extrusion width = 0.45mm
; solid infill extrusion width = 0.45mm
; top infill extrusion width = 0.40mm
; first layer extrusion width = 0.42mm

M73 P0 R202
M201 X9000 Y9000 Z500 E10000 ; sets maximum accelerations, mm/sec^2
M203 X500 Y500 Z12 E120 ; sets maximum feedrates, mm / sec
M204 S2000 T1500 ; sets acceleration (S) and retract acceleration (R), mm/sec^2
M205 X10.00 Y10.00 Z0.20 E4.50 ; sets the jerk limits, mm/sec
M205 S0 T0 ; sets the minimum extruding and travel feed rate, mm/sec

; printing object Spool-holder-R.stl id:0 copy 0
; stop printing object Spool-holder-R.stl id:0 copy 0

;TYPE:Custom
M83  ; extruder relative mode
M140 S85 ; set bed temp
M109 S160 ; Set extruder temp before bed level
M190 S85 ; wait for bed temp

G28 W ; home all without mesh bed level
G80 N7 ; mesh bed leveling

M109 S240 ; wait for extruder temp

M221 S100 ; Set flow to 100

G1 Y-3.0 F1000.0 ; go outside print area
G92 E0.0
G1 E8 ; Purge Bubble
G1 X60.0 E9.0 F1000.0 ; intro line
G1 X100.0 E12.5 F1000.0 ; intro line
G92 E0.0
G21 ; set units to millimeters
G90 ; use absolute coordinates
M83 ; use relative distances for extrusion

M900 K0.08 ; Filament gcode LA 1.5
M900 K45 ; Filament gcode LA 1.0




M107
;LAYER_CHANGE
;Z:0.2
;HEIGHT:0.2
G1 E-1 F2100
G1 Z.4 F720
G1 X55.202 Y53.199 F6000
G1 Z.2 F720
G1 E1 F2100
M204 S800
;TYPE:Skirt/Brim
;WIDTH:0.42
G1 F1200
G1 X56.235 Y52.397 E.041
G1 X57 Y52.259 E.02437
G1 X75.5 Y52.259 E.58005
G1 X76.834 Y52.713 E.04418
G1 X195.834 Y144.225 E4.70685
G1 X196.585 Y145.296 E.04101
G1 X196.689 Y145.96 E.02107
G1 X196.689 Y172.6 E.83528
G1 X196.298 Y173.848 E.04101
G1 X195.265 Y174.65 E.041
G1 X194.5 Y174.788 E.02437
G1 X190.376 Y174.785 E.12931
G1 X56.876 Y167.188 E4.19257
G1 X55.652 Y166.727 E.04101
G1 X54.811 Y165.003 E.06014
G1 X54.811 Y54.448 E3.46637
G1 X55.184 Y53.257 E.03913
M204 S1000
;WIPE_START
G1 F4800
G1 X55.202 Y53.199 E-.02524
G1 X56.235 Y52.397 E-.54355
G1 X57 Y52.259 E-.32309
G1 X57.26 Y52.259 E-.10812
;WIPE_END
G1 Z.4 F720
; printing object Spool-holder-R.stl id:0 copy 0
G1 X57.787 Y55.635 F6000
G1 Z.2 F720
G1 E1 F2100
M204 S800
;TYPE:Perimeter
;WIDTH:0.419999
G1 F1200
G1 X74.713 Y55.635 E.5307
G1 X74.713 Y154.584 E3.10247
G1 X74.817 Y154.843 E.00875
M73 P0 R201
G1 X75.005 Y155.011 E.00791
G1 X75.279 Y155.081 E.00887
G1 X190.835 Y155.081 E3.62317
G1 X191.061 Y154.968 E.00792
G1 X191.221 Y154.782 E.00769
G1 X191.287 Y154.516 E.00859
G1 X191.287 Y147.032 E.23466
G1 X193.713 Y147.032 E.07607
G1 X193.713 Y171.527 E.76802
G1 X191.287 Y171.527 E.07607
G1 X191.287 Y164.044 E.23462
G1 X191.221 Y163.778 E.00859
G1 X191.061 Y163.591 E.00772
G1 X190.88 Y163.501 E.00634
G1 X190.721 Y163.478 E.00504
G1 X57.787 Y163.478 E4.16805
G1 X57.787 Y55.695 E3.37945
M204 S1000
G1 X57.41 Y55.258 F6000
M204 S800
;TYPE:External perimeter
G1 F1200
G1 X75.09 Y55.258 E.55434
G1 X75.09 Y154.516 E3.11216
G1 X75.142 Y154.645 E.00436
G1 X75.279 Y154.704 E.00468
G1 X190.721 Y154.704 E3.6196
G1 X190.835 Y154.667 E.00376
G1 X190.91 Y154.516 E.00529
G1 X190.91 Y146.655 E.24648
G1 X194.09 Y146.655 E.09971
G1 X194.09 Y171.905 E.79169
G1 X190.91 Y171.905 E.09971
G1 X190.91 Y164.044 E.24648
G1 X190.835 Y163.893 E.00529
G1 X190.721 Y163.855 E.00377
G1 X57.41 Y163.855 E4.17987
G1 X57.41 Y55.318 E3.4031
M204 S1000
;WIPE_START
G1 F4800
G1 X57.41 Y55.258 E-.02494
G1 X59.756 Y55.258 E-.97506
;WIPE_END
G1 Z.4 F720
G1 X192.837 Y147.145 F6000
G1 Z.2 F720
G1 E1 F2100
M204 S800
;TYPE:Solid infill
;WIDTH:0.42003
G1 F1200
G1 X193.43 Y147.738 E.0263
G1 X193.43 Y148.271 E.01671
G1 X192.474 Y147.315 E.04239
G1 X191.941 Y147.315 E.01671
G1 X193.43 Y148.805 E.06605
G1 X193.43 Y149.338 E.01671
G1 X191.569 Y147.477 E.08253
G1 X191.569 Y148.01 E.01671
G1 X193.43 Y149.871 E.08253
G1 X193.43 Y150.405 E.01674
G1 X191.568 Y148.542 E.08259
G1 X191.567 Y149.075 E.01671
G1 X193.43 Y150.938 E.08262
G1 X193.43 Y151.471 E.01671
G1 X191.566 Y149.607 E.08266
G1 X191.565 Y150.14 E.01671
G1 X193.43 Y152.004 E.08268
G1 X193.43 Y152.538 E.01674
G1 X191.565 Y150.672 E.08273
G1 X191.564 Y151.205 E.01671
G1 X193.43 Y153.071 E.08275
G1 X193.43 Y153.604 E.01671
G1 X191.563 Y151.737 E.08279
G1 X191.562 Y152.27 E.01671
G1 X193.43 Y154.138 E.08284
G1 X193.43 Y154.671 E.01671
G1 X191.561 Y152.802 E.08288
G1 X191.561 Y153.335 E.01671
G1 X193.43 Y155.204 E.08288
G1 X193.43 Y155.738 E.01674
G1 X191.56 Y153.867 E.08295
G1 X191.559 Y154.4 E.01671
G1 X193.43 Y156.271 E.08297
G1 X193.43 Y156.804 E.01671
G1 X191.489 Y154.863 E.08607
G1 X191.47 Y154.918 E.00182
G1 X191.258 Y155.166 E.01023
G1 X193.43 Y157.338 E.09632
G1 X193.43 Y157.871 E.01671
G1 X190.899 Y155.34 E.11224
G1 X190.728 Y155.364 E.00541
G1 X190.39 Y155.364 E.0106
G1 X193.43 Y158.404 E.13481
G1 X193.43 Y158.938 E.01674
G1 X189.857 Y155.364 E.15847
G1 X189.323 Y155.364 E.01674
G1 X193.43 Y159.471 E.18213
G1 X193.43 Y160.004 E.01671
G1 X188.79 Y155.364 E.20576
G1 X188.257 Y155.364 E.01671
G1 X193.43 Y160.537 E.2294
G1 X193.43 Y161.071 E.01674
G1 X187.724 Y155.364 E.25306
G1 X187.19 Y155.364 E.01674
G1 X193.43 Y161.604 E.27671
G1 X193.43 Y162.137 E.01671
G1 X186.657 Y155.364 E.30035
G1 X186.124 Y155.364 E.01671
G1 X193.43 Y162.671 E.32401
G1 X193.43 Y163.204 E.01671
G1 X185.59 Y155.364 E.34767
G1 X185.057 Y155.364 E.01671
G1 X193.43 Y163.737 E.3713
G1 X193.43 Y164.271 E.01674
M73 P0 R200
G1 X184.524 Y155.364 E.39496
G1 X183.99 Y155.364 E.01674
G1 X193.43 Y164.804 E.41862
G1 X193.43 Y165.337 E.01671
G1 X183.457 Y155.364 E.44226
G1 X182.924 Y155.364 E.01671
G1 X190.759 Y163.2 E.34747
G1 X190.961 Y163.229 E.0064
G1 X191.233 Y163.365 E.00954
G1 X191.473 Y163.645 E.01156
G1 X191.563 Y164.003 E.01158
G1 X193.43 Y165.871 E.08281
G1 X193.43 Y166.404 E.01671
G1 X191.57 Y164.544 E.08248
G1 X191.57 Y165.077 E.01671
G1 X193.43 Y166.937 E.08248
G1 X193.43 Y167.471 E.01674
G1 X191.57 Y165.61 E.0825
G1 X191.57 Y166.144 E.01674
G1 X193.43 Y168.004 E.08248
G1 X193.43 Y168.537 E.01671
G1 X191.57 Y166.677 E.08248
G1 X191.57 Y167.21 E.01671
G1 X193.43 Y169.071 E.0825
G1 X193.43 Y169.604 E.01671
G1 X191.57 Y167.744 E.08248
G1 X191.57 Y168.277 E.01671
G1 X193.43 Y170.137 E.08248
G1 X193.43 Y170.67 E.01671
G1 X191.57 Y168.81 E.08248
G1 X191.57 Y169.344 E.01674
G1 X193.43 Y171.204 E.08248
G1 X193.43 Y171.245 E.00129
G1 X192.938 Y171.245 E.01543
G1 X191.57 Y169.877 E.06066
G1 X191.57 Y170.41 E.01671
G1 X192.404 Y171.245 E.03701
G1 X191.871 Y171.245 E.01671
G1 X191.4 Y170.774 E.02089
M204 S1000
;WIPE_START
G1 F4800
G1 X191.871 Y171.245 E-.27685
G1 X192.404 Y171.245 E-.22153
G1 X191.57 Y170.41 E-.4905
G1 X191.57 Y170.383 E-.01112
;WIPE_END
G1 Z.4 F720
G1 X190.391 Y163.365 F6000
G1 Z.2 F720
G1 E1 F2100
M204 S800
G1 F1200
G1 X182.39 Y155.364 E.35481
G1 X181.857 Y155.364 E.01671
G1 X189.688 Y163.195 E.34727
G1 X189.155 Y163.195 E.01671
G1 X181.324 Y155.364 E.34727
G1 X180.79 Y155.364 E.01674
G1 X188.622 Y163.195 E.34729
G1 X188.088 Y163.195 E.01674
G1 X180.257 Y155.364 E.34727
G1 X179.724 Y155.364 E.01671
G1 X187.555 Y163.195 E.34727
G1 X187.022 Y163.195 E.01671
G1 X179.191 Y155.364 E.34727
G1 X178.657 Y155.364 E.01674
G1 X186.488 Y163.195 E.34727
G1 X185.955 Y163.195 E.01671
G1 X178.124 Y155.364 E.34727
G1 X177.591 Y155.364 E.01671
G1 X185.422 Y163.195 E.34727
G1 X184.888 Y163.195 E.01674
G1 X177.057 Y155.364 E.34727
G1 X176.524 Y155.364 E.01671
G1 X184.355 Y163.195 E.34727
G1 X183.822 Y163.195 E.01671
G1 X175.991 Y155.364 E.34727
G1 X175.457 Y155.364 E.01674
G1 X183.289 Y163.195 E.34729
G1 X182.755 Y163.195 E.01674
G1 X174.924 Y155.364 E.34727
G1 X174.391 Y155.364 E.01671
G1 X182.222 Y163.195 E.34727
G1 X181.689 Y163.195 E.01671
G1 X173.857 Y155.364 E.34729
G1 X173.324 Y155.364 E.01671
G1 X181.155 Y163.195 E.34727
G1 X180.622 Y163.195 E.01671
G1 X172.791 Y155.364 E.34727
G1 X172.257 Y155.364 E.01674
G1 X180.089 Y163.195 E.34729
G1 X179.555 Y163.195 E.01674
G1 X171.724 Y155.364 E.34727
G1 X171.191 Y155.364 E.01671
G1 X179.022 Y163.195 E.34727
G1 X178.489 Y163.195 E.01671
G1 X170.657 Y155.364 E.34729
G1 X170.124 Y155.364 E.01671
G1 X177.955 Y163.195 E.34727
G1 X177.422 Y163.195 E.01671
G1 X169.591 Y155.364 E.34727
G1 X169.058 Y155.364 E.01671
G1 X176.889 Y163.195 E.34727
G1 X176.355 Y163.195 E.01674
G1 X168.524 Y155.364 E.34727
G1 X167.991 Y155.364 E.01671
G1 X175.822 Y163.195 E.34727
G1 X175.289 Y163.195 E.01671
G1 X167.458 Y155.364 E.34727
G1 X166.924 Y155.364 E.01674
G1 X174.756 Y163.195 E.34729
G1 X174.222 Y163.195 E.01674
G1 X166.391 Y155.364 E.34727
G1 X165.858 Y155.364 E.01671
G1 X173.689 Y163.195 E.34727
G1 X173.156 Y163.195 E.01671
G1 X165.324 Y155.364 E.34729
G1 X164.791 Y155.364 E.01671
G1 X172.622 Y163.195 E.34727
G1 X172.089 Y163.195 E.01671
G1 X164.258 Y155.364 E.34727
G1 X163.724 Y155.364 E.01674
G1 X171.556 Y163.195 E.34729
G1 X171.022 Y163.195 E.01674
G1 X163.191 Y155.364 E.34727
G1 X162.658 Y155.364 E.01671
G1 X170.489 Y163.195 E.34727
G1 X169.956 Y163.195 E.01671
G1 X162.124 Y155.364 E.34729
G1 X161.591 Y155.364 E.01671
G1 X169.422 Y163.195 E.34727
G1 X168.889 Y163.195 E.01671
M73 P1 R200
G1 X161.058 Y155.364 E.34727
G1 X160.525 Y155.364 E.01671
G1 X168.356 Y163.195 E.34727
G1 X167.822 Y163.195 E.01674
G1 X159.991 Y155.364 E.34727
G1 X159.458 Y155.364 E.01671
G1 X167.289 Y163.195 E.34727
G1 X166.756 Y163.195 E.01671
G1 X158.925 Y155.364 E.34727
G1 X158.391 Y155.364 E.01674
G1 X166.222 Y163.195 E.34727
G1 X165.689 Y163.195 E.01671
G1 X157.858 Y155.364 E.34727
G1 X157.325 Y155.364 E.01671
G1 X165.156 Y163.195 E.34727
G1 X164.623 Y163.195 E.01671
G1 X156.791 Y155.364 E.34729
G1 X156.258 Y155.364 E.01671
G1 X164.089 Y163.195 E.34727
G1 X163.556 Y163.195 E.01671
G1 X155.725 Y155.364 E.34727
G1 X155.191 Y155.364 E.01674
G1 X163.023 Y163.195 E.34729
G1 X162.489 Y163.195 E.01674
G1 X154.658 Y155.364 E.34727
G1 X154.125 Y155.364 E.01671
G1 X161.956 Y163.195 E.34727
G1 X161.423 Y163.195 E.01671
G1 X153.591 Y155.364 E.34729
G1 X153.058 Y155.364 E.01671
G1 X160.889 Y163.195 E.34727
G1 X160.356 Y163.195 E.01671
G1 X152.525 Y155.364 E.34727
G1 X151.991 Y155.364 E.01674
G1 X159.823 Y163.195 E.34729
G1 X159.289 Y163.195 E.01674
G1 X151.458 Y155.364 E.34727
G1 X150.925 Y155.364 E.01671
G1 X158.756 Y163.195 E.34727
G1 X158.223 Y163.195 E.01671
G1 X150.392 Y155.364 E.34727
G1 X149.858 Y155.364 E.01674
G1 X157.689 Y163.195 E.34727
G1 X157.156 Y163.195 E.01671
G1 X149.325 Y155.364 E.34727
G1 X148.792 Y155.364 E.01671
G1 X156.623 Y163.195 E.34727
G1 X156.09 Y163.195 E.01671
G1 X148.258 Y155.364 E.34729
G1 X147.725 Y155.364 E.01671
G1 X155.556 Y163.195 E.34727
G1 X155.023 Y163.195 E.01671
G1 X147.192 Y155.364 E.34727
G1 X146.658 Y155.364 E.01674
G1 X154.49 Y163.195 E.34729
G1 X153.956 Y163.195 E.01674
G1 X146.125 Y155.364 E.34727
G1 X145.592 Y155.364 E.01671
G1 X153.423 Y163.195 E.34727
G1 X152.89 Y163.195 E.01671
G1 X145.058 Y155.364 E.34729
G1 X144.525 Y155.364 E.01671
G1 X152.356 Y163.195 E.34727
G1 X151.823 Y163.195 E.01671
G1 X143.992 Y155.364 E.34727
G1 X143.458 Y155.364 E.01674
G1 X151.29 Y163.195 E.34729
G1 X150.756 Y163.195 E.01674
G1 X142.925 Y155.364 E.34727
G1 X142.392 Y155.364 E.01671
G1 X150.223 Y163.195 E.34727
G1 X149.69 Y163.195 E.01671
G1 X141.859 Y155.364 E.34727
G1 X141.325 Y155.364 E.01674
G1 X149.156 Y163.195 E.34727
G1 X148.623 Y163.195 E.01671
G1 X140.792 Y155.364 E.34727
G1 X140.259 Y155.364 E.01671
G1 X148.09 Y163.195 E.34727
G1 X147.557 Y163.195 E.01671
G1 X139.725 Y155.364 E.34729
G1 X139.192 Y155.364 E.01671
G1 X147.023 Y163.195 E.34727
G1 X146.49 Y163.195 E.01671
G1 X138.659 Y155.364 E.34727
G1 X138.125 Y155.364 E.01674
G1 X145.957 Y163.195 E.34729
G1 X145.423 Y163.195 E.01674
G1 X137.592 Y155.364 E.34727
G1 X137.059 Y155.364 E.01671
G1 X144.89 Y163.195 E.34727
G1 X144.357 Y163.195 E.01671
G1 X136.525 Y155.364 E.34729
G1 X135.992 Y155.364 E.01671
G1 X143.823 Y163.195 E.34727
G1 X143.29 Y163.195 E.01671
G1 X135.459 Y155.364 E.34727
G1 X134.925 Y155.364 E.01674
G1 X142.757 Y163.195 E.34729
G1 X142.223 Y163.195 E.01674
G1 X134.392 Y155.364 E.34727
G1 X133.859 Y155.364 E.01671
G1 X141.69 Y163.195 E.34727
G1 X141.157 Y163.195 E.01671
G1 X133.325 Y155.364 E.34729
G1 X132.792 Y155.364 E.01671
M73 P1 R199
G1 X140.623 Y163.195 E.34727
G1 X140.09 Y163.195 E.01671
G1 X132.259 Y155.364 E.34727
G1 X131.726 Y155.364 E.01671
G1 X139.557 Y163.195 E.34727
G1 X139.023 Y163.195 E.01674
G1 X131.192 Y155.364 E.34727
G1 X130.659 Y155.364 E.01671
G1 X138.49 Y163.195 E.34727
G1 X137.957 Y163.195 E.01671
G1 X130.126 Y155.364 E.34727
G1 X129.592 Y155.364 E.01674
G1 X137.424 Y163.195 E.34729
G1 X136.89 Y163.195 E.01674
G1 X129.059 Y155.364 E.34727
G1 X128.526 Y155.364 E.01671
G1 X136.357 Y163.195 E.34727
G1 X135.824 Y163.195 E.01671
G1 X127.992 Y155.364 E.34729
G1 X127.459 Y155.364 E.01671
G1 X135.29 Y163.195 E.34727
G1 X134.757 Y163.195 E.01671
G1 X126.926 Y155.364 E.34727
G1 X126.392 Y155.364 E.01674
G1 X134.224 Y163.195 E.34729
G1 X133.69 Y163.195 E.01674
G1 X125.859 Y155.364 E.34727
G1 X125.326 Y155.364 E.01671
G1 X133.157 Y163.195 E.34727
G1 X132.624 Y163.195 E.01671
G1 X124.792 Y155.364 E.34729
G1 X124.259 Y155.364 E.01671
G1 X132.09 Y163.195 E.34727
G1 X131.557 Y163.195 E.01671
G1 X123.726 Y155.364 E.34727
G1 X123.193 Y155.364 E.01671
G1 X131.024 Y163.195 E.34727
G1 X130.49 Y163.195 E.01674
G1 X122.659 Y155.364 E.34727
G1 X122.126 Y155.364 E.01671
G1 X129.957 Y163.195 E.34727
G1 X129.424 Y163.195 E.01671
G1 X121.593 Y155.364 E.34727
G1 X121.059 Y155.364 E.01674
G1 X128.891 Y163.195 E.34729
G1 X128.357 Y163.195 E.01674
G1 X120.526 Y155.364 E.34727
G1 X119.993 Y155.364 E.01671
G1 X127.824 Y163.195 E.34727
G1 X127.291 Y163.195 E.01671
G1 X119.459 Y155.364 E.34729
G1 X118.926 Y155.364 E.01671
G1 X126.757 Y163.195 E.34727
G1 X126.224 Y163.195 E.01671
G1 X118.393 Y155.364 E.34727
G1 X117.859 Y155.364 E.01674
G1 X125.691 Y163.195 E.34729
G1 X125.157 Y163.195 E.01674
G1 X117.326 Y155.364 E.34727
G1 X116.793 Y155.364 E.01671
G1 X124.624 Y163.195 E.34727
G1 X124.091 Y163.195 E.01671
G1 X116.259 Y155.364 E.34729
G1 X115.726 Y155.364 E.01671
G1 X123.557 Y163.195 E.34727
G1 X123.024 Y163.195 E.01671
G1 X115.193 Y155.364 E.34727
G1 X114.659 Y155.364 E.01674
G1 X122.491 Y163.195 E.34729
G1 X121.957 Y163.195 E.01674
G1 X114.126 Y155.364 E.34727
G1 X113.593 Y155.364 E.01671
G1 X121.424 Y163.195 E.34727
G1 X120.891 Y163.195 E.01671
G1 X113.06 Y155.364 E.34727
G1 X112.526 Y155.364 E.01674
G1 X120.357 Y163.195 E.34727
G1 X119.824 Y163.195 E.01671
G1 X111.993 Y155.364 E.34727
G1 X111.46 Y155.364 E.01671
G1 X119.291 Y163.195 E.34727
G1 X118.758 Y163.195 E.01671
G1 X110.926 Y155.364 E.34729
G1 X110.393 Y155.364 E.01671
G1 X118.224 Y163.195 E.34727
G1 X117.691 Y163.195 E.01671
G1 X109.86 Y155.364 E.34727
G1 X109.326 Y155.364 E.01674
G1 X117.158 Y163.195 E.34729
G1 X116.624 Y163.195 E.01674
G1 X108.793 Y155.364 E.34727
G1 X108.26 Y155.364 E.01671
G1 X116.091 Y163.195 E.34727
G1 X115.558 Y163.195 E.01671
G1 X107.726 Y155.364 E.34729
G1 X107.193 Y155.364 E.01671
G1 X115.024 Y163.195 E.34727
G1 X114.491 Y163.195 E.01671
G1 X106.66 Y155.364 E.34727
G1 X106.126 Y155.364 E.01674
G1 X113.958 Y163.195 E.34729
G1 X113.424 Y163.195 E.01674
G1 X105.593 Y155.364 E.34727
G1 X105.06 Y155.364 E.01671
G1 X112.891 Y163.195 E.34727
G1 X112.358 Y163.195 E.01671
G1 X104.527 Y155.364 E.34727
G1 X103.993 Y155.364 E.01674
G1 X111.824 Y163.195 E.34727
G1 X111.291 Y163.195 E.01671
G1 X103.46 Y155.364 E.34727
G1 X102.927 Y155.364 E.01671
G1 X110.758 Y163.195 E.34727
G1 X110.225 Y163.195 E.01671
G1 X102.393 Y155.364 E.34729
G1 X101.86 Y155.364 E.01671
G1 X109.691 Y163.195 E.34727
G1 X109.158 Y163.195 E.01671
G1 X101.327 Y155.364 E.34727
G1 X100.793 Y155.364 E.01674
G1 X108.625 Y163.195 E.34729
G1 X108.091 Y163.195 E.01674
G1 X100.26 Y155.364 E.34727
G1 X99.727 Y155.364 E.01671
G1 X107.558 Y163.195 E.34727
G1 X107.025 Y163.195 E.01671
G1 X99.193 Y155.364 E.34729
G1 X98.66 Y155.364 E.01671
G1 X106.491 Y163.195 E.34727
G1 X105.958 Y163.195 E.01671
G1 X98.127 Y155.364 E.34727
