; generated by PrusaSlicer 2.2.0+ on 2020-04-22 at 23:50:20 UTC


;
;

;
;
; 

; external perimeters extrusion width = 0.45mm
; perimeters extrusion width = 0.45mm
; infill extrusion width = 0.45mm
; solid infill extrusion width = 0.45mm
; top infill extrusion width = 0.40mm
; first layer extrusion width = 0.42mm

M73 P0 R29
M201 X9000 Y9000 Z500 E10000 ; sets maximum accelerations, mm/sec^2
M203 X500 Y500 Z12 E120 ; sets maximum feedrates, mm/sec
M204 P2000 R1500 T2000 ; sets acceleration (P, T) and retract acceleration (R), mm/sec^2
M205 X10.00 Y10.00 Z0.20 E2.50 ; sets the jerk limits, mm/sec
M205 S0 T0 ; sets the minimum extruding and travel feed rate, mm/sec
M107
M83  ; extruder relative mode
M140 S75 ; set bed temp
M109 S160 ; Set extruder temp before bed level
M190 S75 ; wait for bed temp

G28 W ; home all without mesh bed level
G80 N7 ; mesh bed leveling

M109 S240 ; wait for extruder temp

M221 S100 ; Set flow to 100

G1 Y-3.0 F1000.0 ; go outside print area
G92 E0.0
G1 E8 ; Purge Bubble
M73 P0 R29
G1 X60.0 E9.0 F1000.0 ; intro line
G1 X100.0 E12.5 F1000.0 ; intro line
G92 E0.0
G21 ; set units to millimeters
G90 ; use absolute coordinates
M83 ; use relative distances for extrusion
M900 K45; Filament gcode
;BEFORE_LAYER_CHANGE
G92 E0.0
;0.2


G1 E-0.80000 F2100.00000
G1 Z0.600 F10800.000
;AFTER_LAYER_CHANGE
;0.2
G1 X114.922 Y98.029
G1 Z0.200
G1 E0.80000 F2100.00000
M204 S1000
G1 F1200.000
G1 X116.335 Y96.335 E0.06363
G1 X117.139 Y95.600 E0.03143
G1 X118.056 Y94.904 E0.03321
G1 X119.266 Y94.171 E0.04080
G1 X120.305 Y93.681 E0.03314
G1 X121.325 Y93.310 E0.03131
G1 X122.434 Y93.018 E0.03309
G1 X123.865 Y92.799 E0.04174
G1 X124.993 Y92.746 E0.03257
G1 X126.068 Y92.793 E0.03106
G1 X127.219 Y92.949 E0.03351
G1 X128.629 Y93.296 E0.04189
G1 X129.689 Y93.678 E0.03249
G1 X130.675 Y94.139 E0.03141
G1 X131.650 Y94.708 E0.03256
G1 X132.817 Y95.564 E0.04174
G1 X133.664 Y96.334 E0.03300
G1 X134.402 Y97.141 E0.03155
G1 X135.083 Y98.036 E0.03246
G1 X135.835 Y99.276 E0.04183
G1 X136.317 Y100.300 E0.03265
G1 X136.712 Y101.396 E0.03360
G1 X137.055 Y102.801 E0.04172
G1 X137.254 Y104.998 E0.06363
G1 X137.203 Y106.119 E0.03236
G1 X136.984 Y107.556 E0.04192
G1 X136.691 Y108.671 E0.03328
G1 X136.322 Y109.687 E0.03117
G1 X135.862 Y110.673 E0.03140
G1 X135.284 Y111.663 E0.03306
G1 X134.426 Y112.830 E0.04177
G1 X133.672 Y113.658 E0.03231
G1 X132.839 Y114.418 E0.03252
G1 X131.666 Y115.282 E0.04203
G1 X130.669 Y115.864 E0.03329
G1 X129.690 Y116.321 E0.03117
G1 X128.682 Y116.688 E0.03095
G1 X127.559 Y116.983 E0.03350
G1 X126.130 Y117.202 E0.04170
G1 X125.009 Y117.254 E0.03238
G1 X123.848 Y117.199 E0.03351
G1 X122.417 Y116.978 E0.04177
G1 X121.323 Y116.689 E0.03266
G1 X120.305 Y116.319 E0.03125
G1 X119.281 Y115.838 E0.03262
G1 X118.041 Y115.086 E0.04183
G1 X117.134 Y114.396 E0.03288
G1 X116.337 Y113.667 E0.03117
G1 X115.614 Y112.879 E0.03084
G1 X114.911 Y111.954 E0.03351
G1 X114.160 Y110.714 E0.04184
G1 X113.679 Y109.690 E0.03264
G1 X113.313 Y108.683 E0.03089
G1 X113.021 Y107.578 E0.03299
G1 X112.800 Y106.147 E0.04175
G1 X112.746 Y105.001 E0.03310
G1 X112.795 Y103.908 E0.03156
G1 X112.947 Y102.793 E0.03247
G1 X113.292 Y101.384 E0.04183
G1 X113.675 Y100.320 E0.03263
G1 X114.170 Y99.267 E0.03356
G1 X114.891 Y98.081 E0.04006
G1 X115.015 Y98.570 F10800.000
G1 F1200.000
G1 X115.848 Y97.432 E0.04068
G1 X116.601 Y96.602 E0.03232
G1 X117.427 Y95.851 E0.03222
G1 X118.569 Y95.015 E0.04082
G1 X120.462 Y94.024 E0.06162
G1 X121.491 Y93.654 E0.03156
G1 X122.866 Y93.317 E0.04083
G1 X125.006 Y93.123 E0.06198
G1 X126.108 Y93.175 E0.03184
G1 X127.504 Y93.390 E0.04072
G1 X129.547 Y94.028 E0.06175
G1 X130.534 Y94.491 E0.03146
G1 X131.744 Y95.224 E0.04081
G1 X133.398 Y96.601 E0.06209
G1 X134.769 Y98.246 E0.06175
G1 X135.504 Y99.457 E0.04087
G1 X135.972 Y100.453 E0.03176
G1 X136.350 Y101.503 E0.03219
G1 X136.686 Y102.879 E0.04084
G1 X136.877 Y105.001 E0.06147
G1 X136.828 Y106.077 E0.03107
G1 X136.614 Y107.483 E0.04104
G1 X135.973 Y109.544 E0.06225
G1 X134.970 Y111.453 E0.06221
G1 X134.135 Y112.590 E0.04070
G1 X133.403 Y113.394 E0.03136
G1 X131.758 Y114.766 E0.06177
G1 X130.547 Y115.501 E0.04087
G1 X129.545 Y115.973 E0.03196
G1 X127.485 Y116.613 E0.06220
G1 X126.089 Y116.827 E0.04074
G1 X125.005 Y116.877 E0.03132
G1 X123.887 Y116.824 E0.03226
G1 X122.491 Y116.609 E0.04077
G1 X120.448 Y115.970 E0.06172
G1 X119.460 Y115.505 E0.03151
G1 X118.251 Y114.772 E0.04079
G1 X116.605 Y113.401 E0.06180
G1 X115.225 Y111.745 E0.06219
G1 X114.491 Y110.533 E0.04087
G1 X114.027 Y109.546 E0.03144
G1 X113.390 Y107.504 E0.06170
G1 X113.175 Y106.108 E0.04076
G1 X113.123 Y104.999 E0.03201
G1 X113.315 Y102.875 E0.06152
G1 X113.653 Y101.494 E0.04101
G1 X114.023 Y100.464 E0.03157
G1 X114.987 Y98.623 E0.05996
@Object Linear_Bearing_Greaser_LM8UU.stl id:0 copy 0
G1 F8640.000
G1 X115.848 Y97.432 E-0.33931
G1 X116.601 Y96.602 E-0.25869
G1 X117.120 Y96.130 E-0.16200
G1 E-0.04000 F2100.00000
G1 Z0.800 F10800.000
G1 X117.911 Y100.757
G1 Z0.200
G1 E0.80000 F2100.00000
G1 F1200.000
G1 X118.283 Y100.249 E0.01817
G1 X118.589 Y99.886 E0.01369
G1 X118.917 Y99.539 E0.01378
G1 X119.563 Y98.959 E0.02505
G1 X120.102 Y98.559 E0.01934
G1 X120.847 Y98.108 E0.02514
G1 X121.526 Y97.784 E0.02169
G1 X122.419 Y97.472 E0.02730
G1 X123.099 Y97.312 E0.02015
G1 X123.784 Y97.214 E0.01995
G1 X124.443 Y97.178 E0.01904
G1 X125.189 Y97.205 E0.02154
G1 X125.804 Y97.281 E0.01787
G1 X126.440 Y97.413 E0.01875
G1 X127.333 Y97.695 E0.02701
G1 X128.066 Y98.021 E0.02314
G1 X128.785 Y98.435 E0.02393
G1 X129.415 Y98.894 E0.02250
G1 X129.940 Y99.363 E0.02029
G1 X130.467 Y99.940 E0.02256
G1 X130.896 Y100.520 E0.02079
G1 X131.236 Y101.083 E0.01899
G1 X131.602 Y101.860 E0.02478
G1 X131.924 Y102.728 E0.02671
G1 X132.116 Y103.427 E0.02090
G1 X132.252 Y104.277 E0.02482
G1 X132.288 Y104.998 E0.02085
G1 X132.257 Y105.673 E0.01948
G1 X132.125 Y106.534 E0.02514
G1 X131.949 Y107.197 E0.01977
G1 X131.630 Y108.068 E0.02675
G1 X131.281 Y108.834 E0.02428
G1 X130.911 Y109.458 E0.02093
G1 X130.483 Y110.040 E0.02083
G1 X130.067 Y110.510 E0.01812
G1 X129.416 Y111.106 E0.02546
G1 X128.816 Y111.545 E0.02144
G1 X128.266 Y111.874 E0.01850
G1 X127.461 Y112.255 E0.02570
G1 X126.619 Y112.540 E0.02562
G1 X125.915 Y112.700 E0.02083
G1 X125.193 Y112.795 E0.02102
G1 X124.501 Y112.822 E0.01999
G1 X123.810 Y112.788 E0.01995
G1 X123.451 Y112.746 E0.01042
G1 X122.843 Y112.635 E0.01784
G1 X122.141 Y112.444 E0.02098
G1 X121.464 Y112.190 E0.02085
G1 X120.862 Y111.900 E0.01928
G1 X120.164 Y111.481 E0.02348
G1 X119.480 Y110.974 E0.02457
G1 X118.974 Y110.518 E0.01966
G1 X118.511 Y110.026 E0.01947
G1 X117.967 Y109.327 E0.02556
G1 X117.562 Y108.682 E0.02198
G1 X117.266 Y108.109 E0.01861
G1 X116.986 Y107.434 E0.02106
G1 X116.768 Y106.738 E0.02104
G1 X116.614 Y106.038 E0.02067
G1 X116.558 Y105.672 E0.01069
G1 X116.499 Y104.999 E0.01947
G1 X116.579 Y104.174 E0.02391
G1 X116.713 Y103.479 E0.02043
G1 X116.902 Y102.809 E0.02008
G1 X117.151 Y102.149 E0.02033
G1 X117.522 Y101.389 E0.02439
G1 X117.877 Y100.807 E0.01969
G1 X118.197 Y101.006 F10800.000
G1 F1200.000
G1 X118.579 Y100.482 E0.01871
G1 X118.870 Y100.138 E0.01299
G1 X119.181 Y99.810 E0.01303
G1 X119.802 Y99.251 E0.02410
G1 X120.312 Y98.873 E0.01832
G1 X121.027 Y98.440 E0.02409
G1 X121.669 Y98.133 E0.02056
G1 X122.525 Y97.834 E0.02613
G1 X123.169 Y97.683 E0.01909
G1 X123.821 Y97.590 E0.01900
G1 X124.447 Y97.556 E0.01807
G1 X125.159 Y97.581 E0.02057
G1 X125.743 Y97.653 E0.01696
G1 X126.345 Y97.778 E0.01775
G1 X127.199 Y98.048 E0.02584
G1 X127.895 Y98.358 E0.02197
G1 X128.579 Y98.752 E0.02278
G1 X129.178 Y99.188 E0.02137
G1 X129.674 Y99.631 E0.01920
G1 X130.176 Y100.180 E0.02145
G1 X130.582 Y100.730 E0.01972
G1 X130.903 Y101.261 E0.01791
G1 X131.254 Y102.007 E0.02376
G1 X131.565 Y102.844 E0.02577
G1 X131.747 Y103.507 E0.01982
G1 X131.876 Y104.316 E0.02363
G1 X131.910 Y104.999 E0.01974
G1 X131.881 Y105.635 E0.01838
G1 X131.755 Y106.457 E0.02398
G1 X131.589 Y107.083 E0.01869
G1 X131.281 Y107.924 E0.02584
G1 X130.946 Y108.659 E0.02328
G1 X130.596 Y109.250 E0.01980
G1 X130.190 Y109.802 E0.01979
G1 X129.797 Y110.245 E0.01706
G1 X129.177 Y110.814 E0.02429
G1 X128.607 Y111.230 E0.02034
G1 X128.088 Y111.541 E0.01747
G1 X127.319 Y111.905 E0.02453
G1 X126.517 Y112.176 E0.02443
G1 X125.849 Y112.328 E0.01977
G1 X125.161 Y112.419 E0.02002
G1 X124.503 Y112.445 E0.01900
G1 X123.841 Y112.412 E0.01910
G1 X123.507 Y112.373 E0.00970
G1 X122.926 Y112.266 E0.01704
G1 X122.257 Y112.085 E0.02001
G1 X121.613 Y111.843 E0.01985
G1 X121.041 Y111.568 E0.01829
G1 X120.374 Y111.168 E0.02245
G1 X119.719 Y110.682 E0.02352
G1 X119.238 Y110.248 E0.01870
G1 X118.798 Y109.781 E0.01851
G1 X118.276 Y109.110 E0.02450
G1 X117.889 Y108.495 E0.02097
G1 X117.608 Y107.950 E0.01769
G1 X117.341 Y107.305 E0.02012
G1 X117.133 Y106.641 E0.02008
G1 X116.985 Y105.970 E0.01983
G1 X116.933 Y105.627 E0.01000
G1 X116.877 Y105.001 E0.01812
G1 X116.953 Y104.228 E0.02240
G1 X117.080 Y103.566 E0.01946
G1 X117.261 Y102.927 E0.01915
G1 X117.497 Y102.299 E0.01936
G1 X117.853 Y101.571 E0.02338
G1 X118.166 Y101.057 E0.01735
G1 X118.019 Y100.648 F10800.000
G1 X117.461 Y100.650
G1 F1200.000
G1 X117.859 Y100.009 E0.02176
G1 X118.326 Y99.400 E0.02215
G1 X118.839 Y98.840 E0.02192
G1 X119.402 Y98.324 E0.02202
G1 X120.006 Y97.861 E0.02194
G1 X120.312 Y97.656 E0.01063
G1 X120.977 Y97.272 E0.02215
G1 X121.666 Y96.951 E0.02192
G1 X122.388 Y96.688 E0.02216
G1 X122.743 Y96.585 E0.01067
G1 X123.485 Y96.420 E0.02194
G1 X124.241 Y96.321 E0.02197
G1 X125.008 Y96.287 E0.02215
G1 X125.377 Y96.296 E0.01066
G1 X126.135 Y96.362 E0.02194
G1 X126.885 Y96.494 E0.02195
G1 X127.620 Y96.691 E0.02196
G1 X128.334 Y96.951 E0.02192
G1 X129.023 Y97.272 E0.02192
G1 X129.688 Y97.656 E0.02215
G1 X129.993 Y97.860 E0.01058
G1 X130.599 Y98.325 E0.02202
G1 X131.161 Y98.839 E0.02199
G1 X131.679 Y99.405 E0.02213
G1 X131.910 Y99.693 E0.01066
G1 X132.346 Y100.317 E0.02195
G1 X132.728 Y100.977 E0.02201
G1 X133.049 Y101.666 E0.02192
G1 X133.310 Y102.383 E0.02201
G1 X133.507 Y103.118 E0.02195
G1 X133.579 Y103.480 E0.01066
G1 X133.679 Y104.241 E0.02212
G1 X133.712 Y105.000 E0.02192
G1 X133.679 Y105.767 E0.02214
G1 X133.639 Y106.133 E0.01063
G1 X133.507 Y106.882 E0.02194
G1 X133.309 Y107.620 E0.02203
G1 X133.049 Y108.334 E0.02192
G1 X132.728 Y109.023 E0.02192
G1 X132.346 Y109.684 E0.02201
G1 X131.910 Y110.307 E0.02194
G1 X131.679 Y110.595 E0.01066
G1 X131.161 Y111.161 E0.02212
G1 X130.594 Y111.679 E0.02215
G1 X130.307 Y111.910 E0.01063
G1 X129.684 Y112.346 E0.02194
G1 X129.023 Y112.728 E0.02202
G1 X128.334 Y113.049 E0.02192
G1 X127.620 Y113.309 E0.02192
G1 X126.883 Y113.506 E0.02202
G1 X126.133 Y113.639 E0.02194
G1 X125.766 Y113.679 E0.01066
G1 X125.000 Y113.712 E0.02212
G1 X124.238 Y113.679 E0.02201
G1 X123.484 Y113.580 E0.02195
G1 X123.121 Y113.508 E0.01067
G1 X122.380 Y113.309 E0.02212
G1 X121.666 Y113.049 E0.02192
G1 X120.977 Y112.728 E0.02192
G1 X120.317 Y112.347 E0.02199
G1 X119.694 Y111.910 E0.02194
G1 X119.406 Y111.679 E0.01066
G1 X118.839 Y111.161 E0.02215
G1 X118.325 Y110.599 E0.02198
G1 X117.862 Y109.995 E0.02194
G1 X117.656 Y109.688 E0.01066
G1 X117.272 Y109.023 E0.02215
G1 X116.951 Y108.334 E0.02192
G1 X116.691 Y107.620 E0.02192
G1 X116.492 Y106.878 E0.02214
G1 X116.420 Y106.516 E0.01066
G1 X116.321 Y105.762 E0.02194
G1 X116.288 Y105.000 E0.02199
G1 X116.321 Y104.234 E0.02213
G1 X116.362 Y103.866 E0.01066
G1 X116.494 Y103.117 E0.02194
G1 X116.691 Y102.380 E0.02200
G1 X116.951 Y101.666 E0.02192
G1 X117.274 Y100.974 E0.02202
G1 X117.431 Y100.702 E0.00907
G1 X117.104 Y100.513 F10800.000
G1 F1200.000
G1 X117.334 Y100.116 E0.01323
G1 X117.552 Y99.789 E0.01134
G1 X118.037 Y99.157 E0.02298
G1 X118.573 Y98.573 E0.02287
G1 X119.160 Y98.035 E0.02297
G1 X119.786 Y97.554 E0.02277
G1 X120.113 Y97.336 E0.01134
G1 X120.803 Y96.937 E0.02298
G1 X121.521 Y96.602 E0.02287
G1 X122.270 Y96.330 E0.02299
G1 X122.649 Y96.219 E0.01138
G1 X123.420 Y96.049 E0.02277
G1 X124.208 Y95.945 E0.02292
G1 X125.004 Y95.910 E0.02299
G1 X125.398 Y95.919 E0.01137
G1 X126.184 Y95.988 E0.02277
G1 X126.966 Y96.125 E0.02290
G1 X127.733 Y96.331 E0.02291
G1 X128.478 Y96.602 E0.02287
G1 X129.197 Y96.937 E0.02287
G1 X129.887 Y97.336 E0.02298
G1 X130.213 Y97.553 E0.01129
G1 X130.841 Y98.035 E0.02285
G1 X131.427 Y98.573 E0.02294
G1 X131.965 Y99.159 E0.02296
G1 X132.212 Y99.467 E0.01137
G1 X132.665 Y100.114 E0.02278
G1 X133.063 Y100.803 E0.02296
G1 X133.398 Y101.521 E0.02287
G1 X133.670 Y102.269 E0.02296
G1 X133.874 Y103.032 E0.02278
G1 X133.951 Y103.419 E0.01138
G1 X134.055 Y104.208 E0.02295
G1 X134.090 Y105.000 E0.02287
G1 X134.055 Y105.796 E0.02297
G1 X134.012 Y106.186 E0.01134
G1 X133.875 Y106.964 E0.02277
G1 X133.669 Y107.733 E0.02298
G1 X133.398 Y108.478 E0.02287
G1 X133.063 Y109.197 E0.02287
G1 X132.665 Y109.887 E0.02296
G1 X132.212 Y110.533 E0.02277
G1 X131.965 Y110.841 E0.01137
G1 X131.427 Y111.427 E0.02295
G1 X130.840 Y111.966 E0.02298
G1 X130.533 Y112.212 E0.01134
G1 X129.887 Y112.664 E0.02277
G1 X129.197 Y113.063 E0.02297
G1 X128.478 Y113.398 E0.02287
G1 X127.733 Y113.669 E0.02287
G1 X126.964 Y113.875 E0.02297
G1 X126.187 Y114.012 E0.02277
G1 X125.795 Y114.055 E0.01137
G1 X125.000 Y114.090 E0.02295
G1 X124.205 Y114.055 E0.02296
G1 X123.422 Y113.952 E0.02278
G1 X123.035 Y113.875 E0.01138
G1 X122.267 Y113.669 E0.02295
G1 X121.522 Y113.398 E0.02287
G1 X120.803 Y113.063 E0.02287
G1 X120.114 Y112.665 E0.02294
G1 X119.468 Y112.212 E0.02277
G1 X119.160 Y111.966 E0.01137
G1 X118.573 Y111.427 E0.02298
G1 X118.036 Y110.841 E0.02293
G1 X117.555 Y110.215 E0.02277
G1 X117.336 Y109.887 E0.01138
G1 X116.937 Y109.197 E0.02298
G1 X116.602 Y108.478 E0.02287
G1 X116.331 Y107.733 E0.02287
G1 X116.125 Y106.964 E0.02297
G1 X116.048 Y106.577 E0.01138
G1 X115.945 Y105.795 E0.02277
G1 X115.910 Y105.000 E0.02294
G1 X115.945 Y104.205 E0.02296
G1 X115.988 Y103.813 E0.01137
G1 X116.125 Y103.035 E0.02277
G1 X116.331 Y102.267 E0.02295
G1 X116.602 Y101.522 E0.02287
G1 X116.939 Y100.800 E0.02297
G1 X117.074 Y100.565 E0.00782
G1 X117.504 Y100.505 F10800.000
G1 X117.701 Y100.673
G1 F1200.000
G1 X117.853 Y100.439 E0.00196
G1 X118.094 Y100.098 E0.00336
G1 X118.402 Y99.716 E0.00481
G1 X118.734 Y99.347 E0.00584
G1 X119.384 Y98.732 E0.01369
G1 X119.597 Y98.556 E0.00484
G1 X119.935 Y98.301 E0.00765
G1 X120.195 Y98.124 E0.00651
G1 X120.697 Y97.815 E0.01274
G1 X121.401 Y97.459 E0.01927
G1 X122.190 Y97.157 E0.02367
G1 X122.290 Y96.844 F10800.000
G1 F1200.000
G1 X122.588 Y97.142 E0.01228
G1 X123.025 Y97.039 E0.01309
G1 X122.839 Y96.853 E0.00767
G1 X123.280 Y96.755 E0.01319
G1 X123.495 Y96.970 E0.00885
G1 X123.984 Y96.920 E0.01435
G1 X123.737 Y96.672 E0.01022
G1 X124.213 Y96.610 E0.01402
G1 X124.501 Y96.897 E0.01187
G1 X125.060 Y96.917 E0.01633
G1 X124.726 Y96.583 E0.01380
G1 X125.258 Y96.576 E0.01553
G1 X125.660 Y96.978 E0.01660
G1 X126.320 Y97.099 E0.01958
G1 X125.841 Y96.620 E0.01976
G1 X126.098 Y96.643 E0.00752
G1 X126.468 Y96.708 E0.01097
G1 X127.079 Y97.318 E0.02518
G1 X127.433 Y97.430 E0.01085
G1 X127.968 Y97.668 E0.01706
G1 X127.161 Y96.861 E0.03330
G1 X127.535 Y96.961 E0.01130
G1 X127.952 Y97.113 E0.01296
G1 X132.887 Y102.048 E0.20360
G1 X132.788 Y101.774 E0.00849
G1 X132.464 Y101.085 E0.02221
G1 X128.915 Y97.536 E0.14641
G1 X129.538 Y97.896 E0.02101
G1 X129.828 Y98.090 E0.01016
G1 X130.417 Y98.541 E0.02164
G1 X130.927 Y99.009 E0.02018
G1 X132.147 Y100.229 E0.05036
G1 F8640.000
G1 X130.927 Y99.009 E-0.39861
G1 X130.417 Y98.541 E-0.15969
G1 X129.828 Y98.090 E-0.17132
G1 X129.719 Y98.017 E-0.03039
G1 E-0.04000 F2100.00000
G1 Z0.800 F10800.000
G1 X133.379 Y103.080
G1 Z0.200
G1 E0.80000 F2100.00000
G1 F1200.000
G1 X131.696 Y101.396 E0.06946
G1 X131.863 Y101.751 E0.01144
G1 X132.071 Y102.310 E0.01740
G1 X133.302 Y103.541 E0.05080
G1 X133.384 Y104.162 E0.01827
G1 X132.319 Y103.098 E0.04392
G1 X132.393 Y103.367 E0.00815
G1 X132.458 Y103.776 E0.01209
G1 X133.418 Y104.736 E0.03958
G1 X133.417 Y105.275 E0.01572
G1 X132.541 Y104.398 E0.03616
G1 X132.569 Y104.966 E0.01658
G1 X133.392 Y105.788 E0.03394
G1 X133.358 Y106.093 E0.00894
G1 X133.328 Y106.264 E0.00507
