; generated by PrusaSlicer 2.9.4 on 2026-03-23 at 15:20:30 UTC


;
;

;
;
; 

; external perimeters extrusion width = 0.45mm
; perimeters extrusion width = 0.45mm
; infill extrusion width = 0.45mm
; solid infill extrusion width = 0.45mm
; top infill extrusion width = 0.40mm
; first layer extrusion width = 0.42mm

M73 P0 R18
M201 X9000 Y9000 Z500 E10000 ; sets maximum accelerations, mm/sec^2
M203 X500 Y500 Z12 E120 ; sets maximum feedrates, mm / sec
M204 S2000 T1500 ; sets acceleration (S) and retract acceleration (R), mm/sec^2
M205 X10.00 Y10.00 Z0.20 E4.50 ; sets the jerk limits, mm/sec
M205 S0 T0 ; sets the minimum extruding and travel feed rate, mm/sec

; printing object M5 Drop-in T-Nut.stl id:0 copy 1
; stop printing object M5 Drop-in T-Nut.stl id:0 copy 1
; printing object M5 Drop-in T-Nut.stl id:0 copy 0
; stop printing object M5 Drop-in T-Nut.stl id:0 copy 0
; printing object M5 Drop-in T-Nut.stl id:0 copy 2
; stop printing object M5 Drop-in T-Nut.stl id:0 copy 2
; printing object M5 Drop-in T-Nut.stl id:0 copy 3
; stop printing object M5 Drop-in T-Nut.stl id:0 copy 3

;TYPE:Custom
M83  ; extruder relative mode
M140 S85 ; set bed temp
M109 S160 ; Set extruder temp before bed level
M190 S85 ; wait for bed temp

G28 W ; home all without mesh bed level
G80 N7 ; mesh bed leveling

M109 S240 ; wait for extruder temp

M221 S100 ; Set flow to 100

G1 Y-3.0 F1000.0 ; go outside print area
G92 E0.0
G1 E8 ; Purge Bubble
G1 X60.0 E9.0 F1000.0 ; intro line
G1 X100.0 E12.5 F1000.0 ; intro line
G92 E0.0
G21 ; set units to millimeters
G90 ; use absolute coordinates
M83 ; use relative distances for extrusion

M900 K0.08 ; Filament gcode LA 1.5
M900 K45 ; Filament gcode LA 1.0




M107
;LAYER_CHANGE
;Z:0.2
;HEIGHT:0.2
G1 E-1 F2100
G1 Z.4 F720
G1 X76.692 Y126.177 F10800
G1 Z.2 F720
G1 E1 F2100
M204 S800
;TYPE:Skirt/Brim
;WIDTH:0.42
G1 F1200
G1 X81.041 Y125.347 E.13882
G1 X108.981 Y124.976 E.87612
G1 X141.244 Y124.816 E1.0116
G1 X166.799 Y125.161 E.80133
G1 X171.475 Y125.987 E.14888
M73 P1 R18
G1 X172.508 Y126.431 E.03525
G1 X173.405 Y127.382 E.04099
G1 X173.625 Y128.333 E.03061
G1 X173.622 Y131.635 E.10353
G1 X172.981 Y133.18 E.05245
G1 X171.335 Y134.824 E.07294
G1 X169.794 Y135.464 E.05232
G1 X80.082 Y135.649 E2.81286
G1 X78.535 Y135.008 E.0525
G1 X76.473 Y132.946 E.09143
G1 X75.572 Y132.046 E.03993
G1 X74.931 Y130.498 E.05253
G1 X74.931 Y128.324 E.06816
G1 X75.322 Y127.075 E.04104
G1 X76.642 Y126.21 E.04948
M204 S1000
;WIPE_START
G1 F8640
G1 X76.692 Y126.177 E-.01383
G1 X80.887 Y125.377 E-.98617
;WIPE_END
G1 Z.4 F720
; printing object M5 Drop-in T-Nut.stl id:0 copy 2
G1 X89.093 Y131.841 F10800
G1 Z.2 F720
G1 E1 F2100
M204 S800
;TYPE:Perimeter
;WIDTH:0.574286
G1 F1200
G1 X89.089 Y129.94 E.08399
M204 S1000
;WIPE_START
G1 F8640
G1 X89.093 Y131.841 E-.43895
;WIPE_END
G1 E-.56105 F2100
G1 Z.4 F720
G1 X88.64 Y132.295 F10800
G1 Z.2 F720
G1 E1 F2100
M204 S800
;WIDTH:0.419999
G1 F1200
G1 X88.635 Y129.941 E.07381
G1 X88.583 Y129.487 E.01433
G1 X89.54 Y129.487 E.03001
G1 X89.548 Y132.223 E.08579
G1 X89.476 Y132.296 E.00321
G1 X88.7 Y132.295 E.02433
M204 S1000
G1 X88.263 Y132.672 F10800
M204 S800
G1 F1200
G1 X88.258 Y129.795 E.09021
G1 X88.173 Y129.443 E.01135
G1 X87.958 Y129.103 E.01261
G1 X89.916 Y129.11 E.06139
G1 X89.926 Y132.379 E.1025
G1 X89.632 Y132.673 E.01304
G1 X88.323 Y132.672 E.04104
M204 S1000
;WIPE_START
G1 F8640
G1 X88.263 Y132.672 E-.01385
G1 X88.258 Y129.795 E-.66431
G1 X88.173 Y129.443 E-.08361
G1 X87.958 Y129.103 E-.09289
G1 X88.588 Y129.105 E-.14534
;WIPE_END
G1 Z.4 F720
G1 X81.03 Y129.865 F10800
G1 Z.2 F720
G1 E1 F2100
M204 S800
G1 F1200
G1 X81.027 Y131.917 E.06434
G1 X80.72 Y131.918 E.00963
G1 X78.666 Y129.865 E.09106
G1 X80.97 Y129.865 E.07224
M204 S1000
G1 X81.475 Y129.461 F10800
M204 S800
G1 F1200
G1 X81.408 Y129.826 E.01164
G1 X81.404 Y132.293 E.07735
G1 X80.564 Y132.295 E.02634
G1 X78.284 Y130.016 E.10108
G1 X78.284 Y129.488 E.01656
G1 X80.337 Y129.488 E.06437
G1 X81.415 Y129.462 E.03381
M204 S1000
G1 X81.704 Y128.929 F10800
M204 S800
;WIDTH:0.469719
G1 F1200
G1 X81.757 Y128.847 E.00346
;WIDTH:0.503814
G1 X81.835 Y128.726 E.00552
;WIDTH:0.537909
G1 X81.913 Y128.605 E.00593
G1 X81.916 Y128.381 E.00922
G1 X82.153 Y128.367 E.00977
;WIDTH:0.508368
G1 X82.39 Y128.352 E.00919
;WIDTH:0.478827
G1 X82.71 Y128.334 E.01162
;WIDTH:0.44296
G1 X83.03 Y128.316 E.01066
;WIDTH:0.408547
G1 X85.111 Y128.316 E.06327
G1 X85.121 Y128.575 E.00788
G1 X85.232 Y128.687 E.00479
G1 X83.03 Y128.68 E.06695
;WIDTH:0.434278
G1 X82.683 Y128.718 E.01136
;WIDTH:0.468257
G1 X82.55 Y128.76 E.00493
;WIDTH:0.502236
G1 X82.418 Y128.802 E.00529
;WIDTH:0.536215
G1 X82.285 Y128.843 E.00571
G1 X82.197 Y128.952 E.00575
;WIDTH:0.501539
G1 X82.11 Y129.06 E.00529
;WIDTH:0.466862
G1 X82.022 Y129.169 E.00494
;WIDTH:0.432185
G1 X81.876 Y129.425 E.00954
;WIDTH:0.423339
G1 X81.785 Y129.827 E.01304
;WIDTH:0.419999
G1 X81.78 Y132.67 E.08914
G1 X80.408 Y132.673 E.04302
G1 X77.907 Y130.172 E.1109
M73 P2 R18
G1 X77.907 Y129.111 E.03327
G1 X81.07 Y129.111 E.09917
;WIDTH:0.423339
G1 X81.495 Y129.075 E.01349
M73 P2 R17
;WIDTH:0.435624
G1 X81.667 Y128.975 E.0065
M204 S1000
G1 X81.435 Y128.647 F10800
M204 S800
;TYPE:External perimeter
;WIDTH:0.420001
G1 F1200
G1 X81.48 Y128.545 E.0035
G1 X81.48 Y127.946 E.01878
G1 X85.471 Y127.945 E.12514
G1 X85.489 Y128.521 E.01807
G1 X85.673 Y128.701 E.00807
G1 X86.025 Y128.703 E.01104
;WIDTH:0.421857
G1 X87.664 Y128.72 E.05165
;WIDTH:0.419999
G1 X90.292 Y128.733 E.0824
G1 X90.303 Y132.535 E.11921
G1 X89.788 Y133.05 E.02284
G1 X88.142 Y133.049 E.05161
G1 X87.954 Y132.987 E.00621
G1 X87.887 Y132.867 E.00431
G1 X87.881 Y129.795 E.09632
G1 X87.814 Y129.557 E.00775
G1 X87.679 Y129.352 E.0077
G1 X87.494 Y129.196 E.00759
;WIDTH:0.421857
G1 X87.088 Y129.085 E.01326
G1 X86.831 Y129.081 E.0081
;WIDTH:0.420139
G1 X85.673 Y129.073 E.03632
;WIDTH:0.420001
G1 X85.024 Y129.053 E.02036
G1 X83.029 Y129.051 E.06255
G1 X82.749 Y129.096 E.00889
G1 X82.494 Y129.225 E.00896
G1 X82.278 Y129.46 E.01001
G1 X82.162 Y129.827 E.01207
G1 X82.157 Y132.835 E.09431
G1 X82.094 Y132.989 E.00522
G1 X81.953 Y133.046 E.00477
G1 X80.252 Y133.05 E.05333
G1 X77.53 Y130.328 E.1207
G1 X77.53 Y128.734 E.04998
G1 X81.291 Y128.734 E.11792
G1 X81.401 Y128.691 E.0037
M204 S1000
;WIPE_START
G1 F8640
G1 X81.435 Y128.647 E-.01284
G1 X81.48 Y128.545 E-.02574
G1 X81.48 Y127.946 E-.13831
G1 X85.045 Y127.945 E-.82311
;WIPE_END
G1 Z.4 F720
G1 X79.96 Y130.016 F10800
G1 Z.2 F720
G1 E1 F2100
M204 S800
;TYPE:Solid infill
;WIDTH:0.493885
G1 F1200
G1 X80.708 Y130.764 E.03967
G1 X80.707 Y131.4 E.02385
G1 X79.323 Y130.016 E.07339
M204 S1000
;WIPE_START
G1 F8640
G1 X80.707 Y131.4 E-.45194
G1 X80.708 Y130.764 E-.14685
G1 X79.96 Y130.016 E-.24426
;WIPE_END
G1 E-.15695 F2100
G1 Z.4 F720
; stop printing object M5 Drop-in T-Nut.stl id:0 copy 2
; printing object M5 Drop-in T-Nut.stl id:0 copy 3
G1 X117.017 Y131.47 F10800
G1 Z.2 F720
G1 E1 F2100
M204 S800
;TYPE:Perimeter
;WIDTH:0.574286
G1 F1200
G1 X117.012 Y129.569 E.08399
M204 S1000
;WIPE_START
G1 F8640
G1 X117.017 Y131.47 E-.43895
;WIPE_END
G1 E-.56105 F2100
G1 Z.4 F720
G1 X116.564 Y131.923 F10800
G1 Z.2 F720
G1 E1 F2100
M204 S800
;WIDTH:0.419999
G1 F1200
G1 X116.559 Y129.57 E.07378
G1 X116.507 Y129.115 E.01436
G1 X117.464 Y129.116 E.03001
G1 X117.472 Y131.852 E.08579
G1 X117.4 Y131.924 E.00319
G1 X116.624 Y131.923 E.02433
M204 S1000
G1 X116.187 Y132.3 F10800
M204 S800
G1 F1200
G1 X116.182 Y129.423 E.09021
G1 X116.097 Y129.071 E.01135
G1 X115.882 Y128.732 E.01259
G1 X117.84 Y128.739 E.06139
G1 X117.85 Y132.007 E.10247
G1 X117.556 Y132.302 E.01306
G1 X116.247 Y132.3 E.04104
M204 S1000
;WIPE_START
G1 F8640
G1 X116.187 Y132.3 E-.01385
G1 X116.182 Y129.423 E-.66431
G1 X116.097 Y129.071 E-.08361
G1 X115.882 Y128.732 E-.09269
G1 X116.512 Y128.734 E-.14554
;WIPE_END
G1 Z.4 F720
G1 X108.954 Y129.493 F10800
G1 Z.2 F720
G1 E1 F2100
M204 S800
G1 F1200
G1 X108.951 Y131.546 E.06437
G1 X108.644 Y131.546 E.00963
G1 X106.59 Y129.493 E.09106
G1 X108.894 Y129.493 E.07224
M204 S1000
G1 X109.399 Y129.089 F10800
M204 S800
G1 F1200
G1 X109.332 Y129.455 E.01167
G1 X109.328 Y131.922 E.07735
G1 X108.488 Y131.924 E.02634
G1 X106.208 Y129.644 E.1011
G1 X106.208 Y129.116 E.01656
G1 X108.261 Y129.116 E.06437
G1 X109.339 Y129.091 E.03381
M204 S1000
G1 X109.628 Y128.558 F10800
M204 S800
;WIDTH:0.469719
G1 F1200
G1 X109.681 Y128.476 E.00346
;WIDTH:0.503814
G1 X109.759 Y128.355 E.00552
;WIDTH:0.537909
G1 X109.837 Y128.234 E.00593
G1 X109.84 Y128.01 E.00922
G1 X110.077 Y127.995 E.00977
;WIDTH:0.508368
G1 X110.314 Y127.98 E.00919
;WIDTH:0.478827
G1 X110.634 Y127.962 E.01162
;WIDTH:0.44296
G1 X110.954 Y127.944 E.01066
;WIDTH:0.408547
G1 X113.035 Y127.944 E.06327
G1 X113.045 Y128.203 E.00788
G1 X113.156 Y128.316 E.00482
G1 X110.954 Y128.308 E.06695
;WIDTH:0.434278
G1 X110.607 Y128.346 E.01136
;WIDTH:0.468257
G1 X110.474 Y128.388 E.00493
;WIDTH:0.502236
G1 X110.342 Y128.43 E.00529
;WIDTH:0.536215
G1 X110.209 Y128.472 E.00572
G1 X110.121 Y128.58 E.00571
;WIDTH:0.501539
G1 X110.034 Y128.689 E.00532
;WIDTH:0.466862
G1 X109.946 Y128.797 E.00491
;WIDTH:0.432185
G1 X109.8 Y129.053 E.00954
;WIDTH:0.423339
G1 X109.709 Y129.455 E.01304
;WIDTH:0.419999
G1 X109.704 Y132.298 E.08914
G1 X108.332 Y132.301 E.04302
G1 X105.831 Y129.8 E.1109
G1 X105.831 Y128.739 E.03327
G1 X108.993 Y128.739 E.09914
;WIDTH:0.423339
G1 X109.419 Y128.703 E.01352
;WIDTH:0.435624
G1 X109.591 Y128.603 E.0065
M204 S1000
G1 X109.359 Y128.275 F10800
M204 S800
;TYPE:External perimeter
;WIDTH:0.420001
G1 F1200
G1 X109.404 Y128.173 E.0035
G1 X109.404 Y127.574 E.01878
G1 X113.395 Y127.573 E.12514
G1 X113.413 Y128.149 E.01807
G1 X113.597 Y128.329 E.00807
G1 X113.949 Y128.332 E.01104
;WIDTH:0.421857
G1 X115.588 Y128.349 E.05165
;WIDTH:0.419999
G1 X118.216 Y128.362 E.0824
G1 X118.227 Y132.163 E.11918
G1 X117.712 Y132.679 E.02286
G1 X116.066 Y132.677 E.05161
G1 X115.878 Y132.616 E.0062
G1 X115.811 Y132.495 E.00434
G1 X115.805 Y129.424 E.09629
G1 X115.738 Y129.186 E.00775
G1 X115.603 Y128.98 E.00772
G1 X115.418 Y128.825 E.00757
;WIDTH:0.421857
G1 X115.012 Y128.713 E.01327
G1 X114.755 Y128.709 E.0081
;WIDTH:0.420139
G1 X113.597 Y128.702 E.03632
;WIDTH:0.420001
G1 X112.948 Y128.682 E.02036
G1 X110.953 Y128.679 E.06255
G1 X110.673 Y128.725 E.0089
G1 X110.418 Y128.853 E.00895
G1 X110.202 Y129.088 E.01001
G1 X110.086 Y129.456 E.0121
G1 X110.081 Y132.464 E.09431
G1 X110.018 Y132.618 E.00522
G1 X109.877 Y132.675 E.00477
G1 X108.176 Y132.679 E.05333
G1 X105.454 Y129.957 E.1207
G1 X105.454 Y128.362 E.05001
G1 X109.215 Y128.362 E.11792
G1 X109.325 Y128.319 E.0037
M204 S1000
;WIPE_START
G1 F8640
G1 X109.359 Y128.275 E-.01284
G1 X109.404 Y128.173 E-.02574
G1 X109.404 Y127.574 E-.13831
G1 X112.968 Y127.573 E-.82311
;WIPE_END
G1 Z.4 F720
G1 X107.884 Y129.644 F10800
G1 Z.2 F720
G1 E1 F2100
M204 S800
;TYPE:Solid infill
;WIDTH:0.493885
G1 F1200
G1 X108.632 Y130.392 E.03967
G1 X108.631 Y131.029 E.02389
G1 X107.247 Y129.644 E.07342
M204 S1000
;WIPE_START
G1 F8640
G1 X108.631 Y131.029 E-.4521
G1 X108.632 Y130.392 E-.14709
G1 X107.884 Y129.644 E-.24426
;WIPE_END
G1 E-.15655 F2100
G1 Z.4 F720
; stop printing object M5 Drop-in T-Nut.stl id:0 copy 3
; printing object M5 Drop-in T-Nut.stl id:0 copy 0
G1 X143.401 Y131.31 F10800
G1 Z.2 F720
G1 E1 F2100
M204 S800
;TYPE:Perimeter
;WIDTH:0.574286
G1 F1200
M73 P3 R17
G1 X143.397 Y129.409 E.08399
M204 S1000
;WIPE_START
G1 F8640
G1 X143.401 Y131.31 E-.43895
;WIPE_END
G1 E-.56105 F2100
G1 Z.4 F720
G1 X142.948 Y131.764 F10800
G1 Z.2 F720
G1 E1 F2100
M204 S800
;WIDTH:0.419999
G1 F1200
G1 X142.944 Y129.41 E.07381
G1 X142.892 Y128.956 E.01433
G1 X143.849 Y128.956 E.03001
G1 X143.857 Y131.692 E.08579
G1 X143.784 Y131.765 E.00324
G1 X143.008 Y131.764 E.02433
M204 S1000
G1 X142.572 Y132.141 F10800
M204 S800
G1 F1200
G1 X142.566 Y129.264 E.09021
G1 X142.482 Y128.912 E.01135
G1 X142.266 Y128.572 E.01263
G1 X144.225 Y128.579 E.06142
G1 X144.234 Y131.848 E.1025
G1 X143.94 Y132.142 E.01304
G1 X142.632 Y132.141 E.04101
M204 S1000
;WIPE_START
G1 F8640
G1 X142.572 Y132.141 E-.01385
G1 X142.566 Y129.264 E-.66431
G1 X142.482 Y128.912 E-.08356
G1 X142.266 Y128.572 E-.09301
G1 X142.895 Y128.574 E-.14527
;WIPE_END
G1 Z.4 F720
G1 X135.339 Y129.334 F10800
G1 Z.2 F720
G1 E1 F2100
M204 S800
G1 F1200
G1 X135.335 Y131.386 E.06434
G1 X135.028 Y131.387 E.00963
G1 X132.975 Y129.334 E.09103
G1 X135.279 Y129.334 E.07224
M204 S1000
G1 X135.783 Y128.93 F10800
M204 S800
G1 F1200
G1 X135.716 Y129.295 E.01164
G1 X135.712 Y131.762 E.07735
G1 X134.872 Y131.764 E.02634
G1 X132.592 Y129.485 E.10108
G1 X132.592 Y128.957 E.01656
G1 X134.645 Y128.957 E.06437
G1 X135.723 Y128.931 E.03381
M204 S1000
G1 X136.012 Y128.398 F10800
M204 S800
;WIDTH:0.469719
G1 F1200
G1 X136.065 Y128.316 E.00346
;WIDTH:0.503814
G1 X136.143 Y128.195 E.00552
;WIDTH:0.537909
G1 X136.221 Y128.074 E.00593
G1 X136.224 Y127.85 E.00922
G1 X136.461 Y127.836 E.00977
;WIDTH:0.508368
G1 X136.698 Y127.821 E.00919
;WIDTH:0.478827
G1 X137.018 Y127.803 E.01162
;WIDTH:0.44296
G1 X137.338 Y127.785 E.01066
;WIDTH:0.408547
G1 X139.419 Y127.785 E.06327
G1 X139.429 Y128.044 E.00788
G1 X139.54 Y128.156 E.00479
G1 X137.338 Y128.149 E.06695
;WIDTH:0.434278
G1 X136.991 Y128.187 E.01136
;WIDTH:0.468257
G1 X136.859 Y128.229 E.0049
;WIDTH:0.502236
G1 X136.726 Y128.271 E.00533
;WIDTH:0.536215
G1 X136.593 Y128.312 E.00571
G1 X136.506 Y128.421 E.00572
;WIDTH:0.501539
G1 X136.418 Y128.529 E.00531
;WIDTH:0.466862
G1 X136.331 Y128.638 E.00492
;WIDTH:0.432185
G1 X136.184 Y128.894 E.00955
;WIDTH:0.423339
G1 X136.093 Y129.296 E.01304
;WIDTH:0.419999
G1 X136.088 Y132.139 E.08914
G1 X134.716 Y132.142 E.04302
G1 X132.215 Y129.641 E.1109
G1 X132.215 Y128.58 E.03327
G1 X135.378 Y128.58 E.09917
;WIDTH:0.423339
G1 X135.803 Y128.544 E.01349
;WIDTH:0.435624
G1 X135.975 Y128.444 E.0065
M204 S1000
G1 X135.743 Y128.116 F10800
M204 S800
;TYPE:External perimeter
;WIDTH:0.420001
G1 F1200
G1 X135.788 Y128.014 E.0035
G1 X135.788 Y127.415 E.01878
G1 X139.779 Y127.414 E.12514
G1 X139.798 Y127.99 E.01807
G1 X139.981 Y128.17 E.00805
G1 X140.333 Y128.173 E.01104
;WIDTH:0.421857
G1 X141.972 Y128.189 E.05165
;WIDTH:0.419999
G1 X144.601 Y128.202 E.08243
G1 X144.612 Y132.004 E.11921
G1 X144.096 Y132.519 E.02286
G1 X142.45 Y132.518 E.05161
G1 X142.262 Y132.456 E.00621
G1 X142.195 Y132.336 E.00431
G1 X142.189 Y129.264 E.09632
G1 X142.122 Y129.026 E.00775
G1 X141.988 Y128.821 E.00768
G1 X141.802 Y128.665 E.00761
;WIDTH:0.421857
G1 X141.396 Y128.554 E.01326
G1 X141.139 Y128.55 E.0081
;WIDTH:0.420139
G1 X139.981 Y128.542 E.03632
;WIDTH:0.420001
G1 X139.333 Y128.522 E.02033
G1 X137.337 Y128.52 E.06258
G1 X137.057 Y128.565 E.00889
G1 X136.803 Y128.694 E.00893
G1 X136.586 Y128.929 E.01003
G1 X136.47 Y129.296 E.01207
G1 X136.465 Y132.304 E.09431
G1 X136.403 Y132.458 E.00521
G1 X136.262 Y132.515 E.00477
G1 X134.56 Y132.519 E.05337
G1 X131.838 Y129.797 E.1207
G1 X131.838 Y128.203 E.04998
G1 X135.6 Y128.203 E.11796
G1 X135.709 Y128.16 E.00367
M204 S1000
;WIPE_START
G1 F8640
G1 X135.743 Y128.116 E-.01284
G1 X135.788 Y128.014 E-.02574
G1 X135.788 Y127.415 E-.13831
G1 X139.353 Y127.414 E-.82311
;WIPE_END
G1 Z.4 F720
G1 X134.269 Y129.485 F10800
G1 Z.2 F720
G1 E1 F2100
M204 S800
;TYPE:Solid infill
;WIDTH:0.493885
G1 F1200
G1 X135.017 Y130.233 E.03967
G1 X135.016 Y130.869 E.02385
G1 X133.631 Y129.485 E.07342
M204 S1000
;WIPE_START
G1 F8640
G1 X135.016 Y130.869 E-.4521
G1 X135.017 Y130.233 E-.14685
G1 X134.269 Y129.485 E-.24426
;WIPE_END
G1 E-.15679 F2100
G1 Z.4 F720
; stop printing object M5 Drop-in T-Nut.stl id:0 copy 0
; printing object M5 Drop-in T-Nut.stl id:0 copy 1
G1 X168.925 Y131.656 F10800
G1 Z.2 F720
G1 E1 F2100
M204 S800
;TYPE:Perimeter
;WIDTH:0.573956
G1 F1200
G1 X168.921 Y129.755 E.08394
M204 S1000
;WIPE_START
G1 F8640
G1 X168.925 Y131.656 E-.43895
;WIPE_END
G1 E-.56105 F2100
G1 Z.4 F720
G1 X168.472 Y132.11 F10800
G1 Z.2 F720
G1 E1 F2100
M204 S800
;WIDTH:0.419999
G1 F1200
G1 X168.468 Y129.756 E.07381
G1 X168.407 Y129.302 E.01436
G1 X169.373 Y129.302 E.03029
G1 X169.38 Y132.038 E.08579
G1 X169.307 Y132.111 E.00324
