; generated by PrusaSlicer 2.5.0+MacOS-x64 on 2022-09-11 at 15:06:22 UTC
;
;
;
;
; 
; external perimeters extrusion width = 0.45mm
; perimeters extrusion width = 0.45mm
; infill extrusion width = 0.45mm
; solid infill extrusion width = 0.45mm
; top infill extrusion width = 0.40mm
; first layer extrusion width = 0.42mm
M73 P0 R77
M201 X9000 Y9000 Z500 E10000 ; sets maximum accelerations, mm/sec^2
M203 X500 Y500 Z12 E120 ; sets maximum feedrates, mm / sec
M204 P2000 R1500 T2000 ; sets acceleration (P, T) and retract acceleration (R), mm/sec^2
M205 X10.00 Y10.00 Z0.20 E4.50 ; sets the jerk limits, mm/sec
M205 S0 T0 ; sets the minimum extruding and travel feed rate, mm/sec
M107
;TYPE:Custom
M83  ; extruder relative mode
M140 S85 ; set bed temp
M109 S160 ; Set extruder temp before bed level
M190 S85 ; wait for bed temp
G28 W ; home all without mesh bed level
G80 N7 ; mesh bed leveling
M109 S240 ; wait for extruder temp
M221 S100 ; Set flow to 100
G1 Y-3.0 F1000.0 ; go outside print area
G92 E0.0
G1 E8 ; Purge Bubble
G1 X60.0 E9.0 F1000.0 ; intro line
G1 X100.0 E12.5 F1000.0 ; intro line
G92 E0.0
G21 ; set units to millimeters
G90 ; use absolute coordinates
M83 ; use relative distances for extrusion
M900 K0.08 ; Filament gcode LA 1.5
M900 K45 ; Filament gcode LA 1.0
M107
;LAYER_CHANGE
M117 INDICATOR-Layer1
;Z:0.2
;HEIGHT:0.2
;BEFORE_LAYER_CHANGE
M117 DASHBOARD_LAYER_INDICATOR 1
G92 E0.0
;0.2
G1 E-1 F2100
G1 Z.2 F720
;AFTER_LAYER_CHANGE
;0.2
G1 Z.4
G1 X78.736 Y66.656 F6000
G1 Z.2 F720
G1 E1 F2100
M204 S800
;TYPE:Skirt/Brim
;WIDTH:0.42
G1 F1200
G1 X80.472 Y64.694 E.08215
G1 X82.931 Y62.418 E.10505
G1 X85.07 Y60.794 E.08421
G1 X88.042 Y58.952 E.10963
G1 X90.538 Y57.701 E.08753
G1 X93.151 Y56.626 E.08858
G1 X95.843 Y55.732 E.08894
G1 X147.613 Y40.301 E1.69381
G1 X148.907 Y40.077 E.04115
G1 X150.323 Y40.032 E.04443
G1 X151.191 Y40.125 E.02736
G1 X152.055 Y40.327 E.02782
G1 X152.913 Y40.644 E.02868
G1 X153.743 Y41.078 E.02936
G1 X154.544 Y41.635 E.0306
G1 X155.292 Y42.306 E.0315
G1 X155.644 Y42.683 E.01618
G1 X156.117 Y43.452 E.02831
G1 X177.508 Y100.197 E1.9014
G1 X177.911 Y101.469 E.04185
G1 X178.117 Y102.558 E.03476
G1 X178.204 Y103.571 E.03186
G1 X178.193 Y105.183 E.05056
G1 X178.083 Y106.791 E.05052
G1 X177.881 Y108.299 E.04771
G1 X177.509 Y110.015 E.05504
G1 X176.975 Y111.647 E.05387
G1 X176.295 Y113.122 E.05091
G1 X175.394 Y114.545 E.0528
G1 X137.82 Y162.109 E1.90053
G1 X137.195 Y162.855 E.03053
G1 X135.944 Y164.123 E.05584
G1 X134.397 Y165.382 E.06256
G1 X132.641 Y166.517 E.06554
G1 X131.558 Y167.096 E.03851
G1 X129.545 Y167.978 E.06892
G1 X127.831 Y168.565 E.05679
G1 X125.928 Y169.072 E.06175
G1 X123.96 Y169.459 E.06289
G1 X121.843 Y169.744 E.06697
G1 X119.638 Y169.916 E.06936
G1 X117.246 Y169.977 E.07501
G1 X115.399 Y169.929 E.05795
G1 X112.79 Y169.703 E.08211
G1 X110.927 Y169.433 E.059
G1 X107.258 Y168.644 E.11768
G1 X104.643 Y167.874 E.08548
G1 X102.838 Y167.243 E.05995
G1 X101.038 Y166.529 E.06072
G1 X98.459 Y165.354 E.08885
G1 X95.978 Y164.043 E.08798
G1 X94.291 Y163.042 E.06151
G1 X91.959 Y161.497 E.08771
G1 X90.382 Y160.333 E.06145
G1 X88.224 Y158.559 E.08761
G1 X86.792 Y157.247 E.06089
G1 X84.863 Y155.273 E.08654
G1 X83.588 Y153.809 E.06085
G1 X81.918 Y151.636 E.08594
G1 X80.885 Y150.103 E.05796
G1 X79.896 Y148.448 E.06046
G1 X78.677 Y146.043 E.08455
G1 X77.936 Y144.271 E.0602
G1 X77.326 Y142.512 E.05838
G1 X76.627 Y139.814 E.08738
G1 X76.198 Y137.061 E.08736
G1 X71.834 Y89.837 E1.48697
G1 X71.826 Y85.983 E.12084
G1 X72.163 Y82.276 E.11672
G1 X72.454 Y80.505 E.05626
G1 X73.028 Y77.993 E.08079
G1 X74.104 Y74.695 E.10877
G1 X75.506 Y71.59 E.10683
G1 X76.809 Y69.335 E.08166
G1 X78.701 Y66.705 E.10158
M204 S1000
@Object Disney & Symbol.stl id:0 copy 0
;WIPE_START
G1 F4800
G1 X80.212 Y64.99 E-.95
;WIPE_END
G1 E-.05 F2100
G1 Z.4 F720
G1 X92.338 Y110.784 F6000
G1 Z.2 F720
G1 E1 F2100
M204 S800
;TYPE:Perimeter
;WIDTH:0.419999
G1 F1200
G1 X92.515 Y110.832 E.00574
G1 X92.758 Y110.78 E.0078
G1 X93.758 Y110.319 E.03454
G1 X95.432 Y109.625 E.05681
G1 X97.118 Y109.031 E.05607
G1 X97.972 Y108.77 E.02799
G1 X98.831 Y108.535 E.02792
G1 X99.695 Y108.325 E.02788
G1 X100.564 Y108.142 E.02785
G1 X101.438 Y107.986 E.02784
G1 X102.317 Y107.858 E.02785
G1 X103.201 Y107.757 E.02788
G1 X104.089 Y107.684 E.02793
G1 X104.981 Y107.641 E.028
G1 X105.878 Y107.627 E.02814
G1 X108.764 Y107.669 E.09051
G1 X110.61 Y107.749 E.05793
G1 X111.481 Y107.809 E.02736
G1 X113.148 Y107.978 E.05253
G1 X113.859 Y108.075 E.02253
G1 X115.618 Y108.398 E.05605
G1 X116.8 Y108.698 E.03824
G1 X117.425 Y108.895 E.02057
G1 X118.033 Y109.117 E.02028
G1 X118.576 Y109.344 E.01844
G1 X119.136 Y109.617 E.01953
G1 X119.588 Y109.868 E.01623
G1 X120.042 Y110.159 E.01691
G1 X120.566 Y110.555 E.02059
G1 X121.03 Y110.972 E.01956
G1 X121.439 Y111.413 E.01887
G1 X121.8 Y111.897 E.01893
G1 X122.167 Y112.513 E.02248
G1 X122.429 Y113.073 E.01939
G1 X122.603 Y113.553 E.01601
G1 X122.747 Y114.063 E.0166
G1 X122.86 Y114.603 E.01731
G1 X122.942 Y115.175 E.01812
G1 X122.985 Y115.693 E.01629
G1 X123.004 Y116.228 E.0168
G1 X122.969 Y116.877 E.02037
G1 X122.739 Y117.739 E.02798
G1 X122.468 Y118.365 E.02138
G1 X122.087 Y119.035 E.02416
G1 X121.595 Y119.725 E.02659
G1 X121.051 Y120.348 E.02591
G1 X120.638 Y120.768 E.01849
G1 X119.846 Y121.448 E.0327
G1 X119.403 Y121.778 E.01733
G1 X118.927 Y122.099 E.01801
G1 X118.417 Y122.409 E.01871
G1 X117.874 Y122.708 E.01944
G1 X117.295 Y122.992 E.0202
G1 X116.682 Y123.261 E.02101
G1 X116.032 Y123.513 E.02184
G1 X115.346 Y123.746 E.02272
G1 X114.622 Y123.958 E.02364
G1 X113.861 Y124.147 E.02461
G1 X113.06 Y124.312 E.02563
G1 X112.22 Y124.451 E.02669
G1 X111.341 Y124.563 E.0278
G1 X110.42 Y124.645 E.02897
G1 X109.459 Y124.695 E.03019
G1 X108.468 Y124.712 E.03108
G1 X107.551 Y124.668 E.02876
G1 X106.625 Y124.598 E.02915
G1 X105.702 Y124.501 E.02908
G1 X104.784 Y124.378 E.02903
G1 X103.872 Y124.229 E.02899
G1 X102.965 Y124.054 E.02895
G1 X102.065 Y123.853 E.02892
G1 X101.171 Y123.626 E.02892
G1 X100.285 Y123.372 E.02891
G1 X99.406 Y123.092 E.02892
G1 X98.536 Y122.785 E.02894
G1 X97.674 Y122.452 E.02897
G1 X96.821 Y122.093 E.02902
G1 X95.978 Y121.707 E.02908
G1 X95.145 Y121.294 E.02915
G1 X94.105 Y120.739 E.03696
G1 X93.955 Y120.685 E.00498
G1 X93.722 Y120.684 E.00731
G1 X93.477 Y120.803 E.00854
G1 X93.325 Y121 E.00779
G1 X92.883 Y121.953 E.03294
G1 X92.263 Y123.459 E.05108
G1 X91.728 Y125.006 E.05132
G1 X91.283 Y126.588 E.05152
G1 X91.111 Y127.376 E.02529
G1 X90.932 Y128.199 E.0264
G1 X90.681 Y129.823 E.05154
G1 X90.592 Y130.647 E.02597
G1 X90.53 Y131.474 E.026
G1 X90.495 Y132.303 E.02603
G1 X90.486 Y133.133 E.02601
G1 X90.516 Y134.597 E.04592
G1 X90.598 Y135.893 E.04073
G1 X90.754 Y137.133 E.03919
G1 X91.038 Y138.576 E.04609
G1 X91.31 Y139.64 E.03444
G1 X91.694 Y140.836 E.03938
G1 X92.143 Y141.995 E.03899
G1 X92.398 Y142.575 E.01987
G1 X92.95 Y143.697 E.03919
G1 X93.565 Y144.786 E.03922
G1 X94.241 Y145.843 E.03934
G1 X94.955 Y146.84 E.03846
G1 X96.06 Y148.187 E.05461
G1 X96.603 Y148.799 E.02565
G1 X97.495 Y149.71 E.03997
G1 X98.434 Y150.582 E.0402
G1 X99.4 Y151.398 E.03962
G1 X99.936 Y151.81 E.0212
G1 X100.449 Y152.204 E.02031
G1 X101.52 Y152.952 E.04094
G1 X102.629 Y153.657 E.04119
G1 X103.459 Y154.135 E.03006
G1 X104.954 Y154.93 E.05307
G1 X106.166 Y155.496 E.04194
G1 X107.22 Y155.937 E.03583
G1 X108.676 Y156.483 E.04876
G1 X109.97 Y156.901 E.04264
G1 X111.13 Y157.225 E.03776
G1 X112.625 Y157.581 E.04818
G1 X113.981 Y157.84 E.04329
G1 X115.003 Y157.992 E.03241
G1 X116.739 Y158.19 E.05477
G1 X118.112 Y158.278 E.04316
G1 X119.33 Y158.305 E.03818
G1 X120.916 Y158.278 E.04975
G1 X122.353 Y158.205 E.04511
G1 X123.486 Y158.119 E.03563
G1 X124.713 Y157.996 E.03867
G1 X126.405 Y157.759 E.05357
G1 X127.29 Y157.608 E.02813
G1 X128.558 Y157.33 E.04071
G1 X129.777 Y156.98 E.03974
G1 X130.354 Y156.775 E.01921
G1 X130.934 Y156.533 E.01972
G1 X131.425 Y156.292 E.01713
G1 X131.868 Y156.035 E.01606
G1 X132.308 Y155.726 E.01686
G1 X132.709 Y155.375 E.01671
G1 X133.043 Y154.993 E.01594
G1 X133.235 Y154.671 E.01175
G1 X133.481 Y154.183 E.01713
G1 X133.607 Y153.683 E.01617
G1 X133.63 Y153.107 E.01807
G1 X133.448 Y152.226 E.02818
G1 X130.736 Y147.038 E.18356
G1 X130.4 Y146.517 E.01945
G1 X131.787 Y147.061 E.04672
G1 X132.788 Y147.49 E.03413
G1 X133.772 Y147.962 E.03425
G1 X134.74 Y148.476 E.03433
G1 X135.685 Y149.027 E.03432
G1 X136.667 Y149.649 E.03644
G1 X137.097 Y149.986 E.01713
G1 X137.486 Y150.401 E.01785
G1 X137.753 Y150.866 E.01681
G1 X137.935 Y151.342 E.01598
G1 X138.046 Y151.852 E.01635
G1 X138.06 Y152.858 E.03154
G1 X138.018 Y153.446 E.01848
G1 X137.946 Y154.052 E.01916
G1 X137.843 Y154.665 E.01948
G1 X137.708 Y155.282 E.01981
G1 X137.54 Y155.902 E.02013
G1 X137.338 Y156.522 E.02045
G1 X137.1 Y157.14 E.02078
G1 X136.825 Y157.756 E.02112
G1 X136.513 Y158.366 E.02149
G1 X136.161 Y158.969 E.02189
G1 X135.769 Y159.564 E.02233
G1 X135.336 Y160.148 E.02282
G1 X134.859 Y160.721 E.02335
G1 X134.338 Y161.279 E.02395
G1 X133.771 Y161.822 E.02462
G1 X133.157 Y162.348 E.02535
G1 X132.494 Y162.855 E.02617
G1 X131.78 Y163.34 E.02707
G1 X131.014 Y163.803 E.02806
G1 X130.194 Y164.24 E.02913
G1 X129.319 Y164.652 E.03034
G1 X128.389 Y165.033 E.03152
G1 X126.886 Y165.546 E.04979
G1 X125.803 Y165.847 E.03523
G1 X124.659 Y166.111 E.03681
G1 X124.071 Y166.227 E.01879
G1 X122.832 Y166.432 E.03938
G1 X121.529 Y166.596 E.04119
G1 X120.859 Y166.661 E.0211
G1 X119.456 Y166.757 E.04411
G1 X117.988 Y166.806 E.04606
G1 X116.406 Y166.802 E.04958
G1 X115.591 Y166.771 E.02558
G1 X113.932 Y166.646 E.05215
G1 X112.266 Y166.442 E.05264
G1 X110.593 Y166.158 E.05321
G1 X108.917 Y165.797 E.05374
G1 X107.244 Y165.361 E.05421
G1 X105.578 Y164.852 E.05463
G1 X103.923 Y164.271 E.05499
G1 X102.284 Y163.621 E.05528
G1 X100.663 Y162.902 E.05559
G1 X99.075 Y162.122 E.05548
G1 X97.516 Y161.278 E.05559
G1 X95.979 Y160.366 E.05602
G1 X94.486 Y159.398 E.05582
G1 X93.761 Y158.896 E.02764
G1 X92.333 Y157.842 E.05563
G1 X90.956 Y156.734 E.05543
G1 X90.293 Y156.165 E.02739
G1 X88.998 Y154.979 E.05504
G1 X87.764 Y153.745 E.05474
G1 X87.177 Y153.116 E.02697
G1 X86.043 Y151.812 E.0542
G1 X84.98 Y150.464 E.05382
G1 X84.482 Y149.782 E.02647
G1 X83.535 Y148.373 E.05324
G1 X82.669 Y146.925 E.05288
G1 X82.274 Y146.197 E.02599
G1 X81.538 Y144.691 E.05253
G1 X81.208 Y143.934 E.0259
G1 X80.9 Y143.165 E.02599
G1 X80.616 Y142.388 E.02594
G1 X80.357 Y141.603 E.02591
G1 X80.123 Y140.811 E.02589
G1 X79.914 Y140.012 E.02589
G1 X79.732 Y139.206 E.02591
G1 X79.576 Y138.393 E.02594
G1 X79.448 Y137.574 E.026
G1 X79.347 Y136.748 E.02608
G1 X79.274 Y135.917 E.02617
G1 X79.23 Y135.083 E.02618
G1 X79.22 Y132.955 E.06673
G1 X79.283 Y131.7 E.03937
G1 X79.405 Y130.452 E.03933
G1 X79.584 Y129.214 E.03923
G1 X79.82 Y127.987 E.03917
G1 X80.112 Y126.773 E.03913
G1 X80.459 Y125.575 E.03911
G1 X80.861 Y124.394 E.03912
G1 X81.318 Y123.232 E.03915
G1 X81.827 Y122.09 E.03921
G1 X82.39 Y120.97 E.03929
G1 X83.004 Y119.874 E.03939
G1 X83.67 Y118.804 E.03952
G1 X84.387 Y117.762 E.03967
G1 X85.154 Y116.748 E.03984
G1 X86.158 Y115.53 E.04951
G1 X86.234 Y115.31 E.00729
G1 X86.203 Y115.044 E.0084
G1 X86.082 Y114.849 E.0072
G1 X85.281 Y114.01 E.03636
G1 X84.026 Y112.595 E.05931
G1 X82.841 Y111.123 E.05924
G1 X82.285 Y110.378 E.02916
G1 X81.218 Y108.838 E.05875
G1 X80.721 Y108.06 E.02894
G1 X79.774 Y106.457 E.05838
G1 X79.337 Y105.65 E.02879
G1 X78.513 Y103.989 E.05813
G1 X78.137 Y103.155 E.02869
G1 X77.438 Y101.442 E.05799
G1 X77.123 Y100.584 E.02866
G1 X76.551 Y98.829 E.05787
G1 X76.065 Y97.047 E.05792
G1 X75.856 Y96.155 E.02872
G1 X75.499 Y94.333 E.05821
G1 X75.355 Y93.425 E.02884
G1 X75.131 Y91.58 E.05826
G1 X75.052 Y90.65 E.02927
G1 X74.961 Y88.773 E.05893
G1 X74.96 Y86.965 E.05668
G1 X75.036 Y85.239 E.05417
G1 X75.102 Y84.401 E.02634
G1 X75.293 Y82.736 E.05256
G1 X75.415 Y81.93 E.02557
G1 X75.718 Y80.327 E.05113
G1 X75.895 Y79.553 E.0249
G1 X76.31 Y78.016 E.04991
G1 X76.542 Y77.276 E.02433
G1 X77.065 Y75.81 E.0488
G1 X77.659 Y74.396 E.04809
G1 X77.982 Y73.707 E.02385
G1 X78.687 Y72.359 E.04771
G1 X79.463 Y71.058 E.04748
G1 X79.871 Y70.435 E.02336
G1 X80.754 Y69.209 E.04737
G1 X81.708 Y68.033 E.04746
G1 X82.204 Y67.472 E.02348
G1 X83.263 Y66.374 E.04784
G1 X84.389 Y65.332 E.04812
G1 X85.586 Y64.343 E.04867
G1 X86.855 Y63.407 E.04945
G1 X87.508 Y62.965 E.02472
G1 X88.882 Y62.114 E.05069
G1 X90.323 Y61.322 E.05153
G1 X91.832 Y60.589 E.05262
G1 X93.407 Y59.917 E.05368
G1 X94.223 Y59.604 E.0274
G1 X95.908 Y59.022 E.05589
G1 X97.658 Y58.506 E.05721
G1 X99.476 Y58.054 E.05874
G1 X101.356 Y57.669 E.06017
G1 X102.327 Y57.5 E.03091
G1 X104.317 Y57.215 E.06302
G1 X106.373 Y56.999 E.06482
G1 X107.419 Y56.918 E.0329
G1 X109.576 Y56.809 E.06774
G1 X110.674 Y56.782 E.03442
G1 X113.541 Y56.765 E.0899
G1 X115.267 Y56.808 E.05413
G1 X116.985 Y56.901 E.05395
G1 X118.695 Y57.043 E.05378
G1 X120.395 Y57.233 E.05364
G1 X122.086 Y57.473 E.05354
G1 X123.766 Y57.76 E.05345
G1 X125.436 Y58.096 E.0534
G1 X127.094 Y58.48 E.05338
G1 X128.742 Y58.91 E.05338
G1 X130.377 Y59.388 E.05342
G1 X131.999 Y59.913 E.05347
G1 X133.609 Y60.485 E.05356
G1 X135.205 Y61.103 E.05366
G1 X136.787 Y61.767 E.0538
G1 X138.675 Y62.621 E.06498
G1 X138.944 Y62.671 E.00855
G1 X139.211 Y62.584 E.0088
G1 X139.408 Y62.371 E.0091
G1 X139.474 Y62.11 E.00845
G1 X139.483 Y60.87 E.03887
G1 X139.539 Y59.028 E.05779
G1 X139.664 Y57.155 E.05886
G1 X139.873 Y55.282 E.05908
G1 X140.012 Y54.365 E.02907
G1 X140.178 Y53.461 E.02883
G1 X140.371 Y52.577 E.02836
G1 X140.593 Y51.719 E.0278
G1 X140.845 Y50.891 E.02713
G1 X141.128 Y50.098 E.02639
G1 X141.444 Y49.346 E.02558
G1 X141.793 Y48.638 E.02474
G1 X142.154 Y48.016 E.02256
G1 X142.737 Y47.343 E.02791
G1 X143.098 Y46.959 E.01654
G1 X144.03 Y46.059 E.04062
G1 X144.498 Y45.651 E.01946
M73 P1 R77
G1 X145.499 Y44.86 E.03999
G1 X145.982 Y44.525 E.01846
G1 X146.516 Y44.191 E.01974
G1 X147.056 Y43.895 E.01931
G1 X147.598 Y43.645 E.01871
G1 X148.136 Y43.447 E.01797
G1 X148.667 Y43.308 E.01722
G1 X149.168 Y43.237 E.01587
G1 X150.044 Y43.195 E.02749
G1 X150.703 Y43.252 E.02074
G1 X151.342 Y43.43 E.02079
G1 X151.828 Y43.649 E.01673
G1 X152.483 Y44.05 E.02406
G1 X153.096 Y44.598 E.02579
G1 X152.921 Y50.467 E.18409
G1 X152.825 Y54.831 E.13687
G1 X152.769 Y59.332 E.14114
G1 X152.761 Y61.624 E.07187
G1 X152.787 Y65.577 E.12394
G1 X152.824 Y67.583 E.06289
G1 X152.955 Y71.624 E.12677
G1 X153.055 Y73.659 E.06389
G1 X153.181 Y75.698 E.06405
G1 X153.336 Y77.738 E.06414
G1 X153.522 Y79.765 E.06385
G1 X153.742 Y81.796 E.06404
G1 X154 Y83.828 E.06424
G1 X154.295 Y85.834 E.06355
G1 X154.619 Y87.748 E.06086
G1 X155.014 Y89.806 E.06573
G1 X155.442 Y91.759 E.06266
G1 X155.956 Y93.834 E.06704
G1 X156.035 Y94.013 E.00613
G1 X156.219 Y94.186 E.00791
G1 X156.5 Y94.264 E.00915
G1 X158.75 Y94.284 E.07054
G1 X159.96 Y94.35 E.038
G1 X161.284 Y94.47 E.04169
G1 X162.689 Y94.652 E.04441
G1 X164.144 Y94.904 E.0463
G1 X165.623 Y95.233 E.0475
G1 X167.083 Y95.645 E.04756
G1 X167.801 Y95.885 E.02374
G1 X168.505 Y96.148 E.02356
G1 X169.191 Y96.435 E.02331
G1 X169.855 Y96.746 E.023
G1 X170.493 Y97.083 E.02264
G1 X171.102 Y97.446 E.02223
G1 X171.679 Y97.834 E.02179
G1 X172.22 Y98.248 E.02135
G1 X172.721 Y98.689 E.02093
G1 X173.18 Y99.157 E.02055
G1 X173.594 Y99.653 E.02026
G1 X173.963 Y100.178 E.02014
G1 X174.281 Y100.731 E.01997
G1 X174.548 Y101.317 E.0202
G1 X174.761 Y101.937 E.02058
G1 X174.919 Y102.596 E.02121
G1 X175.016 Y103.294 E.02212
G1 X175.05 Y104.045 E.02358
G1 X175.031 Y105.048 E.03144
G1 X174.977 Y106 E.0299
G1 X174.926 Y106.515 E.01621
G1 X174.756 Y107.798 E.04061
G1 X174.604 Y108.57 E.02465
M73 P1 R76
G1 X174.423 Y109.298 E.02352
G1 X174.216 Y109.975 E.02221
G1 X173.984 Y110.603 E.02098
G1 X173.729 Y111.184 E.01988
G1 X173.455 Y111.719 E.01886
G1 X173.161 Y112.211 E.01796
G1 X172.85 Y112.661 E.01716
G1 X172.524 Y113.073 E.01648
G1 X172.183 Y113.448 E.01588
G1 X171.543 Y114.035 E.02721
G1 X171.135 Y114.345 E.01607
G1 X170.394 Y114.8 E.02727
G1 X169.947 Y115.03 E.01575
G1 X169.11 Y115.367 E.02831
G1 X168.262 Y115.616 E.02772
G1 X167.407 Y115.79 E.02735
G1 X166.56 Y115.901 E.02679
