; generated by PrusaSlicer 2.2.0+win64 on 2020-09-29 at 09:28:26 UTC


;
;

;
;
; 

; external perimeters extrusion width = 0.45mm
; perimeters extrusion width = 0.45mm
; infill extrusion width = 0.45mm
; solid infill extrusion width = 0.45mm
; top infill extrusion width = 0.40mm
; first layer extrusion width = 0.42mm

; external perimeters extrusion width = 0.45mm
; perimeters extrusion width = 0.45mm
; infill extrusion width = 0.45mm
; solid infill extrusion width = 0.45mm
; top infill extrusion width = 0.40mm
; first layer extrusion width = 0.42mm

M73 P0 R56
M201 X9000 Y9000 Z500 E10000 ; sets maximum accelerations, mm/sec^2
M203 X500 Y500 Z12 E120 ; sets maximum feedrates, mm/sec
M204 P2000 R1500 T2000 ; sets acceleration (P, T) and retract acceleration (R), mm/sec^2
M205 X10.00 Y10.00 Z0.20 E2.50 ; sets the jerk limits, mm/sec
M205 S0 T0 ; sets the minimum extruding and travel feed rate, mm/sec
M107
M83  ; extruder relative mode
M140 S85 ; set bed temp
M109 S160 ; Set extruder temp before bed level
M190 S85 ; wait for bed temp

G28 W ; home all without mesh bed level
G80 N7 ; mesh bed leveling

M109 S240 ; wait for extruder temp

M221 S100 ; Set flow to 100

G1 Y-3.0 F1000.0 ; go outside print area
G92 E0.0
G1 E8 ; Purge Bubble
M73 P0 R56
G1 X60.0 E9.0 F1000.0 ; intro line
G1 X100.0 E12.5 F1000.0 ; intro line
G92 E0.0
G21 ; set units to millimeters
G90 ; use absolute coordinates
M83 ; use relative distances for extrusion
M900 K0.08 ; Filament gcode LA 1.5
M900 K45 ; Filament gcode LA 1.0
;BEFORE_LAYER_CHANGE
G92 E0.0
;0.2


G1 E-1.40000 F2100.00000
G1 Z0.200 F10800.000
;AFTER_LAYER_CHANGE
;0.2
G1 Z0.400
G1 X99.232 Y80.326
G1 Z0.200
G1 E1.40000 F2100.00000
M204 S1000
G1 F1200.000
G1 X99.650 Y79.618 E0.02579
G1 X102.470 Y76.808 E0.12482
G1 X103.090 Y76.448 E0.02249
G1 X103.790 Y76.290 E0.02249
G1 X146.962 Y76.284 E1.35362
G1 X147.546 Y76.358 E0.01846
G1 X148.091 Y76.572 E0.01835
G1 X181.179 Y94.860 E1.18540
G1 X182.633 Y95.812 E0.05448
G1 X183.962 Y96.966 E0.05518
G1 X184.812 Y97.901 E0.03961
G1 X185.566 Y98.914 E0.03961
G1 X186.632 Y100.841 E0.06906
G1 X187.098 Y102.044 E0.04044
G1 X187.435 Y103.262 E0.03961
G1 X187.734 Y105.478 E0.07012
G1 X187.732 Y106.738 E0.03949
G1 X187.602 Y108.025 E0.04056
G1 X187.342 Y109.296 E0.04068
G1 X186.969 Y110.499 E0.03949
G1 X186.025 Y112.522 E0.07001
G1 X185.341 Y113.584 E0.03961
G1 X184.556 Y114.574 E0.03961
G1 X183.600 Y115.554 E0.04295
G1 X182.284 Y116.617 E0.05303
G1 X180.840 Y117.497 E0.05303
G1 X179.608 Y118.061 E0.04247
G1 X147.354 Y129.005 E1.06794
G1 X103.931 Y129.038 E1.36149
G1 X103.123 Y128.887 E0.02579
G1 X102.414 Y128.469 E0.02579
G1 X99.599 Y125.644 E0.12506
G1 X99.238 Y125.011 E0.02284
G1 X99.085 Y124.295 E0.02296
G1 X99.081 Y81.131 E1.35338
G1 X99.221 Y80.385 E0.02379
@Object Insert 1.stl id:1 copy 0
G1 F8640.000
G1 X99.650 Y79.618 E-0.20298
G1 X102.470 Y76.808 E-0.91923
G1 X103.090 Y76.448 E-0.16559
G1 X103.269 Y76.408 E-0.04220
G1 E-0.07000 F2100.00000
G1 Z0.400 F10800.000
G1 X117.927 Y96.496
G1 Z0.200
G1 E1.40000 F2100.00000
G1 F1200.000
G1 X118.306 Y96.070 E0.01786
G1 X118.708 Y95.668 E0.01786
G1 X119.134 Y95.289 E0.01786
G1 X119.581 Y94.936 E0.01786
G1 X120.047 Y94.609 E0.01786
G1 X120.532 Y94.310 E0.01786
G1 X121.033 Y94.040 E0.01786
G1 X121.550 Y93.799 E0.01786
G1 X122.079 Y93.589 E0.01786
G1 X122.620 Y93.409 E0.01786
G1 X123.170 Y93.262 E0.01786
G1 X123.728 Y93.147 E0.01786
G1 X124.291 Y93.064 E0.01786
G1 X124.859 Y93.015 E0.01786
G1 X125.396 Y92.999 E0.01685
G1 X125.995 Y93.014 E0.01879
G1 X126.565 Y93.064 E0.01793
G1 X127.128 Y93.147 E0.01786
G1 X127.686 Y93.262 E0.01786
G1 X128.205 Y93.401 E0.01685
G1 X128.775 Y93.588 E0.01879
G1 X129.306 Y93.799 E0.01793
G1 X129.823 Y94.040 E0.01786
G1 X130.324 Y94.310 E0.01786
G1 X130.809 Y94.609 E0.01786
G1 X131.275 Y94.936 E0.01786
G1 X131.722 Y95.289 E0.01786
G1 X132.148 Y95.668 E0.01786
G1 X132.550 Y96.070 E0.01786
G1 X132.929 Y96.496 E0.01786
G1 X133.282 Y96.943 E0.01786
G1 X133.609 Y97.409 E0.01786
G1 X133.908 Y97.894 E0.01786
G1 X134.178 Y98.395 E0.01786
G1 X134.419 Y98.912 E0.01786
G1 X134.629 Y99.441 E0.01786
G1 X134.809 Y99.982 E0.01786
G1 X134.956 Y100.532 E0.01786
G1 X135.071 Y101.090 E0.01786
G1 X135.154 Y101.653 E0.01786
G1 X135.203 Y102.221 E0.01786
G1 X135.220 Y102.790 E0.01786
G1 X135.203 Y103.359 E0.01786
G1 X135.154 Y103.927 E0.01786
G1 X135.071 Y104.490 E0.01786
G1 X134.956 Y105.048 E0.01786
G1 X134.809 Y105.598 E0.01786
G1 X134.629 Y106.139 E0.01786
G1 X134.419 Y106.668 E0.01786
G1 X134.178 Y107.185 E0.01786
G1 X133.908 Y107.686 E0.01786
G1 X133.609 Y108.171 E0.01786
G1 X133.282 Y108.637 E0.01786
G1 X132.929 Y109.084 E0.01786
G1 X132.550 Y109.510 E0.01786
G1 X132.148 Y109.912 E0.01786
G1 X131.722 Y110.291 E0.01786
G1 X131.275 Y110.644 E0.01786
G1 X130.809 Y110.971 E0.01786
G1 X130.324 Y111.270 E0.01786
G1 X129.823 Y111.540 E0.01786
G1 X129.306 Y111.781 E0.01786
G1 X128.777 Y111.991 E0.01786
G1 X128.236 Y112.170 E0.01786
G1 X127.686 Y112.318 E0.01786
G1 X127.128 Y112.433 E0.01786
G1 X126.565 Y112.516 E0.01786
G1 X125.997 Y112.565 E0.01786
G1 X125.428 Y112.582 E0.01786
G1 X124.859 Y112.565 E0.01786
G1 X124.291 Y112.516 E0.01786
G1 X123.728 Y112.433 E0.01786
G1 X123.170 Y112.318 E0.01786
G1 X122.620 Y112.170 E0.01786
G1 X122.079 Y111.991 E0.01786
G1 X121.579 Y111.793 E0.01685
G1 X121.035 Y111.541 E0.01879
G1 X120.532 Y111.270 E0.01793
G1 X120.047 Y110.971 E0.01786
G1 X119.581 Y110.644 E0.01786
G1 X119.134 Y110.291 E0.01786
G1 X118.708 Y109.912 E0.01786
G1 X118.306 Y109.510 E0.01786
G1 X117.927 Y109.084 E0.01786
G1 X117.574 Y108.637 E0.01786
G1 X117.265 Y108.197 E0.01685
G1 X116.949 Y107.688 E0.01879
G1 X116.678 Y107.185 E0.01793
G1 X116.437 Y106.668 E0.01786
G1 X116.227 Y106.139 E0.01786
G1 X116.048 Y105.598 E0.01786
G1 X115.900 Y105.048 E0.01786
G1 X115.785 Y104.490 E0.01786
G1 X115.702 Y103.927 E0.01786
G1 X115.653 Y103.359 E0.01786
G1 X115.636 Y102.790 E0.01786
G1 X115.653 Y102.221 E0.01786
G1 X115.702 Y101.653 E0.01786
G1 X115.785 Y101.090 E0.01786
G1 X115.900 Y100.532 E0.01786
G1 X116.048 Y99.982 E0.01786
G1 X116.227 Y99.441 E0.01786
G1 X116.437 Y98.912 E0.01786
G1 X116.678 Y98.395 E0.01786
G1 X116.948 Y97.894 E0.01786
G1 X117.247 Y97.409 E0.01786
G1 X117.574 Y96.943 E0.01786
G1 X117.890 Y96.543 E0.01598
G1 X118.186 Y96.777 F10800.000
G1 F1200.000
G1 X118.580 Y96.329 E0.01871
G1 X118.967 Y95.942 E0.01717
G1 X119.376 Y95.578 E0.01717
G1 X119.806 Y95.238 E0.01717
G1 X120.255 Y94.924 E0.01717
G1 X120.721 Y94.637 E0.01717
G1 X121.203 Y94.377 E0.01717
G1 X121.699 Y94.145 E0.01717
G1 X122.208 Y93.943 E0.01717
G1 X122.728 Y93.771 E0.01717
G1 X123.257 Y93.629 E0.01717
G1 X123.793 Y93.518 E0.01717
G1 X124.335 Y93.439 E0.01717
G1 X124.881 Y93.391 E0.01717
G1 X125.397 Y93.376 E0.01619
G1 X125.974 Y93.391 E0.01810
G1 X126.521 Y93.439 E0.01722
G1 X127.063 Y93.518 E0.01717
G1 X127.599 Y93.629 E0.01717
G1 X128.098 Y93.763 E0.01619
G1 X128.647 Y93.943 E0.01810
G1 X129.157 Y94.145 E0.01722
G1 X129.653 Y94.377 E0.01717
G1 X130.135 Y94.637 E0.01717
G1 X130.601 Y94.924 E0.01717
G1 X131.050 Y95.238 E0.01717
G1 X131.480 Y95.578 E0.01717
G1 X131.889 Y95.942 E0.01717
G1 X132.276 Y96.329 E0.01717
G1 X132.640 Y96.738 E0.01717
G1 X132.980 Y97.168 E0.01717
G1 X133.294 Y97.617 E0.01717
G1 X133.581 Y98.083 E0.01717
G1 X133.841 Y98.565 E0.01717
G1 X134.073 Y99.061 E0.01717
G1 X134.275 Y99.570 E0.01717
G1 X134.447 Y100.090 E0.01717
G1 X134.589 Y100.619 E0.01717
G1 X134.700 Y101.155 E0.01717
G1 X134.779 Y101.697 E0.01717
G1 X134.827 Y102.243 E0.01717
G1 X134.843 Y102.790 E0.01717
G1 X134.827 Y103.337 E0.01717
G1 X134.779 Y103.883 E0.01717
G1 X134.700 Y104.425 E0.01717
G1 X134.589 Y104.961 E0.01717
G1 X134.447 Y105.490 E0.01717
G1 X134.275 Y106.010 E0.01717
G1 X134.073 Y106.519 E0.01717
G1 X133.841 Y107.015 E0.01717
G1 X133.581 Y107.497 E0.01717
G1 X133.294 Y107.963 E0.01717
G1 X132.980 Y108.412 E0.01717
G1 X132.640 Y108.842 E0.01717
G1 X132.276 Y109.251 E0.01717
G1 X131.889 Y109.638 E0.01717
G1 X131.480 Y110.002 E0.01717
G1 X131.050 Y110.342 E0.01717
G1 X130.601 Y110.656 E0.01717
G1 X130.135 Y110.943 E0.01717
G1 X129.653 Y111.203 E0.01717
G1 X129.157 Y111.435 E0.01717
G1 X128.648 Y111.637 E0.01717
G1 X128.128 Y111.809 E0.01717
G1 X127.599 Y111.951 E0.01717
G1 X127.063 Y112.062 E0.01717
G1 X126.521 Y112.141 E0.01717
G1 X125.975 Y112.189 E0.01717
G1 X125.428 Y112.205 E0.01717
G1 X124.881 Y112.189 E0.01717
G1 X124.335 Y112.141 E0.01717
G1 X123.793 Y112.062 E0.01717
G1 X123.257 Y111.951 E0.01717
G1 X122.728 Y111.809 E0.01717
G1 X122.208 Y111.637 E0.01717
G1 X121.728 Y111.446 E0.01619
G1 X121.204 Y111.204 E0.01810
G1 X120.721 Y110.943 E0.01722
G1 X120.255 Y110.656 E0.01717
G1 X119.806 Y110.342 E0.01717
G1 X119.376 Y110.002 E0.01717
G1 X118.967 Y109.638 E0.01717
G1 X118.580 Y109.251 E0.01717
G1 X118.216 Y108.842 E0.01717
G1 X117.876 Y108.412 E0.01717
G1 X117.580 Y107.989 E0.01619
G1 X117.276 Y107.499 E0.01810
G1 X117.015 Y107.015 E0.01722
G1 X116.783 Y106.519 E0.01717
G1 X116.581 Y106.010 E0.01717
G1 X116.409 Y105.490 E0.01717
G1 X116.267 Y104.961 E0.01717
G1 X116.156 Y104.425 E0.01717
G1 X116.077 Y103.883 E0.01717
G1 X116.029 Y103.337 E0.01717
G1 X116.013 Y102.790 E0.01717
G1 X116.029 Y102.243 E0.01717
G1 X116.077 Y101.697 E0.01717
G1 X116.156 Y101.155 E0.01717
G1 X116.267 Y100.619 E0.01717
G1 X116.409 Y100.090 E0.01717
G1 X116.581 Y99.570 E0.01717
G1 X116.783 Y99.061 E0.01717
G1 X117.015 Y98.565 E0.01717
G1 X117.275 Y98.083 E0.01717
G1 X117.562 Y97.617 E0.01717
G1 X117.876 Y97.168 E0.01717
G1 X118.148 Y96.824 E0.01375
G1 X118.444 Y97.058 F10800.000
G1 F1200.000
G1 X118.854 Y96.588 E0.01955
G1 X119.226 Y96.216 E0.01648
G1 X119.619 Y95.867 E0.01648
G1 X120.031 Y95.541 E0.01648
G1 X120.462 Y95.239 E0.01648
G1 X120.909 Y94.963 E0.01648
G1 X121.372 Y94.714 E0.01648
G1 X121.849 Y94.492 E0.01648
G1 X122.337 Y94.298 E0.01648
G1 X122.836 Y94.132 E0.01648
G1 X123.344 Y93.996 E0.01648
G1 X123.859 Y93.890 E0.01648
G1 X124.379 Y93.814 E0.01648
G1 X124.903 Y93.768 E0.01648
G1 X125.397 Y93.753 E0.01552
G1 X125.953 Y93.768 E0.01742
G1 X126.477 Y93.814 E0.01651
G1 X126.997 Y93.890 E0.01648
G1 X127.512 Y93.996 E0.01648
G1 X127.990 Y94.124 E0.01552
G1 X128.518 Y94.297 E0.01742
G1 X129.008 Y94.492 E0.01651
G1 X129.484 Y94.714 E0.01648
G1 X129.947 Y94.963 E0.01648
G1 X130.394 Y95.239 E0.01648
G1 X130.825 Y95.541 E0.01648
G1 X131.237 Y95.867 E0.01648
G1 X131.630 Y96.216 E0.01648
G1 X132.002 Y96.588 E0.01648
G1 X132.351 Y96.981 E0.01648
G1 X132.677 Y97.393 E0.01648
G1 X132.979 Y97.824 E0.01648
G1 X133.255 Y98.271 E0.01648
G1 X133.504 Y98.734 E0.01648
G1 X133.726 Y99.210 E0.01648
G1 X133.920 Y99.699 E0.01648
G1 X134.086 Y100.198 E0.01648
G1 X134.222 Y100.706 E0.01648
G1 X134.328 Y101.221 E0.01648
G1 X134.404 Y101.741 E0.01648
G1 X134.450 Y102.265 E0.01648
G1 X134.465 Y102.790 E0.01648
G1 X134.450 Y103.315 E0.01648
G1 X134.404 Y103.839 E0.01648
G1 X134.328 Y104.359 E0.01648
G1 X134.222 Y104.874 E0.01648
G1 X134.086 Y105.382 E0.01648
G1 X133.920 Y105.881 E0.01648
G1 X133.726 Y106.370 E0.01648
G1 X133.504 Y106.846 E0.01648
G1 X133.255 Y107.309 E0.01648
G1 X132.979 Y107.756 E0.01648
G1 X132.677 Y108.187 E0.01648
G1 X132.351 Y108.599 E0.01648
G1 X132.002 Y108.992 E0.01648
G1 X131.630 Y109.364 E0.01648
G1 X131.237 Y109.713 E0.01648
G1 X130.825 Y110.039 E0.01648
G1 X130.394 Y110.341 E0.01648
G1 X129.947 Y110.617 E0.01648
G1 X129.484 Y110.866 E0.01648
G1 X129.008 Y111.088 E0.01648
G1 X128.519 Y111.282 E0.01648
G1 X128.020 Y111.448 E0.01648
G1 X127.512 Y111.584 E0.01648
G1 X126.997 Y111.690 E0.01648
G1 X126.477 Y111.766 E0.01648
G1 X125.954 Y111.812 E0.01648
G1 X125.428 Y111.827 E0.01648
G1 X124.903 Y111.812 E0.01648
G1 X124.379 Y111.766 E0.01648
G1 X123.859 Y111.690 E0.01648
G1 X123.344 Y111.584 E0.01648
G1 X122.836 Y111.448 E0.01648
G1 X122.337 Y111.282 E0.01648
G1 X121.877 Y111.100 E0.01552
G1 X121.373 Y110.867 E0.01742
G1 X120.909 Y110.617 E0.01651
G1 X120.462 Y110.341 E0.01648
G1 X120.031 Y110.039 E0.01648
G1 X119.619 Y109.713 E0.01648
G1 X119.226 Y109.364 E0.01648
G1 X118.854 Y108.992 E0.01648
G1 X118.505 Y108.599 E0.01648
G1 X118.179 Y108.187 E0.01648
G1 X117.895 Y107.781 E0.01552
G1 X117.602 Y107.310 E0.01742
G1 X117.352 Y106.846 E0.01651
G1 X117.130 Y106.370 E0.01648
G1 X116.936 Y105.881 E0.01648
G1 X116.770 Y105.382 E0.01648
G1 X116.634 Y104.874 E0.01648
G1 X116.528 Y104.359 E0.01648
G1 X116.452 Y103.839 E0.01648
G1 X116.406 Y103.315 E0.01648
G1 X116.391 Y102.790 E0.01648
G1 X116.406 Y102.265 E0.01648
G1 X116.452 Y101.741 E0.01648
G1 X116.528 Y101.221 E0.01648
G1 X116.634 Y100.706 E0.01648
G1 X116.770 Y100.198 E0.01648
G1 X116.936 Y99.699 E0.01648
G1 X117.130 Y99.210 E0.01648
G1 X117.352 Y98.734 E0.01648
G1 X117.601 Y98.271 E0.01648
G1 X117.877 Y97.824 E0.01648
G1 X118.179 Y97.393 E0.01648
G1 X118.407 Y97.105 E0.01153
G1 X118.703 Y97.339 F10800.000
G1 F1200.000
G1 X119.129 Y96.847 E0.02040
G1 X119.485 Y96.491 E0.01579
G1 X119.861 Y96.156 E0.01579
G1 X120.257 Y95.843 E0.01579
G1 X120.669 Y95.555 E0.01579
G1 X121.098 Y95.290 E0.01579
G1 X121.541 Y95.051 E0.01579
G1 X121.998 Y94.838 E0.01579
G1 X122.466 Y94.652 E0.01580
G1 X122.944 Y94.494 E0.01579
G1 X123.431 Y94.363 E0.01579
G1 X123.924 Y94.261 E0.01579
G1 X124.423 Y94.188 E0.01580
G1 X124.925 Y94.144 E0.01579
G1 X125.398 Y94.131 E0.01485
G1 X125.931 Y94.144 E0.01673
G1 X126.433 Y94.188 E0.01581
G1 X126.932 Y94.261 E0.01579
G1 X127.425 Y94.363 E0.01579
G1 X127.883 Y94.486 E0.01485
G1 X128.390 Y94.652 E0.01673
G1 X128.858 Y94.838 E0.01581
G1 X129.315 Y95.051 E0.01579
G1 X129.758 Y95.290 E0.01579
G1 X130.187 Y95.555 E0.01579
G1 X130.600 Y95.843 E0.01579
G1 X130.995 Y96.156 E0.01579
G1 X131.371 Y96.491 E0.01579
G1 X131.727 Y96.847 E0.01579
G1 X132.062 Y97.223 E0.01579
G1 X132.375 Y97.618 E0.01579
G1 X132.664 Y98.031 E0.01579
G1 X132.928 Y98.460 E0.01580
G1 X133.167 Y98.903 E0.01579
G1 X133.380 Y99.360 E0.01579
G1 X133.566 Y99.828 E0.01579
G1 X133.724 Y100.306 E0.01579
G1 X133.855 Y100.793 E0.01579
G1 X133.957 Y101.286 E0.01580
G1 X134.030 Y101.785 E0.01579
G1 X134.074 Y102.286 E0.01579
G1 X134.088 Y102.790 E0.01579
G1 X134.074 Y103.294 E0.01579
G1 X134.030 Y103.795 E0.01580
G1 X133.957 Y104.294 E0.01579
G1 X133.855 Y104.787 E0.01579
G1 X133.724 Y105.274 E0.01579
G1 X133.566 Y105.752 E0.01579
G1 X133.380 Y106.220 E0.01580
G1 X133.167 Y106.677 E0.01579
G1 X132.928 Y107.120 E0.01579
G1 X132.664 Y107.549 E0.01580
G1 X132.375 Y107.961 E0.01579
G1 X132.062 Y108.357 E0.01579
G1 X131.727 Y108.733 E0.01579
G1 X131.371 Y109.089 E0.01580
G1 X130.995 Y109.424 E0.01579
G1 X130.600 Y109.736 E0.01579
G1 X130.187 Y110.025 E0.01579
G1 X129.758 Y110.290 E0.01579
G1 X129.315 Y110.529 E0.01579
G1 X128.858 Y110.742 E0.01579
G1 X128.390 Y110.928 E0.01579
G1 X127.912 Y111.086 E0.01579
G1 X127.425 Y111.217 E0.01579
G1 X126.932 Y111.319 E0.01579
G1 X126.433 Y111.392 E0.01579
G1 X125.932 Y111.435 E0.01580
G1 X125.428 Y111.450 E0.01579
G1 X124.925 Y111.435 E0.01579
G1 X124.423 Y111.392 E0.01579
G1 X123.924 Y111.319 E0.01579
G1 X123.431 Y111.217 E0.01579
G1 X122.944 Y111.086 E0.01579
G1 X122.466 Y110.928 E0.01580
G1 X122.026 Y110.753 E0.01485
G1 X121.542 Y110.529 E0.01673
G1 X121.098 Y110.290 E0.01581
G1 X120.669 Y110.025 E0.01579
G1 X120.257 Y109.736 E0.01579
G1 X119.861 Y109.424 E0.01579
G1 X119.485 Y109.089 E0.01579
G1 X119.129 Y108.733 E0.01579
G1 X118.794 Y108.357 E0.01579
G1 X118.482 Y107.961 E0.01579
G1 X118.210 Y107.574 E0.01485
G1 X117.928 Y107.120 E0.01673
G1 X117.689 Y106.677 E0.01581
G1 X117.476 Y106.220 E0.01579
G1 X117.290 Y105.752 E0.01579
G1 X117.132 Y105.274 E0.01579
G1 X117.001 Y104.787 E0.01579
G1 X116.899 Y104.294 E0.01579
G1 X116.826 Y103.795 E0.01579
G1 X116.783 Y103.294 E0.01580
G1 X116.768 Y102.790 E0.01579
G1 X116.783 Y102.286 E0.01579
G1 X116.826 Y101.785 E0.01580
G1 X116.899 Y101.286 E0.01579
G1 X117.001 Y100.793 E0.01579
G1 X117.132 Y100.306 E0.01580
G1 X117.290 Y99.828 E0.01579
G1 X117.476 Y99.360 E0.01580
G1 X117.689 Y98.903 E0.01579
G1 X117.928 Y98.460 E0.01579
G1 X118.193 Y98.031 E0.01579
G1 X118.666 Y97.386 E0.02509
G1 X118.558 Y96.966 F10800.000
G1 F8640.000
