; generated by PrusaSlicer 2.2.0+win64 on 2020-09-29 at 09:31:49 UTC


;
;

;
;
; 

; external perimeters extrusion width = 0.45mm
; perimeters extrusion width = 0.45mm
; infill extrusion width = 0.45mm
; solid infill extrusion width = 0.45mm
; top infill extrusion width = 0.40mm
; first layer extrusion width = 0.42mm

; external perimeters extrusion width = 0.45mm
; perimeters extrusion width = 0.45mm
; infill extrusion width = 0.45mm
; solid infill extrusion width = 0.45mm
; top infill extrusion width = 0.40mm
; first layer extrusion width = 0.42mm

M73 P0 R56
M201 X9000 Y9000 Z500 E10000 ; sets maximum accelerations, mm/sec^2
M203 X500 Y500 Z12 E120 ; sets maximum feedrates, mm/sec
M204 P2000 R1500 T2000 ; sets acceleration (P, T) and retract acceleration (R), mm/sec^2
M205 X10.00 Y10.00 Z0.20 E2.50 ; sets the jerk limits, mm/sec
M205 S0 T0 ; sets the minimum extruding and travel feed rate, mm/sec
M107
M83  ; extruder relative mode
M140 S85 ; set bed temp
M109 S160 ; Set extruder temp before bed level
M190 S85 ; wait for bed temp

G28 W ; home all without mesh bed level
G80 N7 ; mesh bed leveling

M109 S240 ; wait for extruder temp

M221 S100 ; Set flow to 100

G1 Y-3.0 F1000.0 ; go outside print area
G92 E0.0
G1 E8 ; Purge Bubble
M73 P0 R56
G1 X60.0 E9.0 F1000.0 ; intro line
G1 X100.0 E12.5 F1000.0 ; intro line
G92 E0.0
G21 ; set units to millimeters
G90 ; use absolute coordinates
M83 ; use relative distances for extrusion
M900 K0.08 ; Filament gcode LA 1.5
M900 K45 ; Filament gcode LA 1.0
;BEFORE_LAYER_CHANGE
G92 E0.0
;0.2


G1 E-1.40000 F2100.00000
G1 Z0.200 F10800.000
;AFTER_LAYER_CHANGE
;0.2
G1 Z0.400
G1 X99.232 Y80.326
G1 Z0.200
G1 E1.40000 F2100.00000
M204 S1000
G1 F1200.000
G1 X99.650 Y79.618 E0.02579
G1 X102.470 Y76.808 E0.12482
G1 X103.090 Y76.448 E0.02249
G1 X103.790 Y76.290 E0.02249
G1 X146.962 Y76.284 E1.35362
G1 X147.546 Y76.358 E0.01846
G1 X148.091 Y76.572 E0.01835
G1 X181.179 Y94.860 E1.18540
G1 X182.633 Y95.812 E0.05448
G1 X183.962 Y96.966 E0.05518
G1 X184.812 Y97.901 E0.03961
G1 X185.566 Y98.914 E0.03961
G1 X186.632 Y100.841 E0.06906
G1 X187.098 Y102.044 E0.04044
G1 X187.435 Y103.262 E0.03961
G1 X187.734 Y105.478 E0.07012
G1 X187.732 Y106.738 E0.03949
G1 X187.602 Y108.025 E0.04056
G1 X187.342 Y109.296 E0.04068
G1 X186.969 Y110.499 E0.03949
G1 X186.025 Y112.522 E0.07001
G1 X185.341 Y113.584 E0.03961
G1 X184.556 Y114.574 E0.03961
G1 X183.600 Y115.554 E0.04295
G1 X182.284 Y116.617 E0.05303
G1 X180.840 Y117.497 E0.05303
G1 X179.608 Y118.061 E0.04247
G1 X147.354 Y129.005 E1.06794
G1 X103.931 Y129.038 E1.36149
G1 X103.123 Y128.887 E0.02579
G1 X102.414 Y128.469 E0.02579
G1 X99.599 Y125.644 E0.12506
G1 X99.238 Y125.011 E0.02284
G1 X99.085 Y124.295 E0.02296
G1 X99.081 Y81.131 E1.35338
G1 X99.221 Y80.385 E0.02379
@Object Insert 1.stl id:1 copy 0
G1 F8640.000
G1 X99.650 Y79.618 E-0.20298
G1 X102.470 Y76.808 E-0.91923
G1 X103.090 Y76.448 E-0.16559
G1 X103.269 Y76.408 E-0.04220
G1 E-0.07000 F2100.00000
G1 Z0.400 F10800.000
G1 X117.987 Y96.496
G1 Z0.200
G1 E1.40000 F2100.00000
G1 F1200.000
G1 X118.365 Y96.070 E0.01786
G1 X118.768 Y95.668 E0.01786
G1 X119.194 Y95.289 E0.01786
G1 X119.640 Y94.936 E0.01786
G1 X120.107 Y94.609 E0.01786
G1 X120.592 Y94.310 E0.01786
G1 X121.093 Y94.040 E0.01786
G1 X121.609 Y93.799 E0.01786
G1 X122.139 Y93.589 E0.01786
G1 X122.679 Y93.409 E0.01786
G1 X123.230 Y93.262 E0.01786
G1 X123.787 Y93.147 E0.01786
G1 X124.353 Y93.064 E0.01793
G1 X124.950 Y93.014 E0.01879
G1 X125.488 Y92.998 E0.01685
G1 X126.057 Y93.015 E0.01786
G1 X126.624 Y93.064 E0.01786
G1 X127.188 Y93.147 E0.01786
G1 X127.746 Y93.262 E0.01786
G1 X128.296 Y93.409 E0.01786
G1 X128.837 Y93.589 E0.01786
G1 X129.366 Y93.799 E0.01786
G1 X129.882 Y94.040 E0.01786
G1 X130.384 Y94.310 E0.01786
G1 X130.868 Y94.609 E0.01786
G1 X131.335 Y94.936 E0.01786
G1 X131.782 Y95.289 E0.01786
G1 X132.207 Y95.668 E0.01786
G1 X132.610 Y96.070 E0.01786
G1 X132.989 Y96.496 E0.01786
G1 X133.342 Y96.943 E0.01786
G1 X133.669 Y97.409 E0.01786
G1 X133.969 Y97.896 E0.01793
G1 X134.252 Y98.424 E0.01879
G1 X134.479 Y98.912 E0.01685
G1 X134.689 Y99.441 E0.01786
G1 X134.868 Y99.982 E0.01786
G1 X135.016 Y100.532 E0.01786
G1 X135.131 Y101.090 E0.01786
G1 X135.213 Y101.653 E0.01786
G1 X135.263 Y102.221 E0.01786
G1 X135.280 Y102.790 E0.01786
G1 X135.263 Y103.359 E0.01786
G1 X135.213 Y103.927 E0.01786
G1 X135.131 Y104.490 E0.01786
G1 X135.016 Y105.048 E0.01786
G1 X134.868 Y105.598 E0.01786
G1 X134.689 Y106.139 E0.01786
G1 X134.479 Y106.668 E0.01786
G1 X134.238 Y107.185 E0.01786
G1 X133.968 Y107.686 E0.01786
G1 X133.669 Y108.171 E0.01786
G1 X133.342 Y108.637 E0.01786
G1 X132.989 Y109.084 E0.01786
G1 X132.610 Y109.510 E0.01786
G1 X132.207 Y109.912 E0.01786
G1 X131.782 Y110.291 E0.01786
G1 X131.335 Y110.644 E0.01786
G1 X130.868 Y110.971 E0.01786
G1 X130.384 Y111.270 E0.01786
G1 X129.882 Y111.540 E0.01786
G1 X129.366 Y111.781 E0.01786
G1 X128.837 Y111.991 E0.01786
G1 X128.296 Y112.170 E0.01786
G1 X127.746 Y112.318 E0.01786
G1 X127.188 Y112.433 E0.01786
G1 X126.624 Y112.516 E0.01786
G1 X126.057 Y112.565 E0.01786
G1 X125.488 Y112.582 E0.01786
G1 X124.918 Y112.565 E0.01786
G1 X124.351 Y112.516 E0.01786
G1 X123.787 Y112.433 E0.01786
G1 X123.230 Y112.318 E0.01786
G1 X122.679 Y112.170 E0.01786
G1 X122.139 Y111.991 E0.01786
G1 X121.609 Y111.781 E0.01786
G1 X121.093 Y111.540 E0.01786
G1 X120.592 Y111.270 E0.01786
G1 X120.107 Y110.971 E0.01786
G1 X119.640 Y110.644 E0.01786
G1 X119.194 Y110.291 E0.01786
G1 X118.768 Y109.912 E0.01786
G1 X118.365 Y109.510 E0.01786
G1 X117.987 Y109.084 E0.01786
G1 X117.633 Y108.637 E0.01786
G1 X117.307 Y108.171 E0.01786
G1 X117.008 Y107.686 E0.01786
G1 X116.737 Y107.185 E0.01786
G1 X116.497 Y106.668 E0.01786
G1 X116.286 Y106.139 E0.01786
G1 X116.107 Y105.598 E0.01786
G1 X115.960 Y105.048 E0.01786
G1 X115.845 Y104.490 E0.01786
G1 X115.762 Y103.927 E0.01786
G1 X115.712 Y103.359 E0.01786
G1 X115.696 Y102.790 E0.01786
G1 X115.712 Y102.221 E0.01786
G1 X115.762 Y101.653 E0.01786
G1 X115.845 Y101.090 E0.01786
G1 X115.960 Y100.532 E0.01786
G1 X116.107 Y99.982 E0.01786
G1 X116.286 Y99.441 E0.01786
G1 X116.497 Y98.912 E0.01786
G1 X116.737 Y98.395 E0.01786
G1 X117.008 Y97.894 E0.01786
G1 X117.307 Y97.409 E0.01786
G1 X117.633 Y96.943 E0.01786
G1 X117.949 Y96.543 E0.01598
G1 X118.245 Y96.777 F10800.000
G1 F1200.000
G1 X118.640 Y96.329 E0.01871
G1 X119.027 Y95.942 E0.01717
G1 X119.436 Y95.578 E0.01717
G1 X119.866 Y95.238 E0.01717
G1 X120.314 Y94.924 E0.01717
G1 X120.780 Y94.637 E0.01717
G1 X121.262 Y94.377 E0.01717
G1 X121.759 Y94.145 E0.01717
G1 X122.268 Y93.943 E0.01717
G1 X122.788 Y93.771 E0.01717
G1 X123.317 Y93.629 E0.01717
G1 X123.853 Y93.518 E0.01717
G1 X124.396 Y93.439 E0.01722
G1 X124.972 Y93.390 E0.01810
G1 X125.488 Y93.375 E0.01619
G1 X126.035 Y93.391 E0.01717
G1 X126.581 Y93.439 E0.01717
G1 X127.123 Y93.518 E0.01717
G1 X127.659 Y93.629 E0.01717
G1 X128.188 Y93.771 E0.01717
G1 X128.708 Y93.943 E0.01717
G1 X129.217 Y94.145 E0.01717
G1 X129.713 Y94.377 E0.01717
G1 X130.195 Y94.637 E0.01717
G1 X130.661 Y94.924 E0.01717
G1 X131.110 Y95.238 E0.01717
G1 X131.539 Y95.578 E0.01717
G1 X131.948 Y95.942 E0.01717
G1 X132.336 Y96.329 E0.01717
G1 X132.700 Y96.738 E0.01717
G1 X133.039 Y97.168 E0.01717
G1 X133.354 Y97.617 E0.01717
G1 X133.642 Y98.084 E0.01722
G1 X133.914 Y98.593 E0.01810
G1 X134.132 Y99.061 E0.01619
G1 X134.335 Y99.570 E0.01717
G1 X134.507 Y100.090 E0.01717
G1 X134.649 Y100.619 E0.01717
G1 X134.759 Y101.155 E0.01717
G1 X134.839 Y101.697 E0.01717
G1 X134.886 Y102.243 E0.01717
G1 X134.902 Y102.790 E0.01717
G1 X134.886 Y103.337 E0.01717
G1 X134.839 Y103.883 E0.01717
G1 X134.759 Y104.425 E0.01717
G1 X134.649 Y104.961 E0.01717
G1 X134.507 Y105.490 E0.01717
G1 X134.335 Y106.010 E0.01717
G1 X134.132 Y106.519 E0.01717
G1 X133.901 Y107.015 E0.01717
G1 X133.641 Y107.497 E0.01717
G1 X133.354 Y107.963 E0.01717
G1 X133.039 Y108.412 E0.01717
G1 X132.700 Y108.842 E0.01717
G1 X132.336 Y109.251 E0.01717
G1 X131.948 Y109.638 E0.01717
G1 X131.539 Y110.002 E0.01717
G1 X131.110 Y110.342 E0.01717
G1 X130.661 Y110.656 E0.01717
G1 X130.195 Y110.943 E0.01717
G1 X129.713 Y111.203 E0.01717
G1 X129.217 Y111.435 E0.01717
G1 X128.708 Y111.637 E0.01717
G1 X128.188 Y111.809 E0.01717
G1 X127.659 Y111.951 E0.01717
G1 X127.123 Y112.062 E0.01717
G1 X126.581 Y112.141 E0.01717
G1 X126.035 Y112.189 E0.01717
G1 X125.488 Y112.205 E0.01717
G1 X124.940 Y112.189 E0.01717
G1 X124.395 Y112.141 E0.01717
G1 X123.853 Y112.062 E0.01717
G1 X123.317 Y111.951 E0.01717
G1 X122.788 Y111.809 E0.01717
G1 X122.268 Y111.637 E0.01717
G1 X121.759 Y111.435 E0.01717
G1 X121.262 Y111.203 E0.01717
G1 X120.780 Y110.943 E0.01717
G1 X120.314 Y110.656 E0.01717
G1 X119.866 Y110.342 E0.01717
G1 X119.436 Y110.002 E0.01717
G1 X119.027 Y109.638 E0.01717
G1 X118.640 Y109.251 E0.01717
G1 X118.276 Y108.842 E0.01717
G1 X117.936 Y108.412 E0.01717
G1 X117.622 Y107.963 E0.01717
G1 X117.334 Y107.497 E0.01717
G1 X117.074 Y107.015 E0.01717
G1 X116.843 Y106.519 E0.01717
G1 X116.641 Y106.010 E0.01717
G1 X116.469 Y105.490 E0.01717
G1 X116.327 Y104.961 E0.01717
G1 X116.216 Y104.425 E0.01717
G1 X116.137 Y103.883 E0.01717
G1 X116.089 Y103.337 E0.01717
G1 X116.073 Y102.790 E0.01717
G1 X116.089 Y102.243 E0.01717
G1 X116.137 Y101.697 E0.01717
G1 X116.216 Y101.155 E0.01717
G1 X116.327 Y100.619 E0.01717
G1 X116.469 Y100.090 E0.01717
G1 X116.641 Y99.570 E0.01717
G1 X116.843 Y99.061 E0.01717
G1 X117.074 Y98.565 E0.01717
G1 X117.334 Y98.083 E0.01717
G1 X117.622 Y97.617 E0.01717
G1 X117.936 Y97.168 E0.01717
G1 X118.208 Y96.824 E0.01375
G1 X118.504 Y97.058 F10800.000
G1 F1200.000
G1 X118.914 Y96.588 E0.01955
G1 X119.286 Y96.216 E0.01648
G1 X119.679 Y95.867 E0.01648
G1 X120.091 Y95.541 E0.01648
G1 X120.522 Y95.239 E0.01648
G1 X120.969 Y94.963 E0.01648
G1 X121.432 Y94.714 E0.01648
G1 X121.908 Y94.492 E0.01648
G1 X122.397 Y94.298 E0.01648
G1 X122.896 Y94.132 E0.01648
G1 X123.404 Y93.996 E0.01648
G1 X123.918 Y93.890 E0.01648
G1 X124.440 Y93.814 E0.01651
G1 X124.993 Y93.767 E0.01742
G1 X125.488 Y93.753 E0.01552
G1 X126.013 Y93.768 E0.01648
G1 X126.537 Y93.814 E0.01648
G1 X127.057 Y93.890 E0.01648
G1 X127.572 Y93.996 E0.01648
G1 X128.080 Y94.132 E0.01648
G1 X128.579 Y94.298 E0.01648
G1 X129.067 Y94.492 E0.01648
G1 X129.544 Y94.714 E0.01648
G1 X130.006 Y94.963 E0.01648
G1 X130.454 Y95.239 E0.01648
G1 X130.884 Y95.541 E0.01648
G1 X131.297 Y95.867 E0.01648
G1 X131.690 Y96.216 E0.01648
G1 X132.061 Y96.588 E0.01648
G1 X132.411 Y96.981 E0.01648
G1 X132.737 Y97.393 E0.01648
G1 X133.038 Y97.824 E0.01648
G1 X133.315 Y98.272 E0.01651
G1 X133.577 Y98.762 E0.01742
G1 X133.786 Y99.210 E0.01552
G1 X133.980 Y99.699 E0.01648
G1 X134.145 Y100.198 E0.01648
G1 X134.282 Y100.706 E0.01648
G1 X134.388 Y101.221 E0.01648
G1 X134.464 Y101.741 E0.01648
G1 X134.510 Y102.265 E0.01648
G1 X134.525 Y102.790 E0.01648
G1 X134.510 Y103.315 E0.01648
G1 X134.464 Y103.839 E0.01648
G1 X134.388 Y104.359 E0.01648
G1 X134.282 Y104.874 E0.01648
G1 X134.145 Y105.382 E0.01648
G1 X133.980 Y105.881 E0.01648
G1 X133.786 Y106.370 E0.01648
G1 X133.564 Y106.846 E0.01648
G1 X133.314 Y107.309 E0.01648
G1 X133.038 Y107.756 E0.01648
G1 X132.737 Y108.187 E0.01648
G1 X132.411 Y108.599 E0.01648
G1 X132.061 Y108.992 E0.01648
G1 X131.690 Y109.364 E0.01648
G1 X131.297 Y109.713 E0.01648
G1 X130.884 Y110.039 E0.01648
G1 X130.454 Y110.341 E0.01648
G1 X130.006 Y110.617 E0.01648
G1 X129.544 Y110.866 E0.01648
G1 X129.067 Y111.088 E0.01648
G1 X128.579 Y111.282 E0.01648
G1 X128.080 Y111.448 E0.01648
G1 X127.572 Y111.584 E0.01648
G1 X127.057 Y111.690 E0.01648
G1 X126.537 Y111.766 E0.01648
G1 X126.013 Y111.812 E0.01648
G1 X125.488 Y111.827 E0.01648
G1 X124.962 Y111.812 E0.01648
G1 X124.439 Y111.766 E0.01648
G1 X123.918 Y111.690 E0.01648
G1 X123.404 Y111.584 E0.01648
G1 X122.896 Y111.448 E0.01648
G1 X122.397 Y111.282 E0.01648
G1 X121.908 Y111.088 E0.01648
G1 X121.432 Y110.866 E0.01648
G1 X120.969 Y110.617 E0.01648
G1 X120.522 Y110.341 E0.01648
G1 X120.091 Y110.039 E0.01648
G1 X119.679 Y109.713 E0.01648
G1 X119.286 Y109.364 E0.01648
G1 X118.914 Y108.992 E0.01648
G1 X118.565 Y108.599 E0.01648
G1 X118.239 Y108.187 E0.01648
G1 X117.937 Y107.756 E0.01648
G1 X117.661 Y107.309 E0.01648
G1 X117.412 Y106.846 E0.01648
G1 X117.189 Y106.370 E0.01648
G1 X116.995 Y105.881 E0.01648
G1 X116.830 Y105.382 E0.01648
G1 X116.694 Y104.874 E0.01648
G1 X116.588 Y104.359 E0.01648
G1 X116.511 Y103.839 E0.01648
G1 X116.466 Y103.315 E0.01648
G1 X116.450 Y102.790 E0.01648
G1 X116.466 Y102.265 E0.01648
G1 X116.511 Y101.741 E0.01648
G1 X116.588 Y101.221 E0.01648
G1 X116.694 Y100.706 E0.01648
G1 X116.830 Y100.198 E0.01648
G1 X116.995 Y99.699 E0.01648
G1 X117.189 Y99.210 E0.01648
G1 X117.412 Y98.734 E0.01648
G1 X117.661 Y98.271 E0.01648
G1 X117.937 Y97.824 E0.01648
G1 X118.239 Y97.393 E0.01648
G1 X118.467 Y97.105 E0.01153
G1 X118.762 Y97.339 F10800.000
G1 F1200.000
G1 X119.189 Y96.847 E0.02040
G1 X119.545 Y96.491 E0.01579
G1 X119.921 Y96.156 E0.01579
G1 X120.316 Y95.843 E0.01579
G1 X120.729 Y95.555 E0.01580
G1 X121.158 Y95.290 E0.01579
G1 X121.601 Y95.051 E0.01579
G1 X122.058 Y94.838 E0.01579
G1 X122.526 Y94.652 E0.01579
G1 X123.004 Y94.494 E0.01579
G1 X123.491 Y94.363 E0.01580
G1 X123.984 Y94.261 E0.01579
G1 X124.483 Y94.188 E0.01581
G1 X125.014 Y94.144 E0.01673
G1 X125.488 Y94.130 E0.01485
G1 X125.991 Y94.144 E0.01579
G1 X126.493 Y94.188 E0.01579
G1 X126.992 Y94.261 E0.01580
G1 X127.485 Y94.363 E0.01579
G1 X127.971 Y94.494 E0.01579
G1 X128.450 Y94.652 E0.01579
G1 X128.918 Y94.838 E0.01579
G1 X129.374 Y95.051 E0.01579
G1 X129.818 Y95.290 E0.01579
G1 X130.247 Y95.555 E0.01579
G1 X130.659 Y95.843 E0.01579
G1 X131.054 Y96.156 E0.01579
G1 X131.431 Y96.491 E0.01579
G1 X131.787 Y96.847 E0.01579
G1 X132.122 Y97.223 E0.01580
G1 X132.434 Y97.618 E0.01579
G1 X132.723 Y98.031 E0.01579
G1 X132.988 Y98.460 E0.01581
G1 X133.239 Y98.931 E0.01673
G1 X133.440 Y99.360 E0.01485
G1 X133.626 Y99.828 E0.01579
G1 X133.784 Y100.306 E0.01579
G1 X133.914 Y100.793 E0.01579
G1 X134.016 Y101.286 E0.01579
G1 X134.089 Y101.785 E0.01579
G1 X134.133 Y102.286 E0.01580
G1 X134.148 Y102.790 E0.01579
G1 X134.133 Y103.294 E0.01579
G1 X134.089 Y103.795 E0.01580
G1 X134.016 Y104.294 E0.01579
G1 X133.914 Y104.787 E0.01580
G1 X133.784 Y105.274 E0.01579
G1 X133.626 Y105.752 E0.01579
G1 X133.440 Y106.220 E0.01580
G1 X133.227 Y106.677 E0.01579
G1 X132.988 Y107.120 E0.01579
G1 X132.723 Y107.549 E0.01579
G1 X132.434 Y107.961 E0.01579
G1 X132.122 Y108.357 E0.01579
G1 X131.787 Y108.733 E0.01579
G1 X131.431 Y109.089 E0.01579
G1 X131.054 Y109.424 E0.01579
G1 X130.659 Y109.736 E0.01580
G1 X130.247 Y110.025 E0.01579
G1 X129.818 Y110.290 E0.01579
G1 X129.374 Y110.529 E0.01579
G1 X128.918 Y110.742 E0.01579
G1 X128.450 Y110.928 E0.01580
G1 X127.971 Y111.086 E0.01579
G1 X127.485 Y111.217 E0.01579
G1 X126.992 Y111.319 E0.01579
G1 X126.493 Y111.392 E0.01579
G1 X125.991 Y111.435 E0.01579
G1 X125.488 Y111.450 E0.01579
G1 X124.984 Y111.435 E0.01579
G1 X124.482 Y111.392 E0.01580
G1 X123.984 Y111.319 E0.01579
G1 X123.491 Y111.217 E0.01579
G1 X123.004 Y111.086 E0.01580
G1 X122.526 Y110.928 E0.01579
G1 X122.058 Y110.742 E0.01579
G1 X121.601 Y110.529 E0.01579
G1 X121.158 Y110.290 E0.01579
G1 X120.729 Y110.025 E0.01579
G1 X120.316 Y109.736 E0.01579
G1 X119.921 Y109.424 E0.01579
G1 X119.545 Y109.089 E0.01579
G1 X119.189 Y108.733 E0.01579
G1 X118.854 Y108.357 E0.01580
G1 X118.541 Y107.961 E0.01579
G1 X118.252 Y107.549 E0.01579
G1 X117.988 Y107.120 E0.01579
G1 X117.749 Y106.677 E0.01579
G1 X117.536 Y106.220 E0.01579
G1 X117.350 Y105.752 E0.01580
G1 X117.191 Y105.274 E0.01579
G1 X117.061 Y104.787 E0.01579
G1 X116.959 Y104.294 E0.01580
G1 X116.886 Y103.795 E0.01579
G1 X116.842 Y103.294 E0.01580
G1 X116.828 Y102.790 E0.01579
G1 X116.842 Y102.286 E0.01579
G1 X116.886 Y101.785 E0.01579
G1 X116.959 Y101.286 E0.01579
G1 X117.061 Y100.793 E0.01579
G1 X117.191 Y100.306 E0.01579
G1 X117.350 Y99.828 E0.01579
G1 X117.536 Y99.360 E0.01579
G1 X117.749 Y98.903 E0.01579
G1 X117.988 Y98.460 E0.01579
G1 X118.252 Y98.031 E0.01580
G1 X118.725 Y97.386 E0.02509
G1 X118.618 Y96.966 F10800.000
G1 F8640.000
