; generated by PrusaSlicer 2.9.4 on 2026-03-10 at 13:22:29 UTC


;
;

;
;
; 

; external perimeters extrusion width = 0.45mm
; perimeters extrusion width = 0.45mm
; infill extrusion width = 0.45mm
; solid infill extrusion width = 0.45mm
; top infill extrusion width = 0.40mm
; first layer extrusion width = 0.42mm

M73 P0 R81
M201 X9000 Y9000 Z500 E10000 ; sets maximum accelerations, mm/sec^2
M203 X500 Y500 Z12 E120 ; sets maximum feedrates, mm / sec
M204 S2000 T1500 ; sets acceleration (S) and retract acceleration (R), mm/sec^2
M205 X10.00 Y10.00 Z0.20 E4.50 ; sets the jerk limits, mm/sec
M205 S0 T0 ; sets the minimum extruding and travel feed rate, mm/sec

; printing object x_carriage_back.stl id:0 copy 0
; stop printing object x_carriage_back.stl id:0 copy 0

;TYPE:Custom
M83  ; extruder relative mode
M140 S85 ; set bed temp
M109 S160 ; Set extruder temp before bed level
M190 S85 ; wait for bed temp

G28 W ; home all without mesh bed level
G80 N7 ; mesh bed leveling

M109 S240 ; wait for extruder temp

M221 S100 ; Set flow to 100

G1 Y-3.0 F1000.0 ; go outside print area
G92 E0.0
G1 E8 ; Purge Bubble
G1 X60.0 E9.0 F1000.0 ; intro line
G1 X100.0 E12.5 F1000.0 ; intro line
G92 E0.0
G21 ; set units to millimeters
G90 ; use absolute coordinates
M83 ; use relative distances for extrusion

M900 K0.08 ; Filament gcode LA 1.5
M900 K45 ; Filament gcode LA 1.0




M107
;LAYER_CHANGE
;Z:0.2
;HEIGHT:0.2
G1 E-1 F2100
G1 Z.4 F720
G1 X109.467 Y63.806 F10800
G1 Z.2 F720
G1 E1 F2100
M204 S800
;TYPE:Skirt/Brim
;WIDTH:0.42
G1 F1200
G1 X110.43 Y62.92 E.04103
G1 X111.362 Y62.711 E.02995
G1 X138.638 Y62.711 E.85522
G1 X139.886 Y63.102 E.04101
G1 X140.533 Y63.806 E.02998
G1 X143.562 Y69.052 E.18993
G1 X143.841 Y69.896 E.02787
G1 X149.674 Y120.485 E1.59669
G1 X149.689 Y133.1 E.39553
G1 X149.428 Y134.136 E.0335
G1 X144.428 Y143.436 E.33107
G1 X143.166 Y144.485 E.05145
G1 X136.275 Y146.685 E.22681
G1 X135.61 Y146.789 E.0211
G1 X114.39 Y146.789 E.66534
G1 X113.725 Y146.685 E.0211
G1 X106.834 Y144.485 E.22681
G1 X105.572 Y143.436 E.05145
G1 X100.572 Y134.136 E.33107
G1 X100.311 Y133.1 E.0335
G1 X100.326 Y120.485 E.39553
G1 X106.159 Y69.896 E1.59669
G1 X106.438 Y69.052 E.02787
G1 X109.437 Y63.858 E.18805
M204 S1000
;WIPE_START
G1 F8640
G1 X109.467 Y63.806 E-.01386
G1 X110.43 Y62.92 E-.30215
G1 X111.362 Y62.711 E-.22055
G1 X113.369 Y62.711 E-.46344
;WIPE_END
G1 Z.4 F720
; printing object x_carriage_back.stl id:0 copy 0
G1 X140.958 Y131.557 F10800
G1 Z.2 F720
G1 E1 F2100
M204 S800
;TYPE:Perimeter
;WIDTH:0.419999
G1 F1200
G1 X140.814 Y131.699 E.00634
G1 X140.628 Y132.055 E.01259
G1 X140.559 Y132.479 E.01347
G1 X140.559 Y138.895 E.20117
G1 X140.457 Y138.774 E.00496
G1 X139.911 Y138.278 E.02313
G1 X139.191 Y137.817 E.02681
G1 X138.725 Y137.61 E.01599
G1 X138.053 Y137.412 E.02197
G1 X137.313 Y137.32 E.02338
G1 X136.479 Y137.357 E.02618
G1 X135.965 Y137.454 E.0164
G1 X135.258 Y137.701 E.02348
G1 X134.539 Y138.098 E.02575
G1 X134.113 Y138.416 E.01667
G1 X133.617 Y138.911 E.02197
G1 X133.203 Y139.477 E.02199
G1 X132.879 Y140.099 E.02199
G1 X132.654 Y140.764 E.02201
G1 X132.557 Y141.254 E.01566
G1 X132.512 Y141.955 E.02202
G1 X132.578 Y142.657 E.02211
G1 X117.418 Y142.667 E.47533
G1 X117.479 Y142.171 E.01567
G1 X117.48 Y141.777 E.01235
G1 X117.433 Y141.21 E.01784
G1 X117.234 Y140.402 E.02609
G1 X117.038 Y139.915 E.01646
G1 X116.687 Y139.308 E.02198
G1 X116.248 Y138.761 E.02199
G1 X115.731 Y138.288 E.02197
G1 X115.177 Y137.914 E.02096
G1 X114.717 Y137.687 E.01608
G1 X114.335 Y137.548 E.01275
G1 X113.653 Y137.38 E.02202
G1 X113.142 Y137.318 E.01614
G1 X112.441 Y137.335 E.02199
G1 X111.751 Y137.458 E.02198
G1 X111.087 Y137.686 E.02201
G1 X110.467 Y138.011 E.02195
G1 X109.903 Y138.428 E.02199
G1 X109.441 Y138.886 E.0204
G1 X109.441 Y132.479 E.20089
G1 X109.372 Y132.055 E.01347
G1 X109.186 Y131.699 E.01259
G1 X108.883 Y131.4 E.01335
G1 X108.508 Y131.217 E.01308
G1 X108.121 Y131.159 E.01227
G1 X104.441 Y131.159 E.11538
G1 X104.441 Y121.54 E.3016
G1 X105.24 Y120.741 E.03543
G1 X108.551 Y120.741 E.10381
G1 X108.762 Y121.28 E.01815
G1 X109.112 Y121.887 E.02197
G1 X109.55 Y122.434 E.02197
G1 X110.102 Y122.933 E.02333
G1 X110.809 Y123.381 E.02624
G1 X111.283 Y123.594 E.01629
G1 X111.956 Y123.791 E.02199
G1 X112.651 Y123.882 E.02198
G1 X113.35 Y123.867 E.02192
G1 X114.041 Y123.745 E.022
G1 X114.704 Y123.519 E.02196
G1 X115.325 Y123.195 E.02196
G1 X115.89 Y122.78 E.02198
G1 X116.385 Y122.284 E.02197
G1 X116.828 Y121.659 E.02402
G1 X117.149 Y120.995 E.02312
G1 X118.612 Y121.839 E.05296
G1 X119.277 Y122.184 E.02349
G1 X119.662 Y122.241 E.0122
G1 X129.526 Y122.241 E.30928
G1 X130.596 Y122.216 E.03356
G1 X130.998 Y122.064 E.01348
G1 X132.844 Y120.999 E.06682
G1 X132.962 Y121.28 E.00956
G1 X133.312 Y121.887 E.02197
G1 X133.75 Y122.434 E.02197
G1 X134.302 Y122.933 E.02333
G1 X135.009 Y123.381 E.02624
G1 X135.501 Y123.6 E.01689
G1 X136.156 Y123.791 E.02139
G1 X136.851 Y123.882 E.02198
G1 X137.55 Y123.867 E.02192
G1 X138.241 Y123.745 E.022
G1 X138.904 Y123.519 E.02196
G1 X139.525 Y123.195 E.02196
G1 X140.09 Y122.78 E.02198
G1 X140.585 Y122.284 E.02197
G1 X141.028 Y121.659 E.02402
G1 X141.451 Y120.741 E.03169
G1 X144.76 Y120.741 E.10375
G1 X145.559 Y121.54 E.03543
G1 X145.559 Y131.159 E.3016
G1 X141.879 Y131.159 E.11538
G1 X141.498 Y131.215 E.01207
G1 X141.117 Y131.4 E.01328
G1 X141.001 Y131.515 E.00512
M204 S1000
G1 X141.228 Y131.813 F10800
M204 S800
G1 F1200
G1 X141.166 Y131.861 E.00246
G1 X140.986 Y132.176 E.01138
G1 X140.936 Y132.479 E.00963
G1 X140.936 Y140.177 E.24136
G1 X140.789 Y139.878 E.01045
G1 X140.195 Y139.046 E.03205
G1 X139.702 Y138.592 E.02101
G1 X139.148 Y138.224 E.02085
G1 X138.611 Y137.969 E.01864
G1 X137.994 Y137.784 E.0202
G1 X137.325 Y137.696 E.02116
G1 X136.66 Y137.717 E.02086
G1 X136.078 Y137.813 E.01849
G1 X135.437 Y138.033 E.02125
G1 X134.821 Y138.365 E.02194
G1 X134.374 Y138.689 E.01731
G1 X133.917 Y139.141 E.02015
G1 X133.533 Y139.658 E.02019
G1 X133.234 Y140.228 E.02018
G1 X133.024 Y140.837 E.0202
G1 X132.927 Y141.328 E.01569
G1 X132.889 Y141.971 E.0202
G1 X132.955 Y142.611 E.02017
G1 X133.093 Y143.071 E.01506
G1 X132.586 Y143.037 E.01593
G1 X116.924 Y143.049 E.49107
G1 X117.044 Y142.622 E.01391
G1 X117.105 Y142.125 E.0157
G1 X117.104 Y141.812 E.00981
G1 X117.066 Y141.296 E.01622
G1 X116.915 Y140.648 E.02086
G1 X116.707 Y140.097 E.01847
G1 X116.388 Y139.538 E.02018
G1 X115.987 Y139.034 E.02019
G1 X115.515 Y138.597 E.02017
G1 X114.981 Y138.237 E.02019
G1 X114.399 Y137.963 E.02017
G1 X113.781 Y137.781 E.0202
G1 X113.143 Y137.695 E.02018
G1 X112.5 Y137.707 E.02016
G1 X111.866 Y137.817 E.02018
G1 X111.389 Y137.969 E.0157
G1 X110.808 Y138.245 E.02017
G1 X110.276 Y138.607 E.02018
G1 X109.805 Y139.046 E.02019
G1 X109.515 Y139.394 E.0142
G1 X109.185 Y139.918 E.01942
G1 X109.064 Y140.188 E.00928
G1 X109.058 Y132.371 E.2451
G1 X108.958 Y132.044 E.01072
G1 X108.732 Y131.76 E.01138
G1 X108.462 Y131.599 E.00986
G1 X108.121 Y131.536 E.01087
G1 X104.064 Y131.536 E.1272
G1 X104.064 Y121.383 E.31834
G1 X105.083 Y120.364 E.04518
G1 X108.83 Y120.364 E.11748
G1 X108.864 Y120.499 E.00437
G1 X109.093 Y121.099 E.02014
G1 X109.411 Y121.658 E.02016
G1 X109.811 Y122.162 E.02017
G1 X110.308 Y122.617 E.02113
G1 X110.914 Y123.01 E.02265
G1 X111.397 Y123.235 E.01671
G1 X112.013 Y123.418 E.02015
G1 X112.651 Y123.505 E.02019
G1 X113.293 Y123.494 E.02013
G1 X113.927 Y123.385 E.02017
G1 X114.537 Y123.181 E.02017
G1 X115.109 Y122.886 E.02018
G1 X115.629 Y122.508 E.02016
G1 X116.085 Y122.055 E.02015
G1 X116.489 Y121.495 E.02165
G1 X116.849 Y120.748 E.026
G1 X116.947 Y120.442 E.01007
G1 X119.31 Y121.796 E.08539
G1 X119.662 Y121.864 E.01124
G1 X129.526 Y121.864 E.30928
G1 X130.522 Y121.846 E.03123
G1 X130.81 Y121.738 E.00964
G1 X133.05 Y120.444 E.08111
G1 X133.293 Y121.099 E.0219
G1 X133.611 Y121.658 E.02016
G1 X134.011 Y122.162 E.02017
G1 X134.508 Y122.617 E.02113
G1 X135.114 Y123.01 E.02265
G1 X135.615 Y123.241 E.0173
G1 X136.213 Y123.418 E.01955
G1 X136.851 Y123.505 E.02019
G1 X137.493 Y123.494 E.02013
G1 X138.127 Y123.385 E.02017
G1 X138.737 Y123.181 E.02017
G1 X139.309 Y122.886 E.02018
G1 X139.829 Y122.508 E.02016
G1 X140.285 Y122.055 E.02015
G1 X140.689 Y121.495 E.02165
G1 X141.049 Y120.748 E.026
G1 X141.166 Y120.364 E.01259
G1 X144.917 Y120.364 E.11761
G1 X145.936 Y121.383 E.04518
G1 X145.936 Y131.536 E.31834
G1 X141.805 Y131.536 E.12952
G1 X141.459 Y131.635 E.01128
G1 X141.275 Y131.777 E.00729
M204 S1000
G1 X141.486 Y132.093 F10800
M204 S800
G1 F1200
G1 X141.377 Y132.218 E.0052
G1 X141.313 Y132.479 E.00843
G1 X141.313 Y141.213 E.27385
G1 X140.873 Y141.213 E.0138
G1 X140.726 Y140.653 E.01815
G1 X140.478 Y140.091 E.01926
G1 X139.933 Y139.317 E.02968
G1 X139.494 Y138.906 E.01886
G1 X138.939 Y138.539 E.02086
G1 X138.496 Y138.328 E.01539
G1 X137.936 Y138.157 E.01836
G1 X137.337 Y138.073 E.01896
G1 X136.672 Y138.094 E.02086
G1 X136.191 Y138.173 E.01528
G1 X135.62 Y138.362 E.01886
G1 X135.097 Y138.644 E.01863
G1 X134.634 Y138.961 E.01759
G1 X134.216 Y139.371 E.01836
G1 X133.864 Y139.84 E.01839
G1 X133.588 Y140.357 E.01838
G1 X133.394 Y140.91 E.01837
G1 X133.287 Y141.487 E.0184
G1 X133.269 Y142.079 E.01857
G1 X133.336 Y142.61 E.01678
G1 X133.529 Y143.168 E.01851
G1 X133.717 Y143.486 E.01158
G1 X132.583 Y143.414 E.03563
G1 X118.4 Y143.413 E.4447
G1 X116.867 Y143.43 E.04807
G1 X116.295 Y143.502 E.01808
G1 X116.471 Y143.167 E.01187
G1 X116.669 Y142.576 E.01954
G1 X116.734 Y141.986 E.01861
G1 X116.699 Y141.382 E.01897
G1 X116.547 Y140.734 E.02087
G1 X116.376 Y140.278 E.01527
G1 X116.089 Y139.767 E.01838
G1 X115.727 Y139.306 E.01838
G1 X115.299 Y138.906 E.01837
G1 X114.815 Y138.576 E.01837
G1 X114.286 Y138.323 E.01839
G1 X113.724 Y138.154 E.0184
G1 X113.144 Y138.072 E.01837
G1 X112.558 Y138.08 E.01838
G1 X111.98 Y138.177 E.01838
G1 X111.503 Y138.329 E.0157
G1 X110.976 Y138.583 E.01834
G1 X110.493 Y138.915 E.01838
G1 X110.067 Y139.317 E.01837
G1 X109.767 Y139.689 E.01498
G1 X109.461 Y140.207 E.01886
;WIDTH:0.456772
G1 X109.204 Y140.821 E.02291
;WIDTH:0.479864
G1 X109.121 Y141.183 E.01349
G1 X108.717 Y141.183 E.01468
G1 X108.705 Y140.729 E.0165
;WIDTH:0.456772
G1 X108.687 Y140.063 E.02293
;WIDTH:0.419999
G1 X108.683 Y132.414 E.23983
G1 X108.578 Y132.144 E.00908
G1 X108.378 Y131.975 E.00821
G1 X108.121 Y131.913 E.00829
G1 X103.687 Y131.913 E.13902
G1 X103.687 Y121.227 E.33505
G1 X104.927 Y119.987 E.05498
G1 X109.149 Y119.987 E.13238
G1 X109.219 Y120.37 E.01221
G1 X109.424 Y120.918 E.01835
G1 X109.711 Y121.429 E.01838
G1 X110.072 Y121.89 E.01836
G1 X110.515 Y122.301 E.01895
G1 X111.073 Y122.666 E.02091
G1 X111.51 Y122.875 E.01519
G1 X112.071 Y123.045 E.01838
G1 X112.651 Y123.128 E.01837
G1 X113.236 Y123.122 E.01834
G1 X113.813 Y123.026 E.01834
G1 X114.37 Y122.843 E.01838
G1 X114.892 Y122.578 E.01836
G1 X115.368 Y122.236 E.01838
G1 X115.786 Y121.826 E.01836
G1 X116.149 Y121.331 E.01925
G1 X116.549 Y120.477 E.02957
G1 X116.671 Y119.992 E.01568
G1 X116.912 Y119.987 E.00756
G1 X119.387 Y121.416 E.08961
G1 X119.662 Y121.487 E.00891
G1 X129.526 Y121.487 E.30928
G1 X130.359 Y121.487 E.02612
G1 X130.621 Y121.411 E.00855
G1 X133.088 Y119.987 E.08931
G1 X133.349 Y119.987 E.00818
G1 X133.419 Y120.37 E.01221
G1 X133.624 Y120.918 E.01835
G1 X133.911 Y121.429 E.01838
G1 X134.272 Y121.89 E.01836
G1 X134.715 Y122.301 E.01895
G1 X135.273 Y122.666 E.02091
G1 X135.728 Y122.881 E.01578
G1 X136.271 Y123.045 E.01778
G1 X136.851 Y123.128 E.01837
G1 X137.435 Y123.122 E.01831
G1 X138.013 Y123.026 E.01837
G1 X138.57 Y122.843 E.01838
G1 X139.092 Y122.578 E.01836
G1 X139.568 Y122.236 E.01838
G1 X139.986 Y121.826 E.01836
G1 X140.349 Y121.331 E.01925
G1 X140.749 Y120.477 E.02957
G1 X140.872 Y119.987 E.01584
G1 X145.073 Y119.987 E.13172
G1 X146.313 Y121.227 E.05498
G1 X146.313 Y131.913 E.33505
G1 X141.832 Y131.913 E.1405
G1 X141.552 Y132.016 E.00935
G1 X141.525 Y132.048 E.00131
M204 S1000
G1 X141.737 Y132.376 F10800
M204 S800
;TYPE:External perimeter
G1 F1200
G1 X141.69 Y132.479 E.00355
G1 X141.69 Y141.59 E.28567
G1 X140.541 Y141.59 E.03603
G1 X140.508 Y141.311 E.00881
G1 X140.379 Y140.799 E.01656
G1 X140.167 Y140.304 E.01688
G1 X139.672 Y139.589 E.02727
G1 X139.285 Y139.221 E.01674
G1 X138.731 Y138.853 E.02085
G1 X138.382 Y138.688 E.0121
G1 X137.878 Y138.53 E.01656
G1 X137.349 Y138.45 E.01677
G1 X136.684 Y138.471 E.02086
G1 X136.304 Y138.533 E.01207
G1 X135.796 Y138.696 E.01673
G1 X135.276 Y138.976 E.01852
G1 X134.895 Y139.234 E.01443
G1 X134.515 Y139.6 E.01654
G1 X134.195 Y140.021 E.01658
G1 X133.942 Y140.486 E.0166
G1 X133.764 Y140.983 E.01655
G1 X133.663 Y141.503 E.01661
G1 X133.644 Y142.033 E.01663
G1 X133.707 Y142.541 E.01605
G1 X133.884 Y143.04 E.0166
G1 X134.034 Y143.282 E.00893
G1 X134.231 Y143.5 E.00921
G1 X134.604 Y143.978 E.01901
G1 X134.104 Y143.99 E.01568
G1 X133.699 Y143.891 E.01307
G1 X133.279 Y143.84 E.01327
G1 X132.58 Y143.791 E.02197
G1 X118.4 Y143.79 E.4446
G1 X116.93 Y143.803 E.04609
G1 X116.419 Y143.861 E.01612
G1 X115.928 Y143.99 E.01592
G1 X115.396 Y143.978 E.01668
G1 X115.881 Y143.4 E.02366
G1 X116.116 Y143.04 E.01348
G1 X116.295 Y142.53 E.01695
G1 X116.358 Y142.002 E.01667
G1 X116.332 Y141.467 E.01679
G1 X116.18 Y140.82 E.02084
G1 X116.046 Y140.459 E.01207
G1 X115.79 Y139.997 E.01656
G1 X115.466 Y139.579 E.01658
G1 X115.083 Y139.215 E.01657
G1 X114.648 Y138.914 E.01659
G1 X114.173 Y138.683 E.01656
G1 X113.668 Y138.527 E.01657
G1 X113.145 Y138.449 E.01658
G1 X112.616 Y138.452 E.01659
G1 X112.094 Y138.536 E.01658
G1 X111.617 Y138.688 E.0157
G1 X111.143 Y138.921 E.01656
G1 X110.71 Y139.224 E.01657
G1 X110.328 Y139.589 E.01657
G1 X110.089 Y139.886 E.01195
G1 X109.813 Y140.343 E.01674
G1 X109.563 Y141.001 E.02207
G1 X109.468 Y141.59 E.01871
G1 X108.31 Y141.59 E.03631
G1 X108.31 Y132.479 E.28567
G1 X108.264 Y132.355 E.00415
G1 X108.121 Y132.29 E.00493
G1 X103.31 Y132.29 E.15085
G1 X103.31 Y121.071 E.35176
G1 X104.771 Y119.61 E.06478
G1 X109.473 Y119.61 E.14743
G1 X109.574 Y120.242 E.02007
G1 X109.755 Y120.737 E.01653
G1 X110.01 Y121.2 E.01657
G1 X110.333 Y121.618 E.01656
G1 X110.721 Y121.986 E.01677
G1 X111.279 Y122.35 E.02089
G1 X111.624 Y122.516 E.012
G1 X112.128 Y122.673 E.01655
G1 X112.651 Y122.751 E.01658
G1 X113.178 Y122.749 E.01652
G1 X113.7 Y122.666 E.01657
G1 X114.203 Y122.505 E.01656
G1 X114.676 Y122.269 E.01657
G1 X115.107 Y121.964 E.01656
G1 X115.486 Y121.596 E.01656
G1 X115.81 Y121.167 E.01686
G1 X116.17 Y120.42 E.026
G1 X116.264 Y120.067 E.01145
G1 X116.336 Y119.61 E.01451
G1 X117.013 Y119.61 E.02123
G1 X119.177 Y120.859 E.07834
G1 X119.662 Y121.11 E.01712
G1 X129.526 Y121.11 E.30928
G1 X130.43 Y121.086 E.02835
G1 X132.987 Y119.61 E.09257
G1 X133.673 Y119.61 E.02151
G1 X133.774 Y120.242 E.02007
G1 X133.955 Y120.737 E.01653
G1 X134.21 Y121.2 E.01657
G1 X134.533 Y121.618 E.01656
G1 X134.921 Y121.986 E.01677
G1 X135.479 Y122.35 E.02089
G1 X135.842 Y122.522 E.01259
G1 X136.328 Y122.673 E.01596
G1 X136.851 Y122.751 E.01658
G1 X137.378 Y122.749 E.01652
G1 X137.9 Y122.666 E.01657
G1 X138.403 Y122.505 E.01656
G1 X138.876 Y122.269 E.01657
G1 X139.307 Y121.964 E.01656
G1 X139.686 Y121.596 E.01656
G1 X140.01 Y121.167 E.01686
G1 X140.383 Y120.385 E.02717
G1 X140.506 Y119.9 E.01569
M73 P0 R80
G1 X140.536 Y119.61 E.00914
G1 X145.229 Y119.61 E.14715
G1 X146.69 Y121.071 E.06478
G1 X146.69 Y132.29 E.35176
G1 X141.879 Y132.29 E.15085
G1 X141.77 Y132.33 E.00364
M204 S1000
;WIPE_START
G1 F8640
G1 X141.737 Y132.376 E-.01307
G1 X141.69 Y132.479 E-.02614
G1 X141.69 Y136.64 E-.96079
;WIPE_END
G1 Z.4 F720
G1 X144.458 Y120.892 F10800
G1 Z.2 F720
G1 E1 F2100
M204 S800
;TYPE:Solid infill
;WIDTH:0.420141
G1 F1200
G1 X145.238 Y121.673 E.03462
G1 X145.238 Y122.206 E.01672
G1 X144.094 Y121.062 E.05075
G1 X143.561 Y121.062 E.01672
M73 P1 R80
G1 X145.238 Y122.739 E.07439
G1 X145.238 Y123.273 E.01675
G1 X143.027 Y121.062 E.09808
G1 X142.494 Y121.062 E.01672
G1 X145.238 Y123.806 E.12172
G1 X145.238 Y124.34 E.01675
G1 X141.96 Y121.062 E.14541
G1 X141.666 Y121.062 E.00922
G1 X141.589 Y121.224 E.00563
G1 X145.238 Y124.873 E.16186
G1 X145.238 Y125.407 E.01675
G1 X141.418 Y121.586 E.16947
