; generated by PrusaSlicer 2.0.0+ on 2019-09-14 at 01:45:35

; 

; external perimeters extrusion width = 0.60mm
; perimeters extrusion width = 0.43mm
; infill extrusion width = 0.45mm
; solid infill extrusion width = 0.70mm
; top infill extrusion width = 0.43mm
; first layer extrusion width = 0.42mm

M73 P0 R35
M201 X9000 Y9000 Z500 E10000 ; sets maximum accelerations, mm/sec^2
M203 X500 Y500 Z12 E120 ; sets maximum feedrates, mm/sec
M204 P2000 R1500 T2000 ; sets acceleration (P, T) and retract acceleration (R), mm/sec^2
M205 X10.00 Y10.00 Z0.20 E2.50 ; sets the jerk limits, mm/sec
M205 S0 T0 ; sets the minimum extruding and travel feed rate, mm/sec
M107
M83  ; extruder relative mode
M140 S75 ; set bed temp
M109 S160 ; Set extruder temp before bed level
M190 S75 ; wait for bed temp

G28 W ; home all without mesh bed level
G80 N7 ; mesh bed leveling

M109 S240 ; wait for extruder temp

M221 S100 ; Set flow to 100

G1 Y-3.0 F1000.0 ; go outside print area
G92 E0.0
G1 E8 ; Purge Bubble
M73 P0 R35
G1 X60.0 E9.0 F1000.0 ; intro line
G1 X100.0 E12.5 F1000.0 ; intro line
G92 E0.0
M900 K45; Filament gcode
G21 ; set units to millimeters
G90 ; use absolute coordinates
M83 ; use relative distances for extrusion
;BEFORE_LAYER_CHANGE
G92 E0.0
;0.2


G1 E-0.80000 F2100.00000
G1 Z0.600 F10800.000
;AFTER_LAYER_CHANGE
;0.2
G1 X71.188 Y92.386
G1 Z0.200
G1 E0.80000 F2100.00000
M204 S1000
G1 F1200
G1 X72.276 Y92.270 E0.03156
G1 X177.726 Y92.270 E3.04182
G1 X178.805 Y92.385 E0.03129
G1 X179.644 Y92.638 E0.02530
G1 X180.417 Y93.033 E0.02503
G1 X181.268 Y93.703 E0.03125
G1 X181.834 Y94.380 E0.02545
G1 X182.351 Y95.328 E0.03114
G1 X182.611 Y96.173 E0.02552
G1 X182.728 Y97.184 E0.02936
G1 X182.730 Y112.737 E0.44863
G1 X182.615 Y113.805 E0.03098
G1 X182.389 Y114.576 E0.02319
G1 X182.118 Y115.162 E0.01860
G1 X181.284 Y116.281 E0.04027
G1 X180.164 Y117.117 E0.04031
G1 X179.580 Y117.387 E0.01855
G1 X178.812 Y117.614 E0.02310
G1 X177.724 Y117.730 E0.03156
G1 X72.205 Y117.729 E3.04382
G1 X71.404 Y117.655 E0.02318
G1 X70.451 Y117.398 E0.02847
G1 X69.797 Y117.095 E0.02081
G1 X69.133 Y116.652 E0.02304
G1 X68.559 Y116.110 E0.02277
G1 X67.999 Y115.363 E0.02693
G1 X67.631 Y114.628 E0.02370
G1 X67.386 Y113.812 E0.02457
G1 X67.270 Y112.728 E0.03146
G1 X67.270 Y97.267 E0.44600
G1 X67.341 Y96.426 E0.02434
G1 X67.555 Y95.587 E0.02498
G1 X67.853 Y94.893 E0.02176
G1 X68.218 Y94.306 E0.01996
G1 X68.680 Y93.756 E0.02072
G1 X69.193 Y93.301 E0.01978
G1 X69.826 Y92.888 E0.02179
G1 X70.416 Y92.614 E0.01876
G1 X71.130 Y92.403 E0.02148
G1 F8640
G1 X72.276 Y92.270 E-0.26627
G1 X74.414 Y92.270 E-0.49373
G1 E-0.04000 F2100.00000
G1 Z0.800 F10800.000
G1 X97.471 Y103.869
G1 Z0.200
G1 E0.80000 F2100.00000
G1 F1200
G1 X97.660 Y103.543 E0.01088
G1 X97.901 Y103.240 E0.01116
G1 X98.185 Y102.977 E0.01116
G1 X98.504 Y102.759 E0.01116
G1 X98.853 Y102.591 E0.01116
G1 X99.223 Y102.477 E0.01116
G1 X99.605 Y102.420 E0.01116
G1 X99.992 Y102.420 E0.01116
G1 X100.375 Y102.477 E0.01116
G1 X100.745 Y102.591 E0.01116
G1 X101.094 Y102.760 E0.01120
G1 X101.420 Y102.984 E0.01140
G1 X101.696 Y103.240 E0.01088
G1 X101.938 Y103.543 E0.01116
G1 X102.131 Y103.878 E0.01116
G1 X102.272 Y104.238 E0.01116
G1 X102.359 Y104.615 E0.01116
G1 X102.387 Y105.001 E0.01116
G1 X102.359 Y105.387 E0.01116
G1 X102.272 Y105.764 E0.01116
G1 X102.131 Y106.124 E0.01116
G1 X101.938 Y106.459 E0.01116
G1 X101.696 Y106.762 E0.01116
G1 X101.412 Y107.026 E0.01120
G1 X101.084 Y107.247 E0.01140
G1 X100.745 Y107.411 E0.01088
G1 X100.375 Y107.525 E0.01116
G1 X99.992 Y107.583 E0.01116
G1 X99.604 Y107.583 E0.01120
G1 X99.213 Y107.522 E0.01140
G1 X98.853 Y107.411 E0.01088
G1 X98.504 Y107.243 E0.01116
G1 X98.185 Y107.025 E0.01116
G1 X97.901 Y106.762 E0.01116
G1 X97.660 Y106.459 E0.01116
G1 X97.466 Y106.124 E0.01116
G1 X97.325 Y105.764 E0.01116
G1 X97.239 Y105.387 E0.01116
G1 X97.210 Y105.001 E0.01116
G1 X97.239 Y104.615 E0.01116
G1 X97.325 Y104.237 E0.01120
G1 X97.449 Y103.925 E0.00967
G1 X97.800 Y104.064 F10800.000
G1 F1200
G1 X97.972 Y103.756 E0.01020
G1 X98.178 Y103.498 E0.00953
G1 X98.420 Y103.273 E0.00953
G1 X98.693 Y103.087 E0.00953
G1 X98.991 Y102.943 E0.00953
G1 X99.307 Y102.846 E0.00953
G1 X99.634 Y102.797 E0.00953
G1 X99.964 Y102.797 E0.00953
G1 X100.291 Y102.846 E0.00953
G1 X100.606 Y102.943 E0.00953
G1 X100.904 Y103.087 E0.00954
G1 X101.184 Y103.279 E0.00977
G1 X101.419 Y103.498 E0.00927
G1 X101.625 Y103.756 E0.00953
G1 X101.790 Y104.042 E0.00953
G1 X101.911 Y104.350 E0.00953
G1 X101.985 Y104.672 E0.00953
G1 X102.009 Y105.001 E0.00953
G1 X101.985 Y105.331 E0.00953
G1 X101.911 Y105.653 E0.00953
G1 X101.790 Y105.960 E0.00953
G1 X101.625 Y106.246 E0.00953
G1 X101.419 Y106.505 E0.00953
G1 X101.177 Y106.730 E0.00954
G1 X100.896 Y106.919 E0.00977
G1 X100.606 Y107.059 E0.00927
G1 X100.291 Y107.156 E0.00953
G1 X99.964 Y107.206 E0.00953
G1 X99.633 Y107.206 E0.00954
G1 X99.298 Y107.154 E0.00977
G1 X98.991 Y107.059 E0.00927
G1 X98.693 Y106.916 E0.00953
G1 X98.420 Y106.729 E0.00953
G1 X98.178 Y106.505 E0.00953
G1 X97.972 Y106.246 E0.00953
G1 X97.807 Y105.960 E0.00953
G1 X97.686 Y105.653 E0.00953
G1 X97.613 Y105.331 E0.00953
G1 X97.588 Y105.001 E0.00953
G1 X97.613 Y104.672 E0.00953
G1 X97.686 Y104.349 E0.00954
G1 X97.777 Y104.120 E0.00711
G1 X97.598 Y103.774 F10800.000
G1 F8640
G1 X97.972 Y103.756 E-0.09541
G1 X98.178 Y103.498 E-0.07629
G1 X98.420 Y103.273 E-0.07629
G1 X98.693 Y103.087 E-0.07629
G1 X98.991 Y102.943 E-0.07629
G1 X99.307 Y102.846 E-0.07629
G1 X99.634 Y102.797 E-0.07629
G1 X99.964 Y102.797 E-0.07629
G1 X100.291 Y102.846 E-0.07629
G1 X100.515 Y102.915 E-0.05428
G1 E-0.04000 F2100.00000
G1 Z0.800 F10800.000
G1 X147.958 Y104.879
G1 Z0.200
G1 E0.80000 F2100.00000
G1 F1200
G1 X147.985 Y104.485 E0.01140
G1 X148.072 Y104.106 E0.01120
G1 X148.213 Y103.746 E0.01116
G1 X148.407 Y103.411 E0.01116
G1 X148.648 Y103.109 E0.01116
G1 X148.932 Y102.845 E0.01120
G1 X149.260 Y102.623 E0.01140
G1 X149.600 Y102.460 E0.01088
G1 X149.969 Y102.346 E0.01116
G1 X150.352 Y102.288 E0.01116
G1 X150.739 Y102.288 E0.01116
G1 X151.122 Y102.346 E0.01116
G1 X151.491 Y102.460 E0.01116
G1 X151.840 Y102.627 E0.01116
G1 X152.161 Y102.846 E0.01120
G1 X152.449 Y103.116 E0.01140
G1 X152.684 Y103.411 E0.01088
G1 X152.878 Y103.746 E0.01116
G1 X153.019 Y104.106 E0.01116
G1 X153.105 Y104.484 E0.01116
G1 X153.134 Y104.869 E0.01116
G1 X153.105 Y105.255 E0.01116
G1 X153.019 Y105.634 E0.01120
G1 X152.873 Y106.001 E0.01140
G1 X152.684 Y106.328 E0.01088
G1 X152.443 Y106.630 E0.01116
G1 X152.160 Y106.893 E0.01116
G1 X151.840 Y107.111 E0.01116
G1 X151.491 Y107.279 E0.01116
G1 X151.122 Y107.393 E0.01116
G1 X150.739 Y107.451 E0.01116
G1 X150.351 Y107.451 E0.01120
G1 X149.960 Y107.390 E0.01140
G1 X149.600 Y107.279 E0.01088
G1 X149.251 Y107.111 E0.01116
G1 X148.931 Y106.893 E0.01116
G1 X148.648 Y106.630 E0.01116
G1 X148.407 Y106.328 E0.01116
G1 X148.213 Y105.993 E0.01116
G1 X148.072 Y105.632 E0.01116
G1 X147.986 Y105.255 E0.01116
G1 X147.962 Y104.939 E0.00915
G1 X148.338 Y104.911 F10800.000
G1 F1200
G1 X148.360 Y104.540 E0.01070
G1 X148.433 Y104.218 E0.00954
G1 X148.554 Y103.910 E0.00953
G1 X148.719 Y103.624 E0.00953
G1 X148.925 Y103.366 E0.00953
G1 X149.168 Y103.141 E0.00954
G1 X149.448 Y102.951 E0.00977
G1 X149.738 Y102.812 E0.00927
G1 X150.054 Y102.714 E0.00953
G1 X150.380 Y102.665 E0.00953
G1 X150.711 Y102.665 E0.00953
G1 X151.037 Y102.714 E0.00953
G1 X151.353 Y102.812 E0.00953
G1 X151.651 Y102.955 E0.00953
G1 X151.924 Y103.141 E0.00954
G1 X152.172 Y103.373 E0.00977
G1 X152.372 Y103.624 E0.00927
G1 X152.537 Y103.910 E0.00953
G1 X152.658 Y104.218 E0.00953
G1 X152.731 Y104.540 E0.00953
G1 X152.756 Y104.869 E0.00953
G1 X152.731 Y105.199 E0.00953
G1 X152.658 Y105.521 E0.00954
G1 X152.533 Y105.836 E0.00977
G1 X152.372 Y106.115 E0.00927
G1 X152.166 Y106.373 E0.00953
G1 X151.924 Y106.598 E0.00953
G1 X151.651 Y106.784 E0.00953
G1 X151.353 Y106.927 E0.00953
G1 X151.037 Y107.025 E0.00953
G1 X150.711 Y107.074 E0.00953
G1 X150.380 Y107.074 E0.00954
G1 X150.045 Y107.022 E0.00977
G1 X149.738 Y106.927 E0.00927
G1 X149.440 Y106.784 E0.00953
G1 X149.167 Y106.598 E0.00953
G1 X148.925 Y106.373 E0.00953
G1 X148.719 Y106.115 E0.00953
G1 X148.554 Y105.829 E0.00953
G1 X148.433 Y105.521 E0.00953
G1 X148.360 Y105.199 E0.00953
G1 X148.343 Y104.971 E0.00660
G1 X148.014 Y104.729 F10800.000
G1 F8640
G1 X148.360 Y104.540 E-0.09943
G1 X148.433 Y104.218 E-0.07639
G1 X148.554 Y103.910 E-0.07629
G1 X148.719 Y103.624 E-0.07629
G1 X148.925 Y103.366 E-0.07629
G1 X149.168 Y103.141 E-0.07639
G1 X149.448 Y102.951 E-0.07824
G1 X149.738 Y102.812 E-0.07422
G1 X150.054 Y102.714 E-0.07629
G1 X150.269 Y102.682 E-0.05018
G1 E-0.04000 F2100.00000
G1 Z0.800 F10800.000
G1 X148.344 Y95.282
G1 Z0.200
G1 E0.80000 F2100.00000
G1 F1200
G1 X177.721 Y95.285 E0.84742
G1 X178.164 Y95.366 E0.01298
G1 X178.379 Y95.440 E0.00655
G1 X178.750 Y95.633 E0.01206
G1 X179.092 Y95.908 E0.01267
G1 X179.238 Y96.071 E0.00630
G1 X179.466 Y96.417 E0.01197
G1 X179.633 Y96.835 E0.01298
G1 X179.715 Y97.267 E0.01268
G1 X179.727 Y97.519 E0.00728
G1 X179.727 Y112.481 E0.43159
G1 X179.716 Y112.719 E0.00688
G1 X179.629 Y113.177 E0.01344
G1 X179.478 Y113.556 E0.01178
G1 X179.350 Y113.775 E0.00732
G1 X179.092 Y114.092 E0.01179
G1 X178.929 Y114.238 E0.00630
G1 X178.583 Y114.466 E0.01197
G1 X178.191 Y114.625 E0.01220
G1 X177.938 Y114.686 E0.00751
G1 X177.481 Y114.727 E0.01323
G1 X72.519 Y114.727 E3.02773
G1 X72.062 Y114.686 E0.01323
G1 X71.809 Y114.625 E0.00751
G1 X71.417 Y114.466 E0.01220
G1 X71.071 Y114.238 E0.01197
G1 X70.762 Y113.929 E0.01258
G1 X70.534 Y113.583 E0.01197
G1 X70.375 Y113.191 E0.01220
G1 X70.314 Y112.938 E0.00751
G1 X70.273 Y112.481 E0.01323
G1 X70.284 Y97.281 E0.43846
G1 X70.371 Y96.823 E0.01344
G1 X70.440 Y96.621 E0.00616
G1 X70.650 Y96.225 E0.01293
G1 X70.908 Y95.908 E0.01179
G1 X71.071 Y95.762 E0.00630
G1 X71.417 Y95.534 E0.01197
G1 X71.809 Y95.375 E0.01220
G1 X72.062 Y95.314 E0.00751
G1 X72.519 Y95.273 E0.01323
G1 X148.284 Y95.282 E2.18550
G1 X148.284 Y94.905 F10800.000
G1 F1200
G1 X177.747 Y94.908 E0.84990
G1 X178.037 Y94.948 E0.00844
G1 X178.269 Y95.004 E0.00688
G1 X178.519 Y95.090 E0.00763
G1 X178.956 Y95.317 E0.01421
G1 X179.167 Y95.469 E0.00749
G1 X179.359 Y95.641 E0.00745
G1 X179.531 Y95.833 E0.00745
G1 X179.800 Y96.242 E0.01412
G1 X179.910 Y96.481 E0.00758
G1 X179.996 Y96.731 E0.00762
G1 X180.091 Y97.232 E0.01471
G1 X180.104 Y97.510 E0.00804
G1 X180.104 Y112.490 E0.43211
G1 X180.091 Y112.763 E0.00789
G1 X179.995 Y113.274 E0.01499
G1 X179.813 Y113.731 E0.01418
G1 X179.666 Y113.982 E0.00841
G1 X179.359 Y114.359 E0.01402
G1 X179.167 Y114.531 E0.00745
G1 X178.758 Y114.800 E0.01412
G1 X178.297 Y114.987 E0.01434
G1 X178.009 Y115.057 E0.00856
G1 X177.490 Y115.104 E0.01502
G1 X72.510 Y115.104 E3.02824
G1 X71.991 Y115.057 E0.01502
G1 X71.703 Y114.987 E0.00856
G1 X71.242 Y114.800 E0.01434
G1 X70.833 Y114.531 E0.01412
G1 X70.641 Y114.359 E0.00745
G1 X70.469 Y114.167 E0.00745
G1 X70.200 Y113.758 E0.01412
G1 X70.013 Y113.297 E0.01434
G1 X69.943 Y113.009 E0.00856
G1 X69.896 Y112.490 E0.01502
G1 X69.896 Y97.510 E0.43211
G1 X69.909 Y97.237 E0.00789
G1 X70.005 Y96.726 E0.01499
G1 X70.090 Y96.481 E0.00749
G1 X70.187 Y96.269 E0.00671
G1 X70.334 Y96.018 E0.00841
G1 X70.641 Y95.641 E0.01402
G1 X70.833 Y95.469 E0.00745
G1 X71.242 Y95.200 E0.01412
G1 X71.703 Y95.013 E0.01434
G1 X71.991 Y94.943 E0.00856
G1 X72.510 Y94.896 E0.01502
G1 X148.224 Y94.905 E2.18403
G1 X148.484 Y95.251 F10800.000
G1 F8640
G1 X151.515 Y94.905 E-0.76000
G1 E-0.04000 F2100.00000
G1 Z0.800 F10800.000
G1 X155.714 Y114.614
G1 Z0.200
G1 E0.80000 F2100.00000
G1 F1200
G1 X136.664 Y95.563 E0.77847
G1 X136.129 Y95.563 E0.01544
G1 X155.010 Y114.444 E0.77154
G1 X154.476 Y114.444 E0.01544
G1 X135.595 Y95.563 E0.77155
G1 X135.061 Y95.563 E0.01544
G1 X153.942 Y114.444 E0.77155
G1 X153.408 Y114.444 E0.01544
G1 X134.527 Y95.563 E0.77155
G1 X133.992 Y95.563 E0.01544
G1 X152.873 Y114.444 E0.77155
G1 X152.339 Y114.444 E0.01544
G1 X133.458 Y95.563 E0.77156
M73 P2 R34
G1 X132.924 Y95.563 E0.01544
G1 X151.805 Y114.444 E0.77156
G1 X151.271 Y114.444 E0.01544
G1 X132.390 Y95.563 E0.77156
G1 X131.855 Y95.563 E0.01544
G1 X150.737 Y114.444 E0.77156
G1 X150.203 Y114.444 E0.01544
G1 X131.321 Y95.563 E0.77157
G1 X130.787 Y95.563 E0.01544
G1 X149.668 Y114.444 E0.77157
G1 X149.134 Y114.444 E0.01544
G1 X130.253 Y95.563 E0.77157
G1 X129.718 Y95.563 E0.01544
G1 X148.600 Y114.444 E0.77157
G1 X148.066 Y114.444 E0.01544
G1 X129.184 Y95.563 E0.77158
G1 X128.650 Y95.562 E0.01544
G1 X147.532 Y114.444 E0.77158
G1 X146.997 Y114.444 E0.01544
G1 X128.116 Y95.562 E0.77158
G1 X127.581 Y95.562 E0.01544
G1 X146.463 Y114.444 E0.77158
G1 X145.929 Y114.444 E0.01544
G1 X127.047 Y95.562 E0.77159
G1 X126.513 Y95.562 E0.01544
G1 X145.395 Y114.444 E0.77159
G1 X144.861 Y114.444 E0.01544
G1 X125.979 Y95.562 E0.77159
G1 X125.444 Y95.562 E0.01544
G1 X144.327 Y114.444 E0.77159
G1 X143.792 Y114.444 E0.01544
G1 X124.910 Y95.562 E0.77160
G1 X124.376 Y95.562 E0.01544
G1 X143.258 Y114.444 E0.77160
G1 X142.724 Y114.444 E0.01544
G1 X123.842 Y95.562 E0.77160
G1 X123.308 Y95.562 E0.01544
G1 X142.190 Y114.444 E0.77160
G1 X141.656 Y114.444 E0.01544
G1 X122.773 Y95.562 E0.77161
G1 X122.239 Y95.562 E0.01544
G1 X141.121 Y114.444 E0.77161
G1 X140.587 Y114.444 E0.01544
G1 X121.705 Y95.562 E0.77161
G1 X121.171 Y95.562 E0.01544
G1 X140.053 Y114.444 E0.77161
G1 X139.519 Y114.444 E0.01544
G1 X120.636 Y95.562 E0.77162
G1 X120.102 Y95.561 E0.01544
G1 X138.985 Y114.444 E0.77162
G1 X138.451 Y114.444 E0.01544
G1 X119.568 Y95.561 E0.77162
G1 X119.034 Y95.561 E0.01544
G1 X137.916 Y114.444 E0.77162
G1 X137.382 Y114.444 E0.01544
G1 X118.499 Y95.561 E0.77163
G1 X117.965 Y95.561 E0.01544
G1 X136.848 Y114.444 E0.77163
G1 X136.314 Y114.444 E0.01544
G1 X117.431 Y95.561 E0.77163
G1 X116.897 Y95.561 E0.01544
G1 X135.780 Y114.444 E0.77163
G1 X135.245 Y114.444 E0.01544
G1 X116.362 Y95.561 E0.77164
G1 X115.828 Y95.561 E0.01544
G1 X134.711 Y114.444 E0.77164
G1 X134.177 Y114.444 E0.01544
G1 X115.294 Y95.561 E0.77164
G1 X114.760 Y95.561 E0.01544
G1 X133.643 Y114.444 E0.77165
G1 X133.109 Y114.444 E0.01544
G1 X114.225 Y95.561 E0.77165
G1 X113.691 Y95.561 E0.01544
G1 X132.575 Y114.444 E0.77165
G1 X132.040 Y114.444 E0.01544
G1 X113.157 Y95.561 E0.77165
G1 X112.623 Y95.561 E0.01544
G1 X131.506 Y114.444 E0.77166
G1 X130.972 Y114.444 E0.01544
G1 X112.088 Y95.561 E0.77166
G1 X111.554 Y95.560 E0.01544
G1 X130.438 Y114.444 E0.77166
G1 X129.904 Y114.444 E0.01544
G1 X111.020 Y95.560 E0.77166
G1 X110.486 Y95.560 E0.01544
G1 X129.369 Y114.444 E0.77167
G1 X128.835 Y114.444 E0.01544
G1 X109.951 Y95.560 E0.77167
M73 P5 R33
G1 X109.417 Y95.560 E0.01544
G1 X128.301 Y114.444 E0.77167
G1 X127.767 Y114.444 E0.01544
G1 X108.883 Y95.560 E0.77167
G1 X108.349 Y95.560 E0.01544
G1 X127.233 Y114.444 E0.77168
G1 X126.699 Y114.444 E0.01544
G1 X107.814 Y95.560 E0.77168
G1 X107.280 Y95.560 E0.01544
G1 X126.164 Y114.444 E0.77168
G1 X125.630 Y114.444 E0.01544
G1 X106.746 Y95.560 E0.77168
G1 X106.212 Y95.560 E0.01544
G1 X125.096 Y114.444 E0.77169
G1 X124.562 Y114.444 E0.01544
G1 X105.677 Y95.560 E0.77169
G1 X105.143 Y95.560 E0.01544
G1 X124.028 Y114.444 E0.77169
G1 X123.493 Y114.444 E0.01544
G1 X104.609 Y95.560 E0.77169
G1 X104.075 Y95.560 E0.01544
G1 X122.959 Y114.444 E0.77170
G1 X122.425 Y114.444 E0.01544
G1 X103.541 Y95.560 E0.77170
G1 X103.006 Y95.559 E0.01544
G1 X121.891 Y114.444 E0.77170
G1 X121.357 Y114.444 E0.01544
G1 X102.472 Y95.559 E0.77170
G1 X101.938 Y95.559 E0.01544
G1 X120.823 Y114.444 E0.77171
G1 X120.288 Y114.444 E0.01544
G1 X101.404 Y95.559 E0.77171
G1 X100.869 Y95.559 E0.01544
G1 X119.754 Y114.444 E0.77171
G1 X119.220 Y114.444 E0.01544
G1 X100.335 Y95.559 E0.77171
G1 X99.801 Y95.559 E0.01544
G1 X118.686 Y114.444 E0.77172
G1 X118.152 Y114.444 E0.01544
G1 X99.267 Y95.559 E0.77172
G1 X98.732 Y95.559 E0.01544
G1 X117.617 Y114.444 E0.77172
G1 X117.083 Y114.444 E0.01544
G1 X98.198 Y95.559 E0.77172
G1 X97.664 Y95.559 E0.01544
G1 X116.549 Y114.444 E0.77173
G1 X116.015 Y114.444 E0.01544
G1 X97.130 Y95.559 E0.77173
G1 X96.595 Y95.559 E0.01544
G1 X115.481 Y114.444 E0.77173
