; generated by Slic3r 1.34.1-prusa3d on 2017-08-07 at 00:10:50

; external perimeters extrusion width = 0.45mm
; perimeters extrusion width = 0.45mm
; infill extrusion width = 0.45mm
; solid infill extrusion width = 0.45mm
; top infill extrusion width = 0.40mm
; support material extrusion width = 0.35mm

M107
M115 U3.0.12 ; tell printer latest fw version
M83  ; extruder relative mode
M104 S215 ; set extruder temp
M140 S55 ; set bed temp
M190 S55 ; wait for bed temp
M109 S215 ; wait for extruder temp
G28 W ; home all without mesh bed level
G80 ; mesh bed leveling
G1 Y-3.0 F1000.0 ; go outside pritn area
G1 X60.0 E9.0  F1000.0 ; intro line
G1 X100.0 E12.5  F1000.0 ; intro line
G21 ; set units to millimeters
G90 ; use absolute coordinates
M83 ; use relative distances for extrusion
G1 E-0.80000 F2100.00000
G1 Z0.200 F7200.000
G1 X95.176 Y12.921 F7200.000
G1 E0.80000 F2100.00000
M204 S1000
G1 F2100
G1 X95.920 Y12.769 E0.02378
G1 X139.763 Y12.597 E1.37469
G1 X149.294 Y12.816 E0.29891
G1 X150.006 Y13.089 E0.02390
G1 X150.597 Y13.576 E0.02402
G1 X151.003 Y14.225 E0.02402
G1 X151.181 Y14.970 E0.02402
G1 X152.064 Y123.601 E3.40616
G1 X152.064 Y179.472 E1.75179
G1 X151.990 Y180.060 E0.01858
G1 X151.684 Y180.759 E0.02390
G1 X151.173 Y181.324 E0.02390
G1 X150.509 Y181.699 E0.02390
G1 X149.761 Y181.844 E0.02390
G1 X96.892 Y181.846 E1.65765
G1 X96.304 Y181.771 E0.01858
G1 X95.600 Y181.461 E0.02414
G1 X95.029 Y180.939 E0.02426
G1 X94.657 Y180.265 E0.02414
G1 X94.519 Y179.504 E0.02426
G1 X93.643 Y71.011 E3.40183
G1 X93.643 Y15.140 E1.75179
G1 X93.717 Y14.552 E0.01858
G1 X94.019 Y13.860 E0.02367
G1 X94.522 Y13.298 E0.02367
G1 X95.124 Y12.951 E0.02178
G1 F5760
G1 X95.920 Y12.769 E-0.28253
G1 F5760
G1 X97.298 Y12.763 E-0.47747
G1 E-0.04000 F2100.00000
G1 X121.563 Y142.517 F7200.000
G1 E0.80000 F2100.00000
G1 F1680
G1 X122.061 Y142.437 E0.01581
G1 X122.562 Y142.385 E0.01580
G1 X123.041 Y142.364 E0.01505
G1 X123.569 Y142.371 E0.01655
G1 X124.073 Y142.408 E0.01583
G1 X124.572 Y142.474 E0.01581
G1 X125.067 Y142.570 E0.01580
G1 X125.532 Y142.689 E0.01505
G1 X126.036 Y142.848 E0.01655
G1 X126.507 Y143.029 E0.01583
G1 X126.966 Y143.238 E0.01581
G1 X127.412 Y143.473 E0.01580
G1 X127.823 Y143.721 E0.01505
G1 X128.258 Y144.019 E0.01655
G1 X128.657 Y144.329 E0.01583
G1 X129.036 Y144.661 E0.01581
G1 X129.395 Y145.015 E0.01580
G1 X129.717 Y145.371 E0.01505
G1 X130.047 Y145.782 E0.01655
G1 X130.339 Y146.195 E0.01583
G1 X130.606 Y146.622 E0.01581
G1 X130.847 Y147.065 E0.01580
G1 X131.052 Y147.499 E0.01505
G1 X131.249 Y147.989 E0.01655
G1 X131.409 Y148.467 E0.01583
G1 X131.541 Y148.954 E0.01581
G1 X131.643 Y149.448 E0.01580
G1 X131.714 Y149.922 E0.01505
G1 X131.761 Y150.448 E0.01655
G1 X131.776 Y150.953 E0.01583
G1 X131.761 Y151.457 E0.01581
G1 X131.716 Y151.959 E0.01580
G1 X131.646 Y152.434 E0.01505
G1 X131.539 Y152.951 E0.01655
G1 X131.407 Y153.438 E0.01583
G1 X131.247 Y153.916 E0.01581
G1 X131.059 Y154.384 E0.01580
G1 X130.855 Y154.818 E0.01505
G1 X130.603 Y155.282 E0.01655
G1 X130.335 Y155.710 E0.01583
G1 X130.044 Y156.121 E0.01581
G1 X129.729 Y156.515 E0.01580
G1 X129.407 Y156.871 E0.01505
G1 X129.032 Y157.242 E0.01655
G1 X128.652 Y157.575 E0.01583
G1 X128.254 Y157.884 E0.01581
G1 X127.838 Y158.169 E0.01580
G1 X127.427 Y158.417 E0.01505
G1 X126.961 Y158.664 E0.01655
G1 X126.501 Y158.872 E0.01583
G1 X126.030 Y159.053 E0.01581
G1 X125.550 Y159.206 E0.01580
G1 X125.085 Y159.324 E0.01505
G1 X124.567 Y159.426 E0.01655
G1 X124.066 Y159.492 E0.01583
G1 X123.563 Y159.529 E0.01581
G1 X123.059 Y159.536 E0.01581
G1 X122.555 Y159.513 E0.01581
G1 X122.054 Y159.462 E0.01581
G1 X121.580 Y159.384 E0.01505
G1 X121.065 Y159.270 E0.01655
G1 X120.580 Y159.131 E0.01583
G1 X120.104 Y158.964 E0.01581
G1 X119.639 Y158.769 E0.01581
G1 X119.208 Y158.558 E0.01505
G1 X118.748 Y158.299 E0.01655
G1 X118.323 Y158.026 E0.01583
G1 X117.916 Y157.728 E0.01581
G1 X117.528 Y157.407 E0.01580
G1 X117.176 Y157.080 E0.01505
G1 X116.811 Y156.700 E0.01655
G1 X116.484 Y156.315 E0.01583
G1 X116.180 Y155.912 E0.01581
G1 X115.901 Y155.492 E0.01580
G1 X115.659 Y155.078 E0.01505
G1 X115.419 Y154.608 E0.01655
G1 X115.218 Y154.145 E0.01583
G1 X115.044 Y153.672 E0.01581
G1 X114.898 Y153.189 E0.01580
G1 X114.787 Y152.722 E0.01505
G1 X114.693 Y152.203 E0.01655
G1 X114.634 Y151.701 E0.01583
G1 X114.605 Y151.198 E0.01581
G1 X114.605 Y150.694 E0.01580
G1 X114.633 Y150.215 E0.01505
G1 X114.694 Y149.691 E0.01655
G1 X114.783 Y149.194 E0.01583
G1 X114.900 Y148.703 E0.01581
G1 X115.046 Y148.221 E0.01580
G1 X115.212 Y147.770 E0.01505
G1 X115.422 Y147.286 E0.01655
G1 X115.650 Y146.836 E0.01583
G1 X115.905 Y146.401 E0.01581
G1 X116.184 Y145.981 E0.01580
G1 X116.473 Y145.598 E0.01505
G1 X116.814 Y145.195 E0.01655
G1 X117.163 Y144.831 E0.01583
G1 X117.533 Y144.487 E0.01581
G1 X117.922 Y144.167 E0.01580
G1 X118.309 Y143.884 E0.01505
G1 X118.752 Y143.597 E0.01655
G1 X119.192 Y143.349 E0.01583
G1 X119.645 Y143.127 E0.01581
G1 X120.110 Y142.933 E0.01580
G1 X120.563 Y142.774 E0.01505
G1 X121.070 Y142.628 E0.01655
G1 X121.504 Y142.531 E0.01395
G1 X121.587 Y142.899 F7200.000
G1 F1260
G1 X122.110 Y142.811 E0.01665
G1 X122.590 Y142.761 E0.01511
G1 X123.047 Y142.741 E0.01437
G1 X123.553 Y142.747 E0.01585
G1 X124.034 Y142.783 E0.01512
G1 X124.512 Y142.847 E0.01511
G1 X124.985 Y142.938 E0.01511
G1 X125.429 Y143.052 E0.01437
G1 X125.911 Y143.204 E0.01585
G1 X126.361 Y143.377 E0.01512
G1 X126.800 Y143.576 E0.01511
G1 X127.226 Y143.801 E0.01511
G1 X127.619 Y144.038 E0.01437
G1 X128.036 Y144.323 E0.01585
G1 X128.417 Y144.619 E0.01512
G1 X128.779 Y144.937 E0.01511
G1 X129.122 Y145.276 E0.01511
G1 X129.429 Y145.616 E0.01437
G1 X129.746 Y146.010 E0.01585
G1 X130.025 Y146.403 E0.01512
G1 X130.280 Y146.812 E0.01511
G1 X130.511 Y147.236 E0.01511
G1 X130.706 Y147.650 E0.01437
G1 X130.895 Y148.119 E0.01585
G1 X131.048 Y148.576 E0.01512
G1 X131.174 Y149.042 E0.01511
G1 X131.272 Y149.514 E0.01511
G1 X131.339 Y149.967 E0.01437
G1 X131.385 Y150.471 E0.01585
G1 X131.399 Y150.953 E0.01512
G1 X131.384 Y151.434 E0.01511
G1 X131.342 Y151.915 E0.01511
G1 X131.275 Y152.368 E0.01437
G1 X131.172 Y152.863 E0.01585
G1 X131.046 Y153.329 E0.01512
G1 X130.893 Y153.786 E0.01511
G1 X130.713 Y154.233 E0.01511
G1 X130.518 Y154.647 E0.01437
G1 X130.277 Y155.092 E0.01585
G1 X130.022 Y155.501 E0.01512
G1 X129.743 Y155.894 E0.01511
G1 X129.441 Y156.270 E0.01511
G1 X129.134 Y156.610 E0.01437
G1 X128.775 Y156.966 E0.01585
G1 X128.412 Y157.284 E0.01512
G1 X128.031 Y157.579 E0.01511
G1 X127.634 Y157.852 E0.01511
G1 X127.241 Y158.089 E0.01437
G1 X126.795 Y158.325 E0.01585
G1 X126.355 Y158.524 E0.01512
G1 X125.905 Y158.697 E0.01511
G1 X125.446 Y158.843 E0.01511
G1 X125.002 Y158.956 E0.01437
G1 X124.506 Y159.053 E0.01585
G1 X124.028 Y159.117 E0.01512
G1 X123.547 Y159.152 E0.01511
G1 X123.065 Y159.159 E0.01511
G1 X122.583 Y159.137 E0.01511
G1 X122.104 Y159.088 E0.01511
G1 X121.651 Y159.014 E0.01437
G1 X121.158 Y158.904 E0.01585
G1 X120.694 Y158.772 E0.01512
G1 X120.239 Y158.612 E0.01511
G1 X119.795 Y158.425 E0.01511
G1 X119.383 Y158.224 E0.01437
G1 X118.942 Y157.976 E0.01585
G1 X118.537 Y157.715 E0.01512
G1 X118.148 Y157.430 E0.01511
G1 X117.776 Y157.123 E0.01511
G1 X117.441 Y156.811 E0.01437
G1 X117.090 Y156.447 E0.01585
G1 X116.778 Y156.079 E0.01512
G1 X116.488 Y155.694 E0.01511
G1 X116.221 Y155.293 E0.01511
G1 X115.990 Y154.897 E0.01437
G1 X115.760 Y154.447 E0.01585
G1 X115.568 Y154.005 E0.01512
G1 X115.402 Y153.552 E0.01511
G1 X115.263 Y153.091 E0.01511
G1 X115.156 Y152.645 E0.01437
G1 X115.066 Y152.147 E0.01585
G1 X115.010 Y151.668 E0.01512
G1 X114.982 Y151.187 E0.01511
G1 X114.982 Y150.705 E0.01511
G1 X115.009 Y150.248 E0.01437
G1 X115.067 Y149.746 E0.01585
G1 X115.152 Y149.271 E0.01512
G1 X115.264 Y148.802 E0.01511
G1 X115.404 Y148.341 E0.01511
G1 X115.562 Y147.911 E0.01437
G1 X115.763 Y147.447 E0.01585
G1 X115.982 Y147.017 E0.01512
G1 X116.225 Y146.601 E0.01511
G1 X116.492 Y146.199 E0.01511
G1 X116.768 Y145.833 E0.01437
G1 X117.095 Y145.448 E0.01585
G1 X117.428 Y145.099 E0.01512
G1 X117.781 Y144.771 E0.01511
G1 X118.153 Y144.465 E0.01511
G1 X118.523 Y144.194 E0.01437
G1 X118.948 Y143.919 E0.01585
G1 X119.368 Y143.683 E0.01512
G1 X119.801 Y143.471 E0.01511
G1 X120.245 Y143.285 E0.01511
G1 X120.678 Y143.133 E0.01437
G1 X121.164 Y142.993 E0.01585
G1 X121.528 Y142.912 E0.01171
G1 X121.716 Y142.520 F7200.000
G1 F5760
G1 X122.110 Y142.811 E-0.20463
G1 F5760
G1 X122.590 Y142.761 E-0.16694
G1 F5760
G1 X123.047 Y142.741 E-0.15873
G1 F5760
G1 X123.553 Y142.747 E-0.17509
G1 F5760
G1 X123.710 Y142.759 E-0.05461
G1 E-0.04000 F2100.00000
G1 X121.187 Y141.365 F7200.000
G1 E0.80000 F2100.00000
G1 F1680
G1 X121.771 Y141.263 E0.01858
G1 X122.274 Y141.205 E0.01588
G1 X122.778 Y141.173 E0.01583
G1 X123.791 Y141.185 E0.03178
G1 X124.295 Y141.231 E0.01588
G1 X124.797 Y141.302 E0.01588
G1 X125.294 Y141.398 E0.01588
G1 X125.785 Y141.520 E0.01588
G1 X126.270 Y141.666 E0.01588
G1 X126.746 Y141.837 E0.01588
G1 X127.214 Y142.033 E0.01588
G1 X127.670 Y142.251 E0.01588
G1 X128.115 Y142.493 E0.01588
G1 X128.547 Y142.758 E0.01588
G1 X128.965 Y143.044 E0.01588
G1 X129.367 Y143.351 E0.01588
G1 X129.754 Y143.678 E0.01588
G1 X130.123 Y144.024 E0.01588
G1 X130.474 Y144.389 E0.01588
G1 X130.806 Y144.771 E0.01588
G1 X131.118 Y145.170 E0.01588
G1 X131.410 Y145.584 E0.01588
G1 X131.679 Y146.012 E0.01588
G1 X131.927 Y146.454 E0.01588
G1 X132.152 Y146.908 E0.01588
G1 X132.353 Y147.372 E0.01588
G1 X132.530 Y147.847 E0.01588
G1 X132.683 Y148.329 E0.01588
G1 X132.810 Y148.818 E0.01583
G1 X132.921 Y149.367 E0.01755
G1 X133.042 Y150.319 E0.03010
G1 X133.068 Y150.825 E0.01588
G1 X133.068 Y151.331 E0.01588
G1 X133.042 Y151.837 E0.01588
G1 X132.991 Y152.341 E0.01588
G1 X132.913 Y152.841 E0.01588
G1 X132.811 Y153.337 E0.01588
G1 X132.683 Y153.827 E0.01588
G1 X132.530 Y154.309 E0.01588
G1 X132.353 Y154.784 E0.01588
G1 X132.152 Y155.248 E0.01588
G1 X131.927 Y155.702 E0.01588
G1 X131.679 Y156.144 E0.01588
G1 X131.410 Y156.572 E0.01588
G1 X131.118 Y156.986 E0.01588
G1 X130.806 Y157.385 E0.01588
G1 X130.474 Y157.767 E0.01588
G1 X130.123 Y158.132 E0.01588
G1 X129.754 Y158.478 E0.01588
G1 X129.367 Y158.806 E0.01588
G1 X128.965 Y159.112 E0.01588
G1 X128.547 Y159.398 E0.01588
G1 X128.115 Y159.663 E0.01588
G1 X127.670 Y159.905 E0.01588
G1 X127.214 Y160.123 E0.01588
G1 X126.746 Y160.319 E0.01588
G1 X126.270 Y160.490 E0.01588
G1 X125.785 Y160.636 E0.01588
G1 X125.294 Y160.758 E0.01588
G1 X124.797 Y160.854 E0.01588
G1 X124.295 Y160.925 E0.01588
G1 X123.791 Y160.971 E0.01588
G1 X123.285 Y160.990 E0.01588
G1 X122.779 Y160.983 E0.01588
G1 X122.274 Y160.951 E0.01588
G1 X121.771 Y160.893 E0.01588
G1 X121.271 Y160.809 E0.01588
G1 X120.777 Y160.700 E0.01588
G1 X120.289 Y160.566 E0.01588
G1 X119.808 Y160.407 E0.01588
G1 X119.336 Y160.224 E0.01587
G1 X118.874 Y160.017 E0.01588
G1 X118.423 Y159.786 E0.01588
G1 X117.985 Y159.533 E0.01588
G1 X117.560 Y159.258 E0.01588
G1 X117.149 Y158.962 E0.01588
G1 X116.755 Y158.644 E0.01588
G1 X116.377 Y158.308 E0.01588
G1 X116.016 Y157.952 E0.01588
G1 X115.675 Y157.578 E0.01588
G1 X115.352 Y157.188 E0.01588
G1 X115.051 Y156.781 E0.01588
G1 X114.770 Y156.360 E0.01588
G1 X114.511 Y155.924 E0.01588
G1 X114.275 Y155.476 E0.01588
G1 X114.062 Y155.017 E0.01588
G1 X113.873 Y154.548 E0.01588
G1 X113.708 Y154.069 E0.01588
G1 X113.567 Y153.582 E0.01588
G1 X113.452 Y153.089 E0.01588
G1 X113.362 Y152.591 E0.01588
G1 X113.298 Y152.089 E0.01588
G1 X113.259 Y151.584 E0.01588
G1 X113.246 Y151.078 E0.01588
G1 X113.259 Y150.572 E0.01588
G1 X113.298 Y150.067 E0.01588
G1 X113.362 Y149.565 E0.01588
G1 X113.452 Y149.067 E0.01588
G1 X113.567 Y148.574 E0.01588
G1 X113.708 Y148.087 E0.01588
G1 X113.873 Y147.608 E0.01588
G1 X114.062 Y147.139 E0.01588
G1 X114.275 Y146.680 E0.01588
G1 X114.511 Y146.232 E0.01588
G1 X114.770 Y145.796 E0.01588
G1 X115.051 Y145.375 E0.01588
G1 X115.352 Y144.968 E0.01588
G1 X115.675 Y144.578 E0.01588
G1 X116.016 Y144.204 E0.01588
G1 X116.377 Y143.848 E0.01588
G1 X116.755 Y143.512 E0.01588
G1 X117.149 Y143.194 E0.01588
G1 X117.560 Y142.898 E0.01588
G1 X117.985 Y142.623 E0.01588
G1 X118.423 Y142.370 E0.01588
G1 X118.874 Y142.139 E0.01588
G1 X119.336 Y141.932 E0.01588
G1 X119.808 Y141.749 E0.01588
G1 X120.289 Y141.590 E0.01588
G1 X121.128 Y141.378 E0.02715
G1 X121.047 Y141.010 F7200.000
G1 F1260
G1 X121.718 Y140.889 E0.02137
G1 X122.240 Y140.829 E0.01648
G1 X122.764 Y140.796 E0.01646
G1 X123.815 Y140.809 E0.03296
G1 X124.339 Y140.856 E0.01648
G1 X124.859 Y140.930 E0.01648
G1 X125.375 Y141.030 E0.01648
G1 X125.885 Y141.156 E0.01648
G1 X126.388 Y141.308 E0.01648
G1 X126.883 Y141.486 E0.01648
G1 X127.368 Y141.688 E0.01648
G1 X127.842 Y141.916 E0.01648
G1 X128.304 Y142.167 E0.01648
G1 X128.752 Y142.441 E0.01648
G1 X129.186 Y142.738 E0.01648
G1 X129.604 Y143.056 E0.01648
G1 X130.005 Y143.396 E0.01648
G1 X130.388 Y143.756 E0.01648
G1 X130.753 Y144.134 E0.01648
G1 X131.097 Y144.531 E0.01648
G1 X131.421 Y144.945 E0.01648
G1 X131.724 Y145.375 E0.01648
G1 X132.004 Y145.820 E0.01648
G1 X132.261 Y146.278 E0.01648
G1 X132.494 Y146.749 E0.01648
G1 X132.703 Y147.231 E0.01648
G1 X132.887 Y147.724 E0.01648
G1 X133.045 Y148.225 E0.01648
G1 X133.178 Y148.733 E0.01646
G1 X133.293 Y149.301 E0.01816
G1 X133.365 Y149.767 E0.01481
G1 X133.418 Y150.290 E0.01648
G1 X133.445 Y150.815 E0.01648
G1 X133.445 Y151.341 E0.01648
G1 X133.418 Y151.866 E0.01648
G1 X133.365 Y152.389 E0.01648
G1 X133.285 Y152.908 E0.01648
G1 X133.178 Y153.423 E0.01648
G1 X133.045 Y153.931 E0.01648
G1 X132.887 Y154.432 E0.01648
G1 X132.703 Y154.925 E0.01648
G1 X132.494 Y155.407 E0.01648
G1 X132.261 Y155.878 E0.01648
G1 X132.004 Y156.336 E0.01648
G1 X131.724 Y156.781 E0.01648
G1 X131.421 Y157.211 E0.01648
G1 X131.097 Y157.625 E0.01648
G1 X130.753 Y158.022 E0.01648
G1 X130.388 Y158.400 E0.01648
G1 X130.005 Y158.760 E0.01648
G1 X129.604 Y159.100 E0.01648
G1 X129.186 Y159.418 E0.01648
G1 X128.752 Y159.715 E0.01648
G1 X128.304 Y159.989 E0.01648
G1 X127.842 Y160.240 E0.01648
G1 X127.368 Y160.468 E0.01648
G1 X126.883 Y160.670 E0.01648
G1 X126.388 Y160.848 E0.01648
G1 X125.885 Y161.000 E0.01648
G1 X125.375 Y161.126 E0.01648
G1 X124.859 Y161.226 E0.01648
G1 X124.339 Y161.300 E0.01648
G1 X123.815 Y161.347 E0.01648
G1 X123.290 Y161.367 E0.01648
G1 X122.764 Y161.360 E0.01648
G1 X122.240 Y161.327 E0.01648
G1 X121.718 Y161.267 E0.01648
G1 X121.200 Y161.180 E0.01648
G1 X120.686 Y161.067 E0.01648
G1 X120.179 Y160.927 E0.01648
G1 X119.680 Y160.762 E0.01648
G1 X119.191 Y160.572 E0.01648
G1 X118.711 Y160.357 E0.01648
G1 X118.243 Y160.118 E0.01648
G1 X117.788 Y159.855 E0.01648
G1 X117.347 Y159.569 E0.01648
G1 X116.921 Y159.262 E0.01648
G1 X116.511 Y158.932 E0.01648
G1 X116.119 Y158.583 E0.01648
G1 X115.745 Y158.213 E0.01648
G1 X115.390 Y157.826 E0.01648
G1 X115.055 Y157.420 E0.01648
G1 X114.742 Y156.998 E0.01648
G1 X114.451 Y156.561 E0.01648
G1 X114.182 Y156.109 E0.01648
G1 X113.937 Y155.644 E0.01648
G1 X113.716 Y155.167 E0.01648
G1 X113.520 Y154.680 E0.01648
G1 X113.348 Y154.183 E0.01648
G1 X113.203 Y153.678 E0.01648
G1 X113.083 Y153.166 E0.01648
G1 X112.989 Y152.649 E0.01648
G1 X112.922 Y152.127 E0.01648
G1 X112.882 Y151.603 E0.01648
G1 X112.869 Y151.078 E0.01648
G1 X112.882 Y150.553 E0.01648
G1 X112.922 Y150.029 E0.01648
G1 X112.989 Y149.507 E0.01648
G1 X113.083 Y148.990 E0.01648
G1 X113.203 Y148.478 E0.01648
G1 X113.348 Y147.973 E0.01648
G1 X113.520 Y147.476 E0.01648
G1 X113.716 Y146.989 E0.01648
G1 X113.937 Y146.512 E0.01648
G1 X114.182 Y146.047 E0.01648
G1 X114.451 Y145.596 E0.01648
G1 X114.742 Y145.158 E0.01648
G1 X115.055 Y144.736 E0.01648
G1 X115.390 Y144.331 E0.01648
G1 X115.745 Y143.943 E0.01648
G1 X116.119 Y143.573 E0.01648
G1 X116.511 Y143.224 E0.01648
G1 X116.921 Y142.895 E0.01648
G1 X117.347 Y142.587 E0.01648
G1 X117.788 Y142.301 E0.01648
G1 X118.243 Y142.038 E0.01648
G1 X118.711 Y141.799 E0.01648
G1 X119.191 Y141.584 E0.01648
G1 X119.680 Y141.394 E0.01648
G1 X120.179 Y141.229 E0.01648
G1 X120.988 Y141.023 E0.02617
G1 X121.315 Y141.307 F7200.000
G1 F5760
G1 X121.718 Y140.889 E-0.25681
G1 F5760
G1 X122.240 Y140.829 E-0.18204
G1 F5760
