; generated by Slic3r 1.36.2-prusa3d on 2017-09-03 at 12:44:02

; 

; external perimeters extrusion width = 0.45mm
; perimeters extrusion width = 0.45mm
; infill extrusion width = 0.45mm
; solid infill extrusion width = 0.45mm
; top infill extrusion width = 0.40mm
; first layer extrusion width = 0.42mm

M107
M115 U3.0.12 ; tell printer latest fw version
M83  ; extruder relative mode
M104 S215 ; set extruder temp
M140 S55 ; set bed temp
M190 S55 ; wait for bed temp
M109 S215 ; wait for extruder temp
G28 W ; home all without mesh bed level
G80 ; mesh bed leveling
G1 Y-3.0 F1000.0 ; go outside pritn area
G1 X60.0 E9.0  F1000.0 ; intro line
G1 X100.0 E12.5  F1000.0 ; intro line
; Filament gcode

G21 ; set units to millimeters
G90 ; use absolute coordinates
M83 ; use relative distances for extrusion
G1 E-0.80000 F2100.00000
G1 Z0.200 F7200.000
G1 X64.863 Y93.913 F7200.000
G1 E0.80000 F2100.00000
M204 S1000
G1 F2100
G1 X65.593 Y93.658 E0.02327
G1 X184.004 Y93.623 E3.56177
G1 X184.902 Y93.801 E0.02755
G1 X185.667 Y94.305 E0.02755
G1 X186.184 Y95.062 E0.02755
G1 X186.377 Y95.957 E0.02755
G1 X186.366 Y114.228 E0.54959
G1 X186.169 Y114.972 E0.02316
G1 X185.745 Y115.615 E0.02316
G1 X185.137 Y116.087 E0.02316
G1 X184.407 Y116.342 E0.02327
G1 X65.962 Y116.377 E3.56280
G1 X65.161 Y116.224 E0.02451
G1 X64.457 Y115.808 E0.02462
G1 X63.935 Y115.177 E0.02462
G1 X63.658 Y114.407 E0.02462
G1 X63.633 Y95.779 E0.56031
G1 X63.829 Y95.031 E0.02327
G1 X64.255 Y94.385 E0.02327
G1 X64.816 Y93.949 E0.02135
G1 F5760
G1 X65.593 Y93.658 E-0.28770
G1 F5760
G1 X66.957 Y93.658 E-0.47230
G1 E-0.04000 F2100.00000
G1 X162.404 Y104.715 F7200.000
G1 E0.80000 F2100.00000
G1 F840
G1 X162.476 Y104.447 E0.00833
G1 X162.593 Y104.196 E0.00833
G1 X162.752 Y103.969 E0.00833
G1 X162.948 Y103.773 E0.00833
G1 X163.175 Y103.614 E0.00833
G1 X163.426 Y103.497 E0.00833
G1 X163.694 Y103.426 E0.00833
G1 X163.947 Y103.403 E0.00767
G1 X164.241 Y103.424 E0.00885
G1 X164.513 Y103.497 E0.00847
G1 X164.764 Y103.614 E0.00833
G1 X164.991 Y103.773 E0.00833
G1 X165.187 Y103.969 E0.00833
G1 X165.346 Y104.196 E0.00833
G1 X165.463 Y104.447 E0.00833
G1 X165.535 Y104.715 E0.00833
G1 X165.559 Y104.991 E0.00833
G1 X165.535 Y105.267 E0.00833
G1 X165.463 Y105.534 E0.00833
G1 X165.346 Y105.785 E0.00833
G1 X165.187 Y106.012 E0.00833
G1 X165.007 Y106.193 E0.00767
G1 X164.768 Y106.365 E0.00885
G1 X164.513 Y106.484 E0.00847
G1 X164.245 Y106.556 E0.00833
G1 X163.969 Y106.580 E0.00833
G1 X163.694 Y106.556 E0.00833
G1 X163.426 Y106.484 E0.00833
G1 X163.175 Y106.367 E0.00833
G1 X162.948 Y106.208 E0.00833
G1 X162.752 Y106.012 E0.00833
G1 X162.593 Y105.785 E0.00833
G1 X162.476 Y105.534 E0.00833
G1 X162.404 Y105.267 E0.00833
G1 X162.380 Y104.991 E0.00833
G1 X162.399 Y104.775 E0.00653
G1 X162.775 Y104.807 F7200.000
G1 F840
G1 X162.832 Y104.577 E0.00715
G1 X162.921 Y104.385 E0.00635
G1 X163.042 Y104.213 E0.00635
G1 X163.191 Y104.063 E0.00635
G1 X163.364 Y103.942 E0.00635
G1 X163.555 Y103.853 E0.00635
G1 X163.759 Y103.798 E0.00635
G1 X163.950 Y103.782 E0.00577
G1 X164.178 Y103.798 E0.00687
G1 X164.384 Y103.853 E0.00640
G1 X164.575 Y103.942 E0.00635
G1 X164.748 Y104.063 E0.00635
G1 X164.897 Y104.213 E0.00635
G1 X165.018 Y104.385 E0.00635
G1 X165.107 Y104.577 E0.00635
G1 X165.162 Y104.781 E0.00635
G1 X165.180 Y104.991 E0.00635
G1 X165.162 Y105.201 E0.00635
G1 X165.107 Y105.405 E0.00635
G1 X165.018 Y105.596 E0.00635
G1 X164.897 Y105.769 E0.00635
G1 X164.761 Y105.905 E0.00577
G1 X164.576 Y106.039 E0.00687
G1 X164.384 Y106.129 E0.00640
G1 X164.180 Y106.183 E0.00635
G1 X163.969 Y106.202 E0.00635
G1 X163.759 Y106.183 E0.00635
G1 X163.555 Y106.129 E0.00635
G1 X163.364 Y106.039 E0.00635
G1 X163.191 Y105.918 E0.00635
G1 X163.042 Y105.769 E0.00635
G1 X162.921 Y105.596 E0.00635
G1 X162.832 Y105.405 E0.00635
G1 X162.777 Y105.201 E0.00635
G1 X162.759 Y104.991 E0.00635
G1 X162.769 Y104.867 E0.00373
G1 X162.590 Y104.657 F7200.000
G1 F5760
G1 X162.832 Y104.577 E-0.10291
G1 F5760
G1 X162.921 Y104.385 E-0.07310
G1 F5760
G1 X163.042 Y104.213 E-0.07310
G1 F5760
G1 X163.191 Y104.063 E-0.07310
G1 F5760
G1 X163.364 Y103.942 E-0.07310
G1 F5760
G1 X163.555 Y103.853 E-0.07310
G1 F5760
G1 X163.759 Y103.798 E-0.07310
G1 F5760
G1 X163.950 Y103.782 E-0.06648
G1 F5760
G1 X164.178 Y103.798 E-0.07906
G1 F5760
G1 X164.382 Y103.852 E-0.07295
G1 E-0.04000 F2100.00000
G1 X87.653 Y104.975 F7200.000
G1 E0.80000 F2100.00000
G1 F840
G1 X87.629 Y105.251 E0.00833
G1 X87.557 Y105.519 E0.00833
G1 X87.440 Y105.770 E0.00833
G1 X87.281 Y105.997 E0.00833
G1 X87.085 Y106.193 E0.00833
G1 X86.858 Y106.351 E0.00833
G1 X86.607 Y106.469 E0.00833
G1 X86.339 Y106.540 E0.00833
G1 X86.063 Y106.564 E0.00833
G1 X85.787 Y106.540 E0.00833
G1 X85.520 Y106.469 E0.00833
G1 X85.269 Y106.351 E0.00833
G1 X85.042 Y106.193 E0.00833
G1 X84.846 Y105.997 E0.00833
G1 X84.687 Y105.770 E0.00833
G1 X84.570 Y105.519 E0.00833
G1 X84.498 Y105.251 E0.00833
G1 X84.474 Y104.975 E0.00833
G1 X84.498 Y104.699 E0.00833
G1 X84.570 Y104.431 E0.00833
G1 X84.687 Y104.180 E0.00833
G1 X84.846 Y103.953 E0.00833
G1 X85.042 Y103.758 E0.00833
G1 X85.269 Y103.599 E0.00833
G1 X85.520 Y103.482 E0.00833
G1 X85.787 Y103.410 E0.00833
G1 X86.041 Y103.388 E0.00767
G1 X86.335 Y103.409 E0.00885
G1 X86.607 Y103.482 E0.00847
G1 X86.858 Y103.599 E0.00833
G1 X87.085 Y103.758 E0.00833
G1 X87.281 Y103.953 E0.00833
G1 X87.440 Y104.180 E0.00833
G1 X87.557 Y104.431 E0.00833
G1 X87.629 Y104.699 E0.00833
G1 X87.648 Y104.915 E0.00653
G1 X87.272 Y104.948 F7200.000
G1 F840
G1 X87.256 Y105.185 E0.00715
G1 X87.201 Y105.389 E0.00635
G1 X87.112 Y105.580 E0.00635
G1 X86.991 Y105.753 E0.00635
G1 X86.842 Y105.903 E0.00635
G1 X86.669 Y106.024 E0.00635
G1 X86.478 Y106.113 E0.00635
G1 X86.274 Y106.167 E0.00635
G1 X86.063 Y106.186 E0.00635
G1 X85.853 Y106.167 E0.00635
G1 X85.649 Y106.113 E0.00635
G1 X85.458 Y106.024 E0.00635
G1 X85.285 Y105.903 E0.00635
G1 X85.136 Y105.753 E0.00635
G1 X85.015 Y105.580 E0.00635
G1 X84.926 Y105.389 E0.00635
G1 X84.871 Y105.185 E0.00635
G1 X84.853 Y104.975 E0.00635
G1 X84.871 Y104.765 E0.00635
G1 X84.926 Y104.561 E0.00635
G1 X85.015 Y104.370 E0.00635
G1 X85.136 Y104.197 E0.00635
G1 X85.285 Y104.048 E0.00635
G1 X85.458 Y103.926 E0.00635
G1 X85.649 Y103.837 E0.00635
G1 X85.853 Y103.783 E0.00635
G1 X86.044 Y103.766 E0.00577
G1 X86.272 Y103.782 E0.00687
G1 X86.478 Y103.837 E0.00640
G1 X86.669 Y103.926 E0.00635
G1 X86.842 Y104.048 E0.00635
G1 X86.991 Y104.197 E0.00635
G1 X87.112 Y104.370 E0.00635
G1 X87.201 Y104.561 E0.00635
G1 X87.256 Y104.765 E0.00635
G1 X87.267 Y104.888 E0.00373
G1 X87.480 Y105.064 F7200.000
G1 F5760
G1 X87.256 Y105.185 E-0.10291
G1 F5760
G1 X87.201 Y105.389 E-0.07310
G1 F5760
G1 X87.112 Y105.580 E-0.07310
G1 F5760
G1 X86.991 Y105.753 E-0.07310
G1 F5760
G1 X86.842 Y105.903 E-0.07310
G1 F5760
G1 X86.669 Y106.024 E-0.07310
G1 F5760
G1 X86.478 Y106.113 E-0.07310
G1 F5760
G1 X86.274 Y106.167 E-0.07310
G1 F5760
G1 X86.063 Y106.186 E-0.07310
G1 F5760
G1 X85.856 Y106.168 E-0.07228
G1 E-0.04000 F2100.00000
G1 X66.587 Y96.587 F7200.000
G1 E0.80000 F2100.00000
G1 F1680
G1 X183.413 Y96.587 E3.51410
G1 X183.413 Y113.413 E0.50612
G1 X66.587 Y113.413 E3.51410
G1 X66.587 Y96.647 E0.50431
G1 X66.210 Y96.210 F7200.000
G1 F1260
G1 X183.790 Y96.210 E3.53679
G1 X183.790 Y113.790 E0.52880
G1 X66.210 Y113.790 E3.53679
G1 X66.210 Y96.270 E0.52700
G1 X66.610 Y96.230 F7200.000
G1 F5760
G1 X68.404 Y96.269 E-0.76000
G1 E-0.04000 F2100.00000
G1 X79.769 Y96.700 F7200.000
G1 E0.80000 F2100.00000
G1 F1680
G1 X86.183 Y103.114 E0.27390
G1 X86.039 Y103.104 E0.00435
G1 X85.679 Y103.146 E0.01094
G1 X79.403 Y96.870 E0.26801
G1 X78.868 Y96.870 E0.01616
G1 X85.280 Y103.282 E0.27380
G1 X85.127 Y103.353 E0.00509
G1 X84.944 Y103.481 E0.00675
G1 X78.333 Y96.870 E0.28231
G1 X77.797 Y96.870 E0.01616
G1 X84.664 Y103.736 E0.29320
G1 X84.438 Y104.046 E0.01157
G1 X77.262 Y96.870 E0.30642
G1 X76.727 Y96.870 E0.01616
G1 X84.280 Y104.422 E0.32252
G1 X84.219 Y104.650 E0.00711
G1 X84.199 Y104.877 E0.00688
G1 X76.192 Y96.870 E0.34193
G1 X75.657 Y96.870 E0.01616
G1 X84.267 Y105.480 E0.36769
G1 F5760
G1 X82.715 Y103.929 E-0.76000
G1 E-0.04000 F2100.00000
G1 X85.558 Y106.772 F7200.000
G1 E0.80000 F2100.00000
G1 F1680
G1 X91.917 Y113.130 E0.27153
G1 X92.452 Y113.130 E0.01616
G1 X86.162 Y106.840 E0.26862
G1 X86.389 Y106.820 E0.00688
G1 X86.616 Y106.759 E0.00711
G1 X92.987 Y113.130 E0.27207
G1 X93.523 Y113.130 E0.01616
G1 X86.993 Y106.601 E0.27883
G1 X87.303 Y106.375 E0.01157
G1 X94.058 Y113.130 E0.28847
G1 X94.593 Y113.130 E0.01616
G1 X87.558 Y106.095 E0.30043
G1 X87.686 Y105.912 E0.00675
G1 X87.757 Y105.759 E0.00509
G1 X95.128 Y113.130 E0.31478
G1 X95.663 Y113.130 E0.01616
G1 X87.892 Y105.359 E0.33185
G1 X87.937 Y104.975 E0.01167
G1 X87.926 Y104.858 E0.00355
G1 X96.199 Y113.130 E0.35325
G1 X96.734 Y113.130 E0.01616
G1 X80.474 Y96.870 E0.69436
G1 X81.009 Y96.870 E0.01616
G1 X97.269 Y113.130 E0.69436
G1 X97.804 Y113.130 E0.01616
G1 X81.544 Y96.870 E0.69436
G1 X82.079 Y96.870 E0.01616
G1 X98.340 Y113.130 E0.69436
G1 X98.875 Y113.130 E0.01616
G1 X82.615 Y96.870 E0.69436
G1 X83.150 Y96.870 E0.01616
G1 X99.410 Y113.130 E0.69436
G1 X99.945 Y113.130 E0.01616
G1 X83.685 Y96.870 E0.69436
G1 X84.220 Y96.870 E0.01616
G1 X100.481 Y113.130 E0.69436
G1 X101.016 Y113.130 E0.01616
G1 X84.756 Y96.870 E0.69436
G1 X85.291 Y96.870 E0.01616
G1 X101.551 Y113.130 E0.69436
G1 X102.086 Y113.130 E0.01616
G1 X85.826 Y96.870 E0.69436
G1 X86.361 Y96.870 E0.01616
G1 X102.622 Y113.130 E0.69436
G1 X103.157 Y113.130 E0.01616
G1 X86.897 Y96.870 E0.69436
G1 X87.432 Y96.870 E0.01616
G1 X103.692 Y113.130 E0.69436
G1 X104.227 Y113.130 E0.01616
G1 X87.967 Y96.870 E0.69436
G1 X88.502 Y96.870 E0.01616
G1 X104.763 Y113.130 E0.69436
G1 X105.298 Y113.130 E0.01616
G1 X89.037 Y96.870 E0.69436
G1 X89.573 Y96.870 E0.01616
G1 X105.833 Y113.130 E0.69436
G1 X106.368 Y113.130 E0.01616
G1 X90.108 Y96.870 E0.69436
G1 X90.643 Y96.870 E0.01616
G1 X106.903 Y113.130 E0.69436
G1 X107.439 Y113.130 E0.01616
G1 X91.178 Y96.870 E0.69436
G1 X91.714 Y96.870 E0.01616
G1 X107.974 Y113.130 E0.69436
G1 X108.509 Y113.130 E0.01616
G1 X92.249 Y96.870 E0.69436
G1 X92.784 Y96.870 E0.01616
G1 X109.044 Y113.130 E0.69436
G1 X109.580 Y113.130 E0.01616
G1 X93.319 Y96.870 E0.69436
G1 X93.855 Y96.870 E0.01616
G1 X110.115 Y113.130 E0.69436
G1 X110.650 Y113.130 E0.01616
G1 X94.390 Y96.870 E0.69436
G1 X94.925 Y96.870 E0.01616
G1 X111.185 Y113.130 E0.69436
G1 X111.721 Y113.130 E0.01616
G1 X95.460 Y96.870 E0.69436
G1 X95.996 Y96.870 E0.01616
G1 X112.256 Y113.130 E0.69436
G1 X112.791 Y113.130 E0.01616
G1 X96.531 Y96.870 E0.69436
G1 X97.066 Y96.870 E0.01616
G1 X113.326 Y113.130 E0.69436
G1 X113.862 Y113.130 E0.01616
G1 X97.601 Y96.870 E0.69436
G1 X98.137 Y96.870 E0.01616
G1 X114.397 Y113.130 E0.69436
G1 X114.932 Y113.130 E0.01616
G1 X98.672 Y96.870 E0.69436
G1 X99.207 Y96.870 E0.01616
G1 X115.467 Y113.130 E0.69436
G1 X116.003 Y113.130 E0.01616
G1 X99.742 Y96.870 E0.69436
G1 X100.278 Y96.870 E0.01616
G1 X116.538 Y113.130 E0.69436
G1 X117.073 Y113.130 E0.01616
G1 X100.813 Y96.870 E0.69436
G1 X101.348 Y96.870 E0.01616
G1 X117.608 Y113.130 E0.69436
G1 X118.143 Y113.130 E0.01616
G1 X101.883 Y96.870 E0.69436
G1 X102.418 Y96.870 E0.01616
G1 X118.679 Y113.130 E0.69436
G1 X119.214 Y113.130 E0.01616
G1 X102.954 Y96.870 E0.69436
G1 X103.489 Y96.870 E0.01616
G1 X119.749 Y113.130 E0.69436
G1 X120.284 Y113.130 E0.01616
G1 X104.024 Y96.870 E0.69436
G1 X104.559 Y96.870 E0.01616
G1 X120.820 Y113.130 E0.69436
G1 X121.355 Y113.130 E0.01616
G1 X105.095 Y96.870 E0.69436
G1 X105.630 Y96.870 E0.01616
G1 X121.890 Y113.130 E0.69436
G1 X122.425 Y113.130 E0.01616
G1 X106.165 Y96.870 E0.69436
G1 X106.700 Y96.870 E0.01616
G1 X122.961 Y113.130 E0.69436
G1 X123.496 Y113.130 E0.01616
G1 X107.236 Y96.870 E0.69436
G1 X107.771 Y96.870 E0.01616
G1 X124.031 Y113.130 E0.69436
G1 X124.566 Y113.130 E0.01616
G1 X108.306 Y96.870 E0.69436
G1 X108.841 Y96.870 E0.01616
G1 X125.102 Y113.130 E0.69436
G1 X125.637 Y113.130 E0.01616
G1 X109.377 Y96.870 E0.69436
G1 X109.912 Y96.870 E0.01616
G1 X126.172 Y113.130 E0.69436
G1 X126.707 Y113.130 E0.01616
G1 X110.447 Y96.870 E0.69436
G1 X110.982 Y96.870 E0.01616
G1 X127.243 Y113.130 E0.69436
G1 X127.778 Y113.130 E0.01616
G1 X111.518 Y96.870 E0.69436
G1 X112.053 Y96.870 E0.01616
G1 X128.313 Y113.130 E0.69436
G1 X128.848 Y113.130 E0.01616
G1 X112.588 Y96.870 E0.69436
G1 X113.123 Y96.870 E0.01616
G1 X129.384 Y113.130 E0.69436
G1 X129.919 Y113.130 E0.01616
G1 X113.658 Y96.870 E0.69436
G1 X114.194 Y96.870 E0.01616
G1 X130.454 Y113.130 E0.69436
G1 X130.989 Y113.130 E0.01616
G1 X114.729 Y96.870 E0.69436
G1 X115.264 Y96.870 E0.01616
G1 X131.524 Y113.130 E0.69436
G1 X132.060 Y113.130 E0.01616
G1 X115.799 Y96.870 E0.69436
G1 X116.335 Y96.870 E0.01616
G1 X132.595 Y113.130 E0.69436
G1 X133.130 Y113.130 E0.01616
G1 X116.870 Y96.870 E0.69436
G1 X117.405 Y96.870 E0.01616
G1 X133.665 Y113.130 E0.69436
G1 X134.201 Y113.130 E0.01616
G1 X117.940 Y96.870 E0.69436
G1 X118.476 Y96.870 E0.01616
G1 X134.736 Y113.130 E0.69436
G1 X135.271 Y113.130 E0.01616
G1 X119.011 Y96.870 E0.69436
G1 X119.546 Y96.870 E0.01616
G1 X135.806 Y113.130 E0.69436
G1 X136.342 Y113.130 E0.01616
G1 X120.081 Y96.870 E0.69436
G1 X120.617 Y96.870 E0.01616
G1 X136.877 Y113.130 E0.69436
G1 X137.412 Y113.130 E0.01616
G1 X121.152 Y96.870 E0.69436
G1 X121.687 Y96.870 E0.01616
G1 X137.947 Y113.130 E0.69436
G1 X138.483 Y113.130 E0.01616
G1 X122.222 Y96.870 E0.69436
G1 X122.758 Y96.870 E0.01616
G1 X139.018 Y113.130 E0.69436
G1 X139.553 Y113.130 E0.01616
G1 X123.293 Y96.870 E0.69436
G1 X123.828 Y96.870 E0.01616
G1 X140.088 Y113.130 E0.69436
G1 X140.624 Y113.130 E0.01616
G1 X124.363 Y96.870 E0.69436
G1 X124.898 Y96.870 E0.01616
G1 X141.159 Y113.130 E0.69436
G1 X141.694 Y113.130 E0.01616
G1 X125.434 Y96.870 E0.69436
G1 X125.969 Y96.870 E0.01616
G1 X142.229 Y113.130 E0.69436
G1 X142.764 Y113.130 E0.01616
G1 X126.504 Y96.870 E0.69436
G1 X127.039 Y96.870 E0.01616
G1 X143.300 Y113.130 E0.69436
G1 X143.835 Y113.130 E0.01616
G1 X127.575 Y96.870 E0.69436
G1 X128.110 Y96.870 E0.01616
G1 X144.370 Y113.130 E0.69436
G1 X144.905 Y113.130 E0.01616
G1 X128.645 Y96.870 E0.69436
G1 X129.180 Y96.870 E0.01616
G1 X145.441 Y113.130 E0.69436
G1 X145.976 Y113.130 E0.01616
G1 X129.716 Y96.870 E0.69436
G1 X130.251 Y96.870 E0.01616
G1 X146.511 Y113.130 E0.69436
G1 X147.046 Y113.130 E0.01616
G1 X130.786 Y96.870 E0.69436
G1 X131.321 Y96.870 E0.01616
G1 X147.582 Y113.130 E0.69436
G1 X148.117 Y113.130 E0.01616
G1 X131.857 Y96.870 E0.69436
G1 X132.392 Y96.870 E0.01616
G1 X148.652 Y113.130 E0.69436
G1 X149.187 Y113.130 E0.01616
G1 X132.927 Y96.870 E0.69436
G1 X133.462 Y96.870 E0.01616
G1 X149.723 Y113.130 E0.69436
G1 X150.258 Y113.130 E0.01616
G1 X133.998 Y96.870 E0.69436
G1 X134.533 Y96.870 E0.01616
G1 X150.793 Y113.130 E0.69436
G1 X151.328 Y113.130 E0.01616
G1 X135.068 Y96.870 E0.69436
G1 X135.603 Y96.870 E0.01616
G1 X151.864 Y113.130 E0.69436
G1 X152.399 Y113.130 E0.01616
G1 X136.139 Y96.870 E0.69436
G1 X136.674 Y96.870 E0.01616
G1 X152.934 Y113.130 E0.69436
G1 X153.469 Y113.130 E0.01616
G1 X137.209 Y96.870 E0.69436
G1 X137.744 Y96.870 E0.01616
G1 X154.004 Y113.130 E0.69436
G1 X154.540 Y113.130 E0.01616
G1 X138.279 Y96.870 E0.69436
G1 X138.815 Y96.870 E0.01616
G1 X155.075 Y113.130 E0.69436
G1 X155.610 Y113.130 E0.01616
G1 X139.350 Y96.870 E0.69436
G1 X139.885 Y96.870 E0.01616
G1 X156.145 Y113.130 E0.69436
G1 X156.681 Y113.130 E0.01616
G1 X140.420 Y96.870 E0.69436
G1 X140.956 Y96.870 E0.01616
G1 X157.216 Y113.130 E0.69436
G1 X157.751 Y113.130 E0.01616
G1 X141.491 Y96.870 E0.69436
G1 X142.026 Y96.870 E0.01616
G1 X158.286 Y113.130 E0.69436
G1 X158.822 Y113.130 E0.01616
G1 X142.561 Y96.870 E0.69436
G1 X143.097 Y96.870 E0.01616
G1 X159.357 Y113.130 E0.69436
G1 X159.892 Y113.130 E0.01616
G1 X143.632 Y96.870 E0.69436
G1 X144.167 Y96.870 E0.01616
G1 X160.427 Y113.130 E0.69436
G1 X160.963 Y113.130 E0.01616
G1 X144.702 Y96.870 E0.69436
G1 X145.238 Y96.870 E0.01616
G1 X161.498 Y113.130 E0.69436
G1 X162.033 Y113.130 E0.01616
G1 X145.773 Y96.870 E0.69436
G1 X146.308 Y96.870 E0.01616
G1 X162.568 Y113.130 E0.69436
