; generated by PrusaSlicer 2.2.0+ on 2020-04-12 at 16:40:58 UTC

; 

; external perimeters extrusion width = 0.45mm
; perimeters extrusion width = 0.45mm
; infill extrusion width = 0.45mm
; solid infill extrusion width = 0.45mm
; top infill extrusion width = 0.40mm
; first layer extrusion width = 0.42mm

M73 P0 R67
M201 X9000 Y9000 Z500 E10000 ; sets maximum accelerations, mm/sec^2
M203 X500 Y500 Z12 E120 ; sets maximum feedrates, mm/sec
M204 P2000 R1500 T2000 ; sets acceleration (P, T) and retract acceleration (R), mm/sec^2
M205 X10.00 Y10.00 Z0.20 E2.50 ; sets the jerk limits, mm/sec
M205 S0 T0 ; sets the minimum extruding and travel feed rate, mm/sec
M107
M83  ; extruder relative mode
M140 S85 ; set bed temp
M109 S160 ; Set extruder temp before bed level
M190 S85 ; wait for bed temp

G28 W ; home all without mesh bed level
G80 N7 ; mesh bed leveling

M109 S230 ; wait for extruder temp

M221 S100 ; Set flow to 100

G1 Y-3.0 F1000.0 ; go outside print area
G92 E0.0
G1 E8 ; Purge Bubble
M73 P0 R67
G1 X60.0 E9.0 F1000.0 ; intro line
G1 X100.0 E12.5 F1000.0 ; intro line
G92 E0.0
G21 ; set units to millimeters
G90 ; use absolute coordinates
M83 ; use relative distances for extrusion
M900 K45 ; Filament gcode
;BEFORE_LAYER_CHANGE
G92 E0.0
;0.2


G1 E-1.40000 F2100.00000
G1 Z0.200 F10800.000
;AFTER_LAYER_CHANGE
;0.2
G1 Z0.400
G1 X117.068 Y68.763
G1 Z0.200
G1 E1.40000 F2100.00000
M204 S1000
G1 F1200.000
G1 X117.900 Y68.575 E0.02673
G1 X131.804 Y68.573 E0.43596
G1 X132.344 Y68.636 E0.01704
G1 X132.855 Y68.820 E0.01704
G1 X133.291 Y69.098 E0.01621
G1 X133.744 Y69.535 E0.01974
G1 X144.863 Y82.512 E0.53581
G1 X145.193 Y83.022 E0.01906
G1 X152.850 Y104.850 E0.72526
G1 X152.927 Y105.450 E0.01898
G1 X152.927 Y111.877 E0.20150
G1 X152.852 Y112.442 E0.01787
G1 X152.658 Y112.949 E0.01704
G1 X138.370 Y140.168 E0.96386
G1 X138.066 Y140.610 E0.01680
G1 X137.671 Y140.972 E0.01680
G1 X137.027 Y141.304 E0.02272
G1 X136.309 Y141.427 E0.02284
G1 X113.720 Y141.427 E0.70828
G1 X113.136 Y141.352 E0.01846
G1 X112.676 Y141.182 E0.01538
G1 X112.261 Y140.921 E0.01538
G1 X111.908 Y140.580 E0.01538
G1 X111.633 Y140.174 E0.01538
G1 X97.732 Y112.705 E0.96527
G1 X97.573 Y111.867 E0.02673
G1 X97.573 Y101.835 E0.31457
G1 X97.648 Y101.258 E0.01823
G1 X97.894 Y100.657 E0.02036
G1 X115.947 Y69.751 E1.12226
G1 X116.357 Y69.232 E0.02071
G1 X117.018 Y68.796 E0.02484
G1 F8640.000
G1 X117.900 Y68.575 E-0.20984
G1 X122.751 Y68.574 E-1.12016
G1 E-0.07000 F2100.00000
G1 Z0.400 F10800.000
G1 X129.252 Y132.774
G1 Z0.200
G1 E1.40000 F2100.00000
G1 F1200.000
G1 X129.683 Y132.713 E0.01365
G1 X130.090 Y132.731 E0.01279
G1 X130.322 Y132.773 E0.00738
G1 X130.692 Y132.892 E0.01219
G1 X131.077 Y133.096 E0.01366
G1 X131.406 Y133.359 E0.01321
G1 X131.674 Y133.665 E0.01274
G1 X131.803 Y133.861 E0.00738
G1 X131.973 Y134.211 E0.01219
G1 X132.091 Y134.630 E0.01365
G1 X132.129 Y135.050 E0.01321
G1 X132.092 Y135.468 E0.01315
G1 X131.980 Y135.872 E0.01315
G1 X131.798 Y136.250 E0.01315
G1 X131.551 Y136.589 E0.01315
G1 X131.258 Y136.870 E0.01274
G1 X131.067 Y137.009 E0.00741
G1 X130.709 Y137.201 E0.01274
G1 X130.310 Y137.331 E0.01315
G1 X129.895 Y137.387 E0.01315
G1 X129.475 Y137.368 E0.01315
G1 X129.067 Y137.275 E0.01315
G1 X128.681 Y137.110 E0.01315
G1 X128.331 Y136.879 E0.01315
G1 X128.037 Y136.599 E0.01274
G1 X127.890 Y136.414 E0.00738
G1 X127.690 Y136.081 E0.01219
G1 X127.535 Y135.674 E0.01365
G1 X127.459 Y135.260 E0.01321
G1 X127.459 Y134.840 E0.01315
G1 X127.534 Y134.428 E0.01313
G1 X127.670 Y134.064 E0.01218
G1 X127.787 Y133.841 E0.00791
G1 X128.028 Y133.511 E0.01281
G1 X128.331 Y133.221 E0.01315
G1 X128.670 Y132.997 E0.01274
G1 X128.882 Y132.895 E0.00738
G1 X129.195 Y132.792 E0.01031
G1 X129.023 Y133.245 F10800.000
G1 F1200.000
G1 X129.337 Y133.142 E0.01037
G1 X129.701 Y133.091 E0.01151
G1 X130.048 Y133.106 E0.01090
G1 X130.230 Y133.140 E0.00580
G1 X130.545 Y133.241 E0.01037
G1 X130.869 Y133.413 E0.01151
G1 X131.145 Y133.633 E0.01104
G1 X131.373 Y133.894 E0.01087
G1 X131.475 Y134.048 E0.00580
G1 X131.619 Y134.346 E0.01037
G1 X131.719 Y134.699 E0.01151
G1 X131.751 Y135.050 E0.01104
G1 X131.719 Y135.400 E0.01102
G1 X131.626 Y135.739 E0.01102
G1 X131.473 Y136.056 E0.01102
G1 X131.266 Y136.340 E0.01102
G1 X131.016 Y136.580 E0.01087
G1 X130.866 Y136.689 E0.00581
G1 X130.560 Y136.853 E0.01087
G1 X130.226 Y136.962 E0.01102
G1 X129.878 Y137.009 E0.01102
G1 X129.526 Y136.993 E0.01102
G1 X129.184 Y136.915 E0.01102
G1 X128.860 Y136.777 E0.01102
G1 X128.567 Y136.583 E0.01102
G1 X128.316 Y136.344 E0.01087
G1 X128.201 Y136.199 E0.00580
G1 X128.030 Y135.915 E0.01037
G1 X127.899 Y135.572 E0.01151
G1 X127.836 Y135.226 E0.01104
G1 X127.836 Y134.874 E0.01102
G1 X127.899 Y134.529 E0.01102
G1 X128.015 Y134.219 E0.01036
G1 X128.108 Y134.041 E0.00630
G1 X128.313 Y133.760 E0.01090
G1 X128.567 Y133.517 E0.01102
G1 X128.969 Y133.271 E0.01477
G1 X129.057 Y132.916 F10800.000
G1 F8640.000
G1 X129.337 Y133.142 E-0.09011
G1 X129.701 Y133.091 E-0.08478
G1 X130.048 Y133.106 E-0.08024
G1 X130.230 Y133.140 E-0.04274
G1 X130.545 Y133.241 E-0.07636
G1 X130.869 Y133.413 E-0.08478
G1 X131.145 Y133.633 E-0.08133
G1 X131.373 Y133.894 E-0.08008
G1 X131.475 Y134.048 E-0.04274
G1 X131.619 Y134.346 E-0.07636
G1 X131.719 Y134.699 E-0.08478
G1 X131.751 Y135.050 E-0.08133
G1 X131.719 Y135.400 E-0.08118
G1 X131.626 Y135.739 E-0.08118
G1 X131.473 Y136.056 E-0.08118
G1 X131.266 Y136.340 E-0.08118
G1 X131.016 Y136.580 E-0.08008
G1 X130.947 Y136.630 E-0.01955
G1 E-0.07000 F2100.00000
G1 Z0.400 F10800.000
G1 X130.260 Y126.399
G1 Z0.200
G1 E1.40000 F2100.00000
G1 F1200.000
G1 X130.260 Y118.737 E0.24024
G1 X135.386 Y118.737 E0.16072
G1 X135.386 Y138.163 E0.60908
G1 X114.614 Y138.163 E0.65127
G1 X114.614 Y135.432 E0.08562
G1 X130.208 Y126.429 E0.56455
G1 X129.883 Y126.182 F10800.000
G1 F1200.000
G1 X129.883 Y118.360 E0.24524
G1 X135.763 Y118.360 E0.18436
G1 X135.763 Y138.540 E0.63273
G1 X114.237 Y138.540 E0.67491
G1 X114.237 Y135.214 E0.10427
G1 X129.831 Y126.212 E0.56455
G1 X130.273 Y126.093 F10800.000
G1 F8640.000
G1 X129.869 Y120.452 E-1.33000
G1 E-0.07000 F2100.00000
G1 Z0.400 F10800.000
G1 X135.272 Y119.620
G1 Z0.200
G1 E1.40000 F2100.00000
G1 F1200.000
G1 X134.673 Y119.020 E0.02684
G1 X134.135 Y119.020 E0.01702
G1 X135.103 Y119.988 E0.04332
G1 X135.103 Y120.526 E0.01702
G1 X133.596 Y119.020 E0.06740
G1 X133.058 Y119.020 E0.01702
G1 X135.103 Y121.064 E0.09148
G1 X135.103 Y121.602 E0.01702
G1 X132.520 Y119.020 E0.11555
G1 X131.982 Y119.020 E0.01702
G1 X135.103 Y122.141 E0.13963
G1 X135.103 Y122.679 E0.01702
G1 X131.444 Y119.020 E0.16371
G1 X130.906 Y119.020 E0.01702
G1 X135.103 Y123.217 E0.18779
G1 X135.103 Y123.755 E0.01702
G1 X130.543 Y119.195 E0.20404
G1 X130.543 Y119.733 E0.01702
G1 X135.103 Y124.293 E0.20404
G1 X135.103 Y124.831 E0.01702
G1 X130.543 Y120.271 E0.20404
G1 X130.543 Y120.809 E0.01702
G1 X135.103 Y125.369 E0.20404
G1 X135.103 Y125.907 E0.01702
G1 X130.543 Y121.347 E0.20404
G1 X130.543 Y121.885 E0.01702
G1 X135.103 Y126.445 E0.20404
G1 X135.103 Y126.984 E0.01702
G1 X130.543 Y122.423 E0.20404
G1 X130.543 Y122.961 E0.01702
G1 X135.103 Y127.522 E0.20404
G1 X135.103 Y128.060 E0.01702
G1 X130.543 Y123.499 E0.20404
G1 X130.543 Y124.038 E0.01702
G1 X135.103 Y128.598 E0.20404
G1 X135.103 Y129.136 E0.01702
G1 X130.543 Y124.576 E0.20404
G1 X130.543 Y125.114 E0.01702
G1 X135.103 Y129.674 E0.20404
G1 X135.103 Y130.212 E0.01702
G1 X130.543 Y125.652 E0.20404
G1 X130.543 Y126.190 E0.01702
G1 X135.103 Y130.750 E0.20404
G1 X135.103 Y131.288 E0.01702
G1 X130.438 Y126.623 E0.20874
G1 X130.096 Y126.820 E0.01246
G1 X135.103 Y131.826 E0.22400
G1 X135.103 Y132.365 E0.01702
G1 X129.755 Y127.017 E0.23927
G1 X129.414 Y127.214 E0.01246
G1 X135.103 Y132.903 E0.25453
G1 X135.103 Y133.441 E0.01702
G1 X129.073 Y127.411 E0.26980
G1 X128.732 Y127.608 E0.01246
G1 X135.103 Y133.979 E0.28506
G1 X135.103 Y134.517 E0.01702
G1 X128.391 Y127.805 E0.30032
G1 X128.050 Y128.002 E0.01246
G1 X135.103 Y135.055 E0.31559
G1 X135.103 Y135.593 E0.01702
G1 X127.708 Y128.199 E0.33085
G1 X127.367 Y128.396 E0.01246
G1 X135.103 Y136.131 E0.34612
G1 X135.103 Y136.669 E0.01702
G1 X127.026 Y128.593 E0.36138
G1 X126.685 Y128.790 E0.01246
G1 X130.394 Y132.499 E0.16597
G1 X130.122 Y132.449 E0.00876
G1 X129.792 Y132.434 E0.01047
G1 X126.344 Y128.987 E0.15426
G1 X126.003 Y129.184 E0.01246
G1 X129.300 Y132.481 E0.14755
G1 X129.187 Y132.497 E0.00361
G1 X128.879 Y132.598 E0.01026
G1 X125.662 Y129.381 E0.14397
G1 X125.320 Y129.578 E0.01246
G1 X128.508 Y132.765 E0.14262
G1 X128.184 Y132.979 E0.01229
G1 X124.979 Y129.775 E0.14338
G1 X124.638 Y129.971 E0.01246
G1 X127.904 Y133.238 E0.14613
G1 X127.814 Y133.324 E0.00395
G1 X127.662 Y133.533 E0.00819
G1 X124.297 Y130.168 E0.15055
G1 X123.956 Y130.365 E0.01246
G1 X127.455 Y133.865 E0.15658
G1 X127.300 Y134.247 E0.01307
G1 X123.615 Y130.562 E0.16488
G1 X123.273 Y130.759 E0.01246
G1 X127.200 Y134.686 E0.17568
G1 X127.177 Y134.815 E0.00415
G1 X127.177 Y135.200 E0.01220
G1 X122.932 Y130.956 E0.18990
G1 X122.591 Y131.153 E0.01246
G1 X127.306 Y135.868 E0.21095
G1 X127.435 Y136.205 E0.01143
G1 X127.658 Y136.576 E0.01368
G1 X127.828 Y136.790 E0.00865
G1 X128.154 Y137.101 E0.01426
G1 X128.546 Y137.360 E0.01488
G1 X128.984 Y137.546 E0.01506
G1 X129.318 Y137.880 E0.01493
G1 X129.856 Y137.880 E0.01702
G1 X129.635 Y137.659 E0.00991
G1 X129.907 Y137.671 E0.00863
G1 X130.152 Y137.638 E0.00781
G1 X130.394 Y137.880 E0.01084
G1 X130.932 Y137.880 E0.01702
G1 X130.590 Y137.538 E0.01533
G1 X130.821 Y137.462 E0.00768
G1 X130.972 Y137.381 E0.00542
G1 X131.470 Y137.880 E0.02232
G1 X132.009 Y137.880 E0.01702
G1 X131.310 Y137.182 E0.03125
G1 X131.440 Y137.088 E0.00506
G1 X131.600 Y136.934 E0.00704
G1 X132.547 Y137.880 E0.04234
G1 X133.085 Y137.880 E0.01702
G1 X131.856 Y136.651 E0.05498
G1 X132.073 Y136.330 E0.01226
G1 X133.623 Y137.880 E0.06934
G1 X134.161 Y137.880 E0.01702
G1 X132.247 Y135.966 E0.08563
G1 X132.364 Y135.545 E0.01384
G1 X134.699 Y137.880 E0.10449
G1 X135.103 Y137.880 E0.01277
G1 X135.103 Y137.746 E0.00425
G1 X132.413 Y135.056 E0.12037
G1 X132.371 Y134.579 E0.01514
G1 X132.330 Y134.435 E0.00473
G1 X135.272 Y137.377 E0.13166
G1 F8640.000
G1 X132.330 Y134.435 E-0.96085
G1 X132.371 Y134.579 E-0.03455
G1 X132.413 Y135.056 E-0.11051
G1 X133.099 Y135.742 E-0.22409
G1 E-0.07000 F2100.00000
G1 Z0.400 F10800.000
G1 X128.950 Y138.050
G1 Z0.200
G1 E1.40000 F2100.00000
G1 F1200.000
G1 X122.250 Y131.350 E0.29977
G1 X121.909 Y131.547 E0.01246
G1 X128.242 Y137.880 E0.28336
G1 X127.704 Y137.880 E0.01702
G1 X121.568 Y131.744 E0.27455
G1 X121.227 Y131.941 E0.01246
G1 X127.166 Y137.880 E0.26573
G1 X126.628 Y137.880 E0.01702
G1 X120.885 Y132.138 E0.25692
G1 X120.544 Y132.335 E0.01246
G1 X126.089 Y137.880 E0.24811
G1 X125.551 Y137.880 E0.01702
G1 X120.203 Y132.532 E0.23930
G1 X119.862 Y132.729 E0.01246
G1 X125.013 Y137.880 E0.23048
G1 X124.475 Y137.880 E0.01702
G1 X119.521 Y132.926 E0.22167
G1 X119.180 Y133.123 E0.01246
G1 X123.937 Y137.880 E0.21286
G1 X123.399 Y137.880 E0.01702
G1 X118.839 Y133.320 E0.20404
G1 X118.497 Y133.517 E0.01246
G1 X122.861 Y137.880 E0.19523
G1 X122.323 Y137.880 E0.01702
G1 X118.156 Y133.714 E0.18642
G1 X117.815 Y133.911 E0.01246
G1 X121.785 Y137.880 E0.17761
G1 X121.246 Y137.880 E0.01702
G1 X117.474 Y134.108 E0.16879
G1 X117.133 Y134.305 E0.01246
G1 X120.708 Y137.880 E0.15998
G1 X120.170 Y137.880 E0.01702
G1 X116.792 Y134.502 E0.15117
G1 X116.451 Y134.699 E0.01246
G1 X119.632 Y137.880 E0.14236
G1 X119.094 Y137.880 E0.01702
G1 X116.109 Y134.896 E0.13354
G1 X115.768 Y135.092 E0.01246
G1 X118.556 Y137.880 E0.12473
G1 X118.018 Y137.880 E0.01702
G1 X115.427 Y135.289 E0.11592
G1 X115.086 Y135.486 E0.01246
G1 X117.480 Y137.880 E0.10710
G1 X116.942 Y137.880 E0.01702
G1 X114.897 Y135.836 E0.09147
G1 X114.897 Y136.374 E0.01702
G1 X116.403 Y137.880 E0.06740
G1 X115.865 Y137.880 E0.01702
G1 X114.897 Y136.912 E0.04332
G1 X114.897 Y137.450 E0.01702
G1 X115.497 Y138.050 E0.02684
G1 F8640.000
G1 X114.897 Y137.450 E-0.19585
G1 X114.897 Y136.912 E-0.12425
G1 X115.865 Y137.880 E-0.31615
G1 X116.403 Y137.880 E-0.12425
G1 X114.897 Y136.374 E-0.49187
G1 X114.897 Y136.038 E-0.07763
G1 E-0.07000 F2100.00000
G1 Z0.400 F10800.000
G1 X134.963 Y103.188
G1 Z0.200
G1 E1.40000 F2100.00000
G1 F1200.000
G1 X134.659 Y102.868 E0.01382
G1 X134.417 Y102.502 E0.01377
G1 X134.290 Y102.222 E0.00964
G1 X134.197 Y101.927 E0.00968
G1 X134.135 Y101.502 E0.01347
G1 X134.144 Y101.066 E0.01369
G1 X134.201 Y100.762 E0.00969
G1 X134.293 Y100.468 E0.00965
G1 X134.489 Y100.075 E0.01376
G1 X134.745 Y99.729 E0.01352
G1 X134.964 Y99.513 E0.00963
G1 X135.207 Y99.326 E0.00959
G1 X135.593 Y99.114 E0.01381
G1 X136.011 Y98.976 E0.01382
G1 X136.457 Y98.913 E0.01411
G1 X136.897 Y98.935 E0.01382
G1 X137.325 Y99.032 E0.01374
G1 X137.611 Y99.146 E0.00967
G1 X137.881 Y99.295 E0.00966
G1 X138.225 Y99.565 E0.01372
G1 X138.515 Y99.883 E0.01349
G1 X138.684 Y100.141 E0.00966
G1 X138.820 Y100.416 E0.00963
G1 X138.950 Y100.836 E0.01378
G1 X139.005 Y101.273 E0.01382
G1 X138.978 Y101.713 E0.01381
G1 X138.913 Y102.012 E0.00960
G1 X138.812 Y102.303 E0.00964
G1 X138.608 Y102.682 E0.01351
G1 X138.330 Y103.036 E0.01411
G1 X137.996 Y103.323 E0.01382
G1 X137.612 Y103.555 E0.01405
G1 X137.188 Y103.706 E0.01411
G1 X136.754 Y103.783 E0.01382
G1 X136.304 Y103.774 E0.01411
G1 X135.881 Y103.690 E0.01353
G1 X135.593 Y103.585 E0.00963
G1 X135.321 Y103.445 E0.00959
G1 X135.012 Y103.223 E0.01194
G1 X135.232 Y102.917 F10800.000
G1 F1200.000
G1 X134.955 Y102.632 E0.01244
G1 X134.748 Y102.319 E0.01180
G1 X134.643 Y102.087 E0.00799
G1 X134.566 Y101.843 E0.00800
G1 X134.513 Y101.479 E0.01155
G1 X134.521 Y101.104 E0.01175
G1 X134.567 Y100.853 E0.00801
G1 X134.644 Y100.610 E0.00799
G1 X134.812 Y100.273 E0.01179
G1 X135.031 Y99.977 E0.01157
G1 X135.212 Y99.798 E0.00798
G1 X135.414 Y99.643 E0.00797
G1 X135.744 Y99.461 E0.01181
G1 X136.098 Y99.345 E0.01167
G1 X136.474 Y99.291 E0.01192
G1 X136.846 Y99.310 E0.01167
G1 X137.213 Y99.393 E0.01179
G1 X137.449 Y99.488 E0.00800
G1 X137.672 Y99.611 E0.00798
G1 X137.968 Y99.842 E0.01178
G1 X138.216 Y100.115 E0.01155
G1 X138.356 Y100.328 E0.00800
G1 X138.468 Y100.556 E0.00798
G1 X138.580 Y100.916 E0.01180
G1 X138.626 Y101.285 E0.01167
G1 X138.603 Y101.661 E0.01181
G1 X138.549 Y101.910 E0.00797
G1 X138.466 Y102.150 E0.00799
G1 X138.291 Y102.475 E0.01156
G1 X138.057 Y102.774 E0.01192
G1 X137.774 Y103.017 E0.01167
G1 X137.450 Y103.213 E0.01188
G1 X137.092 Y103.340 E0.01192
G1 X136.725 Y103.405 E0.01167
G1 X136.345 Y103.397 E0.01192
G1 X135.983 Y103.326 E0.01157
G1 X135.744 Y103.238 E0.00798
G1 X135.518 Y103.123 E0.00797
G1 X135.281 Y102.952 E0.00916
G1 X134.856 Y103.044 F10800.000
G1 F8640.000
G1 X134.955 Y102.632 E-0.10525
G1 X134.748 Y102.319 E-0.08688
G1 X134.643 Y102.087 E-0.05883
G1 X134.566 Y101.843 E-0.05893
G1 X134.513 Y101.479 E-0.08505
G1 X134.521 Y101.104 E-0.08655
G1 X134.567 Y100.853 E-0.05897
G1 X134.644 Y100.610 E-0.05886
G1 X134.812 Y100.273 E-0.08685
G1 X135.031 Y99.977 E-0.08517
G1 X135.212 Y99.798 E-0.05880
G1 X135.414 Y99.643 E-0.05870
G1 X135.744 Y99.461 E-0.08700
G1 X136.098 Y99.345 E-0.08597
G1 X136.474 Y99.291 E-0.08778
G1 X136.846 Y99.310 E-0.08597
G1 X137.213 Y99.393 E-0.08680
G1 X137.243 Y99.405 E-0.00765
G1 E-0.07000 F2100.00000
G1 Z0.400 F10800.000
G1 X142.163 Y106.337
G1 Z0.200
G1 E1.40000 F2100.00000
G1 F1200.000
G1 X149.663 Y106.337 E0.23516
G1 X149.663 Y110.963 E0.14504
G1 X101.196 Y110.963 E1.51966
G1 X101.196 Y102.750 E0.25750
G1 X104.783 Y106.337 E0.15905
G1 X114.937 Y106.337 E0.31839
M73 P1 R66
G1 X114.937 Y84.937 E0.67098
G1 X142.163 Y84.937 E0.85365
G1 X142.163 Y106.277 E0.66910
G1 X142.540 Y105.960 F10800.000
G1 F1200.000
G1 X150.040 Y105.960 E0.23516
G1 X150.040 Y111.340 E0.16869
G1 X100.819 Y111.340 E1.54330
G1 X100.819 Y102.360 E0.28156
G1 X101.339 Y102.360 E0.01631
G1 X104.939 Y105.960 E0.15963
G1 X114.560 Y105.960 E0.30167
G1 X114.560 Y84.560 E0.67098
G1 X142.540 Y84.560 E0.87729
G1 X142.540 Y105.900 E0.66910
G1 X142.660 Y106.341 F10800.000
G1 X142.050 Y106.233
G1 F1200.000
G1 X138.762 Y102.945 E0.14689
