; generated by PrusaSlicer 2.2.0+win64 on 2020-09-11 at 19:47:30 UTC


;
;

;
;
; 

; external perimeters extrusion width = 0.45mm
; perimeters extrusion width = 0.45mm
; infill extrusion width = 0.45mm
; solid infill extrusion width = 0.45mm
; top infill extrusion width = 0.40mm
; first layer extrusion width = 0.42mm

M73 P0 R408
M201 X9000 Y9000 Z500 E10000 ; sets maximum accelerations, mm/sec^2
M203 X500 Y500 Z12 E120 ; sets maximum feedrates, mm/sec
M204 P2000 R1500 T2000 ; sets acceleration (P, T) and retract acceleration (R), mm/sec^2
M205 X10.00 Y10.00 Z0.20 E2.50 ; sets the jerk limits, mm/sec
M205 S0 T0 ; sets the minimum extruding and travel feed rate, mm/sec
M107
M83  ; extruder relative mode
M140 S75 ; set bed temp
M109 S160 ; Set extruder temp before bed level
M190 S75 ; wait for bed temp

G28 W ; home all without mesh bed level
G80 N7 ; mesh bed leveling

M109 S240 ; wait for extruder temp

M221 S100 ; Set flow to 100

G1 Y-3.0 F1000.0 ; go outside print area
G92 E0.0
G1 E8 ; Purge Bubble
M73 P0 R408
G1 X60.0 E9.0 F1000.0 ; intro line
G1 X100.0 E12.5 F1000.0 ; intro line
G92 E0.0
G21 ; set units to millimeters
G90 ; use absolute coordinates
M83 ; use relative distances for extrusion
M900 K45; Filament gcode
;BEFORE_LAYER_CHANGE
G92 E0.0
;0.2


G1 E-0.80000 F2100.00000
G1 Z0.600 F10800.000
;AFTER_LAYER_CHANGE
;0.2
G1 X242.112 Y38.520
G1 Z0.200
G1 E0.80000 F2100.00000
M204 S1000
G1 F1200.000
G1 X242.628 Y39.286 E0.02664
G1 X242.814 Y40.187 E0.02653
G1 X242.814 Y169.816 E3.73929
G1 X242.726 Y170.433 E0.01797
G1 X242.482 Y171.006 E0.01797
G1 X242.099 Y171.493 E0.01786
G1 X241.601 Y171.866 E0.01797
G1 X241.041 Y172.092 E0.01742
G1 X240.442 Y172.170 E0.01742
G1 X129.533 Y172.170 E3.19928
G1 X9.327 Y170.097 E3.46797
G1 X8.723 Y170.002 E0.01764
G1 X8.163 Y169.756 E0.01764
G1 X7.684 Y169.375 E0.01764
G1 X7.318 Y168.885 E0.01764
G1 X7.092 Y168.325 E0.01742
G1 X7.014 Y167.726 E0.01742
G1 X7.014 Y42.264 E3.61908
G1 X7.099 Y41.647 E0.01797
G1 X7.342 Y41.074 E0.01797
G1 X7.728 Y40.580 E0.01808
G1 X8.227 Y40.207 E0.01797
G1 X8.768 Y39.985 E0.01688
G1 X9.344 Y39.903 E0.01677
G1 X129.537 Y37.830 E3.46761
G1 X240.441 Y37.830 E3.19911
G1 X241.343 Y38.009 E0.02653
G1 X242.062 Y38.487 E0.02491
@Object water_tray_2x3.stl id:1 copy 0
G1 F8640.000
G1 X242.628 Y39.286 E-0.22611
G1 X242.814 Y40.187 E-0.21237
G1 X242.814 Y41.579 E-0.32152
G1 E-0.04000 F2100.00000
G1 Z0.800 F10800.000
G1 X71.039 Y114.714
G1 Z0.200
G1 E0.80000 F2100.00000
G1 F1200.000
G1 X71.039 Y125.186 E0.30209
G1 X54.460 Y125.186 E0.47824
G1 X54.460 Y114.714 E0.30209
G1 X70.979 Y114.714 E0.47651
G1 X70.662 Y115.091 F10800.000
G1 F1200.000
G1 X70.662 Y124.809 E0.28033
G1 X54.837 Y124.809 E0.45649
G1 X54.837 Y115.091 E0.28033
G1 X70.602 Y115.091 E0.45476
G1 X71.055 Y115.018 F10800.000
G1 F8640.000
G1 X70.622 Y118.382 E-0.76000
G1 E-0.04000 F2100.00000
G1 Z0.800 F10800.000
G1 X54.460 Y84.814
G1 Z0.200
G1 E0.80000 F2100.00000
G1 F1200.000
G1 X71.039 Y84.814 E0.47824
G1 X71.039 Y95.286 E0.30209
G1 X54.460 Y95.286 E0.47824
G1 X54.460 Y84.874 E0.30036
G1 X54.837 Y85.191 F10800.000
G1 F1200.000
G1 X70.662 Y85.191 E0.45649
G1 X70.662 Y94.909 E0.28033
G1 X54.837 Y94.909 E0.45649
G1 X54.837 Y85.251 E0.27860
G1 X54.704 Y84.814 F10800.000
G1 F8640.000
G1 X58.128 Y85.238 E-0.76000
G1 E-0.04000 F2100.00000
G1 Z0.800 F10800.000
G1 X10.304 Y43.215
G1 Z0.200
G1 E0.80000 F2100.00000
G1 F1200.000
G1 X115.196 Y43.215 E3.02568
M73 P0 R407
G1 X115.196 Y166.785 E3.56447
G1 X10.304 Y166.785 E3.02568
G1 X10.304 Y43.275 E3.56274
G1 X9.927 Y42.838 F10800.000
G1 F1200.000
G1 X115.573 Y42.838 E3.04744
G1 X115.573 Y167.162 E3.58623
G1 X9.927 Y167.162 E3.04744
G1 X9.927 Y42.898 E3.58449
G1 X10.311 Y42.952 F10800.000
G1 F8640.000
G1 X13.219 Y42.896 E-0.76000
G1 E-0.04000 F2100.00000
G1 Z0.800 F10800.000
G1 X54.347 Y94.994
G1 Z0.200
G1 E0.80000 F2100.00000
G1 F1200.000
G1 X10.587 Y51.235 E1.78809
G1 X10.587 Y50.701 E0.01543
G1 X54.177 Y94.291 E1.78116
G1 X54.177 Y93.756 E0.01543
G1 X10.587 Y50.167 E1.78116
G1 X10.587 Y49.632 E0.01543
G1 X54.177 Y93.222 E1.78116
G1 X54.177 Y92.688 E0.01543
G1 X10.587 Y49.098 E1.78116
G1 X10.587 Y48.564 E0.01543
G1 X54.177 Y92.154 E1.78116
M73 P0 R406
G1 X54.177 Y91.620 E0.01543
G1 X10.587 Y48.030 E1.78116
G1 X10.587 Y47.496 E0.01543
G1 X54.177 Y91.086 E1.78116
G1 X54.177 Y90.552 E0.01543
G1 X10.587 Y46.962 E1.78116
G1 X10.587 Y46.427 E0.01543
G1 X54.177 Y90.017 E1.78116
G1 X54.177 Y89.483 E0.01543
G1 X10.587 Y45.893 E1.78116
G1 X10.587 Y45.359 E0.01543
G1 X54.177 Y88.949 E1.78116
G1 X54.177 Y88.415 E0.01543
G1 X10.587 Y44.825 E1.78116
G1 X10.587 Y44.291 E0.01543
G1 X54.177 Y87.881 E1.78116
G1 X54.177 Y87.347 E0.01543
G1 X10.587 Y43.757 E1.78116
G1 X10.587 Y43.498 E0.00747
G1 X10.863 Y43.498 E0.00796
G1 X54.177 Y86.812 E1.76990
G1 X54.177 Y86.278 E0.01543
G1 X11.397 Y43.498 E1.74807
G1 X11.931 Y43.498 E0.01543
G1 X54.177 Y85.744 E1.72624
G1 X54.177 Y85.210 E0.01543
G1 X12.465 Y43.498 E1.70442
G1 X12.999 Y43.498 E0.01543
G1 X54.177 Y84.676 E1.68259
G1 X54.177 Y84.531 E0.00419
G1 X54.566 Y84.531 E0.01124
G1 X13.534 Y43.498 E1.67667
G1 X14.068 Y43.498 E0.01543
G1 X55.100 Y84.531 E1.67667
G1 X55.635 Y84.531 E0.01543
G1 X14.602 Y43.498 E1.67667
G1 X15.136 Y43.498 E0.01543
G1 X56.169 Y84.531 E1.67667
G1 X56.703 Y84.531 E0.01543
G1 X15.670 Y43.498 E1.67667
G1 X16.204 Y43.498 E0.01543
G1 X57.237 Y84.531 E1.67667
M73 P0 R405
G1 X57.771 Y84.531 E0.01543
G1 X16.739 Y43.498 E1.67667
G1 X17.273 Y43.498 E0.01543
G1 X58.305 Y84.531 E1.67667
G1 X58.839 Y84.531 E0.01543
G1 X17.807 Y43.498 E1.67667
G1 X18.341 Y43.498 E0.01543
G1 X59.374 Y84.531 E1.67667
G1 X59.908 Y84.531 E0.01543
G1 X18.875 Y43.498 E1.67667
G1 X19.409 Y43.498 E0.01543
G1 X60.442 Y84.531 E1.67667
G1 X60.976 Y84.531 E0.01543
G1 X19.943 Y43.498 E1.67667
G1 X20.478 Y43.498 E0.01543
G1 X61.510 Y84.531 E1.67667
G1 X62.044 Y84.531 E0.01543
G1 X21.012 Y43.498 E1.67667
G1 X21.546 Y43.498 E0.01543
G1 X62.579 Y84.531 E1.67667
G1 X63.113 Y84.531 E0.01543
G1 X22.080 Y43.498 E1.67667
G1 X22.614 Y43.498 E0.01543
G1 X63.647 Y84.531 E1.67667
G1 X64.181 Y84.531 E0.01543
G1 X23.148 Y43.498 E1.67667
G1 X23.683 Y43.498 E0.01543
G1 X64.715 Y84.531 E1.67667
G1 X65.249 Y84.531 E0.01543
G1 X24.217 Y43.498 E1.67667
G1 X24.751 Y43.498 E0.01543
G1 X65.783 Y84.531 E1.67667
G1 X66.318 Y84.531 E0.01543
G1 X25.285 Y43.498 E1.67667
G1 X25.819 Y43.498 E0.01543
G1 X66.852 Y84.531 E1.67667
G1 X67.386 Y84.531 E0.01543
G1 X26.353 Y43.498 E1.67667
G1 X26.887 Y43.498 E0.01543
G1 X67.920 Y84.531 E1.67667
G1 X68.454 Y84.531 E0.01543
G1 X27.422 Y43.498 E1.67667
M73 P1 R404
G1 X27.956 Y43.498 E0.01543
G1 X68.988 Y84.531 E1.67667
G1 X69.523 Y84.531 E0.01543
G1 X28.490 Y43.498 E1.67667
G1 X29.024 Y43.498 E0.01543
G1 X70.057 Y84.531 E1.67667
G1 X70.591 Y84.531 E0.01543
G1 X29.558 Y43.498 E1.67667
G1 X30.092 Y43.498 E0.01543
G1 X114.913 Y128.319 E3.46591
G1 X114.913 Y127.784 E0.01543
G1 X30.627 Y43.498 E3.44408
G1 X31.161 Y43.498 E0.01543
G1 X114.913 Y127.250 E3.42226
G1 X114.913 Y126.716 E0.01543
G1 X31.695 Y43.498 E3.40043
G1 X32.229 Y43.498 E0.01543
G1 X114.913 Y126.182 E3.37860
G1 X114.913 Y125.648 E0.01543
G1 X32.763 Y43.498 E3.35678
G1 X33.297 Y43.498 E0.01543
G1 X114.913 Y125.114 E3.33495
G1 X114.913 Y124.579 E0.01543
G1 X33.831 Y43.498 E3.31313
G1 X34.366 Y43.498 E0.01543
G1 X114.913 Y124.045 E3.29130
M73 P1 R403
G1 X114.913 Y123.511 E0.01543
G1 X34.900 Y43.498 E3.26947
G1 X35.434 Y43.498 E0.01543
G1 X114.913 Y122.977 E3.24765
G1 X114.913 Y122.443 E0.01543
G1 X35.968 Y43.498 E3.22582
G1 X36.502 Y43.498 E0.01543
G1 X114.913 Y121.909 E3.20399
G1 X114.913 Y121.375 E0.01543
G1 X37.036 Y43.498 E3.18217
G1 X37.571 Y43.498 E0.01543
G1 X114.913 Y120.840 E3.16034
G1 X114.913 Y120.306 E0.01543
G1 X38.105 Y43.498 E3.13851
G1 X38.639 Y43.498 E0.01543
G1 X114.913 Y119.772 E3.11669
G1 X114.913 Y119.238 E0.01543
G1 X39.173 Y43.498 E3.09486
G1 X39.707 Y43.498 E0.01543
G1 X114.913 Y118.704 E3.07303
G1 X114.913 Y118.170 E0.01543
G1 X40.241 Y43.498 E3.05121
M73 P1 R402
G1 X40.775 Y43.498 E0.01543
G1 X114.913 Y117.636 E3.02938
G1 X114.913 Y117.101 E0.01543
G1 X41.310 Y43.498 E3.00756
G1 X41.844 Y43.498 E0.01543
G1 X114.913 Y116.567 E2.98573
G1 X114.913 Y116.033 E0.01543
G1 X42.378 Y43.498 E2.96390
G1 X42.912 Y43.498 E0.01543
G1 X114.913 Y115.499 E2.94208
G1 X114.913 Y114.965 E0.01543
G1 X43.446 Y43.498 E2.92025
G1 X43.980 Y43.498 E0.01543
G1 X114.913 Y114.431 E2.89842
G1 X114.913 Y113.896 E0.01543
G1 X44.515 Y43.498 E2.87660
G1 X45.049 Y43.498 E0.01543
G1 X114.913 Y113.362 E2.85477
G1 X114.913 Y112.828 E0.01543
G1 X45.583 Y43.498 E2.83294
G1 X46.117 Y43.498 E0.01543
G1 X114.913 Y112.294 E2.81112
G1 X114.913 Y111.760 E0.01543
G1 X46.651 Y43.498 E2.78929
M73 P1 R401
G1 X47.185 Y43.498 E0.01543
G1 X114.913 Y111.226 E2.76746
G1 X114.913 Y110.692 E0.01543
G1 X47.719 Y43.498 E2.74564
G1 X48.254 Y43.498 E0.01543
G1 X114.913 Y110.157 E2.72381
G1 X114.913 Y109.623 E0.01543
G1 X48.788 Y43.498 E2.70199
G1 X49.322 Y43.498 E0.01543
G1 X114.913 Y109.089 E2.68016
G1 X114.913 Y108.555 E0.01543
G1 X49.856 Y43.498 E2.65833
G1 X50.390 Y43.498 E0.01543
G1 X114.913 Y108.021 E2.63651
G1 X114.913 Y107.487 E0.01543
G1 X50.924 Y43.498 E2.61468
G1 X51.458 Y43.498 E0.01543
G1 X114.913 Y106.952 E2.59285
G1 X114.913 Y106.418 E0.01543
G1 X51.993 Y43.498 E2.57103
G1 X52.527 Y43.498 E0.01543
G1 X114.913 Y105.884 E2.54920
G1 X114.913 Y105.350 E0.01543
G1 X53.061 Y43.498 E2.52737
G1 X53.595 Y43.498 E0.01543
G1 X114.913 Y104.816 E2.50555
G1 X114.913 Y104.282 E0.01543
G1 X54.129 Y43.498 E2.48372
M73 P2 R400
G1 X54.663 Y43.498 E0.01543
G1 X114.913 Y103.748 E2.46189
G1 X114.913 Y103.213 E0.01543
G1 X55.198 Y43.498 E2.44007
G1 X55.732 Y43.498 E0.01543
G1 X114.913 Y102.679 E2.41824
G1 X114.913 Y102.145 E0.01543
G1 X56.266 Y43.498 E2.39642
G1 X56.800 Y43.498 E0.01543
G1 X114.913 Y101.611 E2.37459
G1 X114.913 Y101.077 E0.01543
G1 X57.334 Y43.498 E2.35276
G1 X57.868 Y43.498 E0.01543
G1 X114.913 Y100.543 E2.33094
G1 X114.913 Y100.008 E0.01543
G1 X58.402 Y43.498 E2.30911
G1 X58.937 Y43.498 E0.01543
G1 X114.913 Y99.474 E2.28728
G1 X114.913 Y98.940 E0.01543
G1 X59.471 Y43.498 E2.26546
G1 X60.005 Y43.498 E0.01543
G1 X114.913 Y98.406 E2.24363
G1 X114.913 Y97.872 E0.01543
G1 X60.539 Y43.498 E2.22180
G1 X61.073 Y43.498 E0.01543
G1 X114.913 Y97.338 E2.19998
G1 X114.913 Y96.804 E0.01543
G1 X61.607 Y43.498 E2.17815
G1 X62.142 Y43.498 E0.01543
G1 X114.913 Y96.269 E2.15632
M73 P2 R399
G1 X114.913 Y95.735 E0.01543
G1 X62.676 Y43.498 E2.13450
G1 X63.210 Y43.498 E0.01543
G1 X114.913 Y95.201 E2.11267
G1 X114.913 Y94.667 E0.01543
G1 X63.744 Y43.498 E2.09085
G1 X64.278 Y43.498 E0.01543
G1 X114.913 Y94.133 E2.06902
G1 X114.913 Y93.599 E0.01543
G1 X64.812 Y43.498 E2.04719
G1 X65.346 Y43.498 E0.01543
G1 X114.913 Y93.064 E2.02537
G1 X114.913 Y92.530 E0.01543
G1 X65.881 Y43.498 E2.00354
G1 X66.415 Y43.498 E0.01543
G1 X114.913 Y91.996 E1.98171
G1 X114.913 Y91.462 E0.01543
G1 X66.949 Y43.498 E1.95989
G1 X67.483 Y43.498 E0.01543
G1 X114.913 Y90.928 E1.93806
G1 X114.913 Y90.394 E0.01543
G1 X68.017 Y43.498 E1.91623
G1 X68.551 Y43.498 E0.01543
G1 X114.913 Y89.860 E1.89441
G1 X114.913 Y89.325 E0.01543
G1 X69.086 Y43.498 E1.87258
G1 X69.620 Y43.498 E0.01543
G1 X114.913 Y88.791 E1.85075
G1 X114.913 Y88.257 E0.01543
G1 X70.154 Y43.498 E1.82893
G1 X70.688 Y43.498 E0.01543
G1 X114.913 Y87.723 E1.80710
G1 X114.913 Y87.189 E0.01543
G1 X71.222 Y43.498 E1.78528
G1 X71.756 Y43.498 E0.01543
G1 X114.913 Y86.655 E1.76345
M73 P2 R398
G1 X114.913 Y86.120 E0.01543
G1 X72.290 Y43.498 E1.74162
G1 X72.825 Y43.498 E0.01543
G1 X114.913 Y85.586 E1.71980
G1 X114.913 Y85.052 E0.01543
G1 X73.359 Y43.498 E1.69797
G1 X73.893 Y43.498 E0.01543
G1 X114.913 Y84.518 E1.67614
G1 X114.913 Y83.984 E0.01543
G1 X74.427 Y43.498 E1.65432
G1 X74.961 Y43.498 E0.01543
G1 X114.913 Y83.450 E1.63249
G1 X114.913 Y82.916 E0.01543
G1 X75.495 Y43.498 E1.61066
G1 X76.030 Y43.498 E0.01543
G1 X114.913 Y82.381 E1.58884
G1 X114.913 Y81.847 E0.01543
G1 X76.564 Y43.498 E1.56701
G1 X77.098 Y43.498 E0.01543
G1 X114.913 Y81.313 E1.54518
G1 X114.913 Y80.779 E0.01543
G1 X77.632 Y43.498 E1.52336
G1 X78.166 Y43.498 E0.01543
G1 X114.913 Y80.245 E1.50153
G1 X114.913 Y79.711 E0.01543
G1 X78.700 Y43.498 E1.47971
G1 X79.234 Y43.498 E0.01543
G1 X114.913 Y79.177 E1.45788
G1 X114.913 Y78.642 E0.01543
G1 X79.769 Y43.498 E1.43605
G1 X80.303 Y43.498 E0.01543
G1 X114.913 Y78.108 E1.41423
G1 X114.913 Y77.574 E0.01543
G1 X80.837 Y43.498 E1.39240
G1 X81.371 Y43.498 E0.01543
G1 X114.913 Y77.040 E1.37057
G1 X114.913 Y76.506 E0.01543
G1 X81.905 Y43.498 E1.34875
G1 X82.439 Y43.498 E0.01543
G1 X114.913 Y75.972 E1.32692
G1 X114.913 Y75.437 E0.01543
G1 X82.974 Y43.498 E1.30509
G1 X83.508 Y43.498 E0.01543
G1 X114.913 Y74.903 E1.28327
G1 X114.913 Y74.369 E0.01543
G1 X84.042 Y43.498 E1.26144
M73 P2 R397
G1 X84.576 Y43.498 E0.01543
G1 X114.913 Y73.835 E1.23961
G1 X114.913 Y73.301 E0.01543
G1 X85.110 Y43.498 E1.21779
G1 X85.644 Y43.498 E0.01543
G1 X114.913 Y72.767 E1.19596
G1 X114.913 Y72.233 E0.01543
G1 X86.178 Y43.498 E1.17414
G1 X86.713 Y43.498 E0.01543
G1 X114.913 Y71.698 E1.15231
G1 X114.913 Y71.164 E0.01543
G1 X87.247 Y43.498 E1.13048
G1 X87.781 Y43.498 E0.01543
G1 X114.913 Y70.630 E1.10866
G1 X114.913 Y70.096 E0.01543
G1 X88.315 Y43.498 E1.08683
G1 X88.849 Y43.498 E0.01543
G1 X114.913 Y69.562 E1.06500
G1 X114.913 Y69.028 E0.01543
G1 X89.383 Y43.498 E1.04318
G1 X89.917 Y43.498 E0.01543
G1 X114.913 Y68.493 E1.02135
G1 X114.913 Y67.959 E0.01543
G1 X90.452 Y43.498 E0.99952
G1 X90.986 Y43.498 E0.01543
G1 X114.913 Y67.425 E0.97770
G1 X114.913 Y66.891 E0.01543
G1 X91.520 Y43.498 E0.95587
G1 X92.054 Y43.498 E0.01543
G1 X114.913 Y66.357 E0.93404
G1 X114.913 Y65.823 E0.01543
G1 X92.588 Y43.498 E0.91222
G1 X93.122 Y43.498 E0.01543
G1 X114.913 Y65.289 E0.89039
G1 X114.913 Y64.754 E0.01543
G1 X93.657 Y43.498 E0.86857
G1 X94.191 Y43.498 E0.01543
G1 X114.913 Y64.220 E0.84674
G1 X114.913 Y63.686 E0.01543
G1 X94.725 Y43.498 E0.82491
G1 X95.259 Y43.498 E0.01543
G1 X114.913 Y63.152 E0.80309
G1 X114.913 Y62.618 E0.01543
G1 X95.793 Y43.498 E0.78126
G1 X96.327 Y43.498 E0.01543
G1 X114.913 Y62.084 E0.75943
G1 X114.913 Y61.549 E0.01543
G1 X96.861 Y43.498 E0.73761
G1 X97.396 Y43.498 E0.01543
G1 X114.913 Y61.015 E0.71578
G1 X114.913 Y60.481 E0.01543
G1 X97.930 Y43.498 E0.69395
G1 X98.464 Y43.498 E0.01543
G1 X114.913 Y59.947 E0.67213
G1 X114.913 Y59.413 E0.01543
G1 X98.998 Y43.498 E0.65030
G1 X99.532 Y43.498 E0.01543
G1 X114.913 Y58.879 E0.62847
G1 X114.913 Y58.345 E0.01543
G1 X100.066 Y43.498 E0.60665
G1 X100.601 Y43.498 E0.01543
G1 X114.913 Y57.810 E0.58482
G1 X114.913 Y57.276 E0.01543
G1 X101.135 Y43.498 E0.56300
G1 X101.669 Y43.498 E0.01543
G1 X114.913 Y56.742 E0.54117
G1 X114.913 Y56.208 E0.01543
G1 X102.203 Y43.498 E0.51934
G1 X102.737 Y43.498 E0.01543
G1 X114.913 Y55.674 E0.49752
G1 X114.913 Y55.140 E0.01543
G1 X103.271 Y43.498 E0.47569
G1 X103.805 Y43.498 E0.01543
G1 X114.913 Y54.605 E0.45386
G1 X114.913 Y54.071 E0.01543
G1 X104.340 Y43.498 E0.43204
G1 X104.874 Y43.498 E0.01543
G1 X114.913 Y53.537 E0.41021
G1 X114.913 Y53.003 E0.01543
G1 X105.408 Y43.498 E0.38838
G1 X105.942 Y43.498 E0.01543
G1 X114.913 Y52.469 E0.36656
G1 X114.913 Y51.935 E0.01543
G1 X106.476 Y43.498 E0.34473
G1 X107.010 Y43.498 E0.01543
G1 X114.913 Y51.401 E0.32290
G1 X114.913 Y50.866 E0.01543
G1 X107.545 Y43.498 E0.30108
M73 P3 R396
G1 X108.079 Y43.498 E0.01543
G1 X114.913 Y50.332 E0.27925
G1 X114.913 Y49.798 E0.01543
G1 X108.613 Y43.498 E0.25743
G1 X109.147 Y43.498 E0.01543
G1 X114.913 Y49.264 E0.23560
G1 X114.913 Y48.730 E0.01543
G1 X109.681 Y43.498 E0.21377
G1 X110.215 Y43.498 E0.01543
G1 X114.913 Y48.196 E0.19195
G1 X114.913 Y47.661 E0.01543
G1 X110.749 Y43.498 E0.17012
G1 X111.284 Y43.498 E0.01543
G1 X114.913 Y47.127 E0.14829
G1 X114.913 Y46.593 E0.01543
G1 X111.818 Y43.498 E0.12647
G1 X112.352 Y43.498 E0.01543
G1 X114.913 Y46.059 E0.10464
G1 X114.913 Y45.525 E0.01543
G1 X112.886 Y43.498 E0.08281
G1 X113.420 Y43.498 E0.01543
G1 X114.913 Y44.991 E0.06099
G1 X114.913 Y44.457 E0.01543
G1 X113.954 Y43.498 E0.03916
G1 X114.489 Y43.498 E0.01543
