; generated by PrusaSlicer 2.2.0+win64 on 2020-10-11 at 17:44:07 UTC


;
;

;
;
; 

; external perimeters extrusion width = 0.45mm
; perimeters extrusion width = 0.45mm
; infill extrusion width = 0.45mm
; solid infill extrusion width = 0.45mm
; top infill extrusion width = 0.40mm
; first layer extrusion width = 0.42mm

M73 P0 R123
M201 X9000 Y9000 Z500 E10000 ; sets maximum accelerations, mm/sec^2
M203 X500 Y500 Z12 E120 ; sets maximum feedrates, mm/sec
M204 P2000 R1500 T2000 ; sets acceleration (P, T) and retract acceleration (R), mm/sec^2
M205 X10.00 Y10.00 Z0.20 E2.50 ; sets the jerk limits, mm/sec
M205 S0 T0 ; sets the minimum extruding and travel feed rate, mm/sec
M107
M83  ; extruder relative mode
M140 S85 ; set bed temp
M109 S160 ; Set extruder temp before bed level
M190 S85 ; wait for bed temp

G28 W ; home all without mesh bed level
G80 N7 ; mesh bed leveling

M109 S240 ; wait for extruder temp

M221 S100 ; Set flow to 100

G1 Y-3.0 F1000.0 ; go outside print area
G92 E0.0
G1 E8 ; Purge Bubble
M73 P0 R123
G1 X60.0 E9.0 F1000.0 ; intro line
G1 X100.0 E12.5 F1000.0 ; intro line
G92 E0.0
G21 ; set units to millimeters
G90 ; use absolute coordinates
M83 ; use relative distances for extrusion
M900 K0.08 ; Filament gcode LA 1.5
M900 K45 ; Filament gcode LA 1.0
;BEFORE_LAYER_CHANGE
G92 E0.0
;0.2


G1 E-1.40000 F2100.00000
G1 Z0.200 F10800.000
;AFTER_LAYER_CHANGE
;0.2
G1 Z0.400
G1 X87.040 Y38.787
G1 Z0.200
G1 E1.40000 F2100.00000
M204 S1000
G1 F1200.000
G1 X90.478 Y37.029 E0.12107
G1 X94.055 Y36.432 E0.11371
G1 X155.679 Y36.416 E1.93216
G1 X159.535 Y37.034 E0.12246
G1 X162.676 Y38.609 E0.11015
G1 X163.214 Y39.004 E0.02095
G1 X165.688 Y41.518 E0.11057
G1 X167.305 Y44.628 E0.10991
G1 X167.521 Y45.264 E0.02107
G1 X168.036 Y48.516 E0.10321
G1 X168.776 Y69.320 E0.65271
G1 X168.776 Y138.552 E2.17074
G1 X168.254 Y142.011 E0.10969
G1 X168.122 Y142.488 E0.01550
G1 X166.471 Y145.720 E0.11380
G1 X148.946 Y172.077 E0.99241
G1 X148.516 Y172.554 E0.02012
G1 X147.978 Y172.896 E0.02000
G1 X147.194 Y173.106 E0.02543
G1 X140.303 Y173.583 E0.21660
G1 X109.665 Y173.583 E0.96062
G1 X102.830 Y173.108 E0.21482
G1 X102.161 Y172.952 E0.02154
G1 X101.550 Y172.599 E0.02213
G1 X101.069 Y172.082 E0.02213
G1 X83.485 Y145.650 E0.99538
G1 X81.834 Y142.366 E0.11526
G1 X81.251 Y138.887 E0.11061
G1 X81.224 Y69.289 E2.18218
G1 X81.952 Y48.660 E0.64721
G1 X82.602 Y44.836 E0.12163
G1 X84.318 Y41.509 E0.11737
G1 X86.998 Y38.830 E0.11882
; printing object water_tray_handle.stl id:1 copy 0
G1 F8640.000
G1 X90.478 Y37.029 E-0.90479
G1 X92.295 Y36.726 E-0.42521
G1 E-0.07000 F2100.00000
G1 Z0.400 F10800.000
G1 X142.944 Y148.680
G1 Z0.200
G1 E1.40000 F2100.00000
G1 F1200.000
G1 X143.491 Y156.407 E0.24291
G1 X143.990 Y156.632 E0.01714
G1 X143.004 Y156.682 E0.03094
G1 X143.251 Y160.262 E0.11250
G1 X143.753 Y160.227 E0.01576
G1 X144.411 Y169.557 E0.29326
G1 X145.129 Y170.117 E0.02856
G1 X144.804 Y170.110 E0.01019
G1 X141.027 Y170.367 E0.11870
G1 X139.288 Y145.502 E0.78153
G1 X156.291 Y144.312 E0.53443
G1 X156.399 Y144.329 E0.00343
G1 X158.191 Y144.045 E0.05688
G1 X159.807 Y143.222 E0.05687
G1 X161.091 Y141.939 E0.05691
G1 X161.914 Y140.322 E0.05689
G1 X162.178 Y138.655 E0.05291
G1 X162.167 Y138.333 E0.01010
G1 X162.130 Y138.101 E0.00737
G1 X161.886 Y131.124 E0.21889
G1 X161.915 Y131.139 E0.00102
G1 X161.485 Y118.789 E0.38746
G1 X161.599 Y118.789 E0.00359
G1 X161.190 Y116.207 E0.08194
G1 X160.367 Y114.591 E0.05687
G1 X159.083 Y113.308 E0.05690
G1 X157.466 Y112.484 E0.05691
G1 X155.756 Y112.212 E0.05430
G1 X94.244 Y112.212 E1.92866
G1 X92.533 Y112.484 E0.05433
G1 X90.916 Y113.308 E0.05688
G1 X89.633 Y114.591 E0.05690
G1 X88.810 Y116.207 E0.05687
G1 X88.401 Y118.787 E0.08189
G1 X88.516 Y118.787 E0.00358
G1 X88.084 Y131.139 E0.38752
G1 X88.114 Y131.124 E0.00103
G1 X87.870 Y138.101 E0.21889
G1 X87.833 Y138.333 E0.00737
G1 X87.822 Y138.655 E0.01010
G1 X88.086 Y140.322 E0.05290
G1 X88.909 Y141.939 E0.05689
G1 X90.193 Y143.222 E0.05691
G1 X91.809 Y144.045 E0.05687
G1 X93.601 Y144.329 E0.05689
G1 X93.709 Y144.312 E0.00342
G1 X110.712 Y145.502 E0.53442
G1 X108.973 Y170.367 E0.78155
G1 X105.196 Y170.110 E0.11869
G1 X104.871 Y170.117 E0.01020
G1 X105.589 Y169.557 E0.02856
G1 X106.247 Y160.227 E0.29326
G1 X106.749 Y160.262 E0.01576
G1 X106.996 Y156.682 E0.11250
G1 X106.010 Y156.632 E0.03094
G1 X106.509 Y156.407 E0.01714
G1 X107.056 Y148.680 E0.24291
G1 X93.673 Y147.744 E0.42063
G1 X90.757 Y147.283 E0.09255
G1 X88.191 Y145.976 E0.09028
G1 X86.156 Y143.939 E0.09029
G1 X84.849 Y141.374 E0.09026
G1 X84.392 Y138.494 E0.09145
G1 X85.113 Y118.056 E0.64120
G1 X85.573 Y115.156 E0.09207
G1 X86.880 Y112.590 E0.09029
G1 X88.915 Y110.554 E0.09027
G1 X91.481 Y109.246 E0.09030
G1 X94.387 Y108.787 E0.09224
G1 X155.613 Y108.787 E1.91971
G1 X158.519 Y109.246 E0.09224
G1 X161.084 Y110.554 E0.09027
G1 X163.120 Y112.590 E0.09029
G1 X164.427 Y115.156 E0.09028
G1 X164.887 Y118.056 E0.09207
G1 X165.608 Y138.494 E0.64120
G1 X165.151 Y141.374 E0.09145
G1 X163.844 Y143.939 E0.09026
G1 X161.809 Y145.976 E0.09029
G1 X159.243 Y147.283 E0.09028
G1 X156.327 Y147.744 E0.09256
G1 X143.004 Y148.675 E0.41875
G1 X143.347 Y149.029 F10800.000
G1 F1200.000
G1 X143.851 Y156.156 E0.22401
G1 X144.521 Y156.458 E0.02305
G1 X145.458 Y156.749 E0.03076
G1 X146.066 Y157.058 E0.02136
G1 X145.350 Y157.108 E0.02251
G1 X144.598 Y157.009 E0.02376
G1 X144.202 Y156.999 E0.01245
G1 X143.407 Y157.039 E0.02495
G1 X143.601 Y159.859 E0.08863
G1 X144.102 Y159.824 E0.01575
G1 X144.608 Y167.054 E0.22725
G1 X147.102 Y166.879 E0.07838
G1 X147.149 Y167.558 E0.02134
G1 X144.655 Y167.732 E0.07841
G1 X144.775 Y169.364 E0.05129
G1 X145.296 Y169.776 E0.02085
G1 X145.719 Y170.047 E0.01575
G1 X146.134 Y170.280 E0.01491
G1 X146.461 Y170.564 E0.01358
G1 X146.131 Y170.588 E0.01035
G1 X145.727 Y170.566 E0.01268
G1 X145.293 Y170.497 E0.01379
G1 X144.813 Y170.487 E0.01506
G1 X140.677 Y170.768 E0.12997
G1 X138.886 Y145.152 E0.80515
G1 X156.308 Y143.933 E0.54759
G1 X156.399 Y143.948 E0.00291
G1 X158.073 Y143.682 E0.05314
G1 X159.583 Y142.913 E0.05312
G1 X160.782 Y141.714 E0.05316
G1 X161.551 Y140.204 E0.05315
G1 X161.800 Y138.632 E0.04990
G1 X161.791 Y138.369 E0.00824
G1 X161.754 Y138.137 E0.00737
G1 X161.487 Y130.497 E0.23968
G1 X161.516 Y130.512 E0.00102
G1 X161.094 Y118.411 E0.37964
G1 X161.157 Y118.411 E0.00199
G1 X160.827 Y116.325 E0.06623
G1 X160.058 Y114.816 E0.05312
G1 X158.859 Y113.617 E0.05316
G1 X157.348 Y112.847 E0.05316
G1 X155.726 Y112.589 E0.05150
G1 X94.274 Y112.589 E1.92680
M73 P0 R122
G1 X92.651 Y112.847 E0.05153
G1 X91.141 Y113.617 E0.05314
G1 X89.942 Y114.816 E0.05316
G1 X89.173 Y116.325 E0.05312
G1 X88.843 Y118.411 E0.06620
G1 X88.906 Y118.411 E0.00198
G1 X88.484 Y130.512 E0.37967
G1 X88.513 Y130.497 E0.00103
G1 X88.246 Y138.137 E0.23968
G1 X88.209 Y138.369 E0.00737
G1 X88.200 Y138.632 E0.00824
G1 X88.449 Y140.204 E0.04990
G1 X89.218 Y141.714 E0.05315
G1 X90.417 Y142.913 E0.05316
G1 X91.927 Y143.682 E0.05312
G1 X93.601 Y143.948 E0.05315
G1 X93.692 Y143.933 E0.00290
G1 X111.114 Y145.152 E0.54760
G1 X109.323 Y170.769 E0.80518
G1 X105.187 Y170.488 E0.12997
G1 X104.707 Y170.497 E0.01506
G1 X104.273 Y170.566 E0.01379
G1 X103.869 Y170.588 E0.01268
G1 X103.539 Y170.564 E0.01035
G1 X103.866 Y170.280 E0.01358
G1 X104.281 Y170.047 E0.01491
G1 X104.704 Y169.776 E0.01575
G1 X105.225 Y169.364 E0.02085
G1 X105.345 Y167.732 E0.05129
G1 X102.851 Y167.558 E0.07841
G1 X102.898 Y166.880 E0.02131
G1 X105.392 Y167.054 E0.07838
G1 X105.898 Y159.824 E0.22724
G1 X106.399 Y159.859 E0.01575
G1 X106.593 Y157.039 E0.08863
G1 X105.798 Y156.999 E0.02495
G1 X105.402 Y157.009 E0.01245
G1 X104.650 Y157.108 E0.02376
G1 X103.934 Y157.058 E0.02251
G1 X104.542 Y156.749 E0.02136
G1 X105.479 Y156.458 E0.03076
G1 X106.149 Y156.156 E0.02305
G1 X106.653 Y149.029 E0.22401
G1 X93.630 Y148.119 E0.40932
G1 X90.639 Y147.646 E0.09494
G1 X87.967 Y146.285 E0.09403
G1 X85.847 Y144.164 E0.09403
G1 X84.486 Y141.492 E0.09400
G1 X84.014 Y138.517 E0.09446
G1 X84.737 Y118.020 E0.64307
G1 X85.210 Y115.038 E0.09467
G1 X86.571 Y112.365 E0.09403
G1 X88.691 Y110.245 E0.09401
G1 X91.363 Y108.883 E0.09404
G1 X94.357 Y108.409 E0.09504
G1 X155.643 Y108.409 E1.92156
G1 X158.637 Y108.883 E0.09504
G1 X161.308 Y110.245 E0.09402
G1 X163.429 Y112.366 E0.09403
G1 X164.790 Y115.038 E0.09403
G1 X165.263 Y118.020 E0.09467
G1 X165.986 Y138.517 E0.64306
G1 X165.514 Y141.492 E0.09446
G1 X164.153 Y144.164 E0.09400
G1 X162.033 Y146.285 E0.09403
G1 X159.361 Y147.646 E0.09403
G1 X156.370 Y148.119 E0.09494
G1 X143.407 Y149.025 E0.40743
G1 X142.948 Y149.060 F10800.000
G1 F8640.000
G1 X143.765 Y154.774 E-1.33000
G1 E-0.07000 F2100.00000
G1 Z0.400 F10800.000
G1 X144.174 Y156.673
G1 Z0.200
G1 E1.40000 F2100.00000
G1 F1200.000
G1 X144.521 Y156.739 E0.00544
G1 X145.113 Y156.863 E0.00457
G1 F8640.000
G1 X144.521 Y156.739 E-0.13961
G1 E-1.26039 F2100.00000
G1 Z0.400 F10800.000
G1 X146.937 Y167.232
G1 Z0.200
G1 E1.40000 F2100.00000
G1 F1200.000
G1 X144.444 Y167.406 E0.06305
G1 F8640.000
G1 X146.937 Y167.232 E-0.57723
G1 E-0.82277 F2100.00000
G1 Z0.400 F10800.000
G1 X145.309 Y170.175
G1 Z0.200
G1 E1.40000 F2100.00000
G1 F1200.000
G1 X145.858 Y170.371 E0.00589
G1 F8640.000
G1 X145.309 Y170.175 E-0.13474
G1 E-1.26526 F2100.00000
G1 Z0.400 F10800.000
G1 X141.889 Y170.195
G1 Z0.200
G1 E1.40000 F2100.00000
G1 F1200.000
G1 X141.254 Y169.560 E0.02815
G1 X141.214 Y168.987 E0.01804
G1 X142.229 Y170.002 E0.04503
G1 X142.729 Y169.968 E0.01571
G1 X141.174 Y168.413 E0.06898
G1 X141.134 Y167.839 E0.01804
G1 X143.229 Y169.934 E0.09293
G1 X143.728 Y169.900 E0.01571
G1 X141.094 Y167.265 E0.11688
G1 X141.054 Y166.692 E0.01804
G1 X144.228 Y169.866 E0.14082
G1 X144.338 Y169.858 E0.00346
G1 X144.138 Y169.702 E0.00797
G1 X144.103 Y169.207 E0.01557
G1 X141.014 Y166.118 E0.13705
G1 X140.974 Y165.544 E0.01804
G1 X144.062 Y168.633 E0.13704
G1 X144.022 Y168.059 E0.01806
G1 X140.933 Y164.971 E0.13702
G1 X140.893 Y164.397 E0.01804
G1 X143.981 Y167.485 E0.13700
G1 X143.941 Y166.911 E0.01806
G1 X140.853 Y163.823 E0.13699
G1 X140.813 Y163.249 E0.01804
G1 X143.900 Y166.337 E0.13697
G1 X143.860 Y165.763 E0.01806
G1 X140.773 Y162.676 E0.13695
G1 X140.733 Y162.102 E0.01804
G1 X143.819 Y165.188 E0.13694
G1 X143.779 Y164.614 E0.01806
G1 X140.693 Y161.528 E0.13692
G1 X140.652 Y160.955 E0.01804
G1 X143.738 Y164.040 E0.13690
G1 X143.698 Y163.466 E0.01806
G1 X140.612 Y160.381 E0.13689
G1 X140.572 Y159.807 E0.01804
G1 X143.657 Y162.892 E0.13687
G1 X143.617 Y162.318 E0.01806
G1 X140.532 Y159.234 E0.13685
G1 X140.492 Y158.660 E0.01804
G1 X143.759 Y161.927 E0.14495
G1 F8640.000
G1 X140.492 Y158.660 E-1.06688
G1 X140.532 Y159.234 E-0.13279
G1 X140.931 Y159.633 E-0.13033
G1 E-0.07000 F2100.00000
G1 Z0.400 F10800.000
G1 X143.273 Y160.374
G1 Z0.200
G1 E1.40000 F2100.00000
G1 F1200.000
G1 X143.495 Y160.596 E0.00986
G1 X143.536 Y161.170 E0.01806
G1 X140.452 Y158.086 E0.13682
G1 X140.412 Y157.512 E0.01804
G1 X142.953 Y160.054 E0.11277
G1 X142.914 Y159.481 E0.01802
G1 X140.372 Y156.939 E0.11280
G1 X140.331 Y156.365 E0.01804
G1 X142.874 Y158.908 E0.11282
G1 X142.835 Y158.335 E0.01802
G1 X140.291 Y155.791 E0.11285
G1 X140.251 Y155.218 E0.01804
G1 X142.795 Y157.762 E0.11287
G1 X142.756 Y157.188 E0.01802
G1 X140.211 Y154.644 E0.11290
G1 X140.171 Y154.070 E0.01804
G1 X142.716 Y156.615 E0.11292
G1 X142.702 Y156.414 E0.00632
G1 X143.032 Y156.398 E0.01036
G1 X140.131 Y153.496 E0.12872
G1 X140.091 Y152.923 E0.01804
G1 X143.180 Y156.012 E0.13705
G1 X143.139 Y155.437 E0.01806
G1 X140.051 Y152.349 E0.13703
G1 X140.010 Y151.775 E0.01804
G1 X143.098 Y154.863 E0.13700
G1 X143.058 Y154.289 E0.01806
G1 X139.970 Y151.202 E0.13698
G1 X139.930 Y150.628 E0.01804
G1 X143.017 Y153.715 E0.13696
G1 X142.977 Y153.141 E0.01806
G1 X139.890 Y150.054 E0.13694
G1 X139.850 Y149.480 E0.01804
G1 X142.936 Y152.567 E0.13692
G1 X142.895 Y151.992 E0.01806
G1 X139.810 Y148.907 E0.13690
G1 X139.770 Y148.333 E0.01804
G1 X142.855 Y151.418 E0.13688
G1 X142.814 Y150.844 E0.01806
G1 X139.729 Y147.759 E0.13685
G1 X139.689 Y147.186 E0.01804
G1 X142.773 Y150.270 E0.13683
G1 X142.733 Y149.696 E0.01806
G1 X139.649 Y146.612 E0.13681
G1 X139.609 Y146.038 E0.01804
G1 X142.692 Y149.121 E0.13679
G1 X142.652 Y148.547 E0.01806
G1 X139.850 Y145.746 E0.12428
G1 X140.349 Y145.711 E0.01568
G1 X143.028 Y148.390 E0.11887
G1 X143.527 Y148.355 E0.01568
G1 X140.848 Y145.676 E0.11887
G1 X141.346 Y145.641 E0.01568
G1 X144.026 Y148.320 E0.11887
G1 X144.524 Y148.286 E0.01568
G1 X141.845 Y145.606 E0.11887
G1 X142.344 Y145.571 E0.01568
G1 X145.023 Y148.251 E0.11887
G1 X145.522 Y148.216 E0.01568
G1 X142.843 Y145.537 E0.11887
G1 X143.341 Y145.502 E0.01568
G1 X146.021 Y148.181 E0.11887
G1 X146.519 Y148.146 E0.01568
G1 X143.840 Y145.467 E0.11888
G1 X144.339 Y145.432 E0.01568
G1 X147.018 Y148.111 E0.11888
G1 X147.517 Y148.076 E0.01568
G1 X144.837 Y145.397 E0.11888
G1 X145.336 Y145.362 E0.01568
G1 X148.015 Y148.042 E0.11888
G1 X148.514 Y148.007 E0.01568
G1 X145.835 Y145.327 E0.11888
G1 X146.333 Y145.292 E0.01568
G1 X149.013 Y147.972 E0.11888
G1 X149.512 Y147.937 E0.01568
G1 X146.832 Y145.257 E0.11888
G1 X147.331 Y145.223 E0.01568
G1 X150.010 Y147.902 E0.11888
G1 X150.509 Y147.867 E0.01568
G1 X147.829 Y145.188 E0.11888
G1 X148.328 Y145.153 E0.01568
G1 X151.008 Y147.832 E0.11888
G1 X151.506 Y147.798 E0.01568
G1 X148.827 Y145.118 E0.11888
G1 X149.326 Y145.083 E0.01568
G1 X152.005 Y147.763 E0.11889
G1 X152.504 Y147.728 E0.01568
G1 X149.824 Y145.048 E0.11889
G1 X150.323 Y145.013 E0.01568
G1 X153.003 Y147.693 E0.11889
G1 X153.501 Y147.658 E0.01568
G1 X150.822 Y144.978 E0.11889
G1 X151.320 Y144.944 E0.01568
G1 X154.000 Y147.623 E0.11889
G1 X154.499 Y147.588 E0.01568
G1 X151.819 Y144.909 E0.11889
G1 X152.318 Y144.874 E0.01568
G1 X154.997 Y147.553 E0.11889
G1 X155.496 Y147.519 E0.01568
G1 X152.816 Y144.839 E0.11889
G1 X153.315 Y144.804 E0.01568
G1 X155.995 Y147.484 E0.11889
G1 X156.478 Y147.434 E0.01525
G1 X153.814 Y144.769 E0.11822
G1 X154.312 Y144.734 E0.01568
G1 X156.939 Y147.361 E0.11654
G1 X157.400 Y147.288 E0.01463
G1 X154.811 Y144.699 E0.11485
G1 X155.310 Y144.664 E0.01568
G1 X157.860 Y147.215 E0.11316
G1 X158.321 Y147.142 E0.01463
G1 X155.809 Y144.630 E0.11148
G1 X156.315 Y144.602 E0.01591
G1 X158.782 Y147.069 E0.10945
G1 X159.154 Y147.010 E0.01184
G1 X159.222 Y146.976 E0.00238
G1 X156.799 Y144.552 E0.10752
G1 X157.259 Y144.479 E0.01463
G1 X159.575 Y146.796 E0.10277
G1 X159.929 Y146.616 E0.01245
G1 X157.720 Y144.406 E0.09802
G1 X158.180 Y144.333 E0.01463
G1 X160.283 Y146.436 E0.09327
G1 X160.636 Y146.256 E0.01245
G1 X158.557 Y144.176 E0.09225
G1 X158.910 Y143.996 E0.01245
G1 X160.990 Y146.076 E0.09225
G1 X161.343 Y145.896 E0.01245
G1 X159.264 Y143.816 E0.09225
G1 X159.617 Y143.636 E0.01245
G1 X161.683 Y145.702 E0.09163
G1 X161.950 Y145.435 E0.01184
G1 X159.971 Y143.456 E0.08778
G1 X160.239 Y143.191 E0.01184
G1 X162.216 Y145.168 E0.08773
G1 X162.483 Y144.901 E0.01184
G1 X160.506 Y142.924 E0.08772
G1 X160.773 Y142.657 E0.01184
G1 X162.750 Y144.634 E0.08772
G1 X163.016 Y144.367 E0.01184
G1 X161.039 Y142.390 E0.08772
G1 X161.306 Y142.123 E0.01184
G1 X163.283 Y144.101 E0.08772
G1 X163.550 Y143.834 E0.01184
G1 X161.491 Y141.775 E0.09133
G1 X161.671 Y141.422 E0.01245
G1 X163.750 Y143.501 E0.09224
G1 X163.930 Y143.147 E0.01245
G1 X161.851 Y141.068 E0.09224
G1 X162.031 Y140.714 E0.01245
G1 X164.111 Y142.794 E0.09225
G1 X164.291 Y142.440 E0.01245
G1 X162.196 Y140.346 E0.09292
G1 X162.269 Y139.885 E0.01463
G1 X164.471 Y142.087 E0.09767
G1 X164.651 Y141.733 E0.01245
G1 X162.342 Y139.425 E0.10242
G1 X162.415 Y138.964 E0.01463
G1 X164.831 Y141.380 E0.10717
G1 X164.879 Y141.286 E0.00331
G1 X164.932 Y140.948 E0.01074
G1 X162.455 Y138.470 E0.10994
G1 X162.405 Y137.887 E0.01834
G1 X165.005 Y140.487 E0.11535
G1 X165.078 Y140.026 E0.01463
G1 X162.386 Y137.334 E0.11945
G1 X162.367 Y136.781 E0.01736
G1 X165.151 Y139.566 E0.12355
G1 X165.224 Y139.105 E0.01463
G1 X162.348 Y136.228 E0.12764
G1 X162.328 Y135.675 E0.01736
G1 X165.297 Y138.645 E0.13174
G1 X165.324 Y138.476 E0.00535
G1 X165.312 Y138.126 E0.01101
G1 X162.309 Y135.123 E0.13323
