; generated by PrusaSlicer 2.4.1+win64 on 2022-04-08 at 20:33:26 UTC


;
;

;
;
; 

; external perimeters extrusion width = 0.45mm
; perimeters extrusion width = 0.45mm
; infill extrusion width = 0.45mm
; solid infill extrusion width = 0.45mm
; top infill extrusion width = 0.40mm
; first layer extrusion width = 0.42mm

; external perimeters extrusion width = 0.45mm
; perimeters extrusion width = 0.45mm
; infill extrusion width = 0.45mm
; solid infill extrusion width = 0.45mm
; top infill extrusion width = 0.40mm
; first layer extrusion width = 0.42mm

; external perimeters extrusion width = 0.45mm
; perimeters extrusion width = 0.45mm
; infill extrusion width = 0.45mm
; solid infill extrusion width = 0.45mm
; top infill extrusion width = 0.40mm
; first layer extrusion width = 0.42mm

M73 P0 R91
M107
;TYPE:Custom
M83  ; extruder relative mode
M140 S85 ; set bed temp
M109 S160 ; Set extruder temp before bed level
M190 S85 ; wait for bed temp

G28 W ; home all without mesh bed level
G80 N7 ; mesh bed leveling

M109 S230 ; wait for extruder temp

M221 S100 ; Set flow to 100

G1 Y-3.0 F1000.0 ; go outside print area
G92 E0.0
G1 E8 ; Purge Bubble
G1 X60.0 E9.0 F1000.0 ; intro line
G1 X100.0 E12.5 F1000.0 ; intro line
G92 E0.0
G21 ; set units to millimeters
G90 ; use absolute coordinates
M83 ; use relative distances for extrusion
M900 K0.08 ; Filament gcode LA 1.5
M900 K45 ; Filament gcode LA 1.0
M107
;LAYER_CHANGE
;Z:0.2
;HEIGHT:0.2
;BEFORE_LAYER_CHANGE
G92 E0.0
;0.2


G1 E-1 F2100
G1 Z.2 F720
;AFTER_LAYER_CHANGE
;0.2
G1 Z.4
G1 X52.125 Y54.432 F6000
G1 Z.2 F720
G1 E1 F2100
M204 S800
;TYPE:Skirt/Brim
;WIDTH:0.42
G1 F1200
G1 X97.841 Y10.654 E1.98464
G1 X99.485 Y9.993 E.05555
G1 X106.367 Y9.995 E.21577
G1 X157.377 Y11.746 E1.60033
G1 X158.438 Y12.038 E.0345
G1 X207.069 Y38.695 E1.73885
G1 X207.607 Y39.098 E.02109
G1 X209.107 Y40.598 E.06651
G1 X209.465 Y41.056 E.01821
G1 X211.805 Y44.956 E.14261
G1 X212.144 Y46.171 E.03953
G1 X212.492 Y142.576 E3.02274
G1 X212.49 Y192.384 E1.56171
G1 X212.292 Y193.551 E.03711
G1 X211.719 Y194.685 E.03982
G1 X209.4 Y197.689 E.11901
G1 X208.662 Y198.37 E.03148
G1 X207.734 Y198.976 E.03474
G1 X206.615 Y199.441 E.03799
G1 X205.36 Y199.692 E.04015
G1 X200.995 Y199.722 E.13684
G1 X200.114 Y199.66 E.0277
G1 X42.759 Y173.884 E4.99952
G1 X41.746 Y173.518 E.03378
G1 X40.848 Y172.668 E.03877
G1 X37.574 Y167.331 E.19631
G1 X37.223 Y166.088 E.04049
G1 X37.223 Y115.465 E1.58726
G1 X41.985 Y66.388 E1.546
G1 X42.378 Y65.29 E.03655
G1 X45.003 Y61.39 E.1474
G1 X46.795 Y59.537 E.08082
G1 X52.082 Y54.474 E.22953
M204 S1000
; printing object cable_clip_horizontal.stl id:2 copy 2
;WIPE_START
M73 P0 R90
G1 F4800
G1 X53.733 Y52.893 E-.95
;WIPE_END
G1 E-.05 F2100
G1 Z.4 F720
G1 X199.982 Y47.655 F6000
G1 Z.2 F720
G1 E1 F2100
M204 S800
;TYPE:Perimeter
G1 F1200
G1 X199.981 Y47.738 E.00261
G1 X198.822 Y47.738 E.03633
G1 X198.843 Y49.873 E.06694
G1 X197.206 Y47.72 E.08479
G1 X199.917 Y47.72 E.08499
G1 X199.939 Y47.697 E.00101
M204 S1000
;WIPE_START
G1 F4800
G1 X199.981 Y47.738 E-.02418
G1 X198.822 Y47.738 E-.4816
G1 X198.833 Y48.807 E-.44421
;WIPE_END
G1 E-.05 F2100
G1 Z.4 F720
G1 X205.089 Y47.738 F6000
G1 Z.2 F720
G1 E1 F2100
M204 S800
G1 F1200
G1 X205.072 Y47.738 E.00052
G1 X205.072 Y47.655 E.00261
G1 X205.137 Y47.72 E.00289
G1 X207.843 Y47.72 E.08484
G1 X206.21 Y49.872 E.08469
G1 X206.231 Y47.738 E.06693
G1 X205.149 Y47.738 E.03393
M204 S1000
G1 X204.696 Y47.843 F6000
M204 S800
G1 F1200
G1 X204.69 Y46.733 E.0348
G1 X205.294 Y47.343 E.02692
G1 X208.285 Y47.343 E.09377
G1 X208.284 Y47.681 E.01059
G1 X208.232 Y47.831 E.00497
G1 X206.387 Y50.263 E.09574
G1 X206.071 Y50.61 E.0147
G1 X205.824 Y50.806 E.00989
G1 X205.85 Y48.115 E.08439
G1 X199.203 Y48.115 E.20841
G1 X199.229 Y50.806 E.08438
G1 X198.982 Y50.61 E.00989
G1 X198.666 Y50.263 E.01472
G1 X196.854 Y47.88 E.09388
G1 X196.784 Y47.76 E.00435
G1 X196.77 Y47.699 E.00196
G1 X196.769 Y47.343 E.01116
G1 X199.759 Y47.343 E.09377
G1 X200.363 Y46.733 E.02692
G1 X200.358 Y47.843 E.0348
G1 X204.636 Y47.843 E.13413
M204 S1000
G1 X204.317 Y47.466 F6000
M204 S800
G1 F1200
G1 X204.31 Y46.171 E.0406
G1 X204.287 Y45.757 E.01302
G1 X204.6 Y46.106 E.01471
G1 X205.451 Y46.966 E.03795
G1 X208.663 Y46.966 E.1007
G1 X208.661 Y47.72 E.02362
G1 X208.629 Y47.873 E.0049
G1 X208.556 Y48.027 E.00537
G1 X206.504 Y50.711 E.10594
G1 X206.322 Y50.892 E.00804
G1 X206 Y51.148 E.01291
G1 X205.327 Y51.572 E.02492
G1 X205.379 Y51.363 E.00674
G1 X205.447 Y50.8 E.01779
G1 X205.469 Y48.492 E.07236
G1 X199.584 Y48.492 E.18454
G1 X199.606 Y50.8 E.07236
G1 X199.674 Y51.363 E.01779
G1 X199.726 Y51.572 E.00674
G1 X199.054 Y51.148 E.02492
G1 X198.731 Y50.892 E.01291
G1 X198.549 Y50.711 E.00804
G1 X196.539 Y48.09 E.10358
G1 X196.439 Y47.917 E.00627
G1 X196.393 Y47.731 E.00602
G1 X196.39 Y46.966 E.02397
G1 X199.602 Y46.966 E.1007
G1 X200.454 Y46.106 E.03795
G1 X200.767 Y45.757 E.01471
G1 X200.743 Y46.171 E.01302
G1 X200.737 Y47.466 E.0406
G1 X204.257 Y47.466 E.11036
M204 S1000
;WIPE_START
G1 F4800
G1 X204.31 Y46.171 E-.53859
G1 X204.287 Y45.757 E-.17253
G1 X204.6 Y46.106 E-.195
G1 X204.674 Y46.181 E-.04388
;WIPE_END
G1 E-.05 F2100
G1 Z.4 F720
G1 X205.089 Y48.869 F6000
G1 Z.2 F720
G1 E1 F2100
M204 S800
;TYPE:External perimeter
G1 F1200
G1 X205.07 Y50.775 E.05978
G1 X205.008 Y51.294 E.01639
G1 X204.84 Y51.96 E.02153
G1 X200.213 Y51.96 E.14509
G1 X200.045 Y51.294 E.02153
G1 X199.983 Y50.775 E.01639
G1 X199.965 Y48.869 E.05978
G1 X205.029 Y48.869 E.15878
M204 S1000
G1 X205.486 Y48.824 F6000
;WIPE_START
G1 F4800
G1 X205.07 Y50.775 E-.79252
G1 X205.025 Y51.152 E-.15748
;WIPE_END
G1 E-.05 F2100
G1 Z.4 F720
G1 X199.988 Y42.864 F6000
G1 Z.2 F720
G1 E1 F2100
M204 S800
;TYPE:Perimeter
G1 F1200
G1 X199.661 Y42.848 E.01025
G1 X199.986 Y42.523 E.0144
G1 X199.988 Y42.804 E.00879
M204 S1000
G1 X200.367 Y43.273 F6000
M204 S800
G1 F1200
G1 X199.537 Y43.22 E.02609
G1 X199.191 Y43.218 E.01084
G1 X199.191 Y42.786 E.01357
G1 X200.032 Y41.945 E.03729
G1 X200.36 Y41.946 E.0103
G1 X200.367 Y43.213 E.03974
M204 S1000
G1 X200.763 Y43.689 F6000
M204 S800
G1 F1200
G1 X200.048 Y43.622 E.02252
G1 X199.527 Y43.597 E.01637
G1 X198.814 Y43.594 E.02236
G1 X198.814 Y42.629 E.03025
G1 X199.876 Y41.567 E.04711
G1 X200.518 Y41.569 E.02013
G1 X200.613 Y41.595 E.00307
G1 X200.711 Y41.693 E.00437
G1 X200.737 Y41.788 E.00309
G1 X200.761 Y43.629 E.05774
M204 S1000
;WIPE_START
G1 F4800
G1 X200.048 Y43.622 E-.29605
G1 X199.527 Y43.597 E-.21702
G1 X198.814 Y43.594 E-.29641
G1 X198.814 Y43.256 E-.14052
;WIPE_END
G1 E-.05 F2100
G1 Z.4 F720
G1 X205.065 Y42.864 F6000
G1 Z.2 F720
G1 E1 F2100
M204 S800
G1 F1200
G1 X205.067 Y42.523 E.01068
G1 X205.392 Y42.848 E.0144
G1 X205.125 Y42.861 E.00836
M204 S1000
G1 X204.686 Y43.273 F6000
M204 S800
G1 F1200
G1 X204.693 Y41.946 E.04162
G1 X205.022 Y41.945 E.0103
G1 X205.862 Y42.786 E.03729
G1 X205.862 Y43.218 E.01357
G1 X205.517 Y43.22 E.01084
G1 X204.746 Y43.268 E.02421
M204 S1000
G1 X204.29 Y43.689 F6000
M204 S800
G1 F1200
G1 X204.309 Y43.264 E.01335
G1 X204.317 Y41.788 E.04627
G1 X204.342 Y41.693 E.00309
G1 X204.441 Y41.595 E.00437
G1 X204.535 Y41.569 E.00307
G1 X205.177 Y41.567 E.02013
G1 X206.24 Y42.629 E.04711
G1 X206.24 Y43.594 E.03025
G1 X205.526 Y43.597 E.02236
G1 X205.005 Y43.622 E.01637
G1 X204.35 Y43.684 E.02064
M204 S1000
G1 X204.385 Y44.059 F6000
M204 S800
;TYPE:External perimeter
G1 F1200
G1 X204.228 Y44.074 E.00496
G1 X204.228 Y45.072 E.03128
G1 X204.576 Y45.515 E.01768
G1 X204.874 Y45.848 E.014
G1 X205.608 Y46.589 E.03272
G1 X209.041 Y46.589 E.10763
G1 X209.038 Y47.758 E.03666
G1 X208.99 Y47.993 E.0075
G1 X208.88 Y48.224 E.00802
G1 X206.977 Y50.733 E.09876
G1 X206.782 Y50.967 E.00952
G1 X206.573 Y51.174 E.00925
G1 X206.218 Y51.457 E.01422
G1 X205.156 Y52.125 E.03935
G1 X204.879 Y52.178 E.00885
G1 X204.399 Y52.212 E.0151
G1 X200.655 Y52.212 E.11739
G1 X200.174 Y52.178 E.0151
G1 X199.897 Y52.125 E.00885
G1 X198.835 Y51.457 E.03935
G1 X198.48 Y51.174 E.01422
G1 X198.271 Y50.967 E.00924
G1 X198.076 Y50.733 E.00953
G1 X196.225 Y48.3 E.09586
G1 X196.094 Y48.074 E.0082
G1 X196.042 Y47.921 E.00507
G1 X196.016 Y47.762 E.00504
G1 X196.012 Y46.589 E.03678
G1 X199.445 Y46.589 E.10763
G1 X200.179 Y45.848 E.03272
G1 X200.477 Y45.515 E.014
G1 X200.826 Y45.072 E.01768
G1 X200.826 Y44.074 E.03128
G1 X200.022 Y43.998 E.02532
G1 X199.517 Y43.974 E.01584
G1 X198.437 Y43.97 E.03388
G1 X198.437 Y42.473 E.04693
G1 X199.72 Y41.189 E.05693
G1 X200.568 Y41.192 E.02659
G1 X200.775 Y41.247 E.00669
G1 X200.941 Y41.364 E.00639
G1 X201.058 Y41.531 E.00639
G1 X201.114 Y41.738 E.0067
G1 X201.121 Y43.254 E.04756
G1 X201.144 Y43.755 E.01572
G1 X201.197 Y44.242 E.01534
G1 X201.203 Y44.714 E.01482
G1 X201.12 Y46.183 E.04611
G1 X201.116 Y47.089 E.02841
G1 X203.937 Y47.089 E.08847
G1 X203.933 Y46.183 E.02841
G1 X203.851 Y44.714 E.04611
G1 X203.856 Y44.242 E.01482
G1 X203.909 Y43.755 E.01534
G1 X203.932 Y43.254 E.01572
G1 X203.94 Y41.738 E.04756
G1 X203.995 Y41.531 E.0067
G1 X204.112 Y41.364 E.00639
G1 X204.279 Y41.247 E.00639
G1 X204.485 Y41.192 E.00669
G1 X205.333 Y41.189 E.02659
G1 X206.617 Y42.473 E.05693
G1 X206.617 Y43.97 E.04693
G1 X205.536 Y43.974 E.03388
G1 X204.445 Y44.054 E.03431
M204 S1000
G1 X204.296 Y43.929 F6000
;WIPE_START
G1 F4800
G1 X204.228 Y44.074 E-.09063
G1 X204.228 Y45.072 E-.41469
G1 X204.576 Y45.515 E-.23437
G1 X204.874 Y45.848 E-.18558
G1 X204.916 Y45.89 E-.02472
;WIPE_END
G1 E-.05 F2100
G1 Z.4 F720
G1 X206.815 Y47.833 F6000
G1 Z.2 F720
G1 E1 F2100
M204 S800
;TYPE:Solid infill
;WIDTH:0.446923
G1 F1200
G1 X207.149 Y48.167 E.01587
G1 X206.902 Y48.492 E.0137
G1 X206.51 Y48.1 E.01862
G1 X206.505 Y48.666 E.01901
G1 X206.777 Y48.938 E.01292
M204 S1000
;WIPE_START
G1 F4800
G1 X206.505 Y48.666 E-.15989
G1 X206.51 Y48.1 E-.23522
G1 X206.902 Y48.492 E-.23036
G1 X207.149 Y48.167 E-.16949
G1 X206.885 Y47.904 E-.15504
;WIPE_END
G1 E-.05 F2100
G1 Z.4 F720
G1 X197.893 Y47.833 F6000
G1 Z.2 F720
G1 E1 F2100
M204 S800
;WIDTH:0.445605
G1 F1200
G1 X198.718 Y48.658 E.03905
M204 S1000
; stop printing object cable_clip_horizontal.stl id:2 copy 2
; printing object cable_clip_horizontal.stl id:2 copy 0
;WIPE_START
G1 F4800
G1 X197.893 Y47.833 E-.48474
;WIPE_END
G1 E-.51526 F2100
G1 Z.4 F720
G1 X199.981 Y95.94 F6000
G1 Z.2 F720
G1 E1 F2100
M204 S800
;TYPE:Perimeter
;WIDTH:0.42
G1 F1200
G1 X198.822 Y95.94 E.03633
G1 X198.843 Y98.075 E.06694
M73 P1 R90
G1 X197.206 Y95.923 E.08479
G1 X199.917 Y95.923 E.08499
G1 X199.982 Y95.857 E.00289
G1 X199.982 Y95.88 E.00072
M204 S1000
;WIPE_START
G1 F4800
G1 X198.822 Y95.94 E-.48238
G1 X198.833 Y97.066 E-.46762
;WIPE_END
G1 E-.05 F2100
G1 Z.4 F720
G1 X205.072 Y95.857 F6000
G1 Z.2 F720
G1 E1 F2100
M204 S800
G1 F1200
G1 X205.137 Y95.923 E.00289
G1 X207.843 Y95.923 E.08484
G1 X206.21 Y98.075 E.08469
G1 X206.231 Y95.94 E.06693
G1 X205.072 Y95.94 E.03633
G1 X205.072 Y95.917 E.00072
M204 S1000
;WIPE_START
G1 F4800
G1 X205.137 Y95.923 E-.02697
G1 X207.357 Y95.923 E-.92303
;WIPE_END
G1 E-.05 F2100
G1 Z.4 F720
G1 X200.358 Y96.046 F6000
G1 Z.2 F720
G1 E1 F2100
M204 S800
G1 F1200
G1 X204.696 Y96.046 E.13601
G1 X204.69 Y94.936 E.0348
G1 X205.294 Y95.546 E.02692
G1 X208.285 Y95.546 E.09377
G1 X208.284 Y95.884 E.01059
G1 X208.232 Y96.033 E.00497
G1 X206.387 Y98.466 E.09574
G1 X206.071 Y98.813 E.0147
G1 X205.824 Y99.009 E.00989
G1 X205.85 Y96.318 E.08439
G1 X199.203 Y96.318 E.20841
G1 X199.229 Y99.009 E.08438
G1 X198.982 Y98.813 E.00989
G1 X198.666 Y98.466 E.01472
G1 X196.854 Y96.082 E.09388
G1 X196.784 Y95.963 E.00435
G1 X196.77 Y95.902 E.00196
G1 X196.769 Y95.546 E.01116
G1 X199.759 Y95.546 E.09377
G1 X200.363 Y94.936 E.02692
G1 X200.358 Y95.986 E.03291
M204 S1000
G1 X200.737 Y95.669 F6000
M204 S800
G1 F1200
G1 X204.317 Y95.669 E.11224
G1 X204.31 Y94.374 E.0406
G1 X204.287 Y93.959 E.01302
G1 X204.6 Y94.309 E.01471
G1 X205.451 Y95.169 E.03795
G1 X208.663 Y95.169 E.1007
G1 X208.661 Y95.922 E.02362
G1 X208.629 Y96.075 E.0049
G1 X208.556 Y96.23 E.00537
G1 X206.504 Y98.914 E.10594
G1 X206.322 Y99.095 E.00804
G1 X206 Y99.351 E.01291
G1 X205.327 Y99.774 E.02492
G1 X205.379 Y99.566 E.00674
G1 X205.447 Y99.002 E.01779
G1 X205.469 Y96.695 E.07236
G1 X199.584 Y96.695 E.18454
G1 X199.606 Y99.002 E.07236
G1 X199.674 Y99.566 E.01779
G1 X199.726 Y99.774 E.00674
G1 X199.054 Y99.351 E.02492
G1 X198.731 Y99.095 E.01291
G1 X198.549 Y98.914 E.00804
G1 X196.539 Y96.292 E.10358
G1 X196.439 Y96.12 E.00627
G1 X196.393 Y95.933 E.00602
G1 X196.39 Y95.169 E.02397
G1 X199.602 Y95.169 E.1007
G1 X200.454 Y94.309 E.03795
G1 X200.767 Y93.959 E.01471
G1 X200.743 Y94.374 E.01302
G1 X200.737 Y95.609 E.03872
M204 S1000
;WIPE_START
G1 F4800
G1 X203.022 Y95.647 E-.95
;WIPE_END
G1 E-.05 F2100
G1 Z.4 F720
G1 X199.965 Y97.072 F6000
G1 Z.2 F720
G1 E1 F2100
M204 S800
;TYPE:External perimeter
G1 F1200
G1 X205.089 Y97.072 E.16066
G1 X205.07 Y98.978 E.05978
G1 X205.008 Y99.497 E.01639
G1 X204.84 Y100.163 E.02153
G1 X200.213 Y100.163 E.14509
G1 X200.045 Y99.497 E.02153
G1 X199.983 Y98.978 E.01639
G1 X199.965 Y97.132 E.05789
M204 S1000
G1 X199.96 Y96.672 F6000
;WIPE_START
G1 F4800
G1 X202.251 Y97.105 E-.95
;WIPE_END
G1 E-.05 F2100
G1 Z.4 F720
G1 X199.988 Y91.067 F6000
G1 Z.2 F720
G1 E1 F2100
M204 S800
;TYPE:Perimeter
G1 F1200
G1 X199.661 Y91.051 E.01025
G1 X199.986 Y90.726 E.0144
G1 X199.988 Y91.007 E.00879
M204 S1000
G1 X200.367 Y91.476 F6000
M204 S800
G1 F1200
G1 X199.537 Y91.422 E.02609
G1 X199.191 Y91.421 E.01084
G1 X199.191 Y90.988 E.01357
G1 X200.032 Y90.147 E.03729
G1 X200.36 Y90.148 E.0103
G1 X200.367 Y91.416 E.03974
M204 S1000
G1 X200.763 Y91.892 F6000
M204 S800
G1 F1200
G1 X200.048 Y91.825 E.02252
G1 X199.527 Y91.799 E.01637
G1 X198.814 Y91.797 E.02236
G1 X198.814 Y90.832 E.03025
G1 X199.876 Y89.77 E.04711
G1 X200.518 Y89.772 E.02013
G1 X200.613 Y89.797 E.00307
G1 X200.711 Y89.896 E.00437
G1 X200.737 Y89.991 E.00309
G1 X200.761 Y91.832 E.05774
M204 S1000
;WIPE_START
G1 F4800
G1 X200.048 Y91.825 E-.29605
G1 X199.527 Y91.799 E-.21702
G1 X198.814 Y91.797 E-.29641
G1 X198.814 Y91.459 E-.14052
;WIPE_END
G1 E-.05 F2100
G1 Z.4 F720
G1 X205.065 Y91.067 F6000
G1 Z.2 F720
G1 E1 F2100
M204 S800
G1 F1200
G1 X205.067 Y90.726 E.01068
G1 X205.392 Y91.051 E.0144
G1 X205.125 Y91.064 E.00836
M204 S1000
G1 X204.686 Y91.476 F6000
M204 S800
G1 F1200
G1 X204.693 Y90.148 E.04162
G1 X205.022 Y90.147 E.0103
G1 X205.862 Y90.988 E.03729
G1 X205.862 Y91.421 E.01357
G1 X205.517 Y91.422 E.01084
G1 X204.746 Y91.47 E.02421
M204 S1000
G1 X204.29 Y91.892 F6000
M204 S800
G1 F1200
G1 X204.309 Y91.467 E.01335
G1 X204.317 Y89.991 E.04627
G1 X204.342 Y89.896 E.00309
G1 X204.441 Y89.797 E.00437
G1 X204.535 Y89.772 E.00307
G1 X205.177 Y89.77 E.02013
G1 X206.24 Y90.832 E.04711
G1 X206.24 Y91.797 E.03025
G1 X205.526 Y91.799 E.02236
G1 X205.005 Y91.825 E.01637
G1 X204.35 Y91.886 E.02064
M204 S1000
G1 X204.385 Y92.262 F6000
M204 S800
;TYPE:External perimeter
G1 F1200
G1 X204.228 Y92.277 E.00496
G1 X204.228 Y93.274 E.03128
G1 X204.576 Y93.718 E.01768
G1 X204.874 Y94.05 E.014
G1 X205.608 Y94.792 E.03272
G1 X209.041 Y94.792 E.10763
G1 X209.038 Y95.961 E.03666
G1 X208.99 Y96.195 E.0075
G1 X208.88 Y96.427 E.00802
G1 X206.977 Y98.936 E.09876
G1 X206.782 Y99.169 E.00952
G1 X206.573 Y99.377 E.00925
G1 X206.218 Y99.659 E.01422
G1 X205.156 Y100.327 E.03935
G1 X204.879 Y100.381 E.00885
G1 X204.399 Y100.414 E.0151
G1 X200.655 Y100.414 E.11739
G1 X200.174 Y100.381 E.0151
G1 X199.897 Y100.327 E.00885
G1 X198.835 Y99.659 E.03935
G1 X198.48 Y99.377 E.01422
G1 X198.271 Y99.169 E.00924
G1 X198.076 Y98.936 E.00953
G1 X196.225 Y96.502 E.09586
G1 X196.094 Y96.277 E.0082
G1 X196.042 Y96.123 E.00507
G1 X196.016 Y95.965 E.00504
G1 X196.012 Y94.792 E.03678
G1 X199.445 Y94.792 E.10763
G1 X200.179 Y94.05 E.03272
G1 X200.477 Y93.718 E.014
G1 X200.826 Y93.274 E.01768
G1 X200.826 Y92.277 E.03128
G1 X200.022 Y92.201 E.02532
G1 X199.517 Y92.176 E.01584
G1 X198.437 Y92.172 E.03388
G1 X198.437 Y90.676 E.04693
G1 X199.72 Y89.392 E.05693
G1 X200.568 Y89.395 E.02659
G1 X200.775 Y89.45 E.00669
G1 X200.941 Y89.567 E.00639
G1 X201.058 Y89.734 E.00639
G1 X201.114 Y89.94 E.0067
G1 X201.121 Y91.457 E.04756
