; generated by PrusaSlicer 2.2.0+ on 2020-04-22 at 23:19:40 UTC


;
;

;
;
; 

; external perimeters extrusion width = 0.45mm
; perimeters extrusion width = 0.45mm
; infill extrusion width = 0.45mm
; solid infill extrusion width = 0.45mm
; top infill extrusion width = 0.40mm
; first layer extrusion width = 0.42mm

M73 P0 R31
M201 X9000 Y9000 Z500 E10000 ; sets maximum accelerations, mm/sec^2
M203 X500 Y500 Z12 E120 ; sets maximum feedrates, mm/sec
M204 P2000 R1500 T2000 ; sets acceleration (P, T) and retract acceleration (R), mm/sec^2
M205 X10.00 Y10.00 Z0.20 E2.50 ; sets the jerk limits, mm/sec
M205 S0 T0 ; sets the minimum extruding and travel feed rate, mm/sec
M107
M83  ; extruder relative mode
M140 S75 ; set bed temp
M109 S160 ; Set extruder temp before bed level
M190 S75 ; wait for bed temp

G28 W ; home all without mesh bed level
G80 N7 ; mesh bed leveling

M109 S240 ; wait for extruder temp

M221 S100 ; Set flow to 100

G1 Y-3.0 F1000.0 ; go outside print area
G92 E0.0
G1 E8 ; Purge Bubble
M73 P0 R31
G1 X60.0 E9.0 F1000.0 ; intro line
G1 X100.0 E12.5 F1000.0 ; intro line
G92 E0.0
G21 ; set units to millimeters
G90 ; use absolute coordinates
M83 ; use relative distances for extrusion
M900 K45; Filament gcode
;BEFORE_LAYER_CHANGE
G92 E0.0
;0.2


G1 E-0.80000 F2100.00000
G1 Z0.600 F10800.000
;AFTER_LAYER_CHANGE
;0.2
G1 X101.432 Y83.859
G1 Z0.200
G1 E0.80000 F2100.00000
M204 S1000
G1 F1200.000
G1 X101.913 Y83.478 E0.01771
G1 X102.450 Y83.203 E0.01740
G1 X103.046 Y83.031 E0.01789
G1 X103.624 Y82.973 E0.01674
G1 X146.335 Y82.973 E1.23203
G1 X146.933 Y83.027 E0.01733
G1 X147.536 Y83.197 E0.01806
G1 X148.084 Y83.476 E0.01774
G1 X148.574 Y83.864 E0.01804
G1 X148.988 Y84.363 E0.01869
G1 X149.273 Y84.894 E0.01739
G1 X149.459 Y85.498 E0.01822
G1 X149.524 Y86.048 E0.01597
G1 X149.526 Y123.888 E1.09154
G1 X149.465 Y124.475 E0.01702
G1 X149.281 Y125.089 E0.01848
G1 X148.990 Y125.635 E0.01785
G1 X148.568 Y126.141 E0.01902
G1 X148.086 Y126.522 E0.01772
G1 X147.549 Y126.797 E0.01741
G1 X146.955 Y126.969 E0.01784
G1 X146.376 Y127.027 E0.01678
G1 X103.665 Y127.027 E1.23204
G1 X103.051 Y126.970 E0.01779
G1 X102.429 Y126.788 E0.01870
G1 X101.872 Y126.494 E0.01818
G1 X101.359 Y126.068 E0.01924
G1 X100.978 Y125.586 E0.01772
G1 X100.703 Y125.049 E0.01741
G1 X100.531 Y124.455 E0.01784
G1 X100.474 Y123.884 E0.01656
G1 X100.473 Y86.165 E1.08803
G1 X100.530 Y85.551 E0.01779
G1 X100.712 Y84.929 E0.01869
G1 X101.005 Y84.372 E0.01817
G1 X101.393 Y83.905 E0.01751
@Object end_caps.stl id:0 copy 0
G1 F8640.000
G1 X101.913 Y83.478 E-0.15532
G1 X102.450 Y83.203 E-0.13925
G1 X103.046 Y83.031 E-0.14324
G1 X103.624 Y82.973 E-0.13403
G1 X104.439 Y82.973 E-0.18815
G1 E-0.04000 F2100.00000
G1 Z0.800 F10800.000
G1 X112.555 Y117.168
G1 Z0.200
G1 E0.80000 F2100.00000
G1 F1200.000
G1 X112.390 Y117.213 E0.00494
G1 X111.112 Y117.849 E0.04117
G1 X110.445 Y118.080 E0.02035
G1 X110.053 Y118.168 E0.01159
G1 X109.661 Y118.222 E0.01143
G1 X109.256 Y118.242 E0.01168
G1 X108.845 Y118.222 E0.01187
G1 X108.433 Y118.162 E0.01201
G1 X108.025 Y118.059 E0.01215
G1 X107.627 Y117.911 E0.01225
G1 X107.245 Y117.718 E0.01233
G1 X106.887 Y117.481 E0.01240
G1 X106.559 Y117.202 E0.01241
G1 X106.268 Y116.886 E0.01239
G1 X106.019 Y116.539 E0.01233
G1 X105.816 Y116.168 E0.01221
G1 X105.658 Y115.780 E0.01207
G1 X105.546 Y115.383 E0.01190
G1 X105.477 Y114.983 E0.01171
G1 X105.448 Y114.586 E0.01149
G1 X105.455 Y114.178 E0.01175
G1 X105.552 Y113.474 E0.02051
G1 X105.643 Y113.101 E0.01109
G1 X105.840 Y112.501 E0.01822
G1 X106.215 Y111.556 E0.02932
G1 X106.313 Y111.239 E0.00956
G1 X106.350 Y111.003 E0.00690
G1 X106.341 Y110.792 E0.00609
G1 X106.283 Y110.540 E0.00744
G1 X106.156 Y110.221 E0.00992
G1 X105.955 Y109.827 E0.01276
G1 X105.402 Y108.855 E0.03226
G1 X104.984 Y107.990 E0.02770
G1 X104.758 Y107.313 E0.02061
G1 X104.626 Y106.589 E0.02123
G1 X104.612 Y105.853 E0.02123
G1 X104.654 Y105.438 E0.01201
G1 X104.805 Y104.716 E0.02129
G1 X105.044 Y104.008 E0.02155
G1 X105.331 Y103.347 E0.02079
G1 X105.903 Y102.196 E0.03707
G1 X106.115 Y101.726 E0.01489
G1 X106.244 Y101.331 E0.01196
G1 X106.279 Y101.061 E0.00788
G1 X106.252 Y100.775 E0.00827
G1 X106.211 Y100.615 E0.00478
G1 X106.026 Y100.129 E0.01499
G1 X105.450 Y98.817 E0.04132
G1 X105.200 Y98.008 E0.02445
G1 X105.109 Y97.557 E0.01325
G1 X105.055 Y97.111 E0.01297
G1 X105.037 Y96.660 E0.01302
G1 X105.057 Y96.209 E0.01301
G1 X105.115 Y95.764 E0.01296
G1 X105.210 Y95.329 E0.01285
G1 X105.341 Y94.908 E0.01271
G1 X105.503 Y94.505 E0.01252
G1 X105.696 Y94.124 E0.01232
G1 X105.915 Y93.767 E0.01210
G1 X106.158 Y93.436 E0.01185
G1 X106.424 Y93.133 E0.01162
G1 X106.711 Y92.860 E0.01141
G1 X107.018 Y92.621 E0.01124
G1 X107.346 Y92.417 E0.01114
G1 X107.694 Y92.254 E0.01110
G1 X108.061 Y92.137 E0.01111
G1 X108.441 Y92.074 E0.01110
G1 X108.821 Y92.067 E0.01097
G1 X109.187 Y92.114 E0.01064
G1 X109.546 Y92.210 E0.01072
G1 X110.102 Y92.456 E0.01755
G1 X111.391 Y93.241 E0.04353
G1 X111.751 Y93.422 E0.01163
G1 X112.262 Y93.611 E0.01572
G1 X112.461 Y93.640 E0.00580
G1 X112.660 Y93.609 E0.00579
G1 X113.170 Y93.417 E0.01572
G1 X113.528 Y93.232 E0.01162
G1 X114.811 Y92.438 E0.04353
G1 X115.376 Y92.183 E0.01786
G1 X115.782 Y92.080 E0.01208
G1 X116.089 Y92.038 E0.00896
G1 X116.470 Y92.042 E0.01097
G1 X116.849 Y92.102 E0.01109
G1 X117.218 Y92.216 E0.01112
G1 X117.567 Y92.377 E0.01110
G1 X117.897 Y92.578 E0.01113
G1 X118.206 Y92.815 E0.01124
G1 X118.495 Y93.085 E0.01141
G1 X118.763 Y93.386 E0.01162
G1 X119.009 Y93.715 E0.01185
G1 X119.231 Y94.070 E0.01209
G1 X119.426 Y94.450 E0.01232
G1 X119.592 Y94.851 E0.01253
G1 X119.726 Y95.271 E0.01271
G1 X119.824 Y95.706 E0.01285
G1 X119.886 Y96.151 E0.01296
G1 X119.910 Y96.601 E0.01302
G1 X119.895 Y97.052 E0.01302
G1 X119.845 Y97.499 E0.01297
G1 X119.757 Y97.950 E0.01325
G1 X119.514 Y98.762 E0.02445
G1 X118.948 Y100.078 E0.04132
G1 X118.767 Y100.565 E0.01499
G1 X118.727 Y100.726 E0.00478
G1 X118.702 Y101.011 E0.00828
G1 X118.740 Y101.282 E0.00787
G1 X118.871 Y101.675 E0.01197
G1 X119.087 Y102.144 E0.01489
G1 X119.669 Y103.290 E0.03707
G1 X119.956 Y103.938 E0.02044
G1 X120.094 Y104.308 E0.01139
G1 X120.298 Y105.021 E0.02141
G1 X120.407 Y105.772 E0.02189
G1 X120.399 Y106.507 E0.02121
G1 X120.345 Y106.913 E0.01181
G1 X120.173 Y107.594 E0.02026
G1 X119.922 Y108.235 E0.01985
G1 X119.636 Y108.807 E0.01844
G1 X119.096 Y109.775 E0.03197
G1 X118.898 Y110.170 E0.01276
G1 X118.774 Y110.491 E0.00992
G1 X118.717 Y110.742 E0.00743
G1 X118.711 Y110.954 E0.00610
G1 X118.749 Y111.190 E0.00690
G1 X118.850 Y111.506 E0.00956
G1 X119.232 Y112.447 E0.02932
G1 X119.439 Y113.061 E0.01869
G1 X119.589 Y113.747 E0.02024
G1 X119.631 Y114.140 E0.01140
G1 X119.641 Y114.529 E0.01124
G1 X119.615 Y114.927 E0.01149
G1 X119.549 Y115.327 E0.01171
G1 X119.440 Y115.725 E0.01190
G1 X119.286 Y116.114 E0.01207
G1 X119.085 Y116.487 E0.01221
G1 X118.839 Y116.836 E0.01232
G1 X118.550 Y117.155 E0.01240
G1 X118.225 Y117.436 E0.01241
G1 X117.869 Y117.676 E0.01239
G1 X117.488 Y117.872 E0.01234
G1 X117.091 Y118.023 E0.01225
G1 X116.684 Y118.130 E0.01215
G1 X116.272 Y118.193 E0.01203
G1 X115.861 Y118.215 E0.01186
G1 X115.457 Y118.199 E0.01167
G1 X115.064 Y118.148 E0.01143
G1 X114.671 Y118.063 E0.01158
G1 X114.003 Y117.837 E0.02035
G1 X112.720 Y117.212 E0.04117
G1 X112.613 Y117.183 E0.00320
G1 X112.553 Y116.789 F10800.000
G1 F1200.000
G1 X112.254 Y116.860 E0.00887
G1 X110.965 Y117.500 E0.04151
G1 X110.341 Y117.717 E0.01905
G1 X109.986 Y117.797 E0.01052
G1 X109.626 Y117.847 E0.01048
G1 X109.256 Y117.864 E0.01068
G1 X108.882 Y117.847 E0.01082
G1 X108.507 Y117.792 E0.01092
G1 X108.137 Y117.698 E0.01101
G1 X107.778 Y117.565 E0.01106
G1 X107.435 Y117.392 E0.01109
G1 X107.114 Y117.179 E0.01110
G1 X106.821 Y116.930 E0.01109
G1 X106.561 Y116.648 E0.01106
G1 X106.339 Y116.338 E0.01101
G1 X106.157 Y116.005 E0.01093
G1 X106.015 Y115.657 E0.01084
G1 X105.914 Y115.299 E0.01073
G1 X105.851 Y114.937 E0.01061
G1 X105.825 Y114.575 E0.01047
G1 X105.831 Y114.207 E0.01061
G1 X105.922 Y113.545 E0.01929
G1 X106.006 Y113.205 E0.01010
G1 X106.195 Y112.629 E0.01748
G1 X106.570 Y111.681 E0.02941
G1 X106.681 Y111.324 E0.01078
G1 X106.728 Y111.024 E0.00876
G1 X106.717 Y110.741 E0.00818
G1 X106.643 Y110.428 E0.00928
G1 X106.500 Y110.065 E0.01124
G1 X106.287 Y109.648 E0.01352
G1 X105.736 Y108.679 E0.03214
G1 X105.334 Y107.848 E0.02664
G1 X105.124 Y107.219 E0.01913
G1 X105.003 Y106.551 E0.01957
G1 X104.990 Y105.868 E0.01971
G1 X105.027 Y105.496 E0.01078
G1 X105.170 Y104.815 E0.02006
G1 X105.396 Y104.144 E0.02045
G1 X105.673 Y103.506 E0.02005
G1 X106.244 Y102.358 E0.03699
G1 X106.467 Y101.862 E0.01569
G1 X106.610 Y101.425 E0.01326
G1 X106.657 Y101.068 E0.01037
G1 X106.622 Y100.700 E0.01068
G1 X106.571 Y100.500 E0.00595
G1 X106.375 Y99.986 E0.01587
G1 X105.804 Y98.686 E0.04097
G1 X105.566 Y97.915 E0.02328
G1 X105.482 Y97.497 E0.01228
G1 X105.431 Y97.081 E0.01210
G1 X105.414 Y96.661 E0.01212
G1 X105.433 Y96.242 E0.01209
G1 X105.487 Y95.829 E0.01203
G1 X105.575 Y95.425 E0.01193
G1 X105.696 Y95.035 E0.01179
G1 X105.847 Y94.661 E0.01162
G1 X106.025 Y94.308 E0.01142
G1 X106.228 Y93.977 E0.01119
G1 X106.452 Y93.672 E0.01092
G1 X106.696 Y93.394 E0.01066
G1 X106.957 Y93.146 E0.01039
G1 X107.234 Y92.930 E0.01013
G1 X107.526 Y92.749 E0.00991
G1 X107.832 Y92.606 E0.00975
G1 X108.150 Y92.505 E0.00963
G1 X108.475 Y92.450 E0.00952
G1 X108.800 Y92.444 E0.00936
G1 X109.114 Y92.485 E0.00912
G1 X109.420 Y92.567 E0.00915
G1 X109.927 Y92.791 E0.01599
G1 X111.208 Y93.570 E0.04325
G1 X111.600 Y93.769 E0.01267
G1 X112.154 Y93.973 E0.01701
G1 X112.463 Y94.020 E0.00902
G1 X112.772 Y93.970 E0.00902
G1 X113.323 Y93.762 E0.01701
G1 X113.714 Y93.561 E0.01267
G1 X114.989 Y92.771 E0.04325
G1 X115.500 Y92.540 E0.01619
G1 X115.854 Y92.451 E0.01051
G1 X116.113 Y92.415 E0.00756
G1 X116.438 Y92.419 E0.00937
G1 X116.764 Y92.470 E0.00951
G1 X117.083 Y92.569 E0.00963
G1 X117.390 Y92.710 E0.00975
G1 X117.683 Y92.889 E0.00991
G1 X117.962 Y93.103 E0.01013
G1 X118.225 Y93.349 E0.01038
G1 X118.470 Y93.624 E0.01066
G1 X118.697 Y93.928 E0.01093
G1 X118.902 Y94.257 E0.01118
G1 X119.083 Y94.609 E0.01142
G1 X119.237 Y94.981 E0.01162
G1 X119.361 Y95.370 E0.01179
G1 X119.453 Y95.773 E0.01193
G1 X119.510 Y96.186 E0.01203
G1 X119.532 Y96.605 E0.01209
G1 X119.519 Y97.025 E0.01212
G1 X119.472 Y97.442 E0.01210
G1 X119.391 Y97.860 E0.01228
G1 X119.159 Y98.633 E0.02328
G1 X118.598 Y99.938 E0.04097
G1 X118.406 Y100.453 E0.01587
G1 X118.356 Y100.653 E0.00595
G1 X118.324 Y101.022 E0.01068
G1 X118.374 Y101.378 E0.01037
G1 X118.520 Y101.814 E0.01326
G1 X118.748 Y102.308 E0.01569
G1 X119.328 Y103.452 E0.03699
G1 X119.607 Y104.080 E0.01984
G1 X119.736 Y104.426 E0.01063
G1 X119.928 Y105.101 E0.02025
G1 X120.030 Y105.797 E0.02031
G1 X120.022 Y106.480 E0.01969
G1 X119.974 Y106.842 E0.01053
G1 X119.814 Y107.479 E0.01895
G1 X119.577 Y108.081 E0.01867
G1 X119.303 Y108.631 E0.01771
G1 X118.763 Y109.598 E0.03197
G1 X118.553 Y110.018 E0.01352
G1 X118.412 Y110.381 E0.01124
G1 X118.342 Y110.695 E0.00927
G1 X118.332 Y110.978 E0.00819
G1 X118.381 Y111.278 E0.00876
G1 X118.495 Y111.634 E0.01078
G1 X118.878 Y112.579 E0.02941
G1 X119.075 Y113.162 E0.01776
G1 X119.216 Y113.808 E0.01906
G1 X119.255 Y114.165 E0.01037
G1 X119.264 Y114.522 E0.01030
G1 X119.240 Y114.884 E0.01047
G1 X119.180 Y115.247 E0.01061
G1 X119.082 Y115.606 E0.01073
G1 X118.943 Y115.955 E0.01084
G1 X118.764 Y116.289 E0.01093
G1 X118.544 Y116.600 E0.01101
G1 X118.286 Y116.885 E0.01106
G1 X117.995 Y117.136 E0.01109
G1 X117.676 Y117.351 E0.01110
G1 X117.334 Y117.527 E0.01109
G1 X116.976 Y117.663 E0.01105
G1 X116.607 Y117.760 E0.01100
G1 X116.233 Y117.817 E0.01093
G1 X115.858 Y117.838 E0.01082
G1 X115.489 Y117.823 E0.01067
G1 X115.128 Y117.777 E0.01048
G1 X114.772 Y117.699 E0.01051
G1 X114.147 Y117.488 E0.01905
G1 X112.853 Y116.857 E0.04151
G1 X112.613 Y116.793 E0.00716
G1 X112.552 Y116.411 F10800.000
G1 F1200.000
G1 X112.423 Y116.421 E0.00372
G1 X112.118 Y116.506 E0.00913
G1 X110.819 Y117.152 E0.04185
G1 X110.238 Y117.354 E0.01774
G1 X109.919 Y117.426 E0.00944
G1 X109.591 Y117.471 E0.00953
G1 X109.256 Y117.487 E0.00967
G1 X108.918 Y117.471 E0.00977
G1 X108.581 Y117.422 E0.00983
G1 X108.249 Y117.338 E0.00986
G1 X107.929 Y117.219 E0.00986
G1 X107.624 Y117.065 E0.00984
G1 X107.341 Y116.877 E0.00981
G1 X107.083 Y116.658 E0.00977
G1 X106.854 Y116.410 E0.00973
G1 X106.659 Y116.137 E0.00969
G1 X106.498 Y115.843 E0.00965
G1 X106.372 Y115.535 E0.00961
G1 X106.282 Y115.216 E0.00956
G1 X106.226 Y114.891 E0.00951
G1 X106.202 Y114.564 E0.00944
G1 X106.208 Y114.236 E0.00946
G1 X106.293 Y113.616 E0.01807
G1 X106.369 Y113.309 E0.00912
G1 X106.550 Y112.757 E0.01674
G1 X106.926 Y111.807 E0.02949
G1 X107.050 Y111.410 E0.01199
G1 X107.106 Y111.046 E0.01062
G1 X107.092 Y110.690 E0.01027
G1 X107.004 Y110.315 E0.01111
G1 X106.844 Y109.910 E0.01256
G1 X106.619 Y109.469 E0.01429
G1 X106.070 Y108.504 E0.03202
G1 X105.684 Y107.705 E0.02558
G1 X105.490 Y107.125 E0.01766
G1 X105.379 Y106.514 E0.01792
G1 X105.367 Y105.883 E0.01819
G1 X105.400 Y105.554 E0.00955
G1 X105.534 Y104.915 E0.01884
G1 X105.748 Y104.279 E0.01935
G1 X106.015 Y103.665 E0.01931
G1 X106.585 Y102.519 E0.03691
G1 X106.820 Y101.998 E0.01649
G1 X106.976 Y101.518 E0.01456
G1 X107.035 Y101.076 E0.01286
G1 X107.027 Y100.854 E0.00641
G1 X106.931 Y100.386 E0.01380
G1 X106.724 Y99.843 E0.01676
G1 X106.158 Y98.554 E0.04062
G1 X105.932 Y97.822 E0.02211
G1 X105.854 Y97.437 E0.01131
G1 X105.807 Y97.050 E0.01124
G1 X105.791 Y96.662 E0.01122
G1 X105.809 Y96.275 E0.01117
G1 X105.859 Y95.894 E0.01110
G1 X105.940 Y95.521 E0.01100
G1 X106.052 Y95.161 E0.01087
G1 X106.191 Y94.817 E0.01071
G1 X106.355 Y94.492 E0.01051
G1 X106.541 Y94.188 E0.01028
G1 X106.747 Y93.909 E0.01000
G1 X106.968 Y93.656 E0.00969
G1 X107.203 Y93.432 E0.00936
G1 X107.450 Y93.240 E0.00902
G1 X107.706 Y93.081 E0.00869
G1 X107.969 Y92.958 E0.00840
G1 X108.239 Y92.872 E0.00814
G1 X108.510 Y92.827 E0.00794
G1 X108.779 Y92.822 E0.00776
G1 X109.040 Y92.856 E0.00760
G1 X109.294 Y92.924 E0.00758
G1 X109.752 Y93.126 E0.01444
G1 X111.025 Y93.900 E0.04297
G1 X111.450 Y94.115 E0.01372
G1 X112.045 Y94.334 E0.01830
G1 X112.464 Y94.399 E0.01225
G1 X112.729 Y94.369 E0.00767
G1 X112.883 Y94.331 E0.00460
G1 X113.477 Y94.107 E0.01830
G1 X113.900 Y93.889 E0.01373
G1 X115.166 Y93.105 E0.04297
G1 X115.625 Y92.898 E0.01451
G1 X115.926 Y92.822 E0.00895
G1 X116.137 Y92.793 E0.00616
G1 X116.406 Y92.795 E0.00776
G1 X116.678 Y92.839 E0.00794
G1 X116.948 Y92.922 E0.00815
G1 X117.212 Y93.043 E0.00840
G1 X117.469 Y93.200 E0.00869
G1 X117.717 Y93.391 E0.00902
G1 X117.954 Y93.612 E0.00936
G1 X118.178 Y93.863 E0.00969
G1 X118.386 Y94.141 E0.01000
G1 X118.574 Y94.443 E0.01028
G1 X118.741 Y94.767 E0.01052
G1 X118.883 Y95.110 E0.01071
G1 X118.997 Y95.470 E0.01087
G1 X119.082 Y95.841 E0.01100
G1 X119.135 Y96.222 E0.01110
G1 X119.155 Y96.609 E0.01117
G1 X119.143 Y96.998 E0.01122
G1 X119.099 Y97.385 E0.01124
G1 X119.024 Y97.770 E0.01131
G1 X118.804 Y98.504 E0.02211
G1 X118.248 Y99.797 E0.04062
G1 X118.045 Y100.342 E0.01676
G1 X117.986 Y100.581 E0.00712
G1 X117.953 Y100.811 E0.00669
G1 X117.947 Y101.033 E0.00641
G1 X118.009 Y101.475 E0.01286
G1 X118.169 Y101.953 E0.01456
G1 X118.408 Y102.473 E0.01649
G1 X118.987 Y103.614 E0.03691
G1 X119.257 Y104.223 E0.01923
G1 X119.377 Y104.544 E0.00987
G1 X119.559 Y105.180 E0.01909
G1 X119.653 Y105.823 E0.01874
G1 X119.646 Y106.453 E0.01818
G1 X119.603 Y106.771 E0.00925
G1 X119.454 Y107.364 E0.01763
G1 X119.232 Y107.928 E0.01749
G1 X118.969 Y108.454 E0.01698
G1 X118.429 Y109.422 E0.03196
G1 X118.207 Y109.865 E0.01429
G1 X118.050 Y110.271 E0.01256
G1 X117.966 Y110.647 E0.01111
G1 X117.954 Y111.003 E0.01028
G1 X118.014 Y111.366 E0.01062
G1 X118.140 Y111.762 E0.01199
G1 X118.524 Y112.710 E0.02949
G1 X118.711 Y113.263 E0.01684
G1 X118.843 Y113.868 E0.01787
G1 X118.878 Y114.190 E0.00933
G1 X118.886 Y114.514 E0.00935
G1 X118.865 Y114.841 E0.00944
G1 X118.811 Y115.166 E0.00951
G1 X118.724 Y115.486 E0.00956
G1 X118.601 Y115.795 E0.00961
G1 X118.442 Y116.090 E0.00965
G1 X118.249 Y116.364 E0.00969
