; generated by PrusaSlicer 2.2.0+win64 on 2020-10-13 at 21:09:19 UTC


;
;

;
;
; 

; external perimeters extrusion width = 0.45mm
; perimeters extrusion width = 0.45mm
; infill extrusion width = 0.45mm
; solid infill extrusion width = 0.45mm
; top infill extrusion width = 0.40mm
; first layer extrusion width = 0.42mm

M73 P0 R63
M201 X9000 Y9000 Z500 E10000 ; sets maximum accelerations, mm/sec^2
M203 X500 Y500 Z12 E120 ; sets maximum feedrates, mm/sec
M204 P2000 R1500 T2000 ; sets acceleration (P, T) and retract acceleration (R), mm/sec^2
M205 X10.00 Y10.00 Z0.20 E2.50 ; sets the jerk limits, mm/sec
M205 S0 T0 ; sets the minimum extruding and travel feed rate, mm/sec
M107
M83  ; extruder relative mode
M140 S85 ; set bed temp
M109 S160 ; Set extruder temp before bed level
M190 S85 ; wait for bed temp

G28 W ; home all without mesh bed level
G80 N7 ; mesh bed leveling

M109 S240 ; wait for extruder temp

M221 S100 ; Set flow to 100

G1 Y-3.0 F1000.0 ; go outside print area
G92 E0.0
G1 E8 ; Purge Bubble
M73 P0 R63
G1 X60.0 E9.0 F1000.0 ; intro line
G1 X100.0 E12.5 F1000.0 ; intro line
G92 E0.0
G21 ; set units to millimeters
G90 ; use absolute coordinates
M83 ; use relative distances for extrusion
M900 K0.08 ; Filament gcode LA 1.5
M900 K45 ; Filament gcode LA 1.0
;BEFORE_LAYER_CHANGE
G92 E0.0
;0.2


G1 E-1.40000 F2100.00000
G1 Z0.200 F10800.000
;AFTER_LAYER_CHANGE
;0.2
G1 Z0.400
G1 X59.164 Y47.775
G1 Z0.200
G1 E1.40000 F2100.00000
M204 S1000
G1 F1200.000
G1 X59.991 Y47.623 E0.02637
G1 X190.004 Y47.623 E4.07645
G1 X190.906 Y47.802 E0.02884
G1 X191.670 Y48.308 E0.02872
G1 X192.187 Y49.069 E0.02884
G1 X192.377 Y49.968 E0.02884
G1 X192.377 Y160.019 E3.45056
G1 X192.319 Y160.521 E0.01585
G1 X192.158 Y160.997 E0.01574
G1 X191.901 Y161.428 E0.01574
G1 X191.556 Y161.797 E0.01585
G1 X190.836 Y162.225 E0.02626
G1 X190.009 Y162.377 E0.02637
G1 X59.996 Y162.377 E4.07645
G1 X59.490 Y162.322 E0.01597
G1 X59.010 Y162.161 E0.01585
G1 X58.572 Y161.901 E0.01597
G1 X58.203 Y161.556 E0.01585
G1 X57.775 Y160.836 E0.02626
G1 X57.623 Y160.013 E0.02626
G1 X57.623 Y49.996 E3.44948
G1 X57.678 Y49.490 E0.01597
G1 X57.839 Y49.010 E0.01585
G1 X58.099 Y48.572 E0.01597
G1 X58.444 Y48.203 E0.01585
G1 X59.112 Y47.805 E0.02437
; printing object water_tray_insert_2x3.stl id:0 copy 0
G1 F8640.000
G1 X59.991 Y47.623 E-0.20727
G1 X64.854 Y47.623 E-1.12273
G1 E-0.07000 F2100.00000
G1 Z0.400 F10800.000
G1 X118.479 Y123.706
G1 Z0.200
G1 E1.40000 F2100.00000
G1 F1200.000
G1 X121.625 Y122.403 E0.10677
G1 X125.000 Y121.959 E0.10674
G1 X128.375 Y122.403 E0.10675
G1 X131.521 Y123.706 E0.10677
G1 X134.223 Y125.779 E0.10676
G1 X136.296 Y128.480 E0.10676
G1 X137.598 Y131.626 E0.10676
G1 X138.042 Y135.002 E0.10677
G1 X137.598 Y138.377 E0.10674
G1 X136.296 Y141.523 E0.10676
G1 X134.223 Y144.225 E0.10677
G1 X131.521 Y146.297 E0.10675
G1 X128.375 Y147.600 E0.10677
G1 X125.000 Y148.044 E0.10674
G1 X121.625 Y147.600 E0.10675
G1 X118.479 Y146.297 E0.10677
G1 X115.777 Y144.225 E0.10675
G1 X113.704 Y141.523 E0.10677
G1 X112.402 Y138.377 E0.10675
G1 X111.958 Y135.002 E0.10674
G1 X112.402 Y131.626 E0.10677
G1 X113.704 Y128.480 E0.10676
G1 X115.777 Y125.779 E0.10675
G1 X118.431 Y123.743 E0.10487
G1 X118.661 Y124.042 F10800.000
G1 F1200.000
G1 X121.723 Y122.770 E0.10397
G1 X125.000 Y122.339 E0.10363
G1 X128.277 Y122.770 E0.10364
G1 X131.331 Y124.036 E0.10366
G1 X133.954 Y126.048 E0.10364
G1 X135.966 Y128.670 E0.10364
G1 X137.231 Y131.724 E0.10364
G1 X137.662 Y135.002 E0.10366
G1 X137.231 Y138.279 E0.10363
G1 X135.966 Y141.333 E0.10364
G1 X133.954 Y143.956 E0.10366
G1 X131.331 Y145.968 E0.10364
G1 X128.277 Y147.233 E0.10366
G1 X125.000 Y147.664 E0.10363
G1 X121.723 Y147.233 E0.10363
G1 X118.669 Y145.968 E0.10366
G1 X116.046 Y143.956 E0.10364
G1 X114.034 Y141.333 E0.10366
G1 X112.769 Y138.279 E0.10364
G1 X112.338 Y135.002 E0.10363
G1 X112.769 Y131.724 E0.10366
G1 X114.034 Y128.670 E0.10364
G1 X116.046 Y126.048 E0.10364
G1 X118.613 Y124.078 E0.10144
G1 X118.660 Y123.642 F10800.000
G1 F8640.000
G1 X121.723 Y122.770 E-0.77907
G1 X124.089 Y122.459 E-0.55093
G1 E-0.07000 F2100.00000
G1 Z0.400 F10800.000
G1 X106.711 Y96.711
G1 Z0.200
G1 E1.40000 F2100.00000
G1 F1200.000
G1 X143.289 Y96.711 E1.14688
G1 X143.289 Y113.290 E0.51983
G1 X106.711 Y113.290 E1.14688
G1 X106.711 Y96.771 E0.51795
G1 X107.088 Y97.088 F10800.000
G1 F1200.000
G1 X142.912 Y97.088 E1.12324
G1 X142.912 Y112.913 E0.49618
G1 X107.088 Y112.913 E1.12324
G1 X107.088 Y97.148 E0.49430
G1 X106.938 Y96.717 F10800.000
G1 F8640.000
G1 X112.848 Y97.138 E-1.33000
G1 E-0.07000 F2100.00000
G1 Z0.400 F10800.000
G1 X91.519 Y123.706
G1 Z0.200
G1 E1.40000 F2100.00000
G1 F1200.000
G1 X94.221 Y125.779 E0.10676
G1 X96.294 Y128.480 E0.10675
G1 X97.596 Y131.626 E0.10675
G1 X98.041 Y135.002 E0.10678
G1 X97.596 Y138.377 E0.10675
G1 X96.294 Y141.523 E0.10675
G1 X94.221 Y144.225 E0.10677
G1 X91.519 Y146.297 E0.10676
G1 X88.374 Y147.600 E0.10676
G1 X84.998 Y148.044 E0.10675
G1 X81.623 Y147.600 E0.10675
G1 X78.477 Y146.297 E0.10676
G1 X75.775 Y144.225 E0.10676
G1 X73.703 Y141.523 E0.10676
G1 X72.400 Y138.377 E0.10676
G1 X71.956 Y135.002 E0.10675
G1 X72.400 Y131.626 E0.10678
G1 X73.703 Y128.480 E0.10676
G1 X75.775 Y125.779 E0.10674
G1 X78.477 Y123.706 E0.10677
G1 X81.623 Y122.403 E0.10676
G1 X84.998 Y121.959 E0.10674
G1 X88.374 Y122.403 E0.10676
G1 X91.464 Y123.683 E0.10488
G1 X91.320 Y124.032 F10800.000
G1 F1200.000
G1 X93.952 Y126.048 E0.10396
G1 X95.964 Y128.670 E0.10364
G1 X97.229 Y131.724 E0.10364
G1 X97.661 Y135.002 E0.10367
G1 X97.229 Y138.279 E0.10363
G1 X95.964 Y141.333 E0.10364
G1 X93.952 Y143.956 E0.10365
G1 X91.329 Y145.968 E0.10364
G1 X88.275 Y147.233 E0.10365
G1 X84.998 Y147.664 E0.10364
G1 X81.721 Y147.233 E0.10363
G1 X78.667 Y145.968 E0.10365
G1 X76.044 Y143.956 E0.10365
G1 X74.032 Y141.333 E0.10364
G1 X72.767 Y138.279 E0.10365
G1 X72.336 Y135.002 E0.10363
G1 X72.767 Y131.724 E0.10366
G1 X74.032 Y128.670 E0.10365
G1 X76.044 Y126.048 E0.10363
G1 X78.667 Y124.036 E0.10365
G1 X81.721 Y122.770 E0.10365
G1 X84.998 Y122.339 E0.10363
M73 P1 R62
G1 X88.275 Y122.770 E0.10365
G1 X91.264 Y124.009 E0.10144
G1 X91.666 Y123.831 F10800.000
G1 F8640.000
G1 X93.952 Y126.048 E-0.77902
G1 X95.405 Y127.941 E-0.55098
G1 E-0.07000 F2100.00000
G1 Z0.400 F10800.000
G1 X84.998 Y88.041
G1 Z0.200
G1 E1.40000 F2100.00000
G1 F1200.000
G1 X81.623 Y87.597 E0.10675
G1 X78.477 Y86.294 E0.10676
G1 X75.775 Y84.221 E0.10676
G1 X73.703 Y81.520 E0.10674
G1 X72.400 Y78.374 E0.10676
G1 X71.956 Y74.998 E0.10678
G1 X72.400 Y71.623 E0.10674
G1 X73.703 Y68.477 E0.10676
G1 X75.775 Y65.775 E0.10676
G1 X78.477 Y63.703 E0.10676
G1 X81.623 Y62.400 E0.10676
G1 X84.998 Y61.956 E0.10675
G1 X88.374 Y62.400 E0.10675
G1 X91.519 Y63.703 E0.10676
G1 X94.221 Y65.775 E0.10676
G1 X96.294 Y68.477 E0.10677
G1 X97.596 Y71.623 E0.10675
G1 X98.041 Y74.998 E0.10675
G1 X97.596 Y78.374 E0.10678
G1 X96.710 Y80.514 E0.07262
G1 X96.294 Y81.520 E0.03414
G1 X94.221 Y84.221 E0.10675
G1 X91.519 Y86.294 E0.10677
G1 X88.374 Y87.597 E0.10676
G1 X85.058 Y88.034 E0.10487
G1 X85.008 Y87.660 F10800.000
G1 F1200.000
G1 X81.721 Y87.230 E0.10395
G1 X78.667 Y85.964 E0.10365
G1 X76.044 Y83.952 E0.10365
G1 X74.032 Y81.330 E0.10363
G1 X72.767 Y78.276 E0.10365
G1 X72.336 Y74.998 E0.10366
G1 X72.767 Y71.721 E0.10363
G1 X74.032 Y68.667 E0.10365
G1 X76.044 Y66.044 E0.10365
G1 X78.667 Y64.032 E0.10364
G1 X81.721 Y62.767 E0.10365
G1 X84.998 Y62.336 E0.10363
G1 X88.275 Y62.767 E0.10364
G1 X91.329 Y64.032 E0.10365
G1 X93.952 Y66.044 E0.10365
G1 X95.964 Y68.667 E0.10365
G1 X97.229 Y71.721 E0.10364
G1 X97.661 Y74.998 E0.10364
G1 X97.229 Y78.276 E0.10366
G1 X96.362 Y80.370 E0.07106
G1 X95.964 Y81.330 E0.03258
G1 X93.952 Y83.952 E0.10363
G1 X91.329 Y85.964 E0.10365
G1 X88.275 Y87.230 E0.10365
G1 X85.068 Y87.652 E0.10144
G1 X84.808 Y88.006 F10800.000
G1 F8640.000
G1 X81.721 Y87.230 E-0.77891
G1 X79.516 Y86.316 E-0.55109
G1 E-0.07000 F2100.00000
G1 Z0.400 F10800.000
G1 X112.402 Y78.374
G1 Z0.200
G1 E1.40000 F2100.00000
G1 F1200.000
G1 X111.958 Y74.998 E0.10677
G1 X112.402 Y71.623 E0.10674
G1 X113.704 Y68.477 E0.10676
G1 X115.777 Y65.775 E0.10677
G1 X118.479 Y63.703 E0.10675
G1 X121.625 Y62.400 E0.10677
G1 X125.000 Y61.956 E0.10674
G1 X128.375 Y62.400 E0.10674
G1 X131.521 Y63.703 E0.10677
G1 X134.223 Y65.775 E0.10675
G1 X136.296 Y68.477 E0.10677
G1 X137.598 Y71.623 E0.10675
G1 X138.042 Y74.998 E0.10674
G1 X137.598 Y78.374 E0.10677
G1 X136.296 Y81.520 E0.10676
G1 X134.223 Y84.221 E0.10675
G1 X131.521 Y86.294 E0.10676
G1 X128.375 Y87.597 E0.10677
G1 X125.000 Y88.041 E0.10675
G1 X121.625 Y87.597 E0.10675
G1 X118.479 Y86.294 E0.10677
G1 X115.777 Y84.221 E0.10676
G1 X113.704 Y81.520 E0.10676
G1 X112.425 Y78.430 E0.10487
G1 X112.773 Y78.285 F10800.000
G1 F1200.000
G1 X112.338 Y74.998 E0.10398
G1 X112.769 Y71.721 E0.10363
G1 X114.034 Y68.667 E0.10364
G1 X116.046 Y66.044 E0.10366
G1 X118.669 Y64.032 E0.10364
G1 X121.723 Y62.767 E0.10366
G1 X125.000 Y62.336 E0.10363
G1 X128.277 Y62.767 E0.10363
G1 X131.331 Y64.032 E0.10366
G1 X133.954 Y66.044 E0.10364
G1 X135.966 Y68.667 E0.10366
G1 X137.231 Y71.721 E0.10364
G1 X137.662 Y74.998 E0.10363
G1 X137.231 Y78.276 E0.10366
G1 X135.966 Y81.330 E0.10364
G1 X133.954 Y83.952 E0.10364
G1 X131.331 Y85.964 E0.10364
G1 X128.277 Y87.230 E0.10366
G1 X125.000 Y87.661 E0.10363
G1 X121.723 Y87.230 E0.10364
G1 X118.669 Y85.964 E0.10366
G1 X116.046 Y83.952 E0.10364
G1 X114.034 Y81.330 E0.10364
G1 X112.796 Y78.341 E0.10143
G1 X112.387 Y78.182 F10800.000
G1 F8640.000
G1 X112.338 Y74.998 E-0.77911
G1 X112.649 Y72.633 E-0.55089
G1 E-0.07000 F2100.00000
G1 Z0.400 F10800.000
G1 X151.959 Y74.998
G1 Z0.200
G1 E1.40000 F2100.00000
G1 F1200.000
G1 X152.404 Y71.623 E0.10675
G1 X153.290 Y69.483 E0.07262
G1 X153.706 Y68.477 E0.03413
G1 X155.779 Y65.775 E0.10677
G1 X158.481 Y63.703 E0.10676
G1 X161.626 Y62.400 E0.10676
G1 X165.002 Y61.956 E0.10676
G1 X168.377 Y62.400 E0.10674
G1 X171.523 Y63.703 E0.10676
G1 X174.225 Y65.775 E0.10676
G1 X176.297 Y68.477 E0.10676
G1 X177.600 Y71.623 E0.10676
G1 X178.044 Y74.998 E0.10674
G1 X177.600 Y78.374 E0.10678
G1 X176.297 Y81.520 E0.10676
G1 X174.225 Y84.221 E0.10674
G1 X171.523 Y86.294 E0.10677
G1 X168.377 Y87.597 E0.10676
G1 X165.002 Y88.041 E0.10675
G1 X161.626 Y87.597 E0.10676
G1 X158.481 Y86.294 E0.10676
G1 X155.779 Y84.221 E0.10676
G1 X153.706 Y81.520 E0.10675
G1 X152.404 Y78.374 E0.10675
G1 X151.967 Y75.057 E0.10490
G1 X152.340 Y75.008 F10800.000
G1 F1200.000
G1 X152.771 Y71.721 E0.10395
G1 X154.036 Y68.667 E0.10364
G1 X156.048 Y66.044 E0.10365
G1 X158.671 Y64.032 E0.10364
G1 X161.725 Y62.767 E0.10365
G1 X165.002 Y62.336 E0.10364
G1 X168.279 Y62.767 E0.10363
G1 X171.333 Y64.032 E0.10365
G1 X173.956 Y66.044 E0.10365
G1 X175.968 Y68.667 E0.10364
G1 X177.233 Y71.721 E0.10365
G1 X177.664 Y74.998 E0.10363
G1 X177.233 Y78.276 E0.10366
G1 X175.968 Y81.330 E0.10365
G1 X173.956 Y83.952 E0.10363
G1 X171.333 Y85.964 E0.10365
G1 X168.279 Y87.230 E0.10365
G1 X165.002 Y87.661 E0.10363
G1 X161.725 Y87.230 E0.10364
G1 X158.671 Y85.964 E0.10365
G1 X156.048 Y83.952 E0.10365
G1 X154.036 Y81.330 E0.10364
G1 X152.771 Y78.276 E0.10364
G1 X152.348 Y75.068 E0.10146
G1 X151.994 Y74.808 F10800.000
G1 F8640.000
G1 X152.771 Y71.721 E-0.77888
G1 X153.684 Y69.516 E-0.55112
G1 E-0.07000 F2100.00000
G1 Z0.400 F10800.000
G1 X161.626 Y122.403
G1 Z0.200
G1 E1.40000 F2100.00000
G1 F1200.000
G1 X165.002 Y121.959 E0.10675
G1 X168.377 Y122.403 E0.10675
G1 X171.523 Y123.706 E0.10676
G1 X174.225 Y125.779 E0.10676
G1 X176.297 Y128.480 E0.10674
G1 X177.600 Y131.626 E0.10676
G1 X178.044 Y135.002 E0.10678
G1 X177.600 Y138.377 E0.10675
G1 X176.297 Y141.523 E0.10676
G1 X174.225 Y144.225 E0.10676
G1 X171.523 Y146.297 E0.10676
G1 X168.377 Y147.600 E0.10676
G1 X165.002 Y148.044 E0.10675
G1 X161.626 Y147.600 E0.10675
G1 X158.481 Y146.297 E0.10676
G1 X155.779 Y144.225 E0.10676
G1 X153.706 Y141.523 E0.10677
G1 X152.404 Y138.377 E0.10675
G1 X151.959 Y135.002 E0.10675
G1 X152.404 Y131.626 E0.10678
G1 X153.706 Y128.480 E0.10676
G1 X155.779 Y125.779 E0.10675
G1 X158.481 Y123.706 E0.10677
G1 X161.571 Y122.426 E0.10488
G1 X161.715 Y122.774 F10800.000
G1 F1200.000
G1 X165.002 Y122.339 E0.10396
G1 X168.279 Y122.770 E0.10364
G1 X171.333 Y124.036 E0.10365
G1 X173.956 Y126.048 E0.10365
G1 X175.968 Y128.670 E0.10363
G1 X177.233 Y131.724 E0.10365
G1 X177.664 Y135.002 E0.10366
G1 X177.233 Y138.279 E0.10363
G1 X175.968 Y141.333 E0.10365
G1 X173.956 Y143.956 E0.10365
G1 X171.333 Y145.968 E0.10364
G1 X168.279 Y147.233 E0.10365
G1 X165.002 Y147.664 E0.10363
G1 X161.725 Y147.233 E0.10364
G1 X158.671 Y145.968 E0.10365
G1 X156.048 Y143.956 E0.10365
G1 X154.036 Y141.333 E0.10365
G1 X152.771 Y138.279 E0.10364
G1 X152.339 Y135.002 E0.10364
G1 X152.771 Y131.724 E0.10366
G1 X154.036 Y128.670 E0.10364
G1 X156.048 Y126.048 E0.10363
G1 X158.671 Y124.036 E0.10365
G1 X161.660 Y122.797 E0.10144
G1 X161.818 Y122.388 F10800.000
G1 F8640.000
G1 X165.002 Y122.339 E-0.77895
G1 X167.368 Y122.650 E-0.55105
G1 E-0.07000 F2100.00000
G1 Z0.400 F10800.000
G1 X189.213 Y159.213
G1 Z0.200
G1 E1.40000 F2100.00000
G1 F1200.000
G1 X60.787 Y159.213 E4.02670
G1 X60.787 Y50.787 E3.39962
G1 X189.213 Y50.787 E4.02670
G1 X189.213 Y159.153 E3.39773
G1 X189.590 Y159.590 F10800.000
G1 F1200.000
G1 X60.410 Y159.590 E4.05035
M73 P3 R61
G1 X60.410 Y50.410 E3.42326
G1 X189.590 Y50.410 E4.05035
G1 X189.590 Y159.530 E3.42138
G1 X189.201 Y159.497 F10800.000
G1 F8640.000
G1 X183.830 Y159.533 E-1.33000
G1 E-0.07000 F2100.00000
G1 Z0.400 F10800.000
G1 X167.356 Y159.100
G1 Z0.200
G1 E1.40000 F2100.00000
G1 F1200.000
G1 X136.375 Y128.118 E1.37515
G1 X136.543 Y128.337 E0.00867
G1 X136.884 Y129.161 E0.02800
G1 X166.653 Y158.930 E1.32131
G1 X166.119 Y158.930 E0.01675
G1 X137.261 Y130.072 E1.28087
G1 X137.639 Y130.983 E0.03095
G1 X165.585 Y158.930 E1.24044
G1 X165.051 Y158.930 E0.01675
G1 X137.904 Y131.783 E1.20495
G1 X137.985 Y132.398 E0.01946
G1 X164.518 Y158.930 E1.17766
G1 X163.984 Y158.930 E0.01675
G1 X138.066 Y133.012 E1.15038
G1 X138.147 Y133.627 E0.01946
G1 X163.450 Y158.930 E1.12310
G1 X162.916 Y158.930 E0.01675
G1 X138.228 Y134.242 E1.09582
G1 X138.309 Y134.856 E0.01946
G1 X162.382 Y158.930 E1.06854
G1 X161.849 Y158.930 E0.01675
G1 X138.280 Y135.362 E1.04609
G1 X138.218 Y135.834 E0.01493
G1 X161.315 Y158.930 E1.02516
G1 X160.781 Y158.930 E0.01675
G1 X138.156 Y136.305 E1.00422
G1 X138.094 Y136.777 E0.01493
G1 X160.247 Y158.930 E0.98328
G1 X159.713 Y158.930 E0.01675
G1 X138.032 Y137.249 E0.96234
G1 X137.970 Y137.721 E0.01493
G1 X159.180 Y158.930 E0.94140
G1 X158.646 Y158.930 E0.01675
G1 X137.908 Y138.192 E0.92046
G1 X137.874 Y138.451 E0.00819
G1 X137.803 Y138.622 E0.00579
G1 X158.112 Y158.930 E0.90141
G1 X157.578 Y158.930 E0.01675
G1 X137.647 Y138.999 E0.88466
G1 X137.491 Y139.377 E0.01282
G1 X157.044 Y158.930 E0.86790
G1 X156.511 Y158.930 E0.01675
G1 X137.334 Y139.754 E0.85115
G1 X137.178 Y140.132 E0.01282
G1 X155.977 Y158.930 E0.83439
G1 X155.443 Y158.930 E0.01675
G1 X137.022 Y140.509 E0.81763
G1 X136.866 Y140.887 E0.01282
G1 X154.909 Y158.930 E0.80088
G1 X154.375 Y158.930 E0.01675
G1 X136.709 Y141.264 E0.78413
G1 X136.553 Y141.641 E0.01282
G1 X153.842 Y158.930 E0.76737
M73 P4 R60
G1 X153.308 Y158.930 E0.01675
G1 X136.326 Y141.948 E0.75375
G1 X136.094 Y142.250 E0.01195
G1 X152.774 Y158.930 E0.74035
G1 X152.240 Y158.930 E0.01675
G1 X135.862 Y142.552 E0.72694
G1 X135.631 Y142.854 E0.01195
G1 X151.706 Y158.930 E0.71353
G1 X151.173 Y158.930 E0.01675
G1 X135.399 Y143.156 E0.70013
G1 X135.167 Y143.458 E0.01195
G1 X150.639 Y158.930 E0.68672
G1 X150.105 Y158.930 E0.01675
G1 X134.935 Y143.760 E0.67332
G1 X134.704 Y144.063 E0.01195
G1 X149.571 Y158.930 E0.65991
G1 X149.037 Y158.930 E0.01675
G1 X134.472 Y144.365 E0.64650
G1 X134.424 Y144.426 E0.00245
G1 X134.184 Y144.611 E0.00950
G1 X148.504 Y158.930 E0.63558
G1 X147.970 Y158.930 E0.01675
G1 X133.882 Y144.842 E0.62529
G1 X133.580 Y145.074 E0.01195
G1 X147.436 Y158.930 E0.61501
G1 X146.902 Y158.930 E0.01675
G1 X133.278 Y145.306 E0.60472
G1 X132.976 Y145.538 E0.01195
G1 X146.368 Y158.930 E0.59444
G1 X145.835 Y158.930 E0.01675
