; generated by PrusaSlicer 2.3.1+win64 on 2021-06-09 at 18:26:54 UTC


;
;

;
;
; 

; external perimeters extrusion width = 0.45mm
; perimeters extrusion width = 0.45mm
; infill extrusion width = 0.45mm
; solid infill extrusion width = 0.45mm
; top infill extrusion width = 0.40mm
; first layer extrusion width = 0.42mm

M73 P0 R72
M201 X9000 Y9000 Z500 E10000 ; sets maximum accelerations, mm/sec^2
M203 X500 Y500 Z12 E120 ; sets maximum feedrates, mm/sec
M204 P2000 R1500 T2000 ; sets acceleration (P, T) and retract acceleration (R), mm/sec^2
M205 X10.00 Y10.00 Z0.20 E2.50 ; sets the jerk limits, mm/sec
M205 S0 T0 ; sets the minimum extruding and travel feed rate, mm/sec
M107
;TYPE:Custom
M83  ; extruder relative mode
M140 S85 ; set bed temp
M109 S160 ; Set extruder temp before bed level
M190 S85 ; wait for bed temp

G28 W ; home all without mesh bed level
G80 N7 ; mesh bed leveling

M109 S240 ; wait for extruder temp

M221 S100 ; Set flow to 100

G1 Y-3.0 F1000.0 ; go outside print area
G92 E0.0
G1 E8 ; Purge Bubble
G1 X60.0 E9.0 F1000.0 ; intro line
G1 X100.0 E12.5 F1000.0 ; intro line
G92 E0.0
G21 ; set units to millimeters
G90 ; use absolute coordinates
M83 ; use relative distances for extrusion
M900 K45 ; Filament gcode
;LAYER_CHANGE
;Z:0.2
;HEIGHT:0.2
;BEFORE_LAYER_CHANGE
M117 INDICATOR-Layer1
G92 E0.0
;0.2


G1 E-1.40000 F2100.000
G1 Z0.200 F10800.000
;AFTER_LAYER_CHANGE
;0.2
G1 Z0.400
G1 X117.510 Y64.874
G1 Z0.200
G1 E1.40000 F2100.000
M204 S1000
;TYPE:Skirt
;WIDTH:0.42
G1 F1200.000
G1 X117.861 Y64.426 E0.01787
G1 X118.310 Y64.073 E0.01787
G1 X118.829 Y63.838 E0.01787
G1 X119.385 Y63.733 E0.01775
G1 X134.548 Y63.728 E0.47542
G1 X135.358 Y63.871 E0.02579
G1 X136.070 Y64.282 E0.02579
G1 X136.600 Y64.911 E0.02579
G1 X136.883 Y65.679 E0.02567
G1 X142.079 Y103.575 E1.19932
G1 X142.246 Y106.076 E0.07858
G1 X141.752 Y144.060 E1.19107
G1 X141.575 Y144.657 E0.01953
G1 X141.249 Y145.188 E0.01953
G1 X140.796 Y145.616 E0.01953
G1 X140.248 Y145.911 E0.01953
G1 X139.600 Y146.058 E0.02083
G1 X135.911 Y146.272 E0.11587
G1 X135.077 Y146.136 E0.02649
G1 X134.341 Y145.714 E0.02661
G1 X109.024 Y123.703 E1.05186
G1 X108.671 Y123.320 E0.01633
G1 X108.351 Y122.720 E0.02130
G1 X108.213 Y122.055 E0.02130
G1 X107.754 Y108.021 E0.44026
G1 X107.804 Y106.733 E0.04041
G1 X108.024 Y105.473 E0.04013
G1 X117.230 Y65.563 E1.28420
G1 X117.488 Y64.930 E0.02143
@Object bottom_hook.stl id:0 copy 0
;WIPE_START
G1 F8640.000
G1 X117.861 Y64.426 E-0.14498
G1 X118.310 Y64.073 E-0.13161
G1 X118.829 Y63.838 E-0.13161
G1 X119.385 Y63.733 E-0.13074
G1 X122.811 Y63.732 E-0.79106
;WIPE_END
G1 E-0.07000 F2100.000
G1 Z0.400 F10800.000
G1 X120.331 Y66.892
G1 Z0.200
G1 E1.40000 F2100.000
;TYPE:Perimeter
G1 F1200.000
G1 X123.534 Y66.892 E0.10041
G1 X122.136 Y76.765 E0.31266
G1 X131.952 Y76.765 E0.30779
G1 X130.555 Y66.892 E0.31266
G1 X133.757 Y66.892 E0.10041
G1 X133.757 Y93.702 E0.84063
G1 X133.775 Y94.230 E0.01655
G1 X133.830 Y94.768 E0.01697
G1 X133.921 Y95.302 E0.01697
G1 X134.048 Y95.828 E0.01697
G1 X134.211 Y96.344 E0.01697
G1 X134.408 Y96.848 E0.01697
G1 X134.639 Y97.338 E0.01697
G1 X134.902 Y97.811 E0.01697
G1 X135.197 Y98.264 E0.01697
G1 X135.522 Y98.697 E0.01697
G1 X135.875 Y99.107 E0.01697
G1 X136.255 Y99.492 E0.01697
G1 X136.990 Y100.142 E0.03076
G1 X137.299 Y100.455 E0.01378
G1 X137.585 Y100.788 E0.01378
G1 X137.848 Y101.141 E0.01378
G1 X138.086 Y101.510 E0.01378
G1 X138.298 Y101.895 E0.01378
G1 X138.484 Y102.294 E0.01378
G1 X138.641 Y102.704 E0.01378
G1 X138.770 Y103.124 E0.01378
G1 X138.870 Y103.552 E0.01378
G1 X138.941 Y103.986 E0.01378
G1 X138.983 Y104.437 E0.01421
G1 X139.082 Y106.133 E0.05327
G1 X138.626 Y142.946 E1.15433
G1 X136.577 Y143.066 E0.06436
G1 X134.351 Y121.532 E0.67876
G1 X133.541 Y107.649 E0.43604
G1 X133.502 Y107.325 E0.01023
G1 X133.416 Y106.984 E0.01101
G1 X133.288 Y106.657 E0.01101
G1 X133.118 Y106.347 E0.01108
G1 X132.900 Y106.050 E0.01156
G1 X132.674 Y105.808 E0.01039
G1 X132.404 Y105.583 E0.01101
G1 X132.107 Y105.394 E0.01101
G1 X131.790 Y105.244 E0.01101
G1 X131.456 Y105.136 E0.01101
G1 X131.111 Y105.070 E0.01101
G1 X130.785 Y105.049 E0.01023
G1 X118.922 Y105.049 E0.37195
G1 X118.603 Y105.069 E0.01003
G1 X118.265 Y105.132 E0.01079
G1 X117.952 Y105.232 E0.01028
G1 X117.622 Y105.383 E0.01140
G1 X117.327 Y105.567 E0.01089
G1 X117.060 Y105.784 E0.01079
G1 X116.833 Y106.017 E0.01020
G1 X116.624 Y106.293 E0.01084
G1 X116.444 Y106.608 E0.01141
G1 X116.317 Y106.909 E0.01023
G1 X116.222 Y107.242 E0.01087
G1 X116.170 Y107.583 E0.01081
G1 X116.160 Y107.903 E0.01003
G1 X116.486 Y117.880 E0.31300
G1 X130.543 Y117.427 E0.44098
G1 X130.639 Y117.475 E0.00336
G1 X130.686 Y117.528 E0.00221
G1 X130.728 Y117.661 E0.00437
G1 X130.801 Y120.285 E0.08229
G1 X130.773 Y120.370 E0.00283
G1 X130.707 Y120.430 E0.00279
G1 X130.572 Y120.471 E0.00442
G1 X111.347 Y121.099 E0.60311
G1 X110.918 Y107.969 E0.41190
G1 X110.919 Y107.510 E0.01439
G1 X110.951 Y107.066 E0.01396
G1 X111.013 Y106.625 E0.01396
G1 X111.106 Y106.190 E0.01396
G1 X111.229 Y105.762 E0.01396
G1 X111.382 Y105.344 E0.01396
G1 X111.563 Y104.937 E0.01396
G1 X111.772 Y104.543 E0.01396
G1 X112.007 Y104.166 E0.01396
G1 X112.268 Y103.805 E0.01396
G1 X112.554 Y103.463 E0.01396
G1 X112.863 Y103.143 E0.01396
G1 X113.193 Y102.844 E0.01396
G1 X113.543 Y102.569 E0.01396
G1 X113.912 Y102.319 E0.01396
G1 X114.297 Y102.095 E0.01396
G1 X114.696 Y101.898 E0.01396
G1 X115.608 Y101.525 E0.03091
G1 X116.094 Y101.288 E0.01693
G1 X116.562 Y101.018 E0.01694
G1 X117.010 Y100.718 E0.01694
G1 X117.438 Y100.388 E0.01694
G1 X117.842 Y100.029 E0.01694
G1 X118.221 Y99.644 E0.01694
G1 X118.573 Y99.235 E0.01694
G1 X118.897 Y98.802 E0.01694
G1 X119.191 Y98.349 E0.01694
G1 X119.453 Y97.877 E0.01694
G1 X119.683 Y97.388 E0.01694
G1 X119.879 Y96.885 E0.01694
G1 X120.041 Y96.369 E0.01694
G1 X120.168 Y95.844 E0.01694
G1 X120.259 Y95.312 E0.01694
G1 X120.313 Y94.774 E0.01694
G1 X120.331 Y94.248 E0.01652
G1 X120.331 Y66.952 E0.85585
;WIPE_START
G1 F8640.000
G1 X123.534 Y66.892 E-0.73957
G1 X123.175 Y69.424 E-0.59043
;WIPE_END
G1 E-0.07000 F2100.000
G1 Z0.400 F10800.000
G1 X116.851 Y117.491
G1 Z0.200
G1 E1.40000 F2100.000
;TYPE:External perimeter
G1 F1200.000
G1 X130.597 Y117.052 E0.43122
G1 X130.688 Y117.074 E0.00293
G1 X130.876 Y117.174 E0.00668
G1 X131.011 Y117.325 E0.00638
G1 X131.091 Y117.523 E0.00668
G1 X131.180 Y120.340 E0.08835
G1 X131.113 Y120.542 E0.00669
G1 X131.067 Y120.613 E0.00263
G1 X130.909 Y120.755 E0.00668
G1 X130.711 Y120.834 E0.00668
G1 X130.601 Y120.847 E0.00349
G1 X110.982 Y121.488 E0.61545
G1 X110.541 Y107.975 E0.42392
G1 X110.542 Y107.497 E0.01501
G1 X110.576 Y107.026 E0.01478
G1 X110.642 Y106.560 E0.01478
G1 X110.740 Y106.098 E0.01478
G1 X110.870 Y105.645 E0.01478
G1 X111.032 Y105.202 E0.01478
G1 X111.224 Y104.771 E0.01478
G1 X111.445 Y104.355 E0.01478
G1 X111.694 Y103.955 E0.01478
G1 X111.971 Y103.573 E0.01478
G1 X112.273 Y103.212 E0.01478
G1 X112.600 Y102.872 E0.01478
G1 X112.950 Y102.555 E0.01478
G1 X113.321 Y102.264 E0.01478
G1 X113.711 Y101.999 E0.01478
G1 X114.118 Y101.762 E0.01478
G1 X114.541 Y101.554 E0.01478
G1 X115.454 Y101.181 E0.03092
G1 X115.916 Y100.955 E0.01614
G1 X116.362 Y100.698 E0.01614
G1 X116.790 Y100.412 E0.01614
G1 X117.197 Y100.097 E0.01614
G1 X117.582 Y99.755 E0.01614
G1 X117.944 Y99.389 E0.01614
G1 X118.279 Y98.999 E0.01614
G1 X118.587 Y98.587 E0.01614
G1 X118.867 Y98.155 E0.01614
G1 X119.117 Y97.705 E0.01614
G1 X119.336 Y97.239 E0.01614
G1 X119.523 Y96.760 E0.01614
G1 X119.678 Y96.269 E0.01614
G1 X119.798 Y95.768 E0.01614
G1 X119.885 Y95.261 E0.01614
G1 X119.937 Y94.749 E0.01614
G1 X119.954 Y94.241 E0.01592
G1 X119.954 Y66.515 E0.86936
G1 X123.968 Y66.515 E0.12585
G1 X122.570 Y76.388 E0.31266
G1 X131.518 Y76.388 E0.28056
G1 X130.120 Y66.515 E0.31266
G1 X134.134 Y66.515 E0.12585
G1 X134.134 Y93.696 E0.85225
G1 X134.151 Y94.204 E0.01595
G1 X134.204 Y94.717 E0.01617
G1 X134.291 Y95.226 E0.01617
G1 X134.412 Y95.727 E0.01617
G1 X134.567 Y96.219 E0.01617
G1 X134.754 Y96.699 E0.01617
G1 X134.974 Y97.165 E0.01617
G1 X135.225 Y97.616 E0.01617
G1 X135.506 Y98.048 E0.01617
G1 X135.815 Y98.461 E0.01617
G1 X136.152 Y98.851 E0.01617
G1 X136.515 Y99.218 E0.01617
G1 X137.250 Y99.868 E0.03076
G1 X137.576 Y100.199 E0.01459
G1 X137.880 Y100.553 E0.01459
G1 X138.158 Y100.926 E0.01459
G1 X138.410 Y101.317 E0.01459
G1 X138.635 Y101.724 E0.01459
G1 X138.831 Y102.147 E0.01459
G1 X138.998 Y102.581 E0.01459
G1 X139.135 Y103.026 E0.01459
G1 X139.241 Y103.479 E0.01459
G1 X139.315 Y103.938 E0.01459
G1 X139.359 Y104.409 E0.01481
G1 X139.459 Y106.125 E0.05389
G1 X138.999 Y143.302 E1.16576
G1 X136.239 Y143.463 E0.08668
G1 X133.975 Y121.563 E0.69033
M73 P1 R72
G1 X133.165 Y107.683 E0.43594
G1 X133.130 Y107.394 E0.00911
G1 X133.056 Y107.100 E0.00952
G1 X132.945 Y106.817 E0.00952
G1 X132.799 Y106.550 E0.00955
G1 X132.609 Y106.291 E0.01007
G1 X132.415 Y106.082 E0.00894
G1 X132.181 Y105.888 E0.00952
G1 X131.925 Y105.725 E0.00952
G1 X131.650 Y105.596 E0.00952
G1 X131.362 Y105.502 E0.00952
G1 X131.063 Y105.444 E0.00952
G1 X130.773 Y105.426 E0.00912
G1 X118.934 Y105.426 E0.37121
G1 X118.650 Y105.444 E0.00894
G1 X118.357 Y105.499 E0.00933
G1 X118.088 Y105.584 E0.00884
G1 X117.800 Y105.715 E0.00992
G1 X117.546 Y105.874 E0.00939
G1 X117.315 Y106.062 E0.00935
G1 X117.120 Y106.263 E0.00878
G1 X116.939 Y106.501 E0.00937
G1 X116.782 Y106.776 E0.00993
G1 X116.673 Y107.034 E0.00879
G1 X116.591 Y107.323 E0.00941
G1 X116.546 Y107.618 E0.00934
G1 X116.537 Y107.902 E0.00893
G1 X116.849 Y117.431 E0.29893
G1 X116.863 Y117.891 F10800.000
;WIPE_START
G1 F8640.000
G1 X122.607 Y117.272 E-1.33000
;WIPE_END
G1 E-0.07000 F2100.000
G1 Z0.400 F10800.000
G1 X118.439 Y120.754
G1 Z0.200
G1 E1.40000 F2100.000
;TYPE:Solid infill
;WIDTH:0.42257
G1 F1200.000
G1 X111.388 Y113.704 E0.31476
G1 X111.406 Y114.259 E0.01753
G1 X117.754 Y120.607 E0.28340
G1 X117.234 Y120.624 E0.01642
G1 X111.425 Y114.814 E0.25938
G1 X111.443 Y115.369 E0.01753
G1 X116.715 Y120.641 E0.23536
G1 X116.195 Y120.658 E0.01642
G1 X111.461 Y115.924 E0.21134
G1 X111.479 Y116.479 E0.01753
G1 X115.675 Y120.675 E0.18732
G1 X115.155 Y120.692 E0.01642
G1 X111.497 Y117.034 E0.16329
G1 X111.515 Y117.589 E0.01753
G1 X114.635 Y120.709 E0.13927
G1 X114.115 Y120.726 E0.01642
G1 X111.533 Y118.144 E0.11525
G1 X111.552 Y118.699 E0.01753
G1 X113.595 Y120.743 E0.09123
G1 X113.075 Y120.760 E0.01642
G1 X111.570 Y119.254 E0.06721
G1 X111.588 Y119.809 E0.01753
G1 X112.555 Y120.777 E0.04319
G1 X112.035 Y120.794 E0.01642
G1 X111.430 Y120.189 E0.02701
;WIPE_START
G1 F8640.000
G1 X112.035 Y120.794 E-0.19753
G1 X112.555 Y120.777 E-0.12011
G1 X111.588 Y119.809 E-0.31592
G1 X111.570 Y119.254 E-0.12823
G1 X113.075 Y120.760 E-0.49162
G1 X113.407 Y120.749 E-0.07659
;WIPE_END
G1 E-0.07000 F2100.000
G1 Z0.400 F10800.000
G1 X130.267 Y117.549
G1 Z0.200
G1 E1.40000 F2100.000
G1 F1200.000
G1 X130.447 Y117.729 E0.00802
G1 X130.462 Y118.281 E0.01744
G1 X129.911 Y117.730 E0.02459
G1 X129.391 Y117.747 E0.01643
G1 X130.477 Y118.834 E0.04850
G1 X130.493 Y119.386 E0.01744
G1 X128.871 Y117.764 E0.07241
G1 X128.351 Y117.781 E0.01643
G1 X130.508 Y119.938 E0.09632
G1 X130.515 Y120.190 E0.00795
G1 X130.232 Y120.199 E0.00894
G1 X127.831 Y117.797 E0.10722
G1 X127.311 Y117.814 E0.01643
G1 X129.713 Y120.216 E0.10723
G1 X129.193 Y120.233 E0.01642
G1 X126.790 Y117.831 E0.10724
G1 X126.270 Y117.848 E0.01643
G1 X128.673 Y120.250 E0.10725
G1 X128.153 Y120.267 E0.01642
G1 X125.750 Y117.865 E0.10726
G1 X125.230 Y117.881 E0.01643
G1 X127.633 Y120.284 E0.10727
G1 X127.113 Y120.301 E0.01642
G1 X124.710 Y117.898 E0.10728
G1 X124.190 Y117.915 E0.01643
G1 X126.593 Y120.318 E0.10729
G1 X126.073 Y120.335 E0.01642
G1 X123.670 Y117.932 E0.10730
G1 X123.149 Y117.948 E0.01643
G1 X125.553 Y120.352 E0.10731
G1 X125.033 Y120.369 E0.01642
G1 X122.629 Y117.965 E0.10732
G1 X122.109 Y117.982 E0.01643
G1 X124.513 Y120.386 E0.10733
G1 X123.993 Y120.403 E0.01642
G1 X121.589 Y117.999 E0.10734
G1 X121.069 Y118.015 E0.01643
G1 X123.474 Y120.420 E0.10735
G1 X122.954 Y120.437 E0.01642
G1 X120.549 Y118.032 E0.10736
G1 X120.029 Y118.049 E0.01643
G1 X122.434 Y120.454 E0.10737
G1 X121.914 Y120.471 E0.01642
G1 X119.508 Y118.066 E0.10738
G1 X118.988 Y118.083 E0.01643
G1 X121.394 Y120.488 E0.10739
G1 X120.874 Y120.505 E0.01642
G1 X118.468 Y118.099 E0.10740
G1 X117.948 Y118.116 E0.01643
G1 X120.354 Y120.522 E0.10741
G1 X119.834 Y120.539 E0.01642
G1 X117.428 Y118.133 E0.10742
G1 X116.908 Y118.150 E0.01643
G1 X119.314 Y120.556 E0.10743
G1 X118.794 Y120.573 E0.01642
G1 X111.370 Y113.149 E0.33144
G1 X111.352 Y112.594 E0.01753
G1 X116.189 Y117.430 E0.21592
G1 X116.170 Y116.875 E0.01753
M73 P1 R71
G1 X111.334 Y112.039 E0.21592
G1 X111.316 Y111.484 E0.01753
G1 X116.152 Y116.320 E0.21592
G1 X116.134 Y115.765 E0.01753
G1 X111.298 Y110.929 E0.21592
G1 X111.279 Y110.374 E0.01753
G1 X116.116 Y115.210 E0.21593
G1 X116.098 Y114.655 E0.01753
G1 X111.261 Y109.819 E0.21592
G1 X111.243 Y109.264 E0.01753
G1 X116.080 Y114.100 E0.21592
G1 X116.062 Y113.545 E0.01753
G1 X111.225 Y108.709 E0.21592
G1 X111.207 Y108.153 E0.01753
G1 X116.044 Y112.990 E0.21592
G1 X116.025 Y112.435 E0.01753
G1 X111.201 Y107.611 E0.21536
G1 X111.232 Y107.104 E0.01603
G1 X116.007 Y111.880 E0.21321
G1 X115.989 Y111.325 E0.01753
G1 X111.300 Y106.636 E0.20933
G1 X111.398 Y106.197 E0.01419
G1 X115.971 Y110.770 E0.20414
G1 X115.953 Y110.215 E0.01753
G1 X111.522 Y105.784 E0.19780
G1 X111.669 Y105.394 E0.01316
G1 X115.935 Y109.660 E0.19045
G1 X115.917 Y109.105 E0.01753
G1 X111.836 Y105.025 E0.18216
G1 X112.023 Y104.674 E0.01253
G1 X115.898 Y108.550 E0.17301
G1 X115.880 Y107.995 E0.01753
G1 X112.229 Y104.344 E0.16299
G1 X112.454 Y104.031 E0.01215
G1 X115.900 Y107.477 E0.15384
G1 X115.945 Y107.182 E0.00943
G1 X115.989 Y107.029 E0.00501
G1 X112.695 Y103.736 E0.14703
G1 X112.953 Y103.457 E0.01199
G1 X116.127 Y106.631 E0.14171
G1 X116.308 Y106.275 E0.01260
G1 X113.227 Y103.194 E0.13755
G1 X113.518 Y102.948 E0.01203
G1 X116.525 Y105.955 E0.13426
G1 X116.777 Y105.670 E0.01201
G1 X113.826 Y102.719 E0.13174
G1 X114.151 Y102.507 E0.01225
G1 X117.062 Y105.418 E0.12996
G1 X117.381 Y105.200 E0.01219
G1 X114.494 Y102.313 E0.12888
G1 X114.812 Y102.156 E0.01120
G1 X114.856 Y102.138 E0.00150
G1 X117.737 Y105.019 E0.12862
G1 X118.132 Y104.878 E0.01326
G1 X115.237 Y101.982 E0.12925
G1 X115.618 Y101.827 E0.01300
G1 X118.579 Y104.787 E0.13216
G1 X119.095 Y104.766 E0.01631
G1 X115.985 Y101.656 E0.13885
G1 X116.339 Y101.473 E0.01258
G1 X119.632 Y104.766 E0.14701
G1 X120.169 Y104.766 E0.01695
G1 X116.679 Y101.277 E0.15577
G1 X117.003 Y101.063 E0.01223
G1 X120.705 Y104.766 E0.16531
G1 X121.242 Y104.766 E0.01695
G1 X117.316 Y100.839 E0.17531
G1 X117.618 Y100.605 E0.01208
G1 X121.779 Y104.766 E0.18575
G1 X122.316 Y104.766 E0.01695
G1 X117.903 Y100.353 E0.19702
G1 X118.178 Y100.091 E0.01199
G1 X122.853 Y104.766 E0.20871
G1 X123.390 Y104.766 E0.01695
G1 X118.443 Y99.820 E0.22084
G1 X118.692 Y99.531 E0.01202
G1 X123.927 Y104.766 E0.23372
G1 X124.464 Y104.766 E0.01695
G1 X118.929 Y99.231 E0.24709
G1 X119.156 Y98.922 E0.01212
G1 X125.001 Y104.766 E0.26091
G1 X125.538 Y104.766 E0.01695
G1 X119.367 Y98.596 E0.27546
G1 X119.565 Y98.257 E0.01239
G1 X126.074 Y104.766 E0.29060
G1 X126.611 Y104.766 E0.01695
G1 X119.752 Y97.906 E0.30625
G1 X119.923 Y97.541 E0.01274
G1 X127.148 Y104.766 E0.32255
G1 X127.685 Y104.766 E0.01695
G1 X120.076 Y97.157 E0.33969
G1 X120.215 Y96.759 E0.01331
G1 X128.222 Y104.766 E0.35746
G1 X128.759 Y104.766 E0.01695
G1 X120.338 Y96.345 E0.37595
G1 X120.442 Y95.913 E0.01405
G1 X129.296 Y104.766 E0.39526
G1 X129.833 Y104.766 E0.01695
G1 X120.521 Y95.455 E0.41571
G1 X120.577 Y94.974 E0.01528
G1 X130.370 Y104.766 E0.43717
G1 X130.914 Y104.774 E0.01719
G1 X120.607 Y94.466 E0.46016
G1 X120.614 Y93.937 E0.01672
G1 X131.809 Y105.132 E0.49979
;WIPE_START
G1 F8640.000
G1 X127.736 Y101.059 E-1.33000
;WIPE_END
G1 E-0.07000 F2100.000
G1 Z0.400 F10800.000
G1 X133.644 Y88.712
G1 Z0.200
G1 E1.40000 F2100.000
G1 F1200.000
G1 X120.614 Y75.682 E0.58171
G1 X120.614 Y76.219 E0.01695
G1 X133.474 Y89.079 E0.57413
G1 X133.474 Y89.616 E0.01695
