; generated by PrusaSlicer 2.3.1+win64 on 2021-06-10 at 08:25:56 UTC


;
;

;
;
; 

; external perimeters extrusion width = 0.45mm
; perimeters extrusion width = 0.45mm
; infill extrusion width = 0.45mm
; solid infill extrusion width = 0.45mm
; top infill extrusion width = 0.40mm
; first layer extrusion width = 0.42mm

M73 P0 R115
M201 X9000 Y9000 Z500 E10000 ; sets maximum accelerations, mm/sec^2
M203 X500 Y500 Z12 E120 ; sets maximum feedrates, mm/sec
M204 P2000 R1500 T2000 ; sets acceleration (P, T) and retract acceleration (R), mm/sec^2
M205 X10.00 Y10.00 Z0.20 E2.50 ; sets the jerk limits, mm/sec
M205 S0 T0 ; sets the minimum extruding and travel feed rate, mm/sec
M107
;TYPE:Custom
M83  ; extruder relative mode
M140 S85 ; set bed temp
M109 S160 ; Set extruder temp before bed level
M190 S85 ; wait for bed temp

G28 W ; home all without mesh bed level
G80 N7 ; mesh bed leveling

M109 S240 ; wait for extruder temp

M221 S100 ; Set flow to 100

G1 Y-3.0 F1000.0 ; go outside print area
G92 E0.0
G1 E8 ; Purge Bubble
G1 X60.0 E9.0 F1000.0 ; intro line
G1 X100.0 E12.5 F1000.0 ; intro line
G92 E0.0
G21 ; set units to millimeters
G90 ; use absolute coordinates
M83 ; use relative distances for extrusion
M900 K45 ; Filament gcode
;LAYER_CHANGE
;Z:0.2
;HEIGHT:0.2
;BEFORE_LAYER_CHANGE
M117 INDICATOR-Layer1
G92 E0.0
;0.2


G1 E-1.40000 F2100.000
G1 Z0.200 F10800.000
;AFTER_LAYER_CHANGE
;0.2
G1 Z0.400
G1 X35.202 Y100.241
G1 Z0.200
G1 E1.40000 F2100.000
M204 S1000
;TYPE:Skirt
;WIDTH:0.42
G1 F1200.000
G1 X35.606 Y99.581 E0.02426
G1 X36.034 Y99.194 E0.01811
G1 X36.546 Y98.919 E0.01823
G1 X46.473 Y95.263 E0.33170
G1 X47.090 Y95.130 E0.01977
G1 X212.600 Y95.123 E5.18946
G1 X213.502 Y95.302 E0.02884
G1 X214.271 Y95.813 E0.02896
G1 X214.786 Y96.576 E0.02884
G1 X214.973 Y97.476 E0.02884
G1 X214.955 Y112.796 E0.48036
G1 X214.720 Y113.569 E0.02532
G1 X214.240 Y114.218 E0.02532
G1 X213.570 Y114.669 E0.02532
G1 X212.784 Y114.870 E0.02543
G1 X47.201 Y114.876 E5.19174
G1 X46.478 Y114.739 E0.02308
G1 X36.375 Y111.007 E0.33768
G1 X35.857 Y110.669 E0.01941
G1 X35.443 Y110.208 E0.01941
G1 X35.162 Y109.656 E0.01941
G1 X35.034 Y109.050 E0.01941
G1 X35.031 Y100.992 E0.25268
G1 X35.188 Y100.299 E0.02226
@Object long_segment.stl id:0 copy 0
;WIPE_START
G1 F8640.000
G1 X35.606 Y99.581 E-0.19180
G1 X36.034 Y99.194 E-0.13336
G1 X36.546 Y98.919 E-0.13423
G1 X40.084 Y97.616 E-0.87062
;WIPE_END
G1 E-0.07000 F2100.000
G1 Z0.400 F10800.000
G1 X38.191 Y102.043
G1 Z0.200
G1 E1.40000 F2100.000
;TYPE:Perimeter
G1 F1200.000
G1 X46.656 Y103.241 E0.26807
G1 X47.012 Y103.229 E0.01117
G1 X47.271 Y103.152 E0.00848
G1 X47.605 Y102.950 E0.01224
G1 X47.776 Y102.774 E0.00771
G1 X47.915 Y102.571 E0.00771
G1 X48.054 Y102.180 E0.01302
G1 X48.063 Y98.287 E0.12205
G1 X211.809 Y98.287 E5.13415
G1 X211.809 Y101.489 E0.10041
G1 X201.936 Y100.092 E0.31266
G1 X201.936 Y109.908 E0.30779
G1 X211.809 Y108.511 E0.31266
G1 X211.809 Y111.713 E0.10041
G1 X48.063 Y111.713 E5.13415
M73 P0 R114
G1 X48.054 Y107.820 E0.12205
G1 X47.915 Y107.429 E0.01302
G1 X47.776 Y107.226 E0.00771
G1 X47.605 Y107.050 E0.00771
G1 X47.271 Y106.848 E0.01224
G1 X47.012 Y106.771 E0.00848
G1 X46.656 Y106.759 E0.01117
G1 X38.191 Y107.957 E0.26807
G1 X38.191 Y102.103 E0.18357
;WIPE_START
G1 F8640.000
G1 X43.899 Y102.870 E-1.33000
;WIPE_END
G1 E-0.07000 F2100.000
G1 Z0.400 F10800.000
G1 X202.313 Y100.526
G1 Z0.200
G1 E1.40000 F2100.000
;TYPE:External perimeter
G1 F1200.000
G1 X202.313 Y109.474 E0.28056
G1 X212.186 Y108.076 E0.31266
G1 X212.186 Y112.090 E0.12585
G1 X47.687 Y112.090 E5.15777
G1 X47.678 Y107.886 E0.13182
G1 X47.576 Y107.602 E0.00946
G1 X47.483 Y107.465 E0.00517
G1 X47.368 Y107.347 E0.00517
G1 X47.118 Y107.195 E0.00918
G1 X46.951 Y107.146 E0.00544
G1 X46.676 Y107.137 E0.00863
G1 X37.814 Y108.392 E0.28065
G1 X37.814 Y101.608 E0.21268
G1 X46.676 Y102.863 E0.28065
G1 X46.951 Y102.854 E0.00863
G1 X47.118 Y102.805 E0.00544
G1 X47.368 Y102.653 E0.00918
G1 X47.483 Y102.535 E0.00517
G1 X47.576 Y102.398 E0.00517
G1 X47.678 Y102.114 E0.00946
G1 X47.687 Y97.910 E0.13182
G1 X212.186 Y97.910 E5.15777
G1 X212.186 Y101.924 E0.12585
G1 X202.372 Y100.534 E0.31078
G1 X201.914 Y100.560 F10800.000
;WIPE_START
G1 F8640.000
G1 X202.334 Y106.294 E-1.33000
;WIPE_END
M73 P1 R114
G1 E-0.07000 F2100.000
G1 Z0.400 F10800.000
G1 X211.696 Y99.165
G1 Z0.200
G1 E1.40000 F2100.000
;TYPE:Solid infill
;WIDTH:0.421072
G1 F1200.000
G1 X211.101 Y98.570 E0.02645
G1 X210.567 Y98.570 E0.01682
G1 X211.527 Y99.530 E0.04269
G1 X211.527 Y100.065 E0.01682
G1 X210.032 Y98.570 E0.06647
G1 X209.497 Y98.570 E0.01682
G1 X211.527 Y100.599 E0.09025
G1 X211.527 Y101.134 E0.01682
G1 X208.962 Y98.570 E0.11403
G1 X208.427 Y98.570 E0.01682
G1 X210.938 Y101.081 E0.11164
G1 X210.315 Y100.992 E0.01978
G1 X207.893 Y98.570 E0.10772
G1 X207.358 Y98.570 E0.01682
G1 X209.692 Y100.904 E0.10380
G1 X209.069 Y100.816 E0.01978
G1 X206.823 Y98.570 E0.09988
G1 X206.288 Y98.570 E0.01682
G1 X208.446 Y100.728 E0.09596
G1 X207.823 Y100.640 E0.01978
G1 X205.753 Y98.570 E0.09203
G1 X205.219 Y98.570 E0.01682
G1 X207.200 Y100.551 E0.08811
G1 X206.577 Y100.463 E0.01978
G1 X204.684 Y98.570 E0.08419
G1 X204.149 Y98.570 E0.01682
G1 X205.954 Y100.375 E0.08027
G1 X205.331 Y100.287 E0.01978
G1 X203.614 Y98.570 E0.07635
G1 X203.080 Y98.570 E0.01682
G1 X204.708 Y100.199 E0.07243
G1 X204.085 Y100.110 E0.01978
G1 X202.545 Y98.570 E0.06851
G1 X202.010 Y98.570 E0.01682
G1 X203.462 Y100.022 E0.06458
G1 X202.839 Y99.934 E0.01978
G1 X201.475 Y98.570 E0.06066
G1 X200.940 Y98.570 E0.01682
G1 X202.216 Y99.846 E0.05674
G1 X201.653 Y99.766 E0.01789
G1 X201.653 Y99.817 E0.00161
G1 X200.406 Y98.570 E0.05547
G1 X199.871 Y98.570 E0.01682
G1 X201.653 Y100.352 E0.07925
G1 X201.653 Y100.887 E0.01682
G1 X199.336 Y98.570 E0.10303
G1 X198.801 Y98.570 E0.01682
G1 X201.653 Y101.422 E0.12681
G1 X201.653 Y101.956 E0.01682
G1 X198.266 Y98.570 E0.15059
G1 X197.732 Y98.570 E0.01682
G1 X201.653 Y102.491 E0.17437
G1 X201.653 Y103.026 E0.01682
G1 X197.197 Y98.570 E0.19815
G1 X196.662 Y98.570 E0.01682
G1 X201.653 Y103.561 E0.22194
G1 X201.653 Y104.096 E0.01682
G1 X196.127 Y98.570 E0.24572
G1 X195.592 Y98.570 E0.01682
G1 X201.653 Y104.630 E0.26950
G1 X201.653 Y105.165 E0.01682
G1 X195.058 Y98.570 E0.29328
G1 X194.523 Y98.570 E0.01682
G1 X201.653 Y105.700 E0.31706
G1 X201.653 Y106.235 E0.01682
G1 X193.988 Y98.570 E0.34084
G1 X193.453 Y98.570 E0.01682
G1 X201.653 Y106.770 E0.36462
G1 X201.653 Y107.304 E0.01682
G1 X192.919 Y98.570 E0.38840
G1 X192.384 Y98.570 E0.01682
G1 X201.653 Y107.839 E0.41218
G1 X201.653 Y108.374 E0.01682
G1 X191.849 Y98.570 E0.43596
G1 X191.314 Y98.570 E0.01682
G1 X201.653 Y108.909 E0.45974
G1 X201.653 Y109.443 E0.01682
G1 X190.779 Y98.570 E0.48352
G1 X190.245 Y98.570 E0.01682
G1 X203.105 Y111.430 E0.57187
G1 X203.640 Y111.430 E0.01682
G1 X202.345 Y110.136 E0.05755
G1 X202.814 Y110.070 E0.01488
G1 X204.174 Y111.430 E0.06050
G1 X204.709 Y111.430 E0.01682
G1 X203.282 Y110.003 E0.06345
G1 X203.751 Y109.937 E0.01488
G1 X205.244 Y111.430 E0.06640
G1 X205.779 Y111.430 E0.01682
G1 X204.219 Y109.871 E0.06935
G1 X204.688 Y109.804 E0.01488
G1 X206.314 Y111.430 E0.07230
G1 X206.848 Y111.430 E0.01682
G1 X205.156 Y109.738 E0.07525
G1 X205.625 Y109.672 E0.01488
G1 X207.383 Y111.430 E0.07820
G1 X207.918 Y111.430 E0.01682
G1 X206.093 Y109.605 E0.08114
G1 X206.562 Y109.539 E0.01488
G1 X208.453 Y111.430 E0.08409
G1 X208.988 Y111.430 E0.01682
G1 X207.030 Y109.473 E0.08704
G1 X207.499 Y109.406 E0.01488
G1 X209.522 Y111.430 E0.08999
G1 X210.057 Y111.430 E0.01682
G1 X207.967 Y109.340 E0.09294
G1 X208.436 Y109.274 E0.01488
G1 X210.592 Y111.430 E0.09589
G1 X211.127 Y111.430 E0.01682
G1 X208.904 Y109.207 E0.09884
G1 X209.372 Y109.141 E0.01488
G1 X211.527 Y111.295 E0.09579
G1 X211.527 Y110.760 E0.01682
G1 X209.841 Y109.075 E0.07495
G1 X210.309 Y109.008 E0.01488
G1 X211.527 Y110.226 E0.05412
G1 X211.527 Y109.691 E0.01682
G1 X210.778 Y108.942 E0.03329
G1 X211.246 Y108.876 E0.01488
G1 X211.696 Y109.326 E0.02000
;WIPE_START
G1 F8640.000
G1 X211.246 Y108.876 E-0.14690
G1 X210.778 Y108.942 E-0.10925
G1 X211.527 Y109.691 E-0.24447
G1 X211.527 Y110.226 E-0.12348
G1 X210.309 Y109.008 E-0.39744
G1 X209.841 Y109.075 E-0.10925
G1 X210.451 Y109.685 E-0.19921
;WIPE_END
G1 E-0.07000 F2100.000
G1 Z0.400 F10800.000
G1 X202.740 Y111.600
G1 Z0.200
G1 E1.40000 F2100.000
G1 F1200.000
G1 X189.710 Y98.570 E0.57941
G1 X189.175 Y98.570 E0.01682
G1 X202.035 Y111.430 E0.57187
G1 X201.501 Y111.430 E0.01682
G1 X188.640 Y98.570 E0.57187
G1 X188.105 Y98.570 E0.01682
G1 X200.966 Y111.430 E0.57187
G1 X200.431 Y111.430 E0.01682
G1 X187.571 Y98.570 E0.57187
G1 X187.036 Y98.570 E0.01682
G1 X199.896 Y111.430 E0.57187
G1 X199.361 Y111.430 E0.01682
G1 X186.501 Y98.570 E0.57187
G1 X185.966 Y98.570 E0.01682
G1 X198.827 Y111.430 E0.57187
G1 X198.292 Y111.430 E0.01682
G1 X185.432 Y98.570 E0.57187
G1 X184.897 Y98.570 E0.01682
G1 X197.757 Y111.430 E0.57187
G1 X197.222 Y111.430 E0.01682
G1 X184.362 Y98.570 E0.57187
G1 X183.827 Y98.570 E0.01682
G1 X196.687 Y111.430 E0.57187
G1 X196.153 Y111.430 E0.01682
G1 X183.292 Y98.570 E0.57187
G1 X182.758 Y98.570 E0.01682
G1 X195.618 Y111.430 E0.57187
G1 X195.083 Y111.430 E0.01682
G1 X182.223 Y98.570 E0.57187
G1 X181.688 Y98.570 E0.01682
G1 X194.548 Y111.430 E0.57187
G1 X194.013 Y111.430 E0.01682
G1 X181.153 Y98.570 E0.57187
M73 P1 R113
G1 X180.618 Y98.570 E0.01682
G1 X193.479 Y111.430 E0.57187
G1 X192.944 Y111.430 E0.01682
G1 X180.084 Y98.570 E0.57187
G1 X179.549 Y98.570 E0.01682
G1 X192.409 Y111.430 E0.57187
G1 X191.874 Y111.430 E0.01682
G1 X179.014 Y98.570 E0.57187
G1 X178.479 Y98.570 E0.01682
G1 X191.340 Y111.430 E0.57187
G1 X190.805 Y111.430 E0.01682
G1 X177.945 Y98.570 E0.57187
G1 X177.410 Y98.570 E0.01682
G1 X190.270 Y111.430 E0.57187
G1 X189.735 Y111.430 E0.01682
G1 X176.875 Y98.570 E0.57187
G1 X176.340 Y98.570 E0.01682
G1 X189.200 Y111.430 E0.57187
G1 X188.666 Y111.430 E0.01682
G1 X175.805 Y98.570 E0.57187
G1 X175.271 Y98.570 E0.01682
G1 X188.131 Y111.430 E0.57187
G1 X187.596 Y111.430 E0.01682
G1 X174.736 Y98.570 E0.57187
G1 X174.201 Y98.570 E0.01682
G1 X187.061 Y111.430 E0.57187
G1 X186.526 Y111.430 E0.01682
G1 X173.666 Y98.570 E0.57187
G1 X173.131 Y98.570 E0.01682
G1 X185.992 Y111.430 E0.57187
G1 X185.457 Y111.430 E0.01682
G1 X172.597 Y98.570 E0.57187
G1 X172.062 Y98.570 E0.01682
G1 X184.922 Y111.430 E0.57187
G1 X184.387 Y111.430 E0.01682
G1 X171.527 Y98.570 E0.57187
G1 X170.992 Y98.570 E0.01682
G1 X183.853 Y111.430 E0.57187
G1 X183.318 Y111.430 E0.01682
G1 X170.457 Y98.570 E0.57187
G1 X169.923 Y98.570 E0.01682
G1 X182.783 Y111.430 E0.57187
G1 X182.248 Y111.430 E0.01682
G1 X169.388 Y98.570 E0.57187
G1 X168.853 Y98.570 E0.01682
G1 X181.713 Y111.430 E0.57187
G1 X181.179 Y111.430 E0.01682
G1 X168.318 Y98.570 E0.57187
G1 X167.784 Y98.570 E0.01682
G1 X180.644 Y111.430 E0.57187
G1 X180.109 Y111.430 E0.01682
G1 X167.249 Y98.570 E0.57187
G1 X166.714 Y98.570 E0.01682
G1 X179.574 Y111.430 E0.57187
G1 X179.039 Y111.430 E0.01682
G1 X166.179 Y98.570 E0.57187
G1 X165.644 Y98.570 E0.01682
G1 X178.505 Y111.430 E0.57187
G1 X177.970 Y111.430 E0.01682
G1 X165.110 Y98.570 E0.57187
G1 X164.575 Y98.570 E0.01682
G1 X177.435 Y111.430 E0.57187
G1 X176.900 Y111.430 E0.01682
G1 X164.040 Y98.570 E0.57187
G1 X163.505 Y98.570 E0.01682
G1 X176.365 Y111.430 E0.57187
G1 X175.831 Y111.430 E0.01682
G1 X162.970 Y98.570 E0.57187
G1 X162.436 Y98.570 E0.01682
G1 X175.296 Y111.430 E0.57187
G1 X174.761 Y111.430 E0.01682
G1 X161.901 Y98.570 E0.57187
G1 X161.366 Y98.570 E0.01682
G1 X174.226 Y111.430 E0.57187
G1 X173.692 Y111.430 E0.01682
G1 X160.831 Y98.570 E0.57187
G1 X160.297 Y98.570 E0.01682
G1 X173.157 Y111.430 E0.57187
M73 P2 R113
G1 X172.622 Y111.430 E0.01682
G1 X159.762 Y98.570 E0.57187
G1 X159.227 Y98.570 E0.01682
G1 X172.087 Y111.430 E0.57187
G1 X171.552 Y111.430 E0.01682
G1 X158.692 Y98.570 E0.57187
G1 X158.157 Y98.570 E0.01682
G1 X171.018 Y111.430 E0.57187
G1 X170.483 Y111.430 E0.01682
G1 X157.623 Y98.570 E0.57187
G1 X157.088 Y98.570 E0.01682
G1 X169.948 Y111.430 E0.57187
G1 X169.413 Y111.430 E0.01682
G1 X156.553 Y98.570 E0.57187
G1 X156.018 Y98.570 E0.01682
G1 X168.878 Y111.430 E0.57187
G1 X168.344 Y111.430 E0.01682
G1 X155.483 Y98.570 E0.57187
G1 X154.949 Y98.570 E0.01682
G1 X167.809 Y111.430 E0.57187
G1 X167.274 Y111.430 E0.01682
G1 X154.414 Y98.570 E0.57187
G1 X153.879 Y98.570 E0.01682
G1 X166.739 Y111.430 E0.57187
G1 X166.205 Y111.430 E0.01682
G1 X153.344 Y98.570 E0.57187
G1 X152.809 Y98.570 E0.01682
G1 X165.670 Y111.430 E0.57187
G1 X165.135 Y111.430 E0.01682
G1 X152.275 Y98.570 E0.57187
G1 X151.740 Y98.570 E0.01682
G1 X164.600 Y111.430 E0.57187
G1 X164.065 Y111.430 E0.01682
G1 X151.205 Y98.570 E0.57187
G1 X150.670 Y98.570 E0.01682
G1 X163.531 Y111.430 E0.57187
G1 X162.996 Y111.430 E0.01682
G1 X150.136 Y98.570 E0.57187
G1 X149.601 Y98.570 E0.01682
G1 X162.461 Y111.430 E0.57187
G1 X161.926 Y111.430 E0.01682
G1 X149.066 Y98.570 E0.57187
G1 X148.531 Y98.570 E0.01682
G1 X161.391 Y111.430 E0.57187
G1 X160.857 Y111.430 E0.01682
G1 X147.996 Y98.570 E0.57187
G1 X147.462 Y98.570 E0.01682
G1 X160.322 Y111.430 E0.57187
G1 X159.787 Y111.430 E0.01682
G1 X146.927 Y98.570 E0.57187
M73 P2 R112
G1 X146.392 Y98.570 E0.01682
G1 X159.252 Y111.430 E0.57187
G1 X158.717 Y111.430 E0.01682
G1 X145.857 Y98.570 E0.57187
G1 X145.322 Y98.570 E0.01682
G1 X158.183 Y111.430 E0.57187
G1 X157.648 Y111.430 E0.01682
G1 X144.788 Y98.570 E0.57187
G1 X144.253 Y98.570 E0.01682
G1 X157.113 Y111.430 E0.57187
G1 X156.578 Y111.430 E0.01682
G1 X143.718 Y98.570 E0.57187
G1 X143.183 Y98.570 E0.01682
G1 X156.044 Y111.430 E0.57187
G1 X155.509 Y111.430 E0.01682
G1 X142.649 Y98.570 E0.57187
G1 X142.114 Y98.570 E0.01682
G1 X154.974 Y111.430 E0.57187
G1 X154.439 Y111.430 E0.01682
G1 X141.579 Y98.570 E0.57187
G1 X141.044 Y98.570 E0.01682
G1 X153.904 Y111.430 E0.57187
G1 X153.370 Y111.430 E0.01682
G1 X140.509 Y98.570 E0.57187
G1 X139.975 Y98.570 E0.01682
G1 X152.835 Y111.430 E0.57187
G1 X152.300 Y111.430 E0.01682
G1 X139.440 Y98.570 E0.57187
G1 X138.905 Y98.570 E0.01682
G1 X151.765 Y111.430 E0.57187
G1 X151.230 Y111.430 E0.01682
G1 X138.370 Y98.570 E0.57187
G1 X137.835 Y98.570 E0.01682
G1 X150.696 Y111.430 E0.57187
G1 X150.161 Y111.430 E0.01682
G1 X137.301 Y98.570 E0.57187
G1 X136.766 Y98.570 E0.01682
G1 X149.626 Y111.430 E0.57187
G1 X149.091 Y111.430 E0.01682
G1 X136.231 Y98.570 E0.57187
G1 X135.696 Y98.570 E0.01682
G1 X148.557 Y111.430 E0.57187
G1 X148.022 Y111.430 E0.01682
G1 X135.161 Y98.570 E0.57187
G1 X134.627 Y98.570 E0.01682
G1 X147.487 Y111.430 E0.57187
G1 X146.952 Y111.430 E0.01682
G1 X134.092 Y98.570 E0.57187
G1 X133.557 Y98.570 E0.01682
G1 X146.417 Y111.430 E0.57187
G1 X145.883 Y111.430 E0.01682
G1 X133.022 Y98.570 E0.57187
G1 X132.488 Y98.570 E0.01682
G1 X145.348 Y111.430 E0.57187
G1 X144.813 Y111.430 E0.01682
G1 X131.953 Y98.570 E0.57187
G1 X131.418 Y98.570 E0.01682
G1 X144.278 Y111.430 E0.57187
G1 X143.743 Y111.430 E0.01682
G1 X130.883 Y98.570 E0.57187
G1 X130.348 Y98.570 E0.01682
G1 X143.209 Y111.430 E0.57187
G1 X142.674 Y111.430 E0.01682
G1 X129.814 Y98.570 E0.57187
G1 X129.279 Y98.570 E0.01682
G1 X142.139 Y111.430 E0.57187
G1 X141.604 Y111.430 E0.01682
G1 X128.744 Y98.570 E0.57187
G1 X128.209 Y98.570 E0.01682
G1 X141.069 Y111.430 E0.57187
G1 X140.535 Y111.430 E0.01682
G1 X127.674 Y98.570 E0.57187
G1 X127.140 Y98.570 E0.01682
G1 X140.000 Y111.430 E0.57187
G1 X139.465 Y111.430 E0.01682
G1 X126.605 Y98.570 E0.57187
G1 X126.070 Y98.570 E0.01682
G1 X138.930 Y111.430 E0.57187
G1 X138.396 Y111.430 E0.01682
G1 X125.535 Y98.570 E0.57187
G1 X125.001 Y98.570 E0.01682
G1 X137.861 Y111.430 E0.57187
G1 X137.326 Y111.430 E0.01682
G1 X124.466 Y98.570 E0.57187
G1 X123.931 Y98.570 E0.01682
G1 X136.791 Y111.430 E0.57187
G1 X136.256 Y111.430 E0.01682
G1 X123.396 Y98.570 E0.57187
G1 X122.861 Y98.570 E0.01682
G1 X135.722 Y111.430 E0.57187
G1 X135.187 Y111.430 E0.01682
G1 X122.327 Y98.570 E0.57187
G1 X121.792 Y98.570 E0.01682
G1 X134.652 Y111.430 E0.57187
G1 X134.117 Y111.430 E0.01682
G1 X121.257 Y98.570 E0.57187
M73 P3 R112
G1 X120.722 Y98.570 E0.01682
G1 X133.582 Y111.430 E0.57187
