; generated by PrusaSlicer 2.4.1+win64 on 2022-04-11 at 08:21:41 UTC


;
;

;
;
; 

; external perimeters extrusion width = 0.45mm
; perimeters extrusion width = 0.45mm
; infill extrusion width = 0.45mm
; solid infill extrusion width = 0.45mm
; top infill extrusion width = 0.40mm
; first layer extrusion width = 0.42mm

M73 P0 R157
M107
;TYPE:Custom
M83  ; extruder relative mode
M140 S85 ; set bed temp
M109 S160 ; Set extruder temp before bed level
M190 S85 ; wait for bed temp

G28 W ; home all without mesh bed level
G80 N7 ; mesh bed leveling

M109 S240 ; wait for extruder temp

M221 S100 ; Set flow to 100

G1 Y-3.0 F1000.0 ; go outside print area
G92 E0.0
G1 E8 ; Purge Bubble
G1 X60.0 E9.0 F1000.0 ; intro line
G1 X100.0 E12.5 F1000.0 ; intro line
G92 E0.0
G21 ; set units to millimeters
G90 ; use absolute coordinates
M83 ; use relative distances for extrusion
M900 K0.08 ; Filament gcode LA 1.5
M900 K45 ; Filament gcode LA 1.0
M107
;LAYER_CHANGE
;Z:0.2
;HEIGHT:0.2
;BEFORE_LAYER_CHANGE
G92 E0.0
;0.2


G1 E-1 F2100
G1 Z.2 F720
;AFTER_LAYER_CHANGE
;0.2
G1 Z.4
G1 X48.556 Y75.283 F6000
G1 Z.2 F720
G1 E1 F2100
M204 S800
;TYPE:Skirt/Brim
;WIDTH:0.42
G1 F1200
G1 X49.5 Y75.087 E.03024
G1 X200.5 Y75.087 E4.7345
G1 X201.807 Y75.479 E.04278
M73 P0 R156
G1 X202.488 Y76.162 E.03024
G1 X202.888 Y76.772 E.02288
G1 X203.277 Y78.075 E.04263
G1 X203.277 Y130.486 E1.6433
G1 X202.885 Y131.793 E.04278
G1 X201.84 Y132.669 E.04278
G1 X200.9 Y132.863 E.03008
G1 X49.1 Y132.863 E4.75958
G1 X47.793 Y132.471 E.04278
G1 X46.917 Y131.425 E.04278
G1 X46.723 Y130.486 E.03008
G1 X46.723 Y78.075 E1.6433
G1 X47.112 Y76.772 E.04263
G1 X47.512 Y76.162 E.02288
G1 X48.51 Y75.322 E.0409
M204 S1000
; printing object lcd_cover_logo.stl id:0 copy 0
;WIPE_START
G1 F4800
G1 X49.5 Y75.087 E-.4229
G1 X50.768 Y75.087 E-.5271
;WIPE_END
G1 E-.05 F2100
G1 Z.4 F720
G1 X185.442 Y116.364 F6000
G1 Z.2 F720
G1 E1 F2100
M204 S800
;TYPE:Perimeter
G1 F1200
G1 X188.558 Y116.364 E.09771
G1 X187 Y117.922 E.06909
G1 X185.484 Y116.407 E.06721
M204 S1000
;WIPE_START
G1 F4800
G1 X187.77 Y116.375 E-.95
;WIPE_END
G1 E-.05 F2100
G1 Z.4 F720
G1 X189.108 Y116.364 F6000
G1 Z.2 F720
G1 E1 F2100
M204 S800
G1 F1200
G1 X191.342 Y116.364 E.07006
G1 X192.009 Y117.031 E.02956
G1 X192.009 Y122.069 E.15798
G1 X191.578 Y122.5 E.0191
G1 X189.778 Y120.7 E.07982
G1 X191.611 Y118.867 E.08127
G1 X189.15 Y116.407 E.10911
M204 S1000
;WIPE_START
G1 F4800
G1 X191.342 Y116.364 E-.91127
G1 X191.408 Y116.43 E-.03873
;WIPE_END
G1 E-.05 F2100
G1 Z.4 F720
G1 X187 Y123.478 F6000
G1 Z.2 F720
G1 E1 F2100
M204 S800
G1 F1200
G1 X188.558 Y125.036 E.06909
G1 X185.442 Y125.036 E.09771
G1 X186.958 Y123.52 E.06721
M204 S1000
;WIPE_START
G1 F4800
G1 X188.558 Y125.036 E-.91617
G1 X188.477 Y125.036 E-.03383
;WIPE_END
G1 E-.05 F2100
G1 Z.4 F720
G1 X186.352 Y116.741 F6000
G1 Z.2 F720
G1 E1 F2100
M204 S800
G1 F1200
G1 X187.648 Y116.741 E.04062
G1 X187 Y117.389 E.02872
G1 X186.395 Y116.784 E.02684
M204 S1000
;WIPE_START
G1 F4800
G1 X187.648 Y116.741 E-.52111
G1 X187 Y117.389 E-.38074
G1 X186.918 Y117.307 E-.04815
;WIPE_END
G1 E-.05 F2100
G1 Z.4 F720
G1 X190.018 Y116.741 F6000
G1 Z.2 F720
G1 E1 F2100
M204 S800
G1 F1200
G1 X191.186 Y116.741 E.03662
G1 X191.632 Y117.187 E.01976
G1 X191.632 Y118.355 E.03662
G1 X190.06 Y116.784 E.06967
M204 S1000
;WIPE_START
G1 F4800
G1 X191.186 Y116.741 E-.46816
G1 X191.632 Y117.187 E-.26197
G1 X191.632 Y117.716 E-.21987
;WIPE_END
G1 E-.05 F2100
G1 Z.4 F720
G1 X190.311 Y120.7 F6000
G1 Z.2 F720
G1 E1 F2100
M204 S800
G1 F1200
G1 X191.632 Y119.379 E.05856
G1 X191.632 Y121.913 E.07944
G1 X191.578 Y121.967 E.00238
G1 X190.353 Y120.742 E.05429
M204 S1000
;WIPE_START
G1 F4800
G1 X191.632 Y119.379 E-.77663
G1 X191.632 Y119.797 E-.17337
;WIPE_END
G1 E-.05 F2100
G1 Z.4 F720
G1 X187 Y124.011 F6000
G1 Z.2 F720
G1 E1 F2100
M204 S800
G1 F1200
G1 X187.648 Y124.659 E.02872
G1 X186.352 Y124.659 E.04062
G1 X186.958 Y124.053 E.02684
M204 S1000
;WIPE_START
G1 F4800
G1 X187.648 Y124.659 E-.38156
G1 X186.352 Y124.659 E-.53845
G1 X186.403 Y124.608 E-.02999
;WIPE_END
G1 E-.05 F2100
G1 Z.4 F720
G1 X181.856 Y118.867 F6000
G1 Z.2 F720
G1 E1 F2100
M204 S800
G1 F1200
G1 X183.982 Y116.741 E.09427
G1 X175.459 Y116.741 E.26724
G1 X175.459 Y113.059 E.11546
G1 X192.711 Y113.059 E.54094
G1 X195.314 Y115.662 E.11541
G1 X195.314 Y123.438 E.24384
G1 X190.411 Y128.341 E.2174
G1 X175.459 Y128.341 E.46882
G1 X175.459 Y124.659 E.11546
G1 X183.982 Y124.659 E.26724
G1 X181.856 Y122.533 E.09427
G1 X183.689 Y120.7 E.08127
G1 X181.899 Y118.91 E.07939
M204 S1000
G1 X182.389 Y118.867 F6000
M204 S800
G1 F1200
G1 X184.892 Y116.364 E.11099
G1 X175.836 Y116.364 E.28396
G1 X175.836 Y113.436 E.09182
G1 X192.555 Y113.436 E.52422
G1 X194.937 Y115.818 E.10562
G1 X194.937 Y123.282 E.23404
G1 X190.255 Y127.964 E.20761
G1 X175.836 Y127.964 E.4521
G1 X175.836 Y125.036 E.09182
G1 X184.892 Y125.036 E.28396
G1 X182.389 Y122.533 E.11099
G1 X184.222 Y120.7 E.08127
G1 X182.432 Y118.91 E.07939
M204 S1000
;WIPE_START
G1 F4800
G1 X184.02 Y117.266 E-.95
;WIPE_END
G1 E-.05 F2100
G1 Z.4 F720
G1 X176.213 Y113.813 F6000
G1 Z.2 F720
G1 E1 F2100
M204 S800
G1 F1200
G1 X192.399 Y113.813 E.5075
G1 X194.56 Y115.974 E.09582
G1 X194.56 Y123.126 E.22425
G1 X190.099 Y127.587 E.19781
G1 X176.213 Y127.587 E.43538
G1 X176.213 Y125.413 E.06817
G1 X189.198 Y125.413 E.40715
G1 X192.386 Y122.225 E.14134
G1 X192.386 Y116.875 E.16777
G1 X191.498 Y115.987 E.03935
G1 X176.213 Y115.987 E.47926
G1 X176.213 Y113.873 E.06629
M204 S1000
G1 X176.59 Y114.19 F6000
M204 S800
;TYPE:External perimeter
G1 F1200
G1 X192.243 Y114.19 E.49078
G1 X194.183 Y116.13 E.08603
G1 X194.183 Y122.97 E.21445
G1 X189.943 Y127.21 E.18802
G1 X176.59 Y127.21 E.41866
G1 X176.59 Y125.79 E.04452
G1 X189.354 Y125.79 E.40022
G1 X192.763 Y122.382 E.15113
G1 X192.763 Y116.718 E.17757
G1 X191.654 Y115.61 E.04915
G1 X176.59 Y115.61 E.47234
G1 X176.59 Y114.25 E.04264
M204 S1000
G1 X176.401 Y113.837 F6000
;WIPE_START
G1 F4800
G1 X178.876 Y114.241 E-.95
;WIPE_END
G1 E-.05 F2100
G1 Z.4 F720
G1 X182.923 Y118.867 F6000
G1 Z.2 F720
G1 E1 F2100
M204 S800
;TYPE:Perimeter
G1 F1200
G1 X185.167 Y116.623 E.09952
G1 X187 Y118.456 E.08127
G1 X188.833 Y116.623 E.08127
G1 X191.077 Y118.867 E.09952
G1 X189.244 Y120.7 E.08127
G1 X191.077 Y122.533 E.08127
G1 X188.833 Y124.777 E.09952
G1 X187 Y122.944 E.08127
G1 X185.167 Y124.777 E.08127
G1 X182.923 Y122.533 E.09952
G1 X184.756 Y120.7 E.08127
G1 X182.965 Y118.91 E.07939
M204 S1000
G1 X183.456 Y118.867 F6000
M204 S800
;TYPE:External perimeter
G1 F1200
G1 X185.167 Y117.156 E.07588
G1 X187 Y118.989 E.08127
G1 X188.833 Y117.156 E.08127
G1 X190.544 Y118.867 E.07588
G1 X188.711 Y120.7 E.08127
G1 X190.544 Y122.533 E.08127
G1 X188.833 Y124.244 E.07588
G1 X187 Y122.411 E.08127
G1 X185.167 Y124.244 E.08127
G1 X183.456 Y122.533 E.07588
G1 X185.289 Y120.7 E.08127
G1 X183.498 Y118.91 E.07939
M204 S1000
G1 X183.256 Y118.521 F6000
;WIPE_START
G1 F4800
G1 X185.074 Y117.254 E-.95
;WIPE_END
G1 E-.05 F2100
G1 Z.4 F720
G1 X185.013 Y112.224 F6000
G1 Z.2 F720
G1 E1 F2100
M204 S800
;TYPE:Perimeter
G1 F1200
G1 X184.576 Y112.092 E.01431
G1 X184.114 Y111.918 E.01547
G1 X183.664 Y111.714 E.01547
G1 X183.229 Y111.482 E.01547
G1 X182.81 Y111.221 E.01547
G1 X182.409 Y110.934 E.01547
G1 X182.027 Y110.62 E.01547
G1 X181.667 Y110.283 E.01548
G1 X181.33 Y109.923 E.01547
G1 X181.038 Y109.568 E.0144
G1 X180.731 Y109.143 E.01645
G1 X180.468 Y108.721 E.01557
G1 X180.252 Y108.316 E.0144
G1 X180.033 Y107.839 E.01645
G1 X179.858 Y107.374 E.01557
G1 X179.715 Y106.902 E.01547
G1 X179.603 Y106.421 E.01547
G1 X179.522 Y105.934 E.01547
G1 X179.474 Y105.443 E.01547
G1 X179.459 Y104.975 E.01468
G1 X179.459 Y102.425 E.07997
G1 X179.474 Y101.957 E.01468
G1 X179.522 Y101.466 E.01547
G1 X179.603 Y100.979 E.01547
G1 X179.715 Y100.498 E.01547
G1 X179.858 Y100.026 E.01547
G1 X180.032 Y99.564 E.01547
G1 X180.236 Y99.114 E.01547
G1 X180.468 Y98.679 E.01548
G1 X180.729 Y98.26 E.01547
G1 X181.016 Y97.859 E.01548
G1 X181.33 Y97.477 E.01547
G1 X181.667 Y97.117 E.01547
G1 X182.027 Y96.78 E.01547
G1 X182.409 Y96.466 E.01547
G1 X182.81 Y96.179 E.01547
G1 X183.229 Y95.918 E.01547
G1 X183.664 Y95.686 E.01548
G1 X184.114 Y95.482 E.01547
G1 X184.576 Y95.308 E.01547
G1 X185.048 Y95.165 E.01547
G1 X185.529 Y95.053 E.01547
G1 X186.016 Y94.972 E.01548
G1 X186.507 Y94.924 E.01547
G1 X186.966 Y94.909 E.0144
G1 X187.49 Y94.924 E.01645
G1 X187.984 Y94.972 E.01557
G1 X188.471 Y95.053 E.01548
G1 X188.952 Y95.165 E.01547
G1 X189.424 Y95.308 E.01547
G1 X189.886 Y95.482 E.01548
G1 X190.336 Y95.686 E.01547
G1 X190.771 Y95.918 E.01547
G1 X191.19 Y96.179 E.01547
G1 X191.591 Y96.466 E.01547
G1 X191.973 Y96.78 E.01547
G1 X192.333 Y97.117 E.01547
G1 X192.67 Y97.477 E.01547
G1 X192.984 Y97.859 E.01547
G1 X193.271 Y98.26 E.01547
G1 X193.532 Y98.679 E.01547
G1 X193.764 Y99.114 E.01548
G1 X193.968 Y99.564 E.01548
G1 X194.142 Y100.026 E.01547
G1 X194.285 Y100.498 E.01547
G1 X194.397 Y100.979 E.01547
G1 X194.478 Y101.466 E.01547
G1 X194.526 Y101.957 E.01548
G1 X194.541 Y102.425 E.01468
G1 X194.541 Y104.975 E.07997
G1 X194.526 Y105.443 E.01468
G1 X194.478 Y105.934 E.01548
G1 X194.397 Y106.421 E.01547
G1 X194.285 Y106.902 E.01547
G1 X194.152 Y107.342 E.0144
G1 X193.969 Y107.833 E.01645
G1 X193.764 Y108.286 E.01557
G1 X193.532 Y108.721 E.01548
G1 X193.271 Y109.14 E.01547
G1 X192.984 Y109.541 E.01547
G1 X192.67 Y109.923 E.01547
G1 X192.333 Y110.283 E.01547
G1 X191.973 Y110.62 E.01548
G1 X191.591 Y110.934 E.01547
G1 X191.19 Y111.221 E.01547
G1 X190.771 Y111.482 E.01548
G1 X190.336 Y111.714 E.01547
G1 X189.886 Y111.918 E.01547
G1 X189.424 Y112.092 E.01547
G1 X188.952 Y112.235 E.01547
G1 X188.471 Y112.347 E.01547
G1 X187.984 Y112.428 E.01548
G1 X187.493 Y112.476 E.01547
G1 X187 Y112.492 E.01547
G1 X186.507 Y112.476 E.01547
G1 X186.016 Y112.428 E.01547
G1 X185.529 Y112.347 E.01548
G1 X185.07 Y112.24 E.01475
M204 S1000
G1 X185.122 Y111.863 F6000
M204 S800
G1 F1200
G1 X184.697 Y111.735 E.01393
G1 X184.258 Y111.569 E.0147
G1 X183.831 Y111.376 E.0147
G1 X183.418 Y111.155 E.0147
G1 X183.019 Y110.907 E.0147
G1 X182.638 Y110.634 E.0147
G1 X182.276 Y110.337 E.0147
G1 X181.934 Y110.016 E.0147
G1 X181.613 Y109.674 E.0147
G1 X181.337 Y109.337 E.01366
G1 X181.044 Y108.932 E.01567
G1 X180.795 Y108.532 E.01477
G1 X180.59 Y108.148 E.01366
G1 X180.381 Y107.694 E.01567
G1 X180.215 Y107.253 E.01477
G1 X180.079 Y106.804 E.0147
G1 X179.973 Y106.348 E.0147
G1 X179.897 Y105.885 E.0147
G1 X179.851 Y105.419 E.0147
G1 X179.836 Y104.969 E.0141
G1 X179.836 Y102.431 E.07958
G1 X179.851 Y101.981 E.0141
G1 X179.897 Y101.515 E.0147
G1 X179.973 Y101.052 E.0147
G1 X180.079 Y100.596 E.0147
G1 X180.215 Y100.147 E.0147
G1 X180.381 Y99.708 E.0147
G1 X180.574 Y99.281 E.0147
G1 X180.795 Y98.868 E.0147
G1 X181.043 Y98.469 E.0147
G1 X181.316 Y98.088 E.0147
G1 X181.613 Y97.726 E.0147
G1 X181.934 Y97.384 E.0147
G1 X182.276 Y97.063 E.0147
G1 X182.638 Y96.766 E.0147
G1 X183.019 Y96.493 E.0147
G1 X183.418 Y96.245 E.0147
G1 X183.831 Y96.024 E.0147
G1 X184.258 Y95.831 E.0147
G1 X184.697 Y95.665 E.0147
G1 X185.146 Y95.529 E.0147
G1 X185.602 Y95.423 E.0147
G1 X186.065 Y95.347 E.0147
G1 X186.531 Y95.301 E.0147
G1 X186.967 Y95.286 E.01366
G1 X187.466 Y95.3 E.01567
G1 X187.935 Y95.347 E.01477
G1 X188.398 Y95.423 E.0147
G1 X188.854 Y95.529 E.0147
G1 X189.303 Y95.665 E.0147
G1 X189.742 Y95.831 E.0147
G1 X190.169 Y96.024 E.0147
G1 X190.582 Y96.245 E.0147
G1 X190.981 Y96.493 E.0147
G1 X191.362 Y96.766 E.0147
G1 X191.724 Y97.063 E.0147
G1 X192.066 Y97.384 E.0147
G1 X192.387 Y97.726 E.0147
G1 X192.684 Y98.088 E.0147
G1 X192.957 Y98.469 E.0147
G1 X193.205 Y98.868 E.0147
G1 X193.426 Y99.281 E.0147
G1 X193.619 Y99.708 E.0147
G1 X193.785 Y100.147 E.0147
G1 X193.921 Y100.596 E.0147
G1 X194.027 Y101.052 E.0147
G1 X194.103 Y101.515 E.0147
G1 X194.149 Y101.981 E.0147
G1 X194.164 Y102.431 E.0141
G1 X194.164 Y104.969 E.07958
G1 X194.149 Y105.419 E.0141
G1 X194.103 Y105.885 E.0147
G1 X194.027 Y106.348 E.0147
G1 X193.921 Y106.804 E.0147
G1 X193.794 Y107.221 E.01366
G1 X193.62 Y107.69 E.01567
G1 X193.426 Y108.119 E.01477
G1 X193.205 Y108.532 E.0147
G1 X192.957 Y108.931 E.0147
G1 X192.684 Y109.312 E.0147
G1 X192.387 Y109.674 E.0147
G1 X192.066 Y110.016 E.0147
G1 X191.724 Y110.337 E.0147
G1 X191.362 Y110.634 E.0147
G1 X190.981 Y110.907 E.0147
G1 X190.582 Y111.155 E.0147
G1 X190.169 Y111.376 E.0147
G1 X189.742 Y111.569 E.0147
G1 X189.303 Y111.735 E.0147
G1 X188.854 Y111.871 E.0147
G1 X188.398 Y111.977 E.0147
G1 X187.935 Y112.053 E.0147
G1 X187.469 Y112.099 E.0147
G1 X187 Y112.115 E.0147
G1 X186.531 Y112.099 E.0147
G1 X186.065 Y112.053 E.0147
G1 X185.602 Y111.977 E.0147
G1 X185.18 Y111.879 E.01359
M204 S1000
G1 X185.243 Y111.506 F6000
M204 S800
G1 F1200
G1 X184.818 Y111.377 E.01393
G1 X184.403 Y111.221 E.01393
G1 X183.998 Y111.038 E.01393
G1 X183.606 Y110.828 E.01393
G1 X183.229 Y110.594 E.01393
G1 X182.868 Y110.335 E.01393
G1 X182.525 Y110.053 E.01393
G1 X182.201 Y109.749 E.01393
G1 X181.897 Y109.425 E.01393
G1 X181.636 Y109.107 E.01291
G1 X181.357 Y108.722 E.0149
G1 X181.122 Y108.344 E.01397
G1 X180.928 Y107.981 E.01291
G1 X180.73 Y107.549 E.0149
G1 X180.573 Y107.132 E.01397
G1 X180.444 Y106.707 E.01393
G1 X180.343 Y106.274 E.01393
G1 X180.271 Y105.836 E.01393
G1 X180.227 Y105.394 E.01393
G1 X180.213 Y102.437 E.09271
G1 X180.227 Y102.006 E.01352
G1 X180.271 Y101.564 E.01393
G1 X180.343 Y101.126 E.01393
G1 X180.444 Y100.693 E.01393
G1 X180.573 Y100.268 E.01393
G1 X180.729 Y99.853 E.01393
G1 X180.912 Y99.448 E.01393
G1 X181.122 Y99.056 E.01393
G1 X181.356 Y98.679 E.01393
G1 X181.615 Y98.318 E.01393
G1 X181.897 Y97.975 E.01393
G1 X182.201 Y97.651 E.01393
G1 X182.525 Y97.347 E.01393
G1 X182.868 Y97.065 E.01393
G1 X183.229 Y96.806 E.01393
G1 X183.606 Y96.572 E.01393
G1 X183.998 Y96.362 E.01393
G1 X184.403 Y96.179 E.01393
G1 X184.818 Y96.023 E.01393
G1 X185.243 Y95.894 E.01393
G1 X185.676 Y95.793 E.01393
G1 X186.114 Y95.721 E.01393
G1 X186.556 Y95.677 E.01393
G1 X186.968 Y95.664 E.01291
G1 X187.443 Y95.677 E.0149
G1 X187.886 Y95.721 E.01397
G1 X188.324 Y95.793 E.01393
G1 X188.757 Y95.894 E.01393
G1 X189.182 Y96.023 E.01393
G1 X189.597 Y96.179 E.01393
G1 X190.002 Y96.362 E.01393
G1 X190.394 Y96.572 E.01393
G1 X190.771 Y96.806 E.01393
G1 X191.132 Y97.065 E.01393
G1 X191.475 Y97.347 E.01393
G1 X191.799 Y97.651 E.01393
G1 X192.103 Y97.975 E.01393
G1 X192.385 Y98.318 E.01393
G1 X192.644 Y98.679 E.01393
G1 X192.878 Y99.056 E.01393
G1 X193.088 Y99.448 E.01393
G1 X193.271 Y99.853 E.01393
G1 X193.427 Y100.268 E.01393
G1 X193.556 Y100.693 E.01393
G1 X193.657 Y101.126 E.01393
G1 X193.729 Y101.564 E.01393
G1 X193.773 Y102.006 E.01393
G1 X193.787 Y104.963 E.09271
G1 X193.773 Y105.394 E.01352
G1 X193.729 Y105.836 E.01393
G1 X193.657 Y106.274 E.01393
G1 X193.556 Y106.707 E.01393
G1 X193.437 Y107.101 E.01291
G1 X193.271 Y107.546 E.0149
G1 X193.088 Y107.952 E.01397
G1 X192.878 Y108.344 E.01393
G1 X192.644 Y108.721 E.01393
G1 X192.385 Y109.082 E.01393
G1 X192.103 Y109.425 E.01393
G1 X191.799 Y109.749 E.01393
G1 X191.475 Y110.053 E.01393
G1 X191.132 Y110.335 E.01393
G1 X190.771 Y110.594 E.01393
G1 X190.394 Y110.828 E.01393
G1 X190.002 Y111.038 E.01393
G1 X189.597 Y111.221 E.01393
G1 X189.182 Y111.377 E.01393
G1 X188.757 Y111.506 E.01393
G1 X188.324 Y111.607 E.01393
G1 X187.886 Y111.679 E.01393
G1 X187.444 Y111.723 E.01393
G1 X187 Y111.738 E.01393
G1 X186.556 Y111.723 E.01393
G1 X186.114 Y111.679 E.01393
G1 X185.676 Y111.607 E.01393
G1 X185.302 Y111.52 E.01204
M204 S1000
G1 X185.341 Y111.142 F6000
M204 S800
;TYPE:External perimeter
G1 F1200
G1 X184.94 Y111.02 E.01315
G1 X184.547 Y110.872 E.01315
G1 X184.165 Y110.699 E.01315
G1 X183.795 Y110.501 E.01315
G1 X183.439 Y110.28 E.01315
G1 X183.098 Y110.036 E.01315
G1 X182.773 Y109.769 E.01315
G1 X182.467 Y109.483 E.01315
G1 X182.181 Y109.177 E.01315
G1 X181.934 Y108.877 E.01216
G1 X181.67 Y108.512 E.01413
G1 X181.449 Y108.155 E.01317
G1 X181.266 Y107.813 E.01216
G1 X181.078 Y107.404 E.01413
G1 X180.93 Y107.01 E.01317
G1 X180.808 Y106.609 E.01315
G1 X180.713 Y106.201 E.01315
G1 X180.645 Y105.787 E.01315
G1 X180.604 Y105.369 E.01315
