; generated by PrusaSlicer 2.4.1+win64 on 2022-04-13 at 20:38:26 UTC
;
;
;
;
; 
; external perimeters extrusion width = 0.45mm
; perimeters extrusion width = 0.45mm
; infill extrusion width = 0.45mm
; solid infill extrusion width = 0.45mm
; top infill extrusion width = 0.40mm
; first layer extrusion width = 0.42mm
M73 P0 R12
M107
;TYPE:Custom
M83  ; extruder relative mode
M140 S85 ; set bed temp
M109 S160 ; Set extruder temp before bed level
M190 S85 ; wait for bed temp
G28 W ; home all without mesh bed level
G80 N7 ; mesh bed leveling
M109 S240 ; wait for extruder temp
M221 S100 ; Set flow to 100
G1 Y-3.0 F1000.0 ; go outside print area
G92 E0.0
G1 E8 ; Purge Bubble
G1 X60.0 E9.0 F1000.0 ; intro line
G1 X100.0 E12.5 F1000.0 ; intro line
G92 E0.0
G21 ; set units to millimeters
G90 ; use absolute coordinates
M83 ; use relative distances for extrusion
M900 K0.08 ; Filament gcode LA 1.5
M900 K45 ; Filament gcode LA 1.0
M107
;LAYER_CHANGE
M117 INDICATOR-Layer1
;Z:0.2
;HEIGHT:0.2
;BEFORE_LAYER_CHANGE
M117 DASHBOARD_LAYER_INDICATOR 1
G92 E0.0
;0.2
G1 E-1 F2100
G1 Z.2 F720
;AFTER_LAYER_CHANGE
;0.2
G1 Z.4
G1 X114.799 Y93.3 F6000
G1 Z.2 F720
M73 P1 R12
G1 E1 F2100
M204 S800
;TYPE:Skirt/Brim
;WIDTH:0.42
G1 F1200
G1 X115.648 Y92.275 E.04173
G1 X116.6 Y91.345 E.04173
G1 X117.644 Y90.519 E.04173
G1 X118.768 Y89.807 E.04173
G1 X119.961 Y89.216 E.04173
G1 X120.934 Y88.842 E.0327
G1 X122.216 Y88.483 E.04173
G1 X123.518 Y88.262 E.04141
G1 X125.154 Y88.176 E.05138
G1 X126.472 Y88.26 E.04141
G1 X127.784 Y88.483 E.04173
G1 X129.053 Y88.839 E.04132
G1 X130.291 Y89.328 E.04173
G1 X131.482 Y89.951 E.04213
G1 X132.59 Y90.688 E.04173
G1 X133.614 Y91.537 E.04173
G1 X134.536 Y92.48 E.04132
G1 X135.199 Y93.297 E.03301
G1 X135.938 Y94.407 E.04181
G1 X136.556 Y95.586 E.04173
G1 X137.047 Y96.823 E.04173
G1 X137.406 Y98.105 E.04173
G1 X137.627 Y99.407 E.04141
G1 X137.717 Y100.879 E.04624
G1 X137.659 Y102.075 E.03753
G1 X137.406 Y103.673 E.05075
G1 X137.051 Y104.943 E.04132
G1 X136.575 Y106.152 E.04076
G1 X129.569 Y120.329 E.49582
G1 X128.589 Y121.426 E.04612
G1 X127.1 Y121.863 E.04866
G1 X122.9 Y121.863 E.13169
G1 X121.483 Y121.471 E.04612
G1 X120.431 Y120.329 E.04866
G1 X113.429 Y106.162 E.4955
G1 X112.864 Y104.681 E.0497
G1 X112.534 Y103.391 E.04173
G1 X112.343 Y102.087 E.04132
G1 X112.286 Y101.036 E.03301
G1 X112.341 Y99.704 E.04181
G1 X112.594 Y98.105 E.05075
G1 X112.949 Y96.836 E.04132
G1 X113.444 Y95.586 E.04213
G1 X114.062 Y94.407 E.04173
G1 X114.766 Y93.35 E.03985
M204 S1000
G1 X115.079 Y93.557 F6000
M204 S800
G1 F1200
G1 X115.915 Y92.541 E.04125
G1 X116.837 Y91.638 E.04049
G1 X117.849 Y90.835 E.04049
G1 X118.939 Y90.143 E.04049
G1 X120.096 Y89.568 E.04049
G1 X121.069 Y89.194 E.0327
G1 X122.313 Y88.847 E.04049
G1 X123.577 Y88.634 E.04018
G1 X125.135 Y88.552 E.04891
G1 X126.413 Y88.633 E.04017
G1 X127.687 Y88.847 E.04049
G1 X128.919 Y89.191 E.0401
G1 X130.12 Y89.664 E.04049
G1 X131.276 Y90.267 E.04088
G1 X132.352 Y90.981 E.04049
G1 X133.348 Y91.804 E.04049
G1 X134.243 Y92.717 E.0401
G1 X134.906 Y93.535 E.03301
G1 X135.622 Y94.613 E.04057
G1 X136.22 Y95.757 E.04049
G1 X136.695 Y96.958 E.04049
G1 X137.042 Y98.202 E.04049
G1 X137.255 Y99.466 E.04018
G1 X137.34 Y100.879 E.04439
G1 X137.283 Y102.055 E.03692
G1 X137.042 Y103.576 E.04828
G1 X136.698 Y104.808 E.0401
G1 X136.237 Y105.985 E.03965
G1 X129.231 Y120.162 E.49582
G1 X128.301 Y121.16 E.04278
M73 P2 R12
G1 X127.1 Y121.486 E.03902
G1 X122.9 Y121.486 E.13169
G1 X121.593 Y121.095 E.04278
G1 X120.769 Y120.162 E.03901
G1 X113.767 Y105.995 E.4955
G1 X113.228 Y104.583 E.04737
G1 X112.907 Y103.332 E.04049
G1 X112.719 Y102.067 E.0401
G1 X112.663 Y101.016 E.03301
G1 X112.717 Y99.723 E.04057
M73 P2 R11
G1 X112.958 Y98.202 E.04828
G1 X113.302 Y96.97 E.0401
G1 X113.78 Y95.757 E.04088
G1 X114.378 Y94.613 E.04049
G1 X115.045 Y93.607 E.03785
M204 S1000
@Object LCD-knob.stl id:0 copy 0
;WIPE_START
G1 F4800
G1 X115.915 Y92.541 E-.57164
G1 X116.565 Y91.904 E-.37836
;WIPE_END
G1 E-.05 F2100
G1 Z.4 F720
G1 X119.959 Y95.664 F6000
G1 Z.2 F720
G1 E1 F2100
M204 S800
;TYPE:Perimeter
G1 F1200
G1 X120.742 Y95.029 E.03162
G1 X121.378 Y94.616 E.02377
G1 X122.054 Y94.272 E.02377
G1 X122.762 Y94 E.02377
G1 X123.494 Y93.804 E.02377
G1 X124.243 Y93.685 E.02377
G1 X124.951 Y93.648 E.02225
G1 X125.753 Y93.685 E.02514
G1 X126.506 Y93.804 E.02392
G1 X127.238 Y94 E.02377
G1 X127.946 Y94.272 E.02377
G1 X128.622 Y94.616 E.02377
G1 X129.258 Y95.029 E.02377
G1 X129.847 Y95.506 E.02377
G1 X130.383 Y96.042 E.02377
G1 X130.86 Y96.632 E.02377
G1 X131.273 Y97.267 E.02377
G1 X131.617 Y97.943 E.02377
G1 X131.889 Y98.651 E.02377
G1 X132.085 Y99.383 E.02377
G1 X132.204 Y100.132 E.02377
G1 X132.243 Y100.889 E.02377
G1 X132.204 Y101.646 E.02377
G1 X132.085 Y102.395 E.02377
G1 X131.889 Y103.127 E.02377
G1 X131.617 Y103.835 E.02377
G1 X131.273 Y104.511 E.02377
G1 X130.86 Y105.147 E.02377
G1 X130.383 Y105.736 E.02377
G1 X129.844 Y106.275 E.02389
G1 X129.225 Y106.77 E.02486
G1 X128.622 Y107.162 E.02256
G1 X127.946 Y107.506 E.02377
G1 X127.238 Y107.778 E.02377
G1 X126.506 Y107.974 E.02377
G1 X125.757 Y108.093 E.02377
G1 X125 Y108.132 E.02377
G1 X124.243 Y108.093 E.02377
G1 X123.542 Y107.982 E.02225
G1 X122.766 Y107.78 E.02514
G1 X122.054 Y107.506 E.02392
G1 X121.378 Y107.162 E.02377
G1 X120.742 Y106.749 E.02377
G1 X119.959 Y106.114 E.03162
G1 X119.959 Y103.156 E.09277
G1 X120.512 Y102.927 E.01876
G1 X120.175 Y101.915 E.03345
G1 X120.067 Y100.889 E.03234
G1 X120.175 Y99.863 E.03234
G1 X120.512 Y98.851 E.03345
G1 X119.959 Y98.622 E.01876
G1 X119.959 Y95.724 E.09088
M204 S1000
G1 X120.336 Y95.844 F6000
M204 S800
G1 F1200
G1 X120.964 Y95.335 E.02536
G1 X121.567 Y94.943 E.02253
G1 X122.207 Y94.617 E.02253
G1 X122.878 Y94.359 E.02253
G1 X123.573 Y94.173 E.02253
G1 X124.282 Y94.061 E.02253
G1 X124.953 Y94.026 E.02105
G1 X125.714 Y94.06 E.0239
G1 X126.427 Y94.173 E.02264
G1 X127.122 Y94.359 E.02253
G1 X127.793 Y94.617 E.02253
G1 X128.433 Y94.943 E.02253
G1 X129.036 Y95.335 E.02253
G1 X129.594 Y95.787 E.02253
G1 X130.102 Y96.295 E.02253
G1 X130.555 Y96.854 E.02253
G1 X130.946 Y97.456 E.02253
G1 X131.272 Y98.097 E.02253
G1 X131.53 Y98.767 E.02253
G1 X131.716 Y99.462 E.02253
G1 X131.828 Y100.171 E.02253
G1 X131.866 Y100.889 E.02253
G1 X131.828 Y101.607 E.02253
G1 X131.716 Y102.317 E.02253
G1 X131.53 Y103.011 E.02253
G1 X131.272 Y103.682 E.02253
G1 X130.946 Y104.322 E.02253
G1 X130.555 Y104.925 E.02253
G1 X130.102 Y105.483 E.02253
G1 X129.592 Y105.993 E.02262
G1 X129.004 Y106.464 E.02362
G1 X128.433 Y106.835 E.02135
G1 X127.793 Y107.161 E.02253
G1 X127.122 Y107.419 E.02253
G1 X126.427 Y107.605 E.02253
G1 X125.718 Y107.717 E.02253
G1 X125 Y107.755 E.02253
G1 X124.282 Y107.717 E.02253
G1 X123.619 Y107.612 E.02105
G1 X122.881 Y107.42 E.0239
G1 X122.207 Y107.161 E.02264
G1 X121.567 Y106.835 E.02253
G1 X120.964 Y106.444 E.02253
G1 X120.336 Y105.935 E.02536
G1 X120.336 Y103.408 E.07923
G1 X121.053 Y103.111 E.02434
G1 X120.84 Y102.741 E.01337
G1 X120.546 Y101.836 E.02985
G1 X120.446 Y100.889 E.02985
G1 X120.546 Y99.942 E.02985
G1 X120.84 Y99.037 E.02985
G1 X121.053 Y98.667 E.01337
G1 X120.336 Y98.37 E.02434
G1 X120.336 Y95.904 E.07735
M204 S1000
G1 X120.713 Y96.023 F6000
M204 S800
G1 F1200
G1 X121.186 Y95.64 E.0191
G1 X121.756 Y95.27 E.02129
G1 X122.361 Y94.962 E.02129
G1 X122.995 Y94.718 E.02129
G1 X123.651 Y94.543 E.02129
G1 X124.322 Y94.436 E.02129
G1 X124.954 Y94.403 E.01985
M73 P3 R11
G1 X125.676 Y94.436 E.02266
G1 X126.349 Y94.543 E.02136
G1 X127.005 Y94.718 E.02129
G1 X127.639 Y94.962 E.02129
G1 X128.244 Y95.27 E.02129
G1 X128.814 Y95.64 E.02129
G1 X129.341 Y96.067 E.02129
G1 X129.822 Y96.548 E.02129
G1 X130.249 Y97.075 E.02129
G1 X130.619 Y97.645 E.02129
G1 X130.927 Y98.25 E.02129
G1 X131.171 Y98.884 E.02129
G1 X131.346 Y99.54 E.02129
G1 X131.453 Y100.211 E.02129
G1 X131.488 Y100.889 E.02129
G1 X131.453 Y101.567 E.02129
G1 X131.346 Y102.238 E.02129
G1 X131.171 Y102.894 E.02129
G1 X130.927 Y103.528 E.02129
G1 X130.619 Y104.133 E.02129
G1 X130.249 Y104.703 E.02129
G1 X129.822 Y105.231 E.02129
G1 X129.34 Y105.712 E.02134
G1 X128.783 Y106.158 E.02238
G1 X128.244 Y106.508 E.02015
G1 X127.639 Y106.816 E.02129
G1 X127.005 Y107.06 E.02129
G1 X126.349 Y107.235 E.02129
G1 X125.678 Y107.342 E.02129
G1 X125 Y107.377 E.02129
G1 X124.322 Y107.342 E.02129
G1 X123.696 Y107.243 E.01985
G1 X122.997 Y107.06 E.02266
G1 X122.361 Y106.816 E.02136
G1 X121.756 Y106.508 E.02129
G1 X121.186 Y106.138 E.02129
G1 X120.713 Y105.755 E.0191
G1 X120.713 Y103.66 E.06569
G1 X121.595 Y103.295 E.02992
G1 X121.186 Y102.587 E.02561
G1 X120.916 Y101.757 E.02736
G1 X120.825 Y100.889 E.02736
G1 X120.916 Y100.021 E.02736
G1 X121.186 Y99.191 E.02736
G1 X121.595 Y98.484 E.02561
G1 X120.713 Y98.118 E.02992
G1 X120.713 Y96.083 E.06381
M204 S1000
G1 X121.09 Y96.203 F6000
M204 S800
;TYPE:External perimeter
G1 F1200
G1 X121.408 Y95.946 E.01284
G1 X121.945 Y95.597 E.02005
G1 X122.515 Y95.307 E.02005
G1 X123.112 Y95.078 E.02005
G1 X123.73 Y94.912 E.02005
G1 X124.361 Y94.812 E.02005
G1 X124.955 Y94.781 E.01865
G1 X125.638 Y94.812 E.02142
G1 X126.27 Y94.912 E.02008
G1 X126.888 Y95.078 E.02005
G1 X127.485 Y95.307 E.02005
G1 X128.055 Y95.597 E.02005
G1 X128.592 Y95.946 E.02005
G1 X129.089 Y96.348 E.02005
G1 X129.541 Y96.8 E.02005
G1 X129.944 Y97.297 E.02005
G1 X130.292 Y97.834 E.02005
G1 X130.582 Y98.404 E.02005
G1 X130.811 Y99.001 E.02005
G1 X130.977 Y99.619 E.02005
G1 X131.077 Y100.25 E.02005
G1 X131.111 Y100.889 E.02005
G1 X131.077 Y101.528 E.02005
G1 X130.977 Y102.16 E.02005
G1 X130.811 Y102.777 E.02005
G1 X130.582 Y103.374 E.02005
G1 X130.292 Y103.944 E.02005
G1 X129.944 Y104.481 E.02005
G1 X129.541 Y104.978 E.02005
G1 X129.088 Y105.431 E.02007
G1 X128.562 Y105.852 E.02114
G1 X128.055 Y106.181 E.01894
G1 X127.485 Y106.471 E.02005
G1 X126.888 Y106.701 E.02005
G1 X126.27 Y106.866 E.02005
G1 X125.639 Y106.966 E.02005
G1 X125 Y107 E.02005
G1 X124.361 Y106.966 E.02005
G1 X123.774 Y106.873 E.01865
G1 X123.112 Y106.701 E.02142
G1 X122.515 Y106.471 E.02008
G1 X121.945 Y106.181 E.02005
G1 X121.408 Y105.833 E.02005
G1 X121.09 Y105.575 E.01284
G1 X121.09 Y103.912 E.05215
G1 X121.596 Y103.702 E.01718
G1 X122.055 Y104.16 E.02032
G1 X122.413 Y104.45 E.01445
G1 X122.799 Y104.701 E.01445
G1 X123.21 Y104.91 E.01445
G1 X123.64 Y105.076 E.01445
G1 X124.085 Y105.195 E.01445
G1 X124.54 Y105.267 E.01445
G1 X124.999 Y105.291 E.01441
G1 X125.516 Y105.258 E.01626
G1 X125.915 Y105.195 E.01266
G1 X126.36 Y105.076 E.01445
G1 X126.79 Y104.91 E.01445
G1 X127.201 Y104.701 E.01445
G1 X127.54 Y104.481 E.01266
G1 X127.946 Y104.16 E.01626
G1 X128.27 Y103.836 E.01436
G1 X128.608 Y103.405 E.01718
G1 X128.812 Y103.09 E.01176
G1 X129.021 Y102.68 E.01445
G1 X129.186 Y102.25 E.01444
G1 X129.24 Y102.049 E.0065
G1 X128.592 Y102.049 E.0203
G1 X128.467 Y102.433 E.01265
G1 X128.071 Y103.12 E.02488
G1 X127.54 Y103.71 E.02488
G1 X126.898 Y104.176 E.02488
G1 X126.173 Y104.499 E.02488
G1 X125.397 Y104.664 E.02488
G1 X124.603 Y104.664 E.02488
G1 X123.827 Y104.499 E.02488
G1 X123.102 Y104.176 E.02488
G1 X122.46 Y103.71 E.02488
G1 X121.929 Y103.12 E.02488
G1 X121.533 Y102.433 E.02488
G1 X121.454 Y102.19 E.00802
G1 X121.287 Y101.678 E.01686
G1 X121.204 Y100.889 E.02488
G1 X121.287 Y100.1 E.02488
G1 X121.533 Y99.345 E.02488
G1 X121.929 Y98.658 E.02488
G1 X122.46 Y98.068 E.02488
G1 X123.102 Y97.602 E.02488
G1 X123.827 Y97.279 E.02488
G1 X124.603 Y97.114 E.02488
G1 X125.397 Y97.114 E.02488
G1 X126.173 Y97.279 E.02488
G1 X126.898 Y97.602 E.02488
G1 X127.54 Y98.068 E.02488
G1 X128.071 Y98.658 E.02488
G1 X128.467 Y99.345 E.02488
G1 X128.592 Y99.729 E.01265
G1 X129.24 Y99.729 E.0203
G1 X129.186 Y99.529 E.0065
G1 X129.021 Y99.099 E.01444
G1 X128.812 Y98.688 E.01445
G1 X128.608 Y98.374 E.01176
G1 X128.27 Y97.942 E.01718
G1 X127.946 Y97.619 E.01436
G1 X127.54 Y97.297 E.01626
G1 X127.201 Y97.077 E.01266
G1 X126.79 Y96.868 E.01445
G1 X126.36 Y96.703 E.01445
G1 X125.916 Y96.584 E.01441
G1 X125.403 Y96.508 E.01626
G1 X125 Y96.487 E.01266
G1 X124.54 Y96.511 E.01445
G1 X124.085 Y96.583 E.01445
G1 X123.64 Y96.703 E.01445
G1 X123.227 Y96.861 E.01387
G1 X122.799 Y97.077 E.01503
G1 X122.413 Y97.328 E.01443
G1 X122.055 Y97.618 E.01445
G1 X121.596 Y98.076 E.02032
G1 X121.09 Y97.866 E.01718
G1 X121.09 Y96.263 E.05027
M204 S1000
G1 X120.884 Y95.861 F6000
;WIPE_START
G1 F4800
G1 X121.408 Y95.946 E-.18693
G1 X121.945 Y95.597 E-.26583
G1 X122.515 Y95.307 E-.26584
G1 X123.034 Y95.107 E-.2314
;WIPE_END
G1 E-.05 F2100
G1 Z.4 F720
G1 X125.559 Y109.444 F6000
G1 Z.2 F720
G1 E1 F2100
M204 S800
;TYPE:Perimeter
G1 F1200
G1 X125.559 Y117.568 E.2547
G1 X124.441 Y117.568 E.03504
G1 X124.441 Y109.444 E.2547
G1 X122.398 Y108.897 E.06632
G1 X121.575 Y108.581 E.02763
G1 X120.79 Y108.181 E.02763
G1 X120.051 Y107.701 E.02763
G1 X119.366 Y107.146 E.02764
G1 X118.743 Y106.523 E.02763
G1 X118.188 Y105.838 E.02763
M73 P4 R11
G1 X117.708 Y105.099 E.02763
G1 X117.308 Y104.314 E.02763
G1 X116.992 Y103.491 E.02763
G1 X116.764 Y102.64 E.02763
G1 X116.626 Y101.769 E.02763
G1 X116.58 Y100.889 E.02763
G1 X116.626 Y100.009 E.02763
G1 X116.764 Y99.138 E.02763
G1 X116.992 Y98.287 E.02763
G1 X117.308 Y97.464 E.02763
G1 X117.708 Y96.679 E.02763
G1 X118.188 Y95.94 E.02763
G1 X118.743 Y95.255 E.02763
G1 X119.366 Y94.632 E.02763
G1 X120.051 Y94.077 E.02763
G1 X120.79 Y93.597 E.02763
G1 X121.575 Y93.197 E.02763
G1 X122.398 Y92.881 E.02763
G1 X123.249 Y92.653 E.02763
G1 X124.12 Y92.515 E.02763
G1 X125 Y92.469 E.02763
G1 X125.88 Y92.515 E.02763
G1 X126.751 Y92.653 E.02763
G1 X127.602 Y92.881 E.02763
G1 X128.425 Y93.197 E.02763
G1 X129.21 Y93.597 E.02763
G1 X129.949 Y94.077 E.02763
G1 X130.634 Y94.632 E.02763
G1 X131.257 Y95.255 E.02763
G1 X131.812 Y95.94 E.02763
G1 X132.292 Y96.679 E.02763
G1 X132.692 Y97.464 E.02763
G1 X133.008 Y98.287 E.02763
G1 X133.236 Y99.138 E.02763
G1 X133.374 Y100.009 E.02763
G1 X133.42 Y100.889 E.02763
G1 X133.374 Y101.769 E.02763
G1 X133.236 Y102.64 E.02763
G1 X133.008 Y103.491 E.02763
G1 X132.692 Y104.314 E.02763
G1 X132.292 Y105.099 E.02763
G1 X131.812 Y105.838 E.02763
G1 X131.257 Y106.523 E.02764
G1 X130.634 Y107.146 E.02763
G1 X129.949 Y107.701 E.02763
G1 X129.21 Y108.181 E.02763
G1 X128.425 Y108.581 E.02763
G1 X127.602 Y108.897 E.02763
G1 X125.617 Y109.429 E.06444
M204 S1000
G1 X125.936 Y109.734 F6000
M204 S800
G1 F1200
G1 X125.936 Y117.945 E.25745
G1 X124.064 Y117.945 E.05869
G1 X124.064 Y109.734 E.25745
G1 X122.281 Y109.256 E.05787
G1 X121.422 Y108.926 E.02887
G1 X120.601 Y108.508 E.02887
G1 X119.829 Y108.007 E.02887
G1 X119.113 Y107.427 E.02887
G1 X118.462 Y106.776 E.02887
G1 X117.883 Y106.06 E.02887
G1 X117.381 Y105.288 E.02887
G1 X116.963 Y104.467 E.02887
G1 X116.633 Y103.608 E.02887
G1 X116.395 Y102.718 E.02887
G1 X116.251 Y101.809 E.02887
G1 X116.202 Y100.889 E.02887
G1 X116.251 Y99.97 E.02887
G1 X116.395 Y99.06 E.02887
G1 X116.633 Y98.171 E.02887
G1 X116.963 Y97.311 E.02887
G1 X117.381 Y96.49 E.02887
G1 X117.883 Y95.718 E.02887
G1 X118.462 Y95.002 E.02887
G1 X119.113 Y94.351 E.02887
G1 X119.829 Y93.772 E.02887
G1 X120.601 Y93.27 E.02887
G1 X121.422 Y92.852 E.02887
G1 X122.281 Y92.522 E.02887
G1 X123.171 Y92.284 E.02887
G1 X124.08 Y92.14 E.02887
G1 X125 Y92.092 E.02887
G1 X125.92 Y92.14 E.02887
G1 X126.829 Y92.284 E.02887
G1 X127.719 Y92.522 E.02887
G1 X128.578 Y92.852 E.02887
G1 X129.399 Y93.27 E.02887
G1 X130.171 Y93.772 E.02887
G1 X130.887 Y94.351 E.02887
G1 X131.538 Y95.002 E.02887
G1 X132.117 Y95.718 E.02887
G1 X132.619 Y96.49 E.02887
G1 X133.037 Y97.311 E.02887
G1 X133.367 Y98.171 E.02887
G1 X133.605 Y99.06 E.02887
G1 X133.749 Y99.97 E.02887
G1 X133.798 Y100.889 E.02887
G1 X133.749 Y101.809 E.02887
G1 X133.605 Y102.718 E.02887
G1 X133.367 Y103.608 E.02887
G1 X133.037 Y104.467 E.02887
G1 X132.619 Y105.288 E.02887
G1 X132.117 Y106.06 E.02887
G1 X131.538 Y106.776 E.02887
G1 X130.887 Y107.427 E.02887
G1 X130.171 Y108.006 E.02887
G1 X129.399 Y108.508 E.02887
G1 X128.578 Y108.926 E.02887
G1 X127.719 Y109.256 E.02887
G1 X125.994 Y109.718 E.05599
M204 S1000
G1 X126.313 Y110.023 F6000
M204 S800
G1 F1200
G1 X126.313 Y118.322 E.26021
G1 X123.687 Y118.322 E.08233
