; generated by PrusaSlicer 2.9.2 on 2025-09-11 at 15:42:17 UTC


;
;

;
;
; 

; external perimeters extrusion width = 0.45mm
; perimeters extrusion width = 0.45mm
; infill extrusion width = 0.45mm
; solid infill extrusion width = 0.45mm
; top infill extrusion width = 0.45mm
; first layer extrusion width = 0.42mm

M73 P0 R10
M201 X9000 Y9000 Z500 E10000 ; sets maximum accelerations, mm/sec^2
M203 X500 Y500 Z12 E120 ; sets maximum feedrates, mm / sec
M204 S2000 T1500 ; sets acceleration (S) and retract acceleration (R), mm/sec^2
M205 X10.00 Y10.00 Z0.20 E4.50 ; sets the jerk limits, mm/sec
M205 S0 T0 ; sets the minimum extruding and travel feed rate, mm/sec

; printing object nintendo_switch_rcm_jig.stl id:0 copy 0
; stop printing object nintendo_switch_rcm_jig.stl id:0 copy 0

;TYPE:Custom
M83  ; extruder relative mode
M140 S85 ; set bed temp
M109 S160 ; Set extruder temp before bed level
M190 S85 ; wait for bed temp

G28 W ; home all without mesh bed level
G80 N7 ; mesh bed leveling

M109 S250 ; wait for extruder temp

M221 S100 ; Set flow to 100

G1 Y-3.0 F1000.0 ; go outside print area
G92 E0.0
G1 E8 ; Purge Bubble
G1 X60.0 E9.0 F1000.0 ; intro line
G1 X100.0 E12.5 F1000.0 ; intro line
M73 P0 R9
G92 E0.0
G21 ; set units to millimeters
G90 ; use absolute coordinates
M83 ; use relative distances for extrusion

M900 K0.08 ; Filament gcode LA 1.5
M900 K45 ; Filament gcode LA 1.0




M107
;LAYER_CHANGE
;Z:0.2
;HEIGHT:0.2
G1 E-1 F2100
M73 P1 R9
G1 Z.4 F720
G1 X112.827 Y99.087 F6000
G1 Z.2 F720
G1 E1 F2100
M204 S800
;TYPE:Skirt/Brim
;WIDTH:0.42
G1 F1200
G1 X113.883 Y98.14 E.04447
G1 X115 Y97.884 E.03593
G1 X135 Y97.884 E.62709
G1 X136.363 Y98.277 E.04448
G1 X137.31 Y99.333 E.04447
G1 X137.566 Y100.45 E.03593
G1 X137.566 Y109.55 E.28532
G1 X137.173 Y110.913 E.04448
G1 X136.117 Y111.86 E.04447
G1 X135 Y112.116 E.03593
G1 X115 Y112.116 E.62709
G1 X113.637 Y111.723 E.04448
G1 X112.69 Y110.667 E.04447
G1 X112.434 Y109.55 E.03593
G1 X112.434 Y100.45 E.28532
G1 X112.81 Y99.144 E.04261
M204 S1000
G1 X113.184 Y99.261 F6000
M204 S800
G1 F1200
G1 X113.202 Y99.202 E.00193
G1 X114.235 Y98.399 E.04102
G1 X115 Y98.261 E.02437
G1 X135 Y98.261 E.62709
G1 X136.248 Y98.652 E.04101
M73 P2 R9
G1 X137.051 Y99.685 E.04102
G1 X137.189 Y100.45 E.02437
G1 X137.189 Y109.55 E.28532
G1 X136.798 Y110.798 E.04101
G1 X135.765 Y111.601 E.04102
G1 X135 Y111.739 E.02437
G1 X115 Y111.739 E.62709
G1 X113.752 Y111.348 E.04101
G1 X112.949 Y110.315 E.04102
G1 X112.811 Y109.55 E.02437
G1 X112.811 Y100.45 E.28532
G1 X113.166 Y99.319 E.03717
M204 S1000
;WIPE_START
G1 F4800
G1 X113.184 Y99.261 E-.02524
G1 X113.202 Y99.202 E-.02564
G1 X114.235 Y98.399 E-.5438
G1 X115 Y98.261 E-.32309
G1 X115.198 Y98.261 E-.08223
;WIPE_END
G1 Z.4 F720
; printing object nintendo_switch_rcm_jig.stl id:0 copy 0
G1 X116.164 Y101.614 F6000
G1 Z.2 F720
G1 E1 F2100
M204 S800
;TYPE:Perimeter
;WIDTH:0.419999
G1 F1200
G1 X132.374 Y101.608 E.50825
G1 X132.343 Y102.323 E.02244
G1 X132.413 Y102.723 E.01273
G1 X132.537 Y102.938 E.00778
G1 X132.8 Y103.173 E.01106
G1 X133.279 Y103.307 E.0156
G1 X133.836 Y103.31 E.01746
G1 X133.836 Y106.69 E.10598
G1 X133.28 Y106.693 E.01743
G1 X132.801 Y106.827 E.0156
G1 X132.636 Y106.953 E.00651
G1 X132.416 Y107.271 E.01212
G1 X132.343 Y107.655 E.01226
G1 X132.368 Y108.392 E.02312
G1 X116.164 Y108.386 E.50806
G1 X116.164 Y101.674 E.21045
M204 S1000
G1 X115.787 Y101.237 F6000
M204 S800
G1 F1200
G1 X132.815 Y101.224 E.5339
G1 X132.763 Y101.352 E.00433
M73 P3 R9
G1 X132.72 Y102.339 E.03098
G1 X132.762 Y102.579 E.00764
G1 X132.836 Y102.709 E.00469
G1 X132.994 Y102.849 E.00662
G1 X133.281 Y102.93 E.00935
G1 X134.213 Y102.935 E.02922
G1 X134.213 Y107.065 E.12949
G1 X133.282 Y107.07 E.02919
G1 X132.995 Y107.151 E.00935
G1 X132.895 Y107.226 E.00392
G1 X132.764 Y107.417 E.00726
G1 X132.72 Y107.648 E.00737
G1 X132.764 Y108.662 E.03182
G1 X132.812 Y108.776 E.00388
G1 X115.787 Y108.763 E.53381
G1 X115.787 Y101.297 E.23409
M204 S1000
G1 X115.41 Y100.86 F6000
M204 S800
;TYPE:External perimeter
G1 F1200
G1 X132 Y100.86 E.52017
G1 X133.326 Y100.818 E.0416
;WIDTH:0.428645
G1 X134.013 Y100.778 E.02207
G1 X134.572 Y100.839 E.01804
G1 X134.562 Y100.941 E.00329
G1 X134.185 Y101.127 E.01348
G1 X134.02 Y101.16 E.0054
G1 X133.334 Y101.19 E.02202
;WIDTH:0.41872
G1 X133.196 Y101.243 E.00462
;WIDTH:0.419999
G1 X133.14 Y101.368 E.00429
G1 X133.096 Y102.356 E.03101
G1 X133.135 Y102.479 E.00405
G1 X133.284 Y102.553 E.00522
G1 X134.43 Y102.559 E.03593
G1 X134.59 Y102.72 E.00712
G1 X134.59 Y102.834 E.00357
G1 X134.59 Y107.28 E.1394
G1 X134.43 Y107.441 E.00712
G1 X133.284 Y107.447 E.03593
G1 X133.188 Y107.474 E.00313
G1 X133.111 Y107.563 E.00369
G1 X133.105 Y108.033 E.01474
G1 X133.14 Y108.637 E.01897
G1 X133.189 Y108.749 E.00383
;WIDTH:0.418683
G1 X133.315 Y108.809 E.00436
;WIDTH:0.437731
G1 X133.762 Y108.808 E.01467
G1 X134.137 Y108.858 E.01242
;WIDTH:0.428445
G1 X134.576 Y109.056 E.01544
G1 X134.582 Y109.169 E.00363
G1 X133.981 Y109.223 E.01934
G1 X133.288 Y109.179 E.02226
;WIDTH:0.419999
G1 X132.003 Y109.14 E.04031
G1 X115.41 Y109.14 E.52026
G1 X115.41 Y100.92 E.25773
M204 S1000
;WIPE_START
G1 F4800
G1 X115.41 Y100.86 E-.02494
G1 X117.756 Y100.86 E-.97506
;WIPE_END
G1 Z.4 F720
G1 X133.723 Y103.96 F6000
G1 Z.2 F720
M73 P4 R9
G1 E1 F2100
M204 S800
;TYPE:Solid infill
;WIDTH:0.423464
G1 F1200
G1 X133.142 Y103.379 E.026
M204 S1000
;WIPE_START
G1 F4800
G1 X133.723 Y103.96 E-.3415
;WIPE_END
G1 E-.6585 F2100
G1 Z.4 F720
G1 X132.264 Y102.501 F6000
G1 Z.2 F720
G1 E1 F2100
M204 S800
G1 F1200
G1 X131.657 Y101.894 E.02716
G1 X131.119 Y101.894 E.01702
G1 X133.553 Y104.328 E.10892
G1 X133.553 Y104.867 E.01706
G1 X130.581 Y101.894 E.13302
G1 X130.043 Y101.895 E.01702
G1 X133.553 Y105.405 E.15707
G1 X133.553 Y105.943 E.01702
G1 X129.505 Y101.895 E.18114
G1 X128.967 Y101.895 E.01702
G1 X133.481 Y106.409 E.202
G1 X133.265 Y106.41 E.00683
G1 X133.014 Y106.481 E.00825
G1 X128.429 Y101.895 E.2052
G1 X127.89 Y101.895 E.01706
G1 X132.612 Y106.617 E.21131
G1 X132.442 Y106.746 E.00675
G1 X132.329 Y106.872 E.00536
G1 X127.352 Y101.895 E.22272
G1 X126.814 Y101.895 E.01702
G1 X132.142 Y107.222 E.2384
G1 X132.06 Y107.679 E.01469
G1 X126.276 Y101.895 E.25883
G1 X125.738 Y101.895 E.01702
G1 X131.949 Y108.106 E.27794
G1 X131.41 Y108.106 E.01706
G1 X125.2 Y101.895 E.27791
G1 X124.662 Y101.895 E.01702
G1 X130.872 Y108.105 E.27789
G1 X130.334 Y108.105 E.01702
G1 X124.124 Y101.896 E.27787
G1 X123.586 Y101.896 E.01702
G1 X129.796 Y108.105 E.27787
G1 X129.257 Y108.105 E.01706
M73 P5 R9
G1 X123.048 Y101.896 E.27785
G1 X122.51 Y101.896 E.01702
G1 X128.719 Y108.105 E.27785
G1 X128.181 Y108.105 E.01702
G1 X121.972 Y101.896 E.27785
G1 X121.434 Y101.896 E.01702
G1 X127.642 Y108.105 E.27782
G1 X127.104 Y108.105 E.01702
G1 X120.895 Y101.896 E.27785
G1 X120.357 Y101.896 E.01702
G1 X126.566 Y108.105 E.27785
G1 X126.028 Y108.105 E.01702
G1 X119.819 Y101.896 E.27785
G1 X119.281 Y101.896 E.01702
G1 X125.489 Y108.105 E.27782
G1 X124.951 Y108.104 E.01702
G1 X118.743 Y101.897 E.27778
G1 X118.205 Y101.897 E.01702
G1 X124.413 Y108.104 E.27778
G1 X123.875 Y108.104 E.01702
G1 X117.667 Y101.897 E.27778
G1 X117.129 Y101.897 E.01702
G1 X123.336 Y108.104 E.27776
G1 X122.798 Y108.104 E.01702
G1 X116.591 Y101.897 E.27776
G1 X116.447 Y101.897 E.00456
M73 P6 R9
G1 X116.447 Y102.291 E.01247
G1 X122.26 Y108.104 E.26013
G1 X121.722 Y108.104 E.01702
G1 X116.447 Y102.829 E.23605
G1 X116.447 Y103.368 E.01706
G1 X121.183 Y108.104 E.21193
G1 X120.645 Y108.104 E.01702
G1 X116.447 Y103.906 E.18786
G1 X116.447 Y104.444 E.01702
G1 X120.107 Y108.104 E.16378
G1 X119.569 Y108.104 E.01702
G1 X116.447 Y104.982 E.13971
G1 X116.447 Y105.52 E.01702
G1 X119.03 Y108.103 E.11559
G1 X118.492 Y108.103 E.01702
G1 X116.447 Y106.058 E.09151
G1 X116.447 Y106.597 E.01706
G1 X117.954 Y108.103 E.06741
G1 X117.415 Y108.103 E.01706
G1 X116.447 Y107.135 E.04332
G1 X116.447 Y107.673 E.01702
G1 X117.047 Y108.273 E.02685
M204 S1000
;LAYER_CHANGE
;Z:0.3
;HEIGHT:0.1
;BEFORE_LAYER_CHANGE
G92 E0.0
;0.3


;WIPE_START
G1 F4800
G1 X116.447 Y107.673 E-.35267
G1 X116.447 Y107.135 E-.22361
G1 X117.168 Y107.856 E-.42372
;WIPE_END
G1 Z.3 F720
;AFTER_LAYER_CHANGE
;0.3
M140 S90 ; set bed temperature
; stop printing object nintendo_switch_rcm_jig.stl id:0 copy 0
G1 Z.5
G1 X117.047 Y112.116 F6000
G1 Z.3 F720
G1 E1 F2100
;TYPE:Skirt/Brim
;WIDTH:0.42
G1 F2418
G1 X115 Y112.116 E.03392
G1 X113.637 Y111.723 E.0235
G1 X112.69 Y110.667 E.0235
G1 X112.434 Y109.55 E.01899
G1 X112.434 Y100.45 E.15078
G1 X112.827 Y99.087 E.0235
G1 X113.883 Y98.14 E.0235
G1 X115 Y97.884 E.01899
G1 X135 Y97.884 E.33139
G1 X136.363 Y98.277 E.0235
G1 X137.31 Y99.333 E.0235
G1 X137.566 Y100.45 E.01899
G1 X137.566 Y109.55 E.15078
G1 X137.173 Y110.913 E.0235
G1 X136.117 Y111.86 E.0235
G1 X135 Y112.116 E.01899
G1 X117.107 Y112.116 E.29648
G1 X117.107 Y111.739 F6000
G1 F2418
G1 X115 Y111.739 E.03491
G1 X113.752 Y111.348 E.02167
G1 X112.949 Y110.315 E.02168
G1 X112.811 Y109.55 E.01288
G1 X112.811 Y100.45 E.15078
G1 X113.202 Y99.202 E.02167
G1 X114.235 Y98.399 E.02168
G1 X115 Y98.261 E.01288
G1 X135 Y98.261 E.33139
M73 P7 R9
G1 X136.248 Y98.652 E.02167
G1 X137.051 Y99.685 E.02168
G1 X137.189 Y100.45 E.01288
G1 X137.189 Y109.55 E.15078
G1 X136.798 Y110.798 E.02167
G1 X135.765 Y111.601 E.02168
G1 X135 Y111.739 E.01288
G1 X117.167 Y111.739 E.29548
;WIPE_START
G1 F4800
G1 X117.107 Y111.739 E-.02494
G1 X115 Y111.739 E-.87572
G1 X114.772 Y111.667 E-.09934
;WIPE_END
G1 Z.5 F720
; printing object nintendo_switch_rcm_jig.stl id:0 copy 0
G1 X116.132 Y108.443 F6000
G1 Z.3 F720
G1 E1 F2100
M204 S600
;TYPE:Perimeter
;WIDTH:0.449999
G1 F2418
G1 X116.132 Y101.532 E.12313
G1 X132.418 Y101.539 E.29016
G1 X132.418 Y102.161 E.01108
G1 X132.511 Y102.598 E.00796
G1 X132.745 Y102.932 E.00727
G1 X133.111 Y103.163 E.00771
G1 X133.489 Y103.232 E.00685
G1 X133.918 Y103.232 E.00764
G1 X133.918 Y106.768 E.063
G1 X133.489 Y106.768 E.00764
G1 X133.111 Y106.837 E.00685
G1 X132.745 Y107.068 E.00771
G1 X132.511 Y107.402 E.00727
G1 X132.418 Y107.839 E.00796
G1 X132.425 Y108.468 E.01121
G1 X116.167 Y108.468 E.28966
M204 S1000
G1 X115.704 Y108.864 F6000
M204 S600
G1 F2418
G1 X115.7 Y101.104 E.13826
G1 X133.212 Y101.104 E.312
G1 X132.846 Y101.539 E.01013
G1 X132.846 Y102.161 E.01108
G1 X132.902 Y102.423 E.00477
G1 X133.043 Y102.623 E.00436
G1 X133.262 Y102.762 E.00462
G1 X133.489 Y102.804 E.00411
G1 X134.317 Y102.804 E.01475
G1 X134.346 Y102.833 E.00073
G1 X134.346 Y106.339 E.06246
G1 X134.329 Y107.196 E.01527
G1 X133.489 Y107.196 E.01497
G1 X133.262 Y107.238 E.00411
G1 X133.043 Y107.377 E.00462
G1 X132.902 Y107.577 E.00436
G1 X132.846 Y107.839 E.00477
G1 X132.846 Y108.461 E.01108
G1 X133.282 Y108.896 E.01097
G1 X115.74 Y108.896 E.31254
M204 S1000
G1 X115.225 Y109.325 F6000
M204 S600
;TYPE:External perimeter
G1 F2400
G1 X115.225 Y109.088 E.00422
G1 X115.275 Y108.882 E.00378
G1 X115.275 Y101.118 E.13833
G1 X115.251 Y101.02 E.0018
G1 X115.225 Y100.675 E.00616
G1 X132.411 Y100.675 E.3062
;WIDTH:0.48691
G1 X132.77 Y100.693 E.00696
;WIDTH:0.52382
G1 X133.13 Y100.712 E.00753
;WIDTH:0.56073
G1 X133.489 Y100.73 E.00806
G1 X134.713 Y100.73 E.02744
G1 X134.708 Y100.964 E.00525
G1 X134.634 Y101.049 E.00253
G1 X133.798 Y101.261 E.01934
;WIDTH:0.564816
G1 X133.442 Y101.272 E.00805
G1 X133.387 Y101.361 E.00236
;WIDTH:0.526544
G1 X133.331 Y101.45 E.00221
;WIDTH:0.488272
G1 X133.275 Y101.539 E.00204
;WIDTH:0.449999
G1 X133.275 Y102.161 E.01108
G1 X133.34 Y102.315 E.00298
G1 X133.489 Y102.375 E.00286
G1 X134.507 Y102.375 E.01814
G1 X134.775 Y102.643 E.00675
G1 X134.775 Y102.833 E.00339
G1 X134.775 Y107.357 E.0806
G1 X134.507 Y107.625 E.00675
G1 X133.489 Y107.625 E.01814
G1 X133.34 Y107.685 E.00286
G1 X133.275 Y107.839 E.00298
G1 X133.275 Y108.461 E.01108
;WIDTH:0.48691
G1 X133.346 Y108.551 E.00222
M73 P8 R9
;WIDTH:0.52382
G1 X133.418 Y108.64 E.00239
;WIDTH:0.56073
G1 X133.489 Y108.73 E.00257
G1 X133.765 Y108.73 E.00619
G1 X134.556 Y108.928 E.01828
G1 X134.69 Y109.004 E.00345
G1 X134.718 Y109.27 E.006
G1 X133.489 Y109.27 E.02755
G1 X133.13 Y109.288 E.00806
;WIDTH:0.52382
G1 X132.77 Y109.307 E.00753
;WIDTH:0.48691
G1 X132.411 Y109.325 E.00696
;WIDTH:0.449999
G1 X115.285 Y109.325 E.30513
M204 S1000
;WIPE_START
G1 F4800
G1 X115.225 Y109.325 E-.02494
G1 X115.225 Y109.088 E-.0985
G1 X115.275 Y108.882 E-.0881
G1 X115.275 Y106.985 E-.78846
;WIPE_END
G1 Z.5 F720
G1 X116.57 Y101.888 F6000
G1 Z.3 F720
G1 E1 F2100
M204 S2000
;TYPE:Solid infill
;WIDTH:0.553972
G1 F2418
G1 X116.523 Y101.841 E.00147
G1 X116.458 Y101.858 E.00149
G1 X116.441 Y101.923 E.00149
G1 X116.488 Y101.97 E.00147
G1 X116.553 Y101.953 E.00149
;WIDTH:0.449999
G1 X116.453 Y102.637 E.01232
G1 X117.237 Y101.853 E.01975
G1 X117.843 Y101.853 E.0108
G1 X116.453 Y103.243 E.03502
G1 X116.453 Y103.849 E.0108
G1 X118.449 Y101.853 E.05029
G1 X119.055 Y101.853 E.0108
G1 X116.453 Y104.455 E.06556
G1 X116.453 Y105.061 E.0108
G1 X119.661 Y101.853 E.08083
G1 X120.267 Y101.853 E.0108
G1 X116.453 Y105.667 E.0961
G1 X116.453 Y106.273 E.0108
G1 X120.873 Y101.853 E.11137
G1 X121.479 Y101.853 E.0108
G1 X116.453 Y106.879 E.12664
G1 X116.453 Y107.485 E.0108
G1 X122.085 Y101.853 E.14191
G1 X122.691 Y101.853 E.0108
G1 X116.453 Y108.091 E.15718
G1 X116.376 Y108.197 E.00233
;WIDTH:0.40573
G1 X116.298 Y108.302 E.00209
;WIDTH:0.36146
G1 X116.47 Y108.31 E.00243
;WIDTH:0.449999
G1 X117.004 Y108.147 E.00995
G1 X123.297 Y101.853 E.15857
G1 X123.904 Y101.853 E.01081
G1 X117.61 Y108.147 E.15859
G1 X118.217 Y108.147 E.01081
G1 X124.51 Y101.853 E.15857
G1 X125.116 Y101.853 E.0108
G1 X118.823 Y108.147 E.15857
G1 X119.429 Y108.147 E.0108
G1 X125.722 Y101.853 E.15857
G1 X126.328 Y101.853 E.0108
G1 X120.035 Y108.147 E.15857
G1 X120.641 Y108.147 E.0108
G1 X126.934 Y101.853 E.15857
G1 X127.54 Y101.853 E.0108
G1 X121.247 Y108.147 E.15857
G1 X121.853 Y108.147 E.0108
G1 X128.146 Y101.853 E.15857
G1 X128.752 Y101.853 E.0108
G1 X122.459 Y108.147 E.15857
G1 X123.065 Y108.147 E.0108
G1 X129.358 Y101.853 E.15857
G1 X129.964 Y101.853 E.0108
G1 X123.671 Y108.147 E.15857
G1 X124.277 Y108.147 E.0108
G1 X130.57 Y101.853 E.15857
G1 X131.176 Y101.853 E.0108
G1 X124.883 Y108.147 E.15857
G1 X125.489 Y108.147 E.0108
M73 P9 R9
G1 X131.782 Y101.853 E.15857
G1 X132.226 Y101.754 E.0081
;WIDTH:0.36146
G1 X132.155 Y101.735 E.00104
G1 X132.174 Y101.806 E.00104
G1 X132.215 Y101.795 E.0006
;WIDTH:0.40573
G1 X132.156 Y101.97 E.00295
;WIDTH:0.449999
G1 X132.097 Y102.145 E.00329
G1 X126.095 Y108.147 E.15123
G1 X126.701 Y108.147 E.0108
G1 X132.198 Y102.649 E.13852
G1 X132.412 Y103.042 E.00797
G1 X127.307 Y108.147 E.12863
G1 X127.913 Y108.147 E.0108
G1 X132.733 Y103.327 E.12145
G1 X133.169 Y103.497 E.00834
G1 X128.519 Y108.147 E.11716
G1 X129.125 Y108.147 E.0108
G1 X133.597 Y103.675 E.11268
G1 X133.676 Y103.563 E.00244
;WIDTH:0.40573
G1 X133.755 Y103.452 E.00218
;WIDTH:0.36146
G1 X133.714 Y103.463 E.0006
G1 X133.695 Y103.391 E.00105
G1 X133.766 Y103.411 E.00104
M204 S1000
G1 X133.597 Y104.281 F6000
M204 S2000
;WIDTH:0.449999
G1 F2418
G1 X129.731 Y108.147 E.09741
G1 X130.337 Y108.147 E.0108
G1 X133.597 Y104.887 E.08214
G1 X133.597 Y105.494 E.01081
G1 X130.944 Y108.147 E.06685
M204 S1000
;WIPE_START
G1 F4800
G1 X132.645 Y106.445 E-1
;WIPE_END
G1 Z.5 F720
G1 X132.34 Y107.235 F6000
G1 Z.3 F720
G1 E1 F2100
M204 S2000
;WIDTH:0.36146
G1 F2418
G1 X132.505 Y107.027 E.00375
G1 X132.895 Y106.687 E.00731
;WIDTH:0.40573
G1 X133.047 Y106.593 E.00286
;WIDTH:0.449999
G1 X133.198 Y106.498 E.00318
G1 X133.597 Y106.1 E.01004
M204 S1000
;WIPE_START
G1 F4800
G1 X133.198 Y106.498 E-.23423
G1 X133.047 Y106.593 E-.07415
G1 X132.895 Y106.687 E-.07428
G1 X132.505 Y107.027 E-.21504
G1 X132.34 Y107.235 E-.11035
;WIPE_END
G1 E-.29195 F2100
G1 Z.5 F720
G1 X132.158 Y107.538 F6000
G1 Z.3 F720
G1 E1 F2100
M204 S2000
G1 F2418
G1 X131.55 Y108.147 E.01533
M204 S1000
;LAYER_CHANGE
;Z:0.4
;HEIGHT:0.1
;BEFORE_LAYER_CHANGE
G92 E0.0
;0.4


;WIPE_START
G1 F4800
G1 X132.158 Y107.538 E-.35767
;WIPE_END
G1 E-.64233 F2100
G1 Z.4 F720
;AFTER_LAYER_CHANGE
;0.4
; stop printing object nintendo_switch_rcm_jig.stl id:0 copy 0
G1 Z.6
