; generated by PrusaSlicer 2.2.0+ on 2020-04-20 at 15:31:48 UTC

; 

; external perimeters extrusion width = 0.45mm
; perimeters extrusion width = 0.45mm
; infill extrusion width = 0.45mm
; solid infill extrusion width = 0.45mm
; top infill extrusion width = 0.40mm
; first layer extrusion width = 0.42mm

M73 P0 R43
M201 X9000 Y9000 Z500 E10000 ; sets maximum accelerations, mm/sec^2
M203 X500 Y500 Z12 E120 ; sets maximum feedrates, mm/sec
M204 P2000 R1500 T2000 ; sets acceleration (P, T) and retract acceleration (R), mm/sec^2
M205 X10.00 Y10.00 Z0.20 E2.50 ; sets the jerk limits, mm/sec
M205 S0 T0 ; sets the minimum extruding and travel feed rate, mm/sec
M107
M83  ; extruder relative mode
M140 S75 ; set bed temp
M109 S160 ; Set extruder temp before bed level
M190 S75 ; wait for bed temp

G28 W ; home all without mesh bed level
G80 N7 ; mesh bed leveling

M109 S240 ; wait for extruder temp

M221 S100 ; Set flow to 100

G1 Y-3.0 F1000.0 ; go outside print area
G92 E0.0
G1 E8 ; Purge Bubble
M73 P0 R43
G1 X60.0 E9.0 F1000.0 ; intro line
G1 X100.0 E12.5 F1000.0 ; intro line
G92 E0.0
G21 ; set units to millimeters
G90 ; use absolute coordinates
M83 ; use relative distances for extrusion
M900 K45; Filament gcode
;BEFORE_LAYER_CHANGE
G92 E0.0
;0.2


G1 E-0.80000 F2100.00000
G1 Z0.600 F10800.000
;AFTER_LAYER_CHANGE
;0.2
G1 X84.765 Y96.121
G1 Z0.200
G1 E0.80000 F2100.00000
M204 S1000
G1 F1200.000
G1 X86.526 Y94.700 E0.06527
G1 X87.734 Y93.990 E0.04044
G1 X89.016 Y93.422 E0.04044
G1 X91.182 Y92.821 E0.06483
G1 X93.383 Y92.623 E0.06374
G1 X160.468 Y92.623 E1.93513
G1 X161.573 Y92.787 E0.03223
G1 X162.992 Y93.143 E0.04220
G1 X165.127 Y93.929 E0.06563
G1 X166.932 Y94.888 E0.05894
G1 X167.476 Y95.340 E0.02042
G1 X168.064 Y96.014 E0.02581
G1 X168.460 Y96.665 E0.02197
G1 X168.814 Y97.585 E0.02845
G1 X168.950 Y98.288 E0.02065
G1 X168.970 Y99.238 E0.02741
G1 X168.859 Y99.959 E0.02102
G1 X168.550 Y100.877 E0.02796
G1 X168.213 Y101.495 E0.02030
G1 X167.664 Y102.199 E0.02576
G1 X167.072 Y102.736 E0.02304
G1 X166.204 Y103.268 E0.02938
G1 X141.064 Y115.131 E0.80188
G1 X139.971 Y115.493 E0.03320
G1 X139.087 Y115.590 E0.02565
G1 X94.074 Y117.358 E1.29945
G1 X91.889 Y117.286 E0.06306
G1 X89.834 Y116.855 E0.06056
G1 X88.342 Y116.301 E0.04592
G1 X86.475 Y115.267 E0.06155
G1 X84.815 Y113.926 E0.06155
G1 X83.740 Y112.752 E0.04592
G1 X82.552 Y110.980 E0.06155
G1 X81.686 Y109.029 E0.06155
G1 X81.267 Y107.501 E0.04570
G1 X81.061 Y106.103 E0.04077
G1 X81.016 Y104.702 E0.04044
G1 X81.276 Y102.454 E0.06527
G1 X81.943 Y100.292 E0.06527
G1 X82.548 Y99.027 E0.04044
G1 X83.293 Y97.840 E0.04044
G1 X84.726 Y96.167 E0.06354
G1 F8640.000
G1 X86.526 Y94.700 E-0.53610
G1 X87.362 Y94.209 E-0.22390
G1 E-0.04000 F2100.00000
G1 Z0.800 F10800.000
G1 X97.696 Y108.993
G1 Z0.200
G1 E0.80000 F2100.00000
G1 F1200.000
G1 X97.679 Y109.510 E0.01491
G1 X97.715 Y111.979 E0.07125
G1 X97.678 Y112.382 E0.01165
G1 X97.558 Y112.745 E0.01104
G1 X97.360 Y113.073 E0.01104
G1 X97.235 Y113.218 E0.00553
G1 X96.941 Y113.462 E0.01102
G1 X96.590 Y113.638 E0.01132
G1 X96.082 Y113.810 E0.01545
G1 X95.556 Y113.954 E0.01575
G1 X95.021 Y114.067 E0.01575
G1 X94.481 Y114.148 E0.01575
G1 X93.937 Y114.196 E0.01575
G1 X93.392 Y114.213 E0.01575
G1 X92.846 Y114.197 E0.01575
G1 X92.302 Y114.148 E0.01575
G1 X91.762 Y114.068 E0.01575
G1 X91.227 Y113.956 E0.01575
G1 X90.701 Y113.812 E0.01575
G1 X90.183 Y113.637 E0.01575
G1 X89.677 Y113.432 E0.01575
G1 X89.184 Y113.197 E0.01575
G1 X88.706 Y112.934 E0.01575
G1 X88.244 Y112.642 E0.01575
G1 X87.800 Y112.324 E0.01575
G1 X87.376 Y111.980 E0.01575
G1 X86.973 Y111.612 E0.01575
G1 X86.593 Y111.220 E0.01575
G1 X86.236 Y110.807 E0.01575
G1 X85.905 Y110.373 E0.01575
G1 X85.600 Y109.920 E0.01575
G1 X85.322 Y109.450 E0.01575
G1 X85.072 Y108.964 E0.01575
G1 X84.852 Y108.464 E0.01575
G1 X84.662 Y107.952 E0.01575
G1 X84.502 Y107.430 E0.01575
G1 X84.374 Y106.899 E0.01575
G1 X84.277 Y106.362 E0.01575
G1 X84.212 Y105.820 E0.01575
G1 X84.180 Y105.275 E0.01575
G1 X84.180 Y104.729 E0.01575
G1 X84.212 Y104.183 E0.01575
G1 X84.277 Y103.641 E0.01575
G1 X84.373 Y103.104 E0.01575
G1 X84.501 Y102.573 E0.01575
G1 X84.661 Y102.051 E0.01575
G1 X84.851 Y101.539 E0.01575
G1 X85.071 Y101.039 E0.01575
G1 X85.320 Y100.553 E0.01575
G1 X85.598 Y100.083 E0.01575
G1 X85.903 Y99.630 E0.01575
G1 X86.235 Y99.195 E0.01578
G1 X86.591 Y98.782 E0.01573
G1 X86.971 Y98.390 E0.01575
G1 X87.374 Y98.022 E0.01575
G1 X87.798 Y97.678 E0.01575
G1 X88.241 Y97.359 E0.01575
G1 X88.703 Y97.068 E0.01575
G1 X89.181 Y96.804 E0.01575
G1 X89.674 Y96.569 E0.01575
G1 X90.180 Y96.364 E0.01575
G1 X90.698 Y96.189 E0.01575
G1 X91.224 Y96.045 E0.01575
G1 X91.759 Y95.933 E0.01575
G1 X92.299 Y95.852 E0.01575
G1 X92.839 Y95.804 E0.01564
G1 X93.890 Y95.787 E0.03032
G1 X160.396 Y95.787 E1.91843
G1 X161.537 Y96.024 E0.03361
G1 X162.126 Y96.186 E0.01764
G1 X162.708 Y96.374 E0.01764
G1 X163.282 Y96.586 E0.01764
G1 X163.844 Y96.822 E0.01759
G1 X164.397 Y97.082 E0.01763
G1 X165.103 Y97.471 E0.02325
G1 X165.395 Y97.736 E0.01137
G1 X165.620 Y98.061 E0.01141
G1 X165.763 Y98.429 E0.01138
G1 X165.803 Y98.623 E0.00571
G1 X165.819 Y98.820 E0.00571
G1 X165.784 Y99.213 E0.01139
G1 X165.659 Y99.588 E0.01138
G1 X165.452 Y99.924 E0.01140
G1 X165.174 Y100.204 E0.01138
G1 X165.012 Y100.318 E0.00570
G1 X164.006 Y100.807 E0.03228
G1 X163.318 Y100.384 E0.02327
G1 X162.750 Y100.089 E0.01846
G1 X162.166 Y99.829 E0.01846
G1 X161.567 Y99.603 E0.01846
G1 X160.955 Y99.413 E0.01846
G1 X160.334 Y99.260 E0.01846
G1 X159.704 Y99.144 E0.01846
G1 X159.069 Y99.066 E0.01846
G1 X158.430 Y99.025 E0.01846
G1 X157.790 Y99.022 E0.01846
G1 X157.151 Y99.058 E0.01847
G1 X156.502 Y99.133 E0.01883
G1 X155.885 Y99.241 E0.01809
G1 X155.262 Y99.389 E0.01846
G1 X154.649 Y99.574 E0.01846
G1 X154.048 Y99.795 E0.01846
G1 X153.461 Y100.050 E0.01846
G1 X152.891 Y100.341 E0.01846
G1 X152.338 Y100.664 E0.01846
G1 X151.806 Y101.020 E0.01847
G1 X151.286 Y101.415 E0.01883
G1 X150.810 Y101.823 E0.01809
G1 X150.349 Y102.267 E0.01846
G1 X149.916 Y102.738 E0.01846
G1 X149.511 Y103.234 E0.01846
G1 X149.136 Y103.753 E0.01846
G1 X148.793 Y104.293 E0.01846
G1 X148.482 Y104.853 E0.01846
G1 X148.205 Y105.430 E0.01846
G1 X147.963 Y106.022 E0.01846
G1 X147.756 Y106.628 E0.01847
G1 X147.586 Y107.245 E0.01846
G1 X147.452 Y107.871 E0.01846
G1 X147.341 Y108.670 E0.02328
G1 X139.743 Y112.256 E0.24234
G1 X139.360 Y112.388 E0.01168
G1 X138.979 Y112.428 E0.01106
G1 X138.788 Y112.415 E0.00554
G1 X138.415 Y112.327 E0.01106
G1 X138.071 Y112.158 E0.01106
G1 X137.773 Y111.917 E0.01106
G1 X137.537 Y111.616 E0.01104
G1 X137.434 Y111.427 E0.00618
G1 X136.742 Y109.960 E0.04682
G1 X137.279 Y109.573 E0.01907
G1 X137.640 Y109.252 E0.01396
G1 X137.974 Y108.901 E0.01397
G1 X138.278 Y108.525 E0.01394
G1 X138.550 Y108.125 E0.01396
G1 X138.789 Y107.705 E0.01396
G1 X138.993 Y107.266 E0.01396
G1 X139.159 Y106.812 E0.01396
G1 X139.289 Y106.345 E0.01396
G1 X139.379 Y105.870 E0.01396
G1 X139.431 Y105.389 E0.01395
G1 X139.443 Y104.918 E0.01359
G1 X139.416 Y104.423 E0.01430
G1 X139.349 Y103.943 E0.01397
G1 X139.243 Y103.471 E0.01396
G1 X139.099 Y103.009 E0.01396
G1 X138.917 Y102.561 E0.01396
G1 X138.700 Y102.129 E0.01396
G1 X138.448 Y101.716 E0.01396
G1 X138.162 Y101.323 E0.01401
G1 X137.847 Y100.958 E0.01390
G1 X137.502 Y100.619 E0.01396
G1 X137.130 Y100.309 E0.01395
G1 X136.744 Y100.037 E0.01363
G1 X136.316 Y99.784 E0.01434
G1 X135.880 Y99.574 E0.01397
G1 X135.428 Y99.400 E0.01395
G1 X134.977 Y99.267 E0.01357
G1 X134.491 Y99.166 E0.01434
G1 X134.010 Y99.107 E0.01397
G1 X133.547 Y99.088 E0.01336
G1 X93.372 Y99.088 E1.15890
G1 X92.891 Y99.108 E0.01389
G1 X92.402 Y99.170 E0.01422
G1 X91.933 Y99.270 E0.01383
G1 X91.447 Y99.415 E0.01461
G1 X90.988 Y99.597 E0.01424
G1 X90.546 Y99.815 E0.01423
G1 X90.124 Y100.070 E0.01422
G1 X89.735 Y100.351 E0.01383
G1 X89.351 Y100.681 E0.01461
G1 X89.006 Y101.031 E0.01418
G1 X88.690 Y101.410 E0.01423
G1 X88.406 Y101.816 E0.01428
G1 X88.159 Y102.241 E0.01418
G1 X87.947 Y102.686 E0.01423
G1 X87.773 Y103.148 E0.01423
G1 X87.638 Y103.622 E0.01423
G1 X87.546 Y104.094 E0.01387
G1 X87.489 Y104.596 E0.01457
G1 X87.476 Y105.090 E0.01425
G1 X87.504 Y105.583 E0.01423
G1 X87.574 Y106.071 E0.01423
G1 X87.680 Y106.540 E0.01386
G1 X87.832 Y107.022 E0.01458
G1 X88.020 Y107.478 E0.01425
G1 X88.246 Y107.918 E0.01425
G1 X88.507 Y108.336 E0.01421
G1 X88.802 Y108.731 E0.01423
G1 X89.129 Y109.101 E0.01425
G1 X89.485 Y109.441 E0.01421
G1 X89.869 Y109.751 E0.01423
G1 X90.278 Y110.028 E0.01424
G1 X90.708 Y110.270 E0.01422
G1 X91.156 Y110.475 E0.01423
G1 X91.621 Y110.642 E0.01425
G1 X92.111 Y110.772 E0.01461
G1 X92.582 Y110.858 E0.01383
G1 X93.073 Y110.904 E0.01423
G1 X93.567 Y110.910 E0.01423
G1 X94.060 Y110.875 E0.01425
G1 X94.559 Y110.795 E0.01460
G1 X95.026 Y110.682 E0.01384
G1 X95.494 Y110.525 E0.01423
G1 X95.946 Y110.331 E0.01421
G1 X96.382 Y110.099 E0.01425
G1 X96.798 Y109.831 E0.01428
G1 X97.203 Y109.515 E0.01481
G1 X97.571 Y109.161 E0.01472
G1 X97.660 Y109.041 E0.00432
G1 F8640.000
G1 X97.679 Y109.510 E-0.10825
G1 X97.715 Y111.979 E-0.57032
G1 X97.683 Y112.331 E-0.08143
G1 E-0.04000 F2100.00000
G1 Z0.800 F10800.000
G1 X98.180 Y107.346
G1 Z0.200
G1 E0.80000 F2100.00000
G1 F1200.000
G1 X98.216 Y107.265 E0.00255
G1 X98.228 Y108.007 E0.02143
G1 X98.136 Y108.490 E0.01418
G1 X98.073 Y109.003 E0.01490
G1 X98.057 Y109.513 E0.01472
G1 X98.092 Y111.984 E0.07129
G1 X98.083 Y112.229 E0.00708
G1 X98.047 Y112.459 E0.00672
G1 X97.987 Y112.685 E0.00675
G1 X97.901 Y112.903 E0.00675
G1 X97.791 Y113.110 E0.00675
G1 X97.659 Y113.303 E0.00675
G1 X97.507 Y113.480 E0.00675
G1 X97.335 Y113.639 E0.00675
G1 X97.147 Y113.778 E0.00672
G1 X96.945 Y113.894 E0.00674
G1 X96.726 Y113.990 E0.00689
G1 X96.193 Y114.171 E0.01624
G1 X95.644 Y114.321 E0.01640
G1 X95.088 Y114.438 E0.01640
G1 X94.526 Y114.522 E0.01640
G1 X93.960 Y114.573 E0.01640
G1 X93.392 Y114.590 E0.01640
G1 X92.824 Y114.573 E0.01640
G1 X92.257 Y114.523 E0.01640
G1 X91.695 Y114.439 E0.01640
G1 X91.139 Y114.322 E0.01640
G1 X90.591 Y114.173 E0.01640
G1 X90.052 Y113.991 E0.01640
G1 X89.525 Y113.777 E0.01640
G1 X89.012 Y113.533 E0.01640
G1 X88.514 Y113.259 E0.01640
G1 X88.033 Y112.955 E0.01640
G1 X87.571 Y112.624 E0.01640
G1 X87.130 Y112.266 E0.01640
G1 X86.710 Y111.883 E0.01640
G1 X86.314 Y111.475 E0.01640
G1 X85.943 Y111.044 E0.01640
G1 X85.598 Y110.593 E0.01640
G1 X85.281 Y110.121 E0.01640
G1 X84.991 Y109.632 E0.01640
G1 X84.732 Y109.126 E0.01640
G1 X84.502 Y108.606 E0.01640
G1 X84.304 Y108.073 E0.01640
G1 X84.138 Y107.530 E0.01640
G1 X84.005 Y106.977 E0.01640
G1 X83.904 Y106.418 E0.01640
G1 X83.837 Y105.853 E0.01640
G1 X83.803 Y105.286 E0.01640
G1 X83.803 Y104.717 E0.01640
G1 X83.836 Y104.150 E0.01640
G1 X83.904 Y103.586 E0.01640
G1 X84.004 Y103.026 E0.01640
G1 X84.137 Y102.474 E0.01640
G1 X84.303 Y101.930 E0.01640
G1 X84.501 Y101.397 E0.01640
G1 X84.730 Y100.877 E0.01640
G1 X84.990 Y100.371 E0.01640
G1 X85.279 Y99.882 E0.01640
G1 X85.596 Y99.410 E0.01640
G1 X85.942 Y98.958 E0.01642
G1 X86.312 Y98.528 E0.01637
G1 X86.708 Y98.120 E0.01640
G1 X87.127 Y97.736 E0.01640
G1 X87.569 Y97.378 E0.01640
G1 X88.031 Y97.046 E0.01640
G1 X88.511 Y96.743 E0.01640
G1 X89.009 Y96.469 E0.01640
G1 X89.522 Y96.224 E0.01640
G1 X90.049 Y96.010 E0.01640
G1 X90.587 Y95.828 E0.01640
G1 X91.136 Y95.679 E0.01640
G1 X91.692 Y95.561 E0.01640
G1 X92.254 Y95.477 E0.01640
G1 X92.819 Y95.427 E0.01636
G1 X93.887 Y95.410 E0.03081
G1 X160.430 Y95.410 E1.91951
G1 X161.017 Y95.518 E0.01721
G1 X161.629 Y95.658 E0.01811
G1 X162.234 Y95.825 E0.01810
G1 X162.832 Y96.017 E0.01811
G1 X163.420 Y96.235 E0.01811
G1 X163.998 Y96.477 E0.01806
G1 X164.565 Y96.744 E0.01809
G1 X165.112 Y97.031 E0.01781
G1 X165.322 Y97.164 E0.00718
G1 X165.510 Y97.315 E0.00696
G1 X165.679 Y97.487 E0.00694
G1 X165.828 Y97.677 E0.00697
G1 X165.953 Y97.884 E0.00698
G1 X166.054 Y98.103 E0.00695
G1 X166.129 Y98.333 E0.00697
G1 X166.176 Y98.569 E0.00697
G1 X166.197 Y98.810 E0.00697
G1 X166.189 Y99.051 E0.00697
G1 X166.153 Y99.290 E0.00697
G1 X166.091 Y99.523 E0.00697
G1 X166.002 Y99.747 E0.00695
G1 X165.887 Y99.960 E0.00698
G1 X165.749 Y100.158 E0.00696
G1 X165.588 Y100.339 E0.00697
G1 X165.409 Y100.499 E0.00694
G1 X165.212 Y100.638 E0.00696
G1 X163.972 Y101.240 E0.03975
G1 X163.665 Y101.031 E0.01071
G1 X163.134 Y100.714 E0.01782
G1 X162.586 Y100.429 E0.01782
G1 X162.022 Y100.178 E0.01782
G1 X161.444 Y99.960 E0.01782
G1 X160.854 Y99.777 E0.01782
G1 X160.254 Y99.629 E0.01782
G1 X159.647 Y99.517 E0.01782
G1 X159.034 Y99.441 E0.01782
G1 X158.417 Y99.402 E0.01782
G1 X157.800 Y99.399 E0.01782
G1 X157.183 Y99.434 E0.01782
G1 X156.557 Y99.506 E0.01818
G1 X155.961 Y99.611 E0.01745
G1 X155.360 Y99.754 E0.01782
G1 X154.768 Y99.932 E0.01782
G1 X154.188 Y100.145 E0.01782
G1 X153.622 Y100.392 E0.01782
G1 X153.072 Y100.672 E0.01782
G1 X152.539 Y100.984 E0.01782
G1 X152.025 Y101.327 E0.01782
G1 X151.523 Y101.709 E0.01818
G1 X151.064 Y102.102 E0.01745
G1 X150.619 Y102.531 E0.01782
G1 X150.201 Y102.985 E0.01782
G1 X149.810 Y103.464 E0.01782
G1 X149.448 Y103.964 E0.01782
G1 X149.117 Y104.486 E0.01782
G1 X148.817 Y105.026 E0.01782
G1 X148.550 Y105.583 E0.01782
G1 X148.316 Y106.154 E0.01781
G1 X148.117 Y106.739 E0.01783
G1 X147.952 Y107.335 E0.01782
G1 X147.823 Y107.939 E0.01782
G1 X147.731 Y108.550 E0.01782
G1 X147.697 Y108.919 E0.01072
G1 X139.895 Y112.601 E0.24887
G1 X139.666 Y112.694 E0.00710
G1 X139.441 Y112.756 E0.00674
G1 X139.210 Y112.794 E0.00676
G1 X138.976 Y112.805 E0.00676
G1 X138.742 Y112.790 E0.00676
G1 X138.512 Y112.749 E0.00676
G1 X138.287 Y112.683 E0.00676
G1 X138.071 Y112.591 E0.00676
G1 X137.867 Y112.476 E0.00676
G1 X137.677 Y112.339 E0.00676
G1 X137.504 Y112.182 E0.00676
G1 X137.349 Y112.006 E0.00676
G1 X137.215 Y111.814 E0.00674
G1 X137.098 Y111.598 E0.00710
G1 X136.257 Y109.816 E0.05684
G1 X136.678 Y109.554 E0.01429
G1 X137.039 Y109.282 E0.01307
G1 X137.378 Y108.980 E0.01307
G1 X137.690 Y108.652 E0.01308
G1 X137.975 Y108.300 E0.01305
G1 X138.230 Y107.926 E0.01307
G1 X138.453 Y107.532 E0.01307
G1 X138.644 Y107.121 E0.01307
G1 X138.800 Y106.696 E0.01307
G1 X138.921 Y106.260 E0.01307
G1 X139.006 Y105.815 E0.01307
G1 X139.054 Y105.364 E0.01306
G1 X139.065 Y104.924 E0.01272
G1 X139.040 Y104.460 E0.01341
G1 X138.977 Y104.011 E0.01307
G1 X138.878 Y103.569 E0.01307
G1 X138.743 Y103.136 E0.01307
G1 X138.573 Y102.717 E0.01306
G1 X138.370 Y102.312 E0.01307
G1 X138.134 Y101.925 E0.01307
G1 X137.866 Y101.558 E0.01312
G1 X137.571 Y101.216 E0.01301
G1 X137.248 Y100.899 E0.01307
G1 X136.901 Y100.608 E0.01306
G1 X136.540 Y100.354 E0.01275
G1 X136.138 Y100.117 E0.01344
G1 X135.730 Y99.920 E0.01307
G1 X135.307 Y99.757 E0.01307
G1 X134.885 Y99.633 E0.01269
G1 X134.429 Y99.538 E0.01345
G1 X133.979 Y99.483 E0.01307
G1 X133.539 Y99.465 E0.01270
G1 X93.380 Y99.465 E1.15844
G1 X92.923 Y99.484 E0.01320
G1 X92.465 Y99.542 E0.01332
G1 X92.026 Y99.635 E0.01293
G1 X91.571 Y99.772 E0.01370
G1 X91.141 Y99.941 E0.01332
G1 X90.727 Y100.146 E0.01332
G1 X90.332 Y100.385 E0.01332
G1 X89.969 Y100.648 E0.01293
G1 X89.608 Y100.957 E0.01370
G1 X89.285 Y101.284 E0.01327
G1 X88.990 Y101.639 E0.01332
G1 X88.724 Y102.019 E0.01337
G1 X88.493 Y102.417 E0.01327
G1 X88.295 Y102.834 E0.01332
G1 X88.132 Y103.266 E0.01332
G1 X88.005 Y103.710 E0.01332
G1 X87.919 Y104.152 E0.01298
G1 X87.866 Y104.622 E0.01366
G1 X87.854 Y105.084 E0.01333
G1 X87.880 Y105.545 E0.01332
G1 X87.945 Y106.003 E0.01332
G1 X88.044 Y106.441 E0.01297
G1 X88.187 Y106.893 E0.01367
G1 X88.363 Y107.320 E0.01333
G1 X88.574 Y107.732 E0.01335
G1 X88.818 Y108.123 E0.01330
G1 X89.094 Y108.493 E0.01332
G1 X89.401 Y108.839 E0.01334
G1 X89.735 Y109.158 E0.01331
G1 X90.094 Y109.448 E0.01332
G1 X90.476 Y109.707 E0.01333
G1 X90.879 Y109.934 E0.01331
G1 X91.299 Y110.126 E0.01332
G1 X91.733 Y110.282 E0.01333
G1 X92.193 Y110.404 E0.01370
G1 X92.634 Y110.484 E0.01294
G1 X93.094 Y110.527 E0.01332
G1 X93.555 Y110.533 E0.01332
G1 X94.016 Y110.500 E0.01333
G1 X94.485 Y110.425 E0.01369
G1 X94.921 Y110.319 E0.01295
G1 X95.359 Y110.173 E0.01332
G1 X95.783 Y109.991 E0.01330
G1 X96.191 Y109.773 E0.01334
G1 X96.580 Y109.523 E0.01334
