; generated by PrusaSlicer 2.5.0+MacOS-x64 on 2022-11-21 at 14:12:07 UTC


;
;

;
;
; 

; external perimeters extrusion width = 0.45mm
; perimeters extrusion width = 0.45mm
; infill extrusion width = 0.45mm
; solid infill extrusion width = 0.45mm
; top infill extrusion width = 0.40mm
; support material extrusion width = 0.35mm
; first layer extrusion width = 0.42mm

M73 P0 R35
M73 C9
M201 X9000 Y9000 Z500 E10000 ; sets maximum accelerations, mm/sec^2
M203 X500 Y500 Z12 E120 ; sets maximum feedrates, mm / sec
M204 P2000 R1500 T2000 ; sets acceleration (P, T) and retract acceleration (R), mm/sec^2
M205 X10.00 Y10.00 Z0.20 E4.50 ; sets the jerk limits, mm/sec
M205 S0 T0 ; sets the minimum extruding and travel feed rate, mm/sec
M107
;TYPE:Custom
M83  ; extruder relative mode
M140 S85 ; set bed temp
M109 S160 ; Set extruder temp before bed level
M190 S85 ; wait for bed temp

G28 W ; home all without mesh bed level
G80 N7 ; mesh bed leveling

M109 S240 ; wait for extruder temp

M221 S100 ; Set flow to 100

G1 Y-3.0 F1000.0 ; go outside print area
G92 E0.0
G1 E8 ; Purge Bubble
G1 X60.0 E9.0 F1000.0 ; intro line
G1 X100.0 E12.5 F1000.0 ; intro line
G92 E0.0
G21 ; set units to millimeters
G90 ; use absolute coordinates
M83 ; use relative distances for extrusion
M900 K0.08 ; Filament gcode LA 1.5
M900 K45 ; Filament gcode LA 1.0
M107
;LAYER_CHANGE
;Z:0.2
;HEIGHT:0.2
;BEFORE_LAYER_CHANGE
G92 E0.0
;0.2


G1 E-1 F2100
G1 Z.2 F720
;AFTER_LAYER_CHANGE
;0.2
G1 Z.4
G1 X89.432 Y67.782 F6000
G1 Z.2 F720
G1 E1 F2100
M204 S800
;TYPE:Skirt/Brim
;WIDTH:0.42
G1 F1200
G1 X92.046 Y65.167 E.11592
G1 X93.727 Y64.471 E.05704
G1 X158.888 Y64.471 E2.04308
G1 X160.195 Y64.863 E.04278
G1 X161.071 Y65.908 E.04278
G1 X161.265 Y66.848 E.03008
G1 X161.265 Y91.192 E.76327
G1 X161.045 Y92.189 E.03203
G1 X137.022 Y144.149 E1.79486
G1 X136.118 Y145.171 E.04278
G1 X134.865 Y145.529 E.04088
G1 X117.749 Y145.529 E.53664
G1 X116.069 Y144.833 E.05704
G1 X113.454 Y142.218 E.11592
G1 X112.978 Y141.535 E.02612
G1 X88.955 Y89.575 E1.79486
G1 X88.735 Y88.578 E.03203
G1 X88.735 Y69.462 E.59934
G1 X89.409 Y67.837 E.05516
M204 S1000
; printing object Brabantia_Bin_Size_G_Clip-On_Striking_Pin_For_3mm_Rim.stl id:0 copy 2
;WIPE_START
G1 F4800
G1 X91.015 Y66.211 E-.95
;WIPE_END
G1 E-.05 F2100
G1 Z.4 F720
G1 X118.254 Y121.752 F6000
G1 Z.2 F720
M73 P1 R35
G1 E1 F2100
M204 S800
;TYPE:Support material interface
;WIDTH:0.35
G1 F1200
G1 X118.079 Y121.752 E.00449
G1 X118.079 Y124.059 E.05891
G1 X118.408 Y124.059 E.00841
G1 X118.408 Y121.752 E.05891
G1 X118.915 Y121.752 E.01295
G1 X118.915 Y124.059 E.05891
G1 X119.422 Y124.059 E.01295
G1 X119.422 Y121.752 E.05891
G1 X119.929 Y121.752 E.01295
G1 X119.929 Y122.556 E.02055
G1 X119.732 Y122.556 E.00503
G1 X119.668 Y122.62 E.00231
M204 S1000
G1 X120.083 Y122.556 F6000
M204 S800
G1 F1200
G1 X120.386 Y122.556 E.00774
G1 X120.386 Y121.752 E.02055
G1 X120.083 Y121.752 E.00774
M204 S1000
;WIPE_START
G1 F4800
G1 X120.386 Y121.752 E-.12598
G1 X120.386 Y122.556 E-.3345
G1 X120.083 Y122.556 E-.12598
;WIPE_END
G1 E-.41355 F2100
G1 Z.4 F720
G1 X119.845 Y124.422 F6000
G1 Z.2 F720
G1 E1 F2100
M204 S800
;TYPE:Support material
;WIDTH:0.42
G1 F1200
G1 X119.853 Y122.949 E.04621
G1 X119.853 Y139.011 E.50363
G1 X119.845 Y137.538 E.04621
G1 X117.715 Y137.538 E.06677
G1 X117.715 Y140.538 E.09406
G1 X115.135 Y140.538 E.08089
G1 X115.135 Y121.422 E.59934
G1 X117.715 Y121.422 E.08089
G1 X117.715 Y124.422 E.09406
G1 X119.788 Y124.422 E.06499
M204 S1000
G1 X119.134 Y137.368 F6000
M204 S800
G1 F1200
G1 X119.134 Y124.762 E.39526
G1 X118.715 Y124.762 E.01314
G1 X118.715 Y137.198 E.38994
G1 X118.296 Y137.198 E.01314
G1 X118.296 Y124.762 E.38994
G1 X117.877 Y124.762 E.01314
G1 X117.877 Y137.198 E.38994
G1 X117.458 Y137.198 E.01314
G1 X117.458 Y124.762 E.38994
G1 X117.376 Y124.762 E.00259
G1 X117.376 Y121.762 E.09406
G1 X117.039 Y121.762 E.01054
G1 X117.039 Y140.198 E.57806
G1 X116.62 Y140.198 E.01314
G1 X116.62 Y121.762 E.57806
G1 X116.201 Y121.762 E.01314
G1 X116.201 Y140.198 E.57806
G1 X115.783 Y140.198 E.01314
G1 X115.783 Y121.592 E.58338
M204 S1000
;WIPE_START
G1 F4800
G1 X115.783 Y123.878 E-.95
;WIPE_END
G1 E-.05 F2100
G1 Z.4 F720
G1 X125.691 Y127.562 F6000
G1 Z.2 F720
G1 E1 F2100
M204 S800
G1 F1200
G1 X126.106 Y127.588 E.01304
G1 X126.532 Y127.67 E.0136
G1 X126.963 Y127.811 E.01421
G1 X127.345 Y127.994 E.01329
G1 X127.66 Y128.192 E.01166
G1 X127.966 Y128.438 E.01231
G1 X128.258 Y128.736 E.01308
G1 X128.48 Y129.018 E.01124
G1 X128.686 Y129.352 E.01231
G1 X128.871 Y129.754 E.01387
G1 X128.993 Y130.134 E.01252
G1 X129.072 Y130.551 E.01332
G1 X129.099 Y130.976 E.01333
G1 X129.072 Y131.4 E.01332
G1 X128.989 Y131.839 E.01403
G1 X128.862 Y132.23 E.0129
G1 X128.691 Y132.599 E.01274
G1 X128.478 Y132.945 E.01272
G1 X128.25 Y133.235 E.01157
G1 X127.975 Y133.515 E.01231
G1 X127.669 Y133.761 E.01231
G1 X127.32 Y133.98 E.01291
G1 X126.953 Y134.153 E.01274
G1 X126.523 Y134.293 E.01416
G1 X126.115 Y134.371 E.01304
G1 X125.682 Y134.398 E.0136
G1 X125.227 Y134.368 E.01429
G1 X124.832 Y134.292 E.0126
G1 X124.42 Y134.158 E.0136
G1 X124.028 Y133.973 E.0136
G1 X123.679 Y133.752 E.01293
G1 X123.397 Y133.526 E.01134
G1 X123.121 Y133.247 E.01231
G1 X122.868 Y132.925 E.01283
G1 X122.668 Y132.597 E.01205
G1 X122.474 Y132.169 E.01474
G1 X122.338 Y131.704 E.01518
G1 X122.27 Y131.224 E.01518
G1 X122.27 Y130.74 E.01518
G1 X122.338 Y130.261 E.01518
G1 X122.474 Y129.796 E.01518
G1 X122.683 Y129.335 E.01588
G1 X122.871 Y129.031 E.01121
G1 X123.113 Y128.722 E.01231
G1 X123.402 Y128.431 E.01285
G1 X123.687 Y128.202 E.01147
G1 X124.019 Y127.992 E.01231
G1 X124.412 Y127.805 E.01364
G1 X124.84 Y127.666 E.01412
G1 X125.241 Y127.589 E.01278
G1 X125.635 Y127.563 E.01239
M204 S1000
G1 X128.352 Y132.826 F6000
M204 S800
G1 F1200
G1 X128.352 Y129.456 E.10567
G1 X128.202 Y129.214 E.00894
G1 X127.933 Y128.889 E.01323
G1 X127.933 Y133.075 E.13123
G1 X127.746 Y133.263 E.00832
G1 X127.514 Y133.45 E.00934
G1 X127.514 Y128.511 E.15486
G1 X127.095 Y128.249 E.01548
G1 X127.095 Y133.711 E.17124
G1 X126.821 Y133.84 E.00951
G1 X126.676 Y133.888 E.00478
G1 X126.676 Y128.075 E.18227
G1 X126.441 Y127.998 E.00774
G1 X126.257 Y127.962 E.00589
G1 X126.257 Y133.998 E.18924
G1 X126.075 Y134.033 E.00581
G1 X125.838 Y134.048 E.00744
G1 X125.838 Y127.911 E.19242
G1 X125.677 Y127.901 E.00507
G1 X125.419 Y127.917 E.0081
G1 X125.419 Y134.04 E.19199
G1 X125 Y133.979 E.01328
G1 X125 Y127.981 E.18806
G1 X124.581 Y128.108 E.01373
G1 X124.581 Y133.854 E.18017
G1 X124.162 Y133.655 E.01454
G1 X124.162 Y128.302 E.16783
G1 X123.89 Y128.474 E.01009
G1 X123.743 Y128.592 E.0059
G1 X123.743 Y133.368 E.14975
G1 X123.62 Y133.269 E.00494
G1 X123.324 Y132.956 E.01352
G1 X123.324 Y129.002 E.12395
G1 X123.152 Y129.222 E.00875
G1 X122.984 Y129.495 E.01004
G1 X122.905 Y129.669 E.00598
G1 X122.905 Y132.661 E.09383
M204 S1000
;WIPE_START
G1 F4800
G1 X122.905 Y130.376 E-.95
;WIPE_END
G1 E-.05 F2100
G1 Z.4 F720
G1 X120.083 Y140.208 F6000
G1 Z.2 F720
G1 E1 F2100
M204 S800
;TYPE:Support material interface
;WIDTH:0.35
G1 F1200
G1 X120.386 Y140.208 E.00774
G1 X120.386 Y139.404 E.02055
G1 X119.929 Y139.404 E.01166
G1 X119.929 Y140.208 E.02055
G1 X119.422 Y140.208 E.01295
G1 X119.422 Y137.901 E.05891
G1 X118.915 Y137.901 E.01295
G1 X118.915 Y140.208 E.05891
G1 X118.408 Y140.208 E.01295
G1 X118.408 Y137.901 E.05891
G1 X118.079 Y137.901 E.00841
G1 X118.079 Y140.208 E.05891
G1 X118.254 Y140.208 E.00449
M204 S1000
;WIPE_START
G1 F4800
G1 X118.079 Y140.208 E-.07302
G1 X118.079 Y138.098 E-.87698
;WIPE_END
G1 E-.05 F2100
G1 Z.4 F720
G1 X134.865 Y143.152 F6000
G1 Z.2 F720
G1 E1 F2100
M204 S800
;TYPE:Support material
;WIDTH:0.42
G1 F1200
G1 X117.749 Y143.152 E.53664
G1 X117.749 Y140.572 E.08089
G1 X120.749 Y140.572 E.09406
G1 X120.749 Y139.46 E.03486
G1 X130.666 Y139.46 E.31092
G1 X130.946 Y139.185 E.0123
G1 X130.956 Y138.653 E.0167
G1 X130.94 Y133.67 E.15623
G1 X130.956 Y132.406 E.03964
G1 X130.946 Y122.775 E.30198
G1 X130.666 Y122.5 E.0123
G1 X120.749 Y122.5 E.31092
G1 X120.749 Y121.388 E.03486
M73 P2 R35
G1 X117.749 Y121.388 E.09406
G1 X117.749 Y118.808 E.08089
G1 X134.865 Y118.808 E.53664
G1 X134.865 Y143.095 E.7615
M204 S1000
G1 X134.217 Y142.982 F6000
M204 S800
G1 F1200
G1 X134.217 Y119.148 E.74731
G1 X133.799 Y119.148 E.01314
G1 X133.799 Y142.812 E.74199
G1 X133.38 Y142.812 E.01314
G1 X133.38 Y119.148 E.74199
G1 X132.961 Y119.148 E.01314
G1 X132.961 Y142.812 E.74199
G1 X132.542 Y142.812 E.01314
G1 X132.542 Y119.148 E.74199
G1 X132.123 Y119.148 E.01314
M73 C8
G1 X132.123 Y142.812 E.74199
G1 X131.704 Y142.812 E.01314
G1 X131.704 Y119.148 E.74199
G1 X131.285 Y119.148 E.01314
G1 X131.285 Y142.812 E.74199
G1 X130.866 Y142.812 E.01314
M73 P2 R34
G1 X130.866 Y139.739 E.09636
G1 X130.804 Y139.799 E.00269
G1 X130.447 Y139.799 E.01122
G1 X130.447 Y142.812 E.09447
G1 X130.028 Y142.812 E.01314
G1 X130.028 Y139.799 E.09447
G1 X129.609 Y139.799 E.01314
G1 X129.609 Y142.812 E.09447
G1 X129.19 Y142.812 E.01314
G1 X129.19 Y139.799 E.09447
G1 X128.771 Y139.799 E.01314
G1 X128.771 Y142.812 E.09447
G1 X128.352 Y142.812 E.01314
G1 X128.352 Y139.799 E.09447
G1 X127.933 Y139.799 E.01314
G1 X127.933 Y142.812 E.09447
G1 X127.514 Y142.812 E.01314
G1 X127.514 Y139.799 E.09447
G1 X127.095 Y139.799 E.01314
G1 X127.095 Y142.812 E.09447
G1 X126.676 Y142.812 E.01314
G1 X126.676 Y139.799 E.09447
G1 X126.257 Y139.799 E.01314
G1 X126.257 Y142.812 E.09447
G1 X125.838 Y142.812 E.01314
G1 X125.838 Y139.799 E.09447
G1 X125.419 Y139.799 E.01314
G1 X125.419 Y142.812 E.09447
G1 X125 Y142.812 E.01314
G1 X125 Y139.799 E.09447
G1 X124.581 Y139.799 E.01314
G1 X124.581 Y142.812 E.09447
G1 X124.162 Y142.812 E.01314
G1 X124.162 Y139.799 E.09447
G1 X123.743 Y139.799 E.01314
G1 X123.743 Y142.812 E.09447
G1 X123.324 Y142.812 E.01314
G1 X123.324 Y139.799 E.09447
G1 X122.905 Y139.799 E.01314
G1 X122.905 Y142.812 E.09447
G1 X122.486 Y142.812 E.01314
G1 X122.486 Y139.799 E.09447
G1 X122.067 Y139.799 E.01314
G1 X122.067 Y142.812 E.09447
G1 X121.648 Y142.812 E.01314
G1 X121.648 Y139.799 E.09447
G1 X121.229 Y139.799 E.01314
G1 X121.229 Y142.812 E.09447
G1 X120.81 Y142.812 E.01314
G1 X120.81 Y140.911 E.05961
G1 X120.391 Y140.911 E.01314
G1 X120.391 Y142.812 E.05961
G1 X119.972 Y142.812 E.01314
G1 X119.972 Y140.911 E.05961
G1 X119.553 Y140.911 E.01314
G1 X119.553 Y142.812 E.05961
G1 X119.134 Y142.812 E.01314
G1 X119.134 Y140.911 E.05961
G1 X118.715 Y140.911 E.01314
G1 X118.715 Y142.812 E.05961
G1 X118.296 Y142.812 E.01314
G1 X118.296 Y140.742 E.06493
M204 S1000
;WIPE_START
G1 F4800
G1 X118.296 Y142.812 E-.86066
G1 X118.511 Y142.812 E-.08934
;WIPE_END
G1 E-.05 F2100
G1 Z.4 F720
G1 X130.866 Y122.458 F6000
G1 Z.2 F720
G1 E1 F2100
M204 S800
G1 F1200
G1 X130.866 Y119.148 E.10381
G1 X130.447 Y119.148 E.01314
G1 X130.447 Y122.161 E.09447
G1 X130.028 Y122.161 E.01314
G1 X130.028 Y119.148 E.09447
G1 X129.609 Y119.148 E.01314
G1 X129.609 Y122.161 E.09447
G1 X129.19 Y122.161 E.01314
G1 X129.19 Y119.148 E.09447
G1 X128.771 Y119.148 E.01314
G1 X128.771 Y122.161 E.09447
G1 X128.352 Y122.161 E.01314
G1 X128.352 Y119.148 E.09447
G1 X127.933 Y119.148 E.01314
G1 X127.933 Y122.161 E.09447
G1 X127.514 Y122.161 E.01314
G1 X127.514 Y119.148 E.09447
G1 X127.095 Y119.148 E.01314
G1 X127.095 Y122.161 E.09447
G1 X126.676 Y122.161 E.01314
G1 X126.676 Y119.148 E.09447
G1 X126.257 Y119.148 E.01314
G1 X126.257 Y122.161 E.09447
G1 X125.838 Y122.161 E.01314
G1 X125.838 Y119.148 E.09447
G1 X125.419 Y119.148 E.01314
G1 X125.419 Y122.161 E.09447
G1 X125 Y122.161 E.01314
G1 X125 Y119.148 E.09447
G1 X124.581 Y119.148 E.01314
G1 X124.581 Y122.161 E.09447
G1 X124.162 Y122.161 E.01314
G1 X124.162 Y119.148 E.09447
G1 X123.743 Y119.148 E.01314
G1 X123.743 Y122.161 E.09447
G1 X123.324 Y122.161 E.01314
M73 P3 R34
G1 X123.324 Y119.148 E.09447
G1 X122.905 Y119.148 E.01314
G1 X122.905 Y122.161 E.09447
G1 X122.486 Y122.161 E.01314
G1 X122.486 Y119.148 E.09447
G1 X122.067 Y119.148 E.01314
G1 X122.067 Y122.161 E.09447
G1 X121.648 Y122.161 E.01314
G1 X121.648 Y119.148 E.09447
G1 X121.229 Y119.148 E.01314
G1 X121.229 Y122.161 E.09447
G1 X121.089 Y122.161 E.0044
G1 X121.089 Y121.049 E.03486
G1 X120.81 Y121.049 E.00874
G1 X120.81 Y119.148 E.05961
G1 X120.391 Y119.148 E.01314
G1 X120.391 Y121.049 E.05961
G1 X119.972 Y121.049 E.01314
G1 X119.972 Y119.148 E.05961
G1 X119.553 Y119.148 E.01314
G1 X119.553 Y121.049 E.05961
G1 X119.134 Y121.049 E.01314
G1 X119.134 Y119.148 E.05961
G1 X118.715 Y119.148 E.01314
G1 X118.715 Y121.049 E.05961
G1 X118.296 Y121.049 E.01314
G1 X118.296 Y118.978 E.06493
M204 S1000
;WIPE_START
G1 F4800
G1 X118.296 Y121.049 E-.86065
G1 X118.511 Y121.049 E-.08935
;WIPE_END
G1 E-.05 F2100
G1 Z.4 F720
G1 X121.107 Y131.954 F6000
G1 Z.2 F720
G1 E1 F2100
M204 S800
;TYPE:Perimeter
;WIDTH:0.399981
G1 F1200
G1 X121.12 Y132.016 E.00187
;WIDTH:0.419999
G1 X121.305 Y132.657 E.02093
G1 X121.553 Y133.198 E.01865
G1 X121.846 Y133.675 E.01756
G1 X122.188 Y134.106 E.01723
G1 X122.605 Y134.513 E.0183
G1 X123.441 Y135.097 E.03198
G1 X123.984 Y135.349 E.01874
G1 X124.497 Y135.512 E.01689
G1 X125.099 Y135.63 E.01922
G1 X125.696 Y135.667 E.01877
G1 X126.303 Y135.625 E.01906
G1 X126.899 Y135.505 E.01906
G1 X127.506 Y135.293 E.02018
G1 X127.958 Y135.075 E.0157
G1 X128.421 Y134.782 E.0172
G1 X128.872 Y134.409 E.01835
G1 X129.478 Y133.72 E.02877
G1 X129.679 Y133.405 E.01171
G1 X129.685 Y138.193 E.15012
G1 X121.119 Y138.193 E.26857
G1 X121.109 Y132.014 E.19373
M204 S1000
;WIPE_START
G1 F4800
G1 X121.12 Y132.016 E-.00481
G1 X121.305 Y132.657 E-.27745
G1 X121.553 Y133.198 E-.24719
G1 X121.846 Y133.675 E-.23279
G1 X122.127 Y134.029 E-.18777
;WIPE_END
G1 E-.05 F2100
G1 Z.4 F720
G1 X121.119 Y129.909 F6000
G1 Z.2 F720
G1 E1 F2100
M204 S800
G1 F1200
G1 X121.119 Y123.767 E.19257
G1 X129.685 Y123.767 E.26858
G1 X129.68 Y128.559 E.15025
G1 X129.478 Y128.24 E.01186
G1 X128.806 Y127.488 E.03163
G1 X128.369 Y127.142 E.01745
G1 X127.897 Y126.852 E.01739
G1 X127.401 Y126.622 E.01712
G1 X126.831 Y126.437 E.0188
G1 X126.233 Y126.326 E.01906
G1 X125.63 Y126.294 E.01894
G1 X125.091 Y126.332 E.01694
G1 X124.491 Y126.447 E.01916
G1 X123.92 Y126.636 E.01885
G1 X123.352 Y126.915 E.01984
G1 X122.531 Y127.51 E.0318
G1 X122.146 Y127.902 E.01722
G1 X121.809 Y128.339 E.0173
G1 X121.549 Y128.769 E.01579
G1 X121.278 Y129.373 E.02075
G1 X121.136 Y129.851 E.01564
M204 S1000
G1 X121.38 Y130.06 F6000
M204 S800
;TYPE:External perimeter
;WIDTH:0.595309
G1 F1200
G1 X121.444 Y129.915 E.0073
;WIDTH:0.551482
G1 X121.509 Y129.77 E.00672
;WIDTH:0.507654
G1 X121.574 Y129.625 E.00614
;WIDTH:0.463827
G1 X121.639 Y129.48 E.00556
;WIDTH:0.419999
G1 X121.891 Y128.927 E.01906
G1 X122.142 Y128.519 E.01501
G1 X122.458 Y128.117 E.01603
G1 X122.822 Y127.755 E.01609
G1 X123.571 Y127.222 E.02882
G1 X124.082 Y126.977 E.01777
G1 X124.607 Y126.806 E.01731
G1 X125.159 Y126.703 E.01762
G1 X125.666 Y126.67 E.01591
G1 X126.21 Y126.703 E.01711
G1 X126.759 Y126.807 E.01752
G1 X127.282 Y126.979 E.01727
G1 X127.735 Y127.192 E.0157
G1 X128.17 Y127.462 E.01603
G1 X128.569 Y127.781 E.01604
G1 X129.195 Y128.489 E.0296
G1 X129.466 Y128.936 E.0164
;WIDTH:0.453244
G1 X129.683 Y129.439 E.01871
G1 X129.821 Y130.45 E.03481
;WIDTH:0.420986
G1 X129.836 Y130.975 E.01652
;WIDTH:0.420445
G1 X129.823 Y131.489 E.01612
;WIDTH:0.421131
G1 X129.773 Y132.006 E.01634
;WIDTH:0.451564
G1 X129.677 Y132.543 E.01853
G1 X129.478 Y133.002 E.01701
;WIDTH:0.419999
G1 X129.216 Y133.443 E.01609
G1 X128.589 Y134.159 E.02984
G1 X128.184 Y134.488 E.01634
G1 X127.758 Y134.755 E.01578
G1 X127.287 Y134.979 E.01635
G1 X126.78 Y135.147 E.01675
G1 X126.231 Y135.255 E.01752
G1 X125.673 Y135.29 E.01752
G1 X125.125 Y135.253 E.01723
G1 X124.572 Y135.143 E.01769
G1 X124.079 Y134.982 E.01627
G1 X123.596 Y134.753 E.01675
G1 X122.824 Y134.206 E.02965
G1 X122.455 Y133.839 E.01632
G1 X122.143 Y133.443 E.01582
G1 X121.876 Y133.003 E.01614
G1 X121.648 Y132.502 E.01724
G1 X121.472 Y131.912 E.01931
;WIDTH:0.469056
G1 X121.427 Y131.777 E.00503
;WIDTH:0.518113
G1 X121.382 Y131.643 E.00561
;WIDTH:0.567169
G1 X121.337 Y131.508 E.00618
G1 X121.315 Y130.684 E.03595
;WIDTH:0.595309
