; generated by PrusaSlicer 2.9.3 on 2025-10-11 at 15:13:02 UTC


;
;

;
;
; 

; external perimeters extrusion width = 0.45mm
; perimeters extrusion width = 0.45mm
; infill extrusion width = 0.45mm
; solid infill extrusion width = 0.45mm
; top infill extrusion width = 0.45mm
; first layer extrusion width = 0.42mm

M73 P0 R217
M201 X9000 Y9000 Z500 E10000 ; sets maximum accelerations, mm/sec^2
M203 X500 Y500 Z12 E120 ; sets maximum feedrates, mm / sec
M204 S2000 T1500 ; sets acceleration (S) and retract acceleration (R), mm/sec^2
M205 X10.00 Y10.00 Z0.20 E4.50 ; sets the jerk limits, mm/sec
M205 S0 T0 ; sets the minimum extruding and travel feed rate, mm/sec

; printing object SSD adapter - minimal.stl id:0 copy 0
; stop printing object SSD adapter - minimal.stl id:0 copy 0

;TYPE:Custom
M83  ; extruder relative mode
M140 S85 ; set bed temp
M109 S160 ; Set extruder temp before bed level
M190 S85 ; wait for bed temp

G28 W ; home all without mesh bed level
G80 N7 ; mesh bed leveling

M109 S250 ; wait for extruder temp

M221 S100 ; Set flow to 100

G1 Y-3.0 F1000.0 ; go outside print area
G92 E0.0
G1 E8 ; Purge Bubble
G1 X60.0 E9.0 F1000.0 ; intro line
G1 X100.0 E12.5 F1000.0 ; intro line
G92 E0.0
G21 ; set units to millimeters
G90 ; use absolute coordinates
M83 ; use relative distances for extrusion

M900 K0.08 ; Filament gcode LA 1.5
M900 K45 ; Filament gcode LA 1.0




M107
;LAYER_CHANGE
;Z:0.2
;HEIGHT:0.2
G1 E-1 F2100
G1 Z.4 F720
G1 X67.752 Y28.642 F6000
G1 Z.2 F720
G1 E1 F2100
M204 S800
;TYPE:Skirt/Brim
;WIDTH:0.42
G1 F1200
G1 X70.74 Y25.654 E.13249
G1 X72.288 Y25.013 E.05253
G1 X177.712 Y25.013 E3.3055
G1 X179.26 Y25.654 E.05253
G1 X182.248 Y28.642 E.13249
G1 X182.889 Y30.19 E.05253
G1 X182.889 Y179.81 E4.69123
G1 X182.248 Y181.358 E.05253
G1 X179.26 Y184.346 E.13249
G1 X177.712 Y184.987 E.05253
G1 X72.288 Y184.987 E3.3055
G1 X70.74 Y184.346 E.05253
G1 X67.752 Y181.358 E.13249
G1 X67.111 Y179.81 E.05253
G1 X67.111 Y30.19 E4.69123
G1 X67.73 Y28.697 E.05068
M73 P0 R216
M204 S1000
;WIPE_START
G1 F4800
G1 X67.752 Y28.642 E-.02462
G1 X69.411 Y26.983 E-.97538
;WIPE_END
G1 Z.4 F720
G1 X70.101 Y30.194 F6000
G1 Z.2 F720
G1 E1 F2100
M204 S800
G1 F1200
G1 X70.777 Y29.123 E.03971
G1 X71.877 Y28.18 E.04543
G1 X72.585 Y27.835 E.02469
G1 X73.667 Y27.533 E.03522
G1 X77.68 Y27.504 E.12583
G1 X78.692 Y27.72 E.03245
G1 X80.057 Y28.43 E.04824
G1 X81.02 Y29.39 E.04263
G1 X81.645 Y30.487 E.03959
G1 X81.981 Y31.828 E.04335
G1 X82.274 Y31.83 E.00919
G1 X82.614 Y30.531 E.0421
G1 X83.136 Y29.547 E.03493
G1 X84.04 Y28.579 E.04153
G1 X84.912 Y27.997 E.03287
G1 X86.688 Y27.487 E.05794
G1 X89.96 Y27.521 E.1026
G1 X91.341 Y27.93 E.04516
G1 X92.372 Y28.584 E.03828
G1 X93.213 Y29.477 E.03846
G1 X93.829 Y30.636 E.04115
G1 X94.094 Y31.76 E.03621
G1 X94.109 Y36.978 E.16361
G1 X155.887 Y36.978 E1.93701
G1 X155.891 Y31.909 E.15893
G1 X156.169 Y30.642 E.04067
G1 X156.815 Y29.442 E.04273
G1 X157.836 Y28.416 E.04538
G1 X158.74 Y27.892 E.03276
G1 X159.756 Y27.567 E.03345
G1 X163.377 Y27.496 E.11356
G1 X165.025 Y27.967 E.05374
G1 X165.913 Y28.541 E.03315
G1 X166.873 Y29.558 E.04385
G1 X167.394 Y30.556 E.0353
G1 X167.709 Y31.842 E.04151
G1 X168.002 Y31.845 E.00919
G1 X168.36 Y30.474 E.04443
G1 X169.01 Y29.353 E.04063
G1 X169.946 Y28.432 E.04117
G1 X170.86 Y27.897 E.03321
G1 X172.429 Y27.486 E.05085
G1 X176.494 Y27.558 E.12748
G1 X177.678 Y27.946 E.03907
G1 X178.506 Y28.451 E.03041
G1 X179.202 Y29.094 E.02971
G1 X179.913 Y30.136 E.03955
G1 X180.413 Y31.862 E.05634
G1 X180.413 Y178.124 E4.58594
G1 X180.062 Y179.521 E.04516
G1 X179.645 Y180.337 E.02873
G1 X178.766 Y181.335 E.0417
G1 X177.902 Y181.945 E.03316
G1 X176.259 Y182.478 E.05416
G1 X171.896 Y182.434 E.13681
G1 X170.669 Y182.016 E.04064
G1 X169.665 Y181.34 E.03795
G1 X169.052 Y180.699 E.02781
G1 X168.581 Y180.01 E.02617
G1 X168.06 Y178.46 E.05127
G1 X168.014 Y142.093 E1.14026
G1 X160.281 Y142.093 E.24246
G1 X158.817 Y141.721 E.04736
G1 X157.525 Y140.915 E.04775
G1 X156.947 Y140.304 E.02637
G1 X156.503 Y139.684 E.02391
G1 X155.914 Y137.9 E.05891
G1 X155.887 Y131.805 E.19111
G1 X94.113 Y131.805 E1.93688
G1 X94.086 Y137.9 E.19111
G1 X93.497 Y139.684 E.05891
G1 X93.053 Y140.304 E.02391
G1 X92.475 Y140.915 E.02637
G1 X91.183 Y141.721 E.04775
G1 X89.719 Y142.093 E.04736
G1 X81.987 Y142.093 E.24243
G1 X81.963 Y178.305 E1.1354
G1 X81.569 Y179.693 E.04524
G1 X80.909 Y180.748 E.03902
G1 X80.004 Y181.606 E.0391
G1 X79.245 Y182.056 E.02767
G1 X77.84 Y182.479 E.04601
G1 X73.593 Y182.456 E.13316
G1 X72.492 Y182.13 E.036
G1 X71.62 Y181.642 E.03133
G1 X70.751 Y180.852 E.03682
G1 X70.148 Y179.992 E.03293
G1 X69.587 Y178.135 E.06082
G1 X69.587 Y31.874 E4.58591
G1 X69.954 Y30.426 E.04684
G1 X70.069 Y30.245 E.00672
M204 S1000
G1 X70.38 Y30.444 F6000
M204 S800
G1 F1200
G1 X71.079 Y29.35 E.04071
G1 X72.065 Y28.508 E.04065
G1 X72.704 Y28.193 E.02234
G1 X73.744 Y27.903 E.03385
G1 X77.661 Y27.881 E.12282
G1 X78.586 Y28.083 E.02969
G1 X79.855 Y28.75 E.04495
G1 X80.734 Y29.636 E.03913
G1 X81.303 Y30.648 E.0364
G1 X81.611 Y31.907 E.04064
G1 X81.611 Y69.014 E1.16346
G1 X82.664 Y69.014 E.03302
G1 X82.684 Y31.753 E1.16829
G1 X82.973 Y30.648 E.03581
G1 X83.456 Y29.748 E.03203
G1 X84.3 Y28.853 E.03857
G1 X85.046 Y28.35 E.02821
G1 X86.712 Y27.864 E.05441
G1 X89.929 Y27.898 E.10087
G1 X91.206 Y28.283 E.04182
G1 X92.148 Y28.888 E.0351
G1 X92.92 Y29.716 E.0355
G1 X93.468 Y30.747 E.03661
G1 X93.717 Y31.783 E.03341
G1 X93.733 Y37.355 E.17471
G1 X156.263 Y37.355 E1.96058
G1 X156.268 Y31.93 E.1701
G1 X156.531 Y30.749 E.03794
G1 X157.101 Y29.688 E.03776
G1 X158.085 Y28.701 E.0437
G1 X158.91 Y28.229 E.0298
G1 X159.791 Y27.944 E.02903
G1 X163.356 Y27.873 E.1118
G1 X164.892 Y28.321 E.05017
G1 X165.655 Y28.817 E.02853
G1 X166.553 Y29.758 E.04078
G1 X167.034 Y30.669 E.0323
G1 X167.336 Y31.907 E.03995
G1 X167.336 Y69.014 E1.16346
G1 X168.389 Y69.014 E.03302
G1 X168.4 Y31.814 E1.16638
G1 X168.699 Y30.64 E.03799
G1 X169.323 Y29.564 E.039
G1 X170.191 Y28.719 E.03798
G1 X171.026 Y28.236 E.03025
G1 X172.448 Y27.864 E.04609
G1 X176.458 Y27.935 E.12575
G1 X177.501 Y28.28 E.03445
G1 X178.264 Y28.741 E.02795
G1 X178.93 Y29.357 E.02844
G1 X179.56 Y30.272 E.03483
G1 X180.036 Y31.89 E.05288
G1 X180.036 Y178.1 E4.58431
G1 X179.703 Y179.406 E.04226
G1 X179.321 Y180.142 E.026
G1 X178.499 Y181.067 E.0388
G1 X177.71 Y181.62 E.03021
G1 X176.174 Y182.11 E.05055
G1 X171.932 Y182.058 E.13301
G1 X170.818 Y181.669 E.037
G1 X169.895 Y181.041 E.035
G1 X169.337 Y180.451 E.02546
G1 X168.908 Y179.819 E.02395
G1 X168.437 Y178.429 E.04602
G1 X168.39 Y141.716 E1.15111
G1 X160.305 Y141.716 E.2535
M73 P0 R215
G1 X158.94 Y141.363 E.04421
G1 X157.783 Y140.639 E.04279
G1 X157.23 Y140.054 E.02524
G1 X156.827 Y139.489 E.02176
G1 X156.281 Y137.812 E.0553
G1 X156.264 Y131.428 E.20017
G1 X93.736 Y131.428 E1.96052
G1 X93.719 Y137.812 E.20017
G1 X93.173 Y139.489 E.0553
G1 X92.77 Y140.054 E.02176
G1 X92.217 Y140.639 E.02524
G1 X91.06 Y141.363 E.04279
G1 X89.695 Y141.716 E.04421
G1 X81.61 Y141.716 E.2535
G1 X81.586 Y178.279 E1.14641
G1 X81.235 Y179.517 E.04035
G1 X80.631 Y180.492 E.03596
G1 X79.791 Y181.294 E.03641
G1 X79.113 Y181.702 E.02481
G1 X77.758 Y182.11 E.04437
G1 X73.624 Y182.079 E.12962
G1 X72.622 Y181.775 E.03283
G1 X71.825 Y181.325 E.0287
G1 X71.022 Y180.588 E.03417
G1 X70.474 Y179.801 E.03007
G1 X69.964 Y178.108 E.05544
G1 X69.964 Y31.898 E4.58431
G1 X70.312 Y30.55 E.04365
G1 X70.347 Y30.494 E.00207
M204 S1000
G1 X70.668 Y30.676 F6000
M204 S800
G1 F1200
G1 X71.38 Y29.579 E.04101
G1 X72.254 Y28.835 E.03599
G1 X72.823 Y28.552 E.01993
G1 X73.821 Y28.273 E.03249
G1 X77.604 Y28.254 E.11861
G1 X78.437 Y28.43 E.02669
G1 X79.61 Y29.038 E.04143
G1 X80.42 Y29.846 E.03587
G1 X80.944 Y30.766 E.0332
G1 X81.234 Y31.93 E.03761
G1 X81.234 Y69.391 E1.17456
G1 X83.041 Y69.391 E.05666
G1 X83.061 Y31.778 E1.17933
G1 X83.331 Y30.768 E.03278
G1 X83.775 Y29.95 E.02918
G1 X84.558 Y29.129 E.03557
G1 X85.231 Y28.68 E.02537
G1 X86.736 Y28.241 E.04915
G1 X89.897 Y28.275 E.09912
G1 X91.07 Y28.636 E.03848
G1 X91.89 Y29.164 E.03058
G1 X92.6 Y29.915 E.0324
G1 X93.123 Y30.902 E.03502
G1 X93.345 Y31.848 E.03047
G1 X93.356 Y37.732 E.18449
G1 X156.641 Y37.732 E1.98426
G1 X156.641 Y31.99 E.18004
G1 X156.877 Y30.902 E.03491
G1 X157.39 Y29.933 E.03438
G1 X158.296 Y29.014 E.04046
G1 X159.046 Y28.581 E.02715
G1 X159.881 Y28.311 E.02752
G1 X163.333 Y28.251 E.10825
G1 X164.757 Y28.675 E.04659
G1 X165.399 Y29.094 E.02404
G1 X166.233 Y29.959 E.03767
G1 X166.674 Y30.783 E.0293
G1 X166.959 Y31.93 E.03706
G1 X166.959 Y69.391 E1.17456
G1 X168.766 Y69.391 E.05666
G1 X168.772 Y31.884 E1.17601
G1 X169.058 Y30.76 E.03637
G1 X169.635 Y29.779 E.03568
G1 X170.435 Y29.007 E.03486
G1 X171.191 Y28.576 E.02729
G1 X172.467 Y28.241 E.04136
G1 X176.422 Y28.311 E.12403
G1 X177.323 Y28.614 E.0298
G1 X178.052 Y29.053 E.02668
G1 X178.659 Y29.619 E.02602
G1 X179.207 Y30.409 E.03015
G1 X179.659 Y31.918 E.04939
G1 X179.659 Y178.076 E4.58268
G1 X179.344 Y179.289 E.03929
G1 X178.999 Y179.945 E.02324
G1 X178.234 Y180.798 E.03593
G1 X177.52 Y181.293 E.02724
G1 X176.09 Y181.741 E.04699
G1 X171.97 Y181.681 E.12919
G1 X170.969 Y181.323 E.03333
G1 X170.126 Y180.742 E.0321
G1 X169.622 Y180.204 E.02311
G1 X169.255 Y179.671 E.02029
G1 X168.814 Y178.396 E.0423
G1 X168.767 Y141.339 E1.1619
G1 X160.328 Y141.339 E.2646
G1 X159.113 Y141.027 E.03933
M73 P1 R215
G1 X158.04 Y140.361 E.0396
G1 X157.151 Y139.296 E.0435
G1 X156.649 Y137.725 E.05171
G1 X156.64 Y131.051 E.20926
G1 X93.36 Y131.051 E1.9841
G1 X93.351 Y137.725 E.20926
G1 X92.849 Y139.296 E.05171
G1 X91.96 Y140.361 E.0435
G1 X90.887 Y141.027 E.0396
G1 X89.672 Y141.339 E.03933
G1 X81.233 Y141.339 E.2646
G1 X81.209 Y178.253 E1.15741
G1 X80.9 Y179.341 E.03546
G1 X80.323 Y180.273 E.03437
G1 X79.577 Y180.983 E.03229
G1 X78.98 Y181.348 E.02194
G1 X77.677 Y181.74 E.04266
G1 X73.656 Y181.702 E.12608
G1 X72.755 Y181.422 E.02958
G1 X72.031 Y181.008 E.02615
G1 X71.294 Y180.326 E.03148
G1 X70.801 Y179.612 E.02721
G1 X70.341 Y178.08 E.05015
G1 X70.341 Y31.923 E4.58265
G1 X70.653 Y30.734 E.03854
M204 S1000
G1 X71.017 Y30.831 F6000
M204 S800
G1 F1200
G1 X71.024 Y30.804 E.00087
G1 X71.679 Y29.809 E.03735
G1 X72.444 Y29.161 E.03143
G1 X72.943 Y28.91 E.01751
G1 X73.898 Y28.643 E.03109
G1 X77.548 Y28.628 E.11444
G1 X78.289 Y28.778 E.0237
G1 X79.366 Y29.327 E.0379
G1 X80.106 Y30.057 E.03259
G1 X80.585 Y30.885 E.02999
G1 X80.857 Y31.954 E.03459
G1 X80.857 Y69.768 E1.18563
G1 X83.418 Y69.768 E.0803
G1 X83.438 Y31.804 E1.19033
G1 X83.688 Y30.89 E.02971
G1 X84.093 Y30.155 E.02631
G1 X84.814 Y29.407 E.03257
G1 X85.415 Y29.01 E.02258
G1 X86.76 Y28.619 E.04392
G1 X89.815 Y28.643 E.09579
G1 X90.89 Y28.968 E.03521
G1 X91.632 Y29.44 E.02757
G1 X92.307 Y30.155 E.03083
G1 X92.777 Y31.055 E.03184
G1 X92.967 Y31.87 E.02624
G1 X92.98 Y38.109 E.19562
G1 X157.018 Y38.109 E2.00787
M73 P1 R214
G1 X157.018 Y32.009 E.19126
G1 X157.223 Y31.053 E.03066
G1 X157.68 Y30.175 E.03103
G1 X158.508 Y29.327 E.03716
G1 X159.216 Y28.918 E.02564
G1 X159.968 Y28.679 E.02474
G1 X163.308 Y28.628 E.10474
G1 X164.621 Y29.027 E.04303
G1 X165.143 Y29.372 E.01962
G1 X165.915 Y30.163 E.03466
G1 X166.314 Y30.9 E.02628
G1 X166.582 Y31.954 E.0341
G1 X166.582 Y69.768 E1.18563
G1 X169.143 Y69.768 E.0803
G1 X169.143 Y31.954 E1.18563
G1 X169.416 Y30.88 E.03475
G1 X169.945 Y29.995 E.03233
G1 X170.677 Y29.297 E.03171
G1 X171.355 Y28.916 E.02438
G1 X172.487 Y28.619 E.03669
G1 X176.386 Y28.688 E.12227
G1 X177.147 Y28.947 E.0252
G1 X177.81 Y29.343 E.02421
G1 X178.387 Y29.882 E.02476
G1 X178.856 Y30.549 E.02557
G1 X179.282 Y31.946 E.04579
G1 X179.282 Y178.051 E4.58102
G1 X178.985 Y179.171 E.03633
G1 X178.678 Y179.746 E.02044
G1 X177.97 Y180.528 E.03308
G1 X177.331 Y180.965 E.02427
G1 X176.009 Y181.372 E.04337
G1 X172.009 Y181.305 E.12543
G1 X171.123 Y180.978 E.02961
G1 X170.359 Y180.445 E.02921
G1 X169.601 Y179.52 E.0375
G1 X169.192 Y178.363 E.03848
G1 X169.143 Y140.962 E1.17268
G1 X160.353 Y140.962 E.2756
G1 X159.237 Y140.67 E.03617
G1 X158.297 Y140.085 E.03471
G1 X157.477 Y139.103 E.04011
G1 X157.018 Y137.641 E.04805
G1 X157.018 Y130.674 E.21845
G1 X92.982 Y130.674 E2.0078
G1 X92.982 Y137.641 E.21845
G1 X92.523 Y139.103 E.04805
G1 X91.703 Y140.085 E.04011
G1 X90.763 Y140.67 E.03471
G1 X89.647 Y140.962 E.03617
G1 X80.856 Y140.962 E.27564
G1 X80.832 Y178.225 E1.16836
G1 X80.546 Y179.209 E.03213
G1 X80.017 Y180.052 E.0312
G1 X79.36 Y180.674 E.02837
G1 X78.847 Y180.994 E.01896
G1 X77.596 Y181.371 E.04097
G1 X73.689 Y181.326 E.12251
G1 X72.89 Y181.069 E.02632
G1 X72.239 Y180.693 E.02357
G1 X71.567 Y180.066 E.02882
G1 X71.129 Y179.424 E.02437
G1 X70.718 Y178.053 E.04488
G1 X70.718 Y31.948 E4.58102
G1 X71.001 Y30.889 E.03437
M204 S1000
G1 X71.365 Y30.989 F6000
M204 S800
G1 F1200
G1 X71.38 Y30.933 E.00182
G1 X71.945 Y30.078 E.03213
G1 X72.636 Y29.486 E.02853
G1 X73.065 Y29.267 E.0151
G1 X73.926 Y29.02 E.02808
G1 X77.53 Y29.005 E.113
G1 X78.188 Y29.142 E.02107
G1 X79.124 Y29.618 E.03292
G1 X79.795 Y30.271 E.02936
G1 X80.227 Y31.006 E.02673
G1 X80.48 Y31.979 E.03152
G1 X80.48 Y70.145 E1.19667
G1 X83.795 Y70.145 E.10394
G1 X83.808 Y31.879 E1.1998
G1 X84.046 Y31.012 E.02819
G1 X84.409 Y30.361 E.02337
G1 X85.069 Y29.686 E.0296
G1 X85.597 Y29.342 E.01976
G1 X86.785 Y28.996 E.0388
G1 X89.784 Y29.02 E.09403
G1 X90.753 Y29.32 E.03181
G1 X91.407 Y29.743 E.02442
G1 X92.014 Y30.393 E.02789
G1 X92.416 Y31.166 E.02732
G1 X92.59 Y31.893 E.02344
G1 X92.603 Y38.486 E.20672
G1 X157.395 Y38.486 E2.03151
G1 X157.395 Y32.03 E.20242
G1 X157.586 Y31.158 E.02799
G1 X157.97 Y30.417 E.02617
G1 X158.721 Y29.639 E.0339
G1 X159.351 Y29.271 E.02288
G1 X160.056 Y29.047 E.02319
G1 X163.284 Y29.006 E.10122
G1 X164.438 Y29.358 E.03783
G1 X164.89 Y29.652 E.01691
G1 X165.598 Y30.369 E.03159
G1 X165.956 Y31.018 E.02324
G1 X166.205 Y31.979 E.03113
G1 X166.205 Y70.145 E1.19667
G1 X169.52 Y70.145 E.10394
G1 X169.52 Y31.979 E1.19667
G1 X169.774 Y31.002 E.03165
G1 X170.253 Y30.213 E.02894
G1 X170.918 Y29.588 E.02861
G1 X171.476 Y29.274 E.02008
G1 X172.508 Y28.996 E.03351
G1 X176.294 Y29.055 E.11872
G1 X176.974 Y29.283 E.02249
G1 X177.568 Y29.633 E.02162
G1 X178.115 Y30.143 E.02345
G1 X178.529 Y30.739 E.02275
G1 X178.905 Y31.974 E.04048
G1 X178.905 Y178.025 E4.57933
G1 X178.627 Y179.049 E.03327
G1 X178.358 Y179.545 E.01769
G1 X177.708 Y180.257 E.03023
G1 X177.144 Y180.637 E.02132
G1 X175.984 Y180.994 E.03805
G1 X172.107 Y180.94 E.12157
G1 X171.317 Y180.653 E.02635
G1 X170.622 Y180.173 E.02648
G1 X169.926 Y179.326 E.03437
G1 X169.558 Y178.27 E.03506
G1 X169.52 Y140.585 E1.18159
G1 X160.377 Y140.585 E.28667
G1 X159.41 Y140.334 E.03132
G1 X158.554 Y139.807 E.03152
G1 X157.802 Y138.911 E.03668
G1 X157.395 Y137.612 E.04268
G1 X157.395 Y130.297 E.22936
G1 X92.605 Y130.297 E2.03144
G1 X92.605 Y137.612 E.22936
M73 P1 R213
G1 X92.198 Y138.911 E.04268
G1 X91.446 Y139.807 E.03668
G1 X90.59 Y140.334 E.03152
G1 X89.623 Y140.585 E.03132
G1 X80.48 Y140.585 E.28667
G1 X80.455 Y178.197 E1.1793
G1 X80.193 Y179.075 E.02873
G1 X79.712 Y179.829 E.02804
G1 X79.142 Y180.366 E.02455
G1 X78.71 Y180.642 E.01607
G1 X77.57 Y180.994 E.03741
G1 X73.777 Y180.958 E.11893
G1 X73.024 Y180.717 E.02479
G1 X72.48 Y180.403 E.01969
G1 X71.841 Y179.805 E.02744
G1 X71.458 Y179.237 E.02148
G1 X71.095 Y178.025 E.03967
G1 X71.095 Y31.974 E4.57933
G1 X71.349 Y31.046 E.03017
M204 S1000
G1 X71.711 Y31.148 F6000
M204 S800
G1 F1200
G1 X71.735 Y31.064 E.00274
G1 X72.211 Y30.346 E.02701
G1 X72.831 Y29.81 E.0257
G1 X73.191 Y29.623 E.01272
G1 X73.955 Y29.397 E.02498
G1 X77.51 Y29.382 E.11147
G1 X78.085 Y29.505 E.01844
G1 X78.884 Y29.909 E.02807
G1 X79.485 Y30.487 E.02614
G1 X79.87 Y31.13 E.0235
G1 X80.103 Y32.004 E.02836
G1 X80.103 Y70.522 E1.2077
G1 X84.172 Y70.522 E.12758
G1 X84.179 Y31.955 E1.20924
G1 X84.403 Y31.135 E.02665
G1 X84.724 Y30.57 E.02037
G1 X85.321 Y29.966 E.02663
G1 X85.777 Y29.674 E.01698
G1 X86.809 Y29.373 E.03371
G1 X89.751 Y29.397 E.09225
G1 X90.613 Y29.671 E.02836
G1 X91.18 Y30.045 E.0213
G1 X91.693 Y30.592 E.02351
G1 X92.056 Y31.279 E.02436
G1 X92.213 Y31.917 E.0206
G1 X92.227 Y38.863 E.21779
G1 X157.772 Y38.863 E2.05512
