; generated by PrusaSlicer 2.2.0+win64 on 2020-09-24 at 19:26:31 UTC


;
;

;
;
; 

; external perimeters extrusion width = 0.45mm
; perimeters extrusion width = 0.45mm
; infill extrusion width = 0.45mm
; solid infill extrusion width = 0.45mm
; top infill extrusion width = 0.40mm
; first layer extrusion width = 0.42mm

M73 P0 R89
M201 X9000 Y9000 Z500 E10000 ; sets maximum accelerations, mm/sec^2
M203 X500 Y500 Z12 E120 ; sets maximum feedrates, mm/sec
M204 P2000 R1500 T2000 ; sets acceleration (P, T) and retract acceleration (R), mm/sec^2
M205 X10.00 Y10.00 Z0.20 E2.50 ; sets the jerk limits, mm/sec
M205 S0 T0 ; sets the minimum extruding and travel feed rate, mm/sec
M107
M83  ; extruder relative mode
M140 S85 ; set bed temp
M109 S160 ; Set extruder temp before bed level
M190 S85 ; wait for bed temp

G28 W ; home all without mesh bed level
G80 N7 ; mesh bed leveling

M109 S240 ; wait for extruder temp

M221 S100 ; Set flow to 100

G1 Y-3.0 F1000.0 ; go outside print area
G92 E0.0
G1 E8 ; Purge Bubble
M73 P0 R89
G1 X60.0 E9.0 F1000.0 ; intro line
G1 X100.0 E12.5 F1000.0 ; intro line
G92 E0.0
G21 ; set units to millimeters
G90 ; use absolute coordinates
M83 ; use relative distances for extrusion
M900 K0.08 ; Filament gcode LA 1.5
M900 K45 ; Filament gcode LA 1.0
;BEFORE_LAYER_CHANGE
G92 E0.0
;0.2


G1 E-1.40000 F2100.00000
G1 Z0.200 F10800.000
;AFTER_LAYER_CHANGE
;0.2
G1 Z0.400
G1 X94.063 Y64.638
G1 Z0.200
G1 E1.40000 F2100.00000
M204 S1000
G1 F1200.000
G1 X95.234 Y61.755 E0.09756
G1 X95.502 Y61.295 E0.01668
G1 X97.357 Y58.900 E0.09499
G1 X99.796 Y56.994 E0.09706
G1 X100.330 Y56.686 E0.01934
G1 X102.905 Y55.621 E0.08738
G1 X103.439 Y55.482 E0.01728
G1 X106.452 Y55.103 E0.09523
G1 X143.530 Y55.103 E1.16254
G1 X146.584 Y55.485 E0.09652
G1 X147.145 Y55.641 E0.01826
G1 X149.966 Y56.834 E0.09602
G1 X152.591 Y58.847 E0.10374
G1 X154.499 Y61.294 E0.09728
G1 X154.779 Y61.782 E0.01763
G1 X155.934 Y64.626 E0.09624
G1 X156.355 Y67.664 E0.09618
G1 X156.371 Y142.097 E2.33380
G1 X155.938 Y145.359 E0.10317
G1 X154.767 Y148.244 E0.09762
G1 X154.498 Y148.707 E0.01680
G1 X152.632 Y151.112 E0.09541
G1 X149.987 Y153.154 E0.10478
G1 X146.872 Y154.454 E0.10584
G1 X143.745 Y154.887 E0.09896
G1 X106.387 Y154.896 E1.17136
G1 X103.163 Y154.463 E0.10198
G1 X100.282 Y153.293 E0.09750
G1 X99.819 Y153.023 E0.01680
G1 X97.412 Y151.155 E0.09553
G1 X95.369 Y148.506 E0.10490
G1 X94.070 Y145.390 E0.10584
G1 X93.633 Y142.183 E0.10147
G1 X93.630 Y67.903 E2.32902
G1 X94.055 Y64.697 E0.10137
; printing object sacrament_cup.stl id:0 copy 4
G1 F8640.000
G1 X95.234 Y61.755 E-0.73191
G1 X95.502 Y61.295 E-0.12287
G1 X96.762 Y59.668 E-0.47522
G1 E-0.07000 F2100.00000
G1 Z0.400 F10800.000
G1 X133.923 Y67.948
G1 Z0.200
G1 E1.40000 F2100.00000
G1 F1200.000
G1 X134.250 Y65.463 E0.07860
G1 X135.209 Y63.146 E0.07862
G1 X136.735 Y61.157 E0.07859
G1 X138.724 Y59.631 E0.07861
G1 X141.040 Y58.672 E0.07861
G1 X143.526 Y58.345 E0.07860
G1 X146.012 Y58.672 E0.07862
G1 X148.328 Y59.631 E0.07859
G1 X150.317 Y61.157 E0.07861
G1 X151.843 Y63.146 E0.07861
G1 X152.802 Y65.463 E0.07861
G1 X153.130 Y67.948 E0.07860
G1 X152.802 Y70.434 E0.07860
G1 X151.843 Y72.750 E0.07861
G1 X150.317 Y74.739 E0.07861
G1 X148.328 Y76.265 E0.07861
G1 X146.012 Y77.224 E0.07859
G1 X143.526 Y77.552 E0.07862
G1 X141.041 Y77.225 E0.07860
G1 X138.724 Y76.265 E0.07861
G1 X136.735 Y74.739 E0.07861
G1 X135.209 Y72.750 E0.07860
G1 X134.250 Y70.434 E0.07862
G1 X133.931 Y68.008 E0.07672
G1 X133.557 Y68.057 F10800.000
G1 F1200.000
G1 X133.543 Y67.948 E0.00344
G1 X133.882 Y65.364 E0.08171
G1 X134.880 Y62.956 E0.08174
G1 X136.466 Y60.888 E0.08171
G1 X138.534 Y59.302 E0.08173
G1 X140.942 Y58.305 E0.08172
G1 X143.526 Y57.964 E0.08172
G1 X146.110 Y58.305 E0.08174
G1 X148.518 Y59.302 E0.08170
G1 X150.586 Y60.888 E0.08172
G1 X152.172 Y62.956 E0.08172
G1 X153.169 Y65.364 E0.08173
G1 X153.510 Y67.948 E0.08171
G1 X153.169 Y70.532 E0.08171
G1 X152.172 Y72.940 E0.08173
G1 X150.586 Y75.008 E0.08172
G1 X148.518 Y76.595 E0.08172
G1 X146.110 Y77.592 E0.08170
G1 X143.526 Y77.932 E0.08174
G1 X140.942 Y77.592 E0.08171
G1 X138.534 Y76.595 E0.08172
G1 X136.466 Y75.008 E0.08172
G1 X134.880 Y72.940 E0.08171
G1 X133.882 Y70.532 E0.08174
G1 X133.565 Y68.116 E0.07639
G1 X133.641 Y67.986 F10800.000
G1 F8640.000
G1 X133.543 Y67.948 E-0.03915
G1 X133.882 Y65.364 E-0.60174
G1 X134.880 Y62.956 E-0.60193
G1 X135.110 Y62.657 E-0.08718
G1 E-0.07000 F2100.00000
G1 Z0.400 F10800.000
G1 X151.035 Y62.279
G1 Z0.200
G1 E1.40000 F2100.00000
G1 F1200.000
G1 X150.115 Y61.359 E0.04116
G1 X148.185 Y59.878 E0.07692
G1 X148.033 Y59.815 E0.00521
G1 X151.659 Y63.441 E0.16217
G1 X152.039 Y64.359 E0.03142
G1 X147.115 Y59.435 E0.22023
G1 X146.197 Y59.055 E0.03143
G1 X152.419 Y65.277 E0.27829
G1 X152.527 Y65.537 E0.00890
G1 X152.585 Y65.981 E0.01417
G1 X145.493 Y58.889 E0.31719
G1 X144.874 Y58.807 E0.01976
G1 X152.667 Y66.600 E0.34855
G1 X152.748 Y67.220 E0.01976
G1 X144.254 Y58.726 E0.37991
G1 X143.635 Y58.644 E0.01976
G1 X152.830 Y67.839 E0.41127
G1 X152.844 Y67.948 E0.00347
G1 X152.793 Y68.340 E0.01250
G1 X143.134 Y58.681 E0.43199
G1 X142.659 Y58.744 E0.01516
G1 X152.730 Y68.815 E0.45045
G1 X152.668 Y69.291 E0.01516
G1 X142.184 Y58.807 E0.46890
G1 X141.708 Y58.869 E0.01516
G1 X152.605 Y69.766 E0.48736
G1 X152.542 Y70.241 E0.01516
G1 X141.233 Y58.932 E0.50581
G1 X141.114 Y58.948 E0.00379
G1 X140.829 Y59.066 E0.00977
G1 X152.408 Y70.645 E0.51790
G1 X152.251 Y71.026 E0.01302
G1 X140.449 Y59.223 E0.52787
G1 X140.068 Y59.381 E0.01302
G1 X152.094 Y71.406 E0.53784
G1 X151.936 Y71.786 E0.01302
G1 X139.688 Y59.538 E0.54781
G1 X139.307 Y59.696 E0.01302
G1 X151.779 Y72.167 E0.55778
G1 X151.621 Y72.547 E0.01302
G1 X138.927 Y59.853 E0.56775
G1 X138.867 Y59.878 E0.00206
G1 X138.611 Y60.075 E0.01021
G1 X151.400 Y72.864 E0.57200
G1 X151.166 Y73.168 E0.01213
G1 X138.306 Y60.308 E0.57517
G1 X138.002 Y60.542 E0.01213
G1 X150.932 Y73.472 E0.57833
G1 X150.699 Y73.777 E0.01213
G1 X137.698 Y60.775 E0.58150
G1 X137.393 Y61.009 E0.01213
G1 X150.465 Y74.081 E0.58467
G1 X150.232 Y74.385 E0.01213
G1 X137.089 Y61.242 E0.58783
G1 X136.937 Y61.359 E0.00606
G1 X136.820 Y61.511 E0.00607
G1 X149.963 Y74.654 E0.58783
G1 X149.659 Y74.888 E0.01213
G1 X136.586 Y61.816 E0.58466
G1 X136.353 Y62.120 E0.01213
G1 X149.354 Y75.121 E0.58149
G1 X149.050 Y75.355 E0.01213
G1 X136.119 Y62.425 E0.57832
G1 X135.886 Y62.729 E0.01213
G1 X148.746 Y75.588 E0.57515
G1 X148.441 Y75.822 E0.01213
G1 X135.652 Y63.033 E0.57199
G1 X135.456 Y63.289 E0.01019
G1 X135.431 Y63.350 E0.00209
G1 X148.125 Y76.043 E0.56773
G1 X147.744 Y76.201 E0.01302
G1 X135.274 Y63.730 E0.55777
G1 X135.116 Y64.111 E0.01302
G1 X147.364 Y76.359 E0.54780
G1 X146.984 Y76.516 E0.01302
G1 X134.958 Y64.491 E0.53784
G1 X134.801 Y64.871 E0.01302
G1 X146.603 Y76.674 E0.52787
G1 X146.223 Y76.831 E0.01302
G1 X134.643 Y65.252 E0.51791
G1 X134.525 Y65.537 E0.00976
G1 X134.510 Y65.656 E0.00379
G1 X145.819 Y76.965 E0.50581
G1 X145.343 Y77.027 E0.01516
G1 X134.447 Y66.131 E0.48735
M73 P1 R88
G1 X134.385 Y66.606 E0.01516
G1 X144.868 Y77.090 E0.46888
G1 X144.393 Y77.153 E0.01516
G1 X134.322 Y67.082 E0.45042
G1 X134.260 Y67.557 E0.01516
G1 X143.917 Y77.215 E0.43196
G1 X143.526 Y77.267 E0.01249
G1 X143.417 Y77.252 E0.00348
G1 X134.223 Y68.058 E0.41122
G1 X134.304 Y68.677 E0.01975
G1 X142.797 Y77.171 E0.37987
G1 X142.178 Y77.089 E0.01976
G1 X134.385 Y69.297 E0.34852
G1 X134.467 Y69.916 E0.01975
G1 X141.558 Y77.007 E0.31717
G1 X141.114 Y76.949 E0.01416
G1 X140.854 Y76.841 E0.00891
G1 X134.633 Y70.620 E0.27825
G1 X135.014 Y71.539 E0.03144
G1 X139.936 Y76.461 E0.22017
G1 X139.018 Y76.081 E0.03142
G1 X135.080 Y72.143 E0.17613
; stop printing object sacrament_cup.stl id:0 copy 4
; printing object sacrament_cup.stl id:0 copy 5
G1 F8640.000
G1 X139.018 Y76.081 E-1.28591
G1 X139.195 Y76.154 E-0.04409
G1 E-0.07000 F2100.00000
G1 Z0.400 F10800.000
G1 X115.750 Y70.434
G1 Z0.200
G1 E1.40000 F2100.00000
G1 F1200.000
G1 X114.791 Y72.750 E0.07861
G1 X113.265 Y74.739 E0.07861
G1 X111.276 Y76.265 E0.07861
G1 X108.960 Y77.224 E0.07859
G1 X106.474 Y77.552 E0.07862
G1 X103.989 Y77.225 E0.07860
G1 X101.672 Y76.265 E0.07861
G1 X99.683 Y74.739 E0.07861
G1 X98.158 Y72.750 E0.07860
G1 X97.198 Y70.434 E0.07862
G1 X96.871 Y67.948 E0.07860
G1 X97.198 Y65.463 E0.07860
G1 X98.158 Y63.146 E0.07862
G1 X99.683 Y61.157 E0.07859
G1 X101.672 Y59.631 E0.07861
G1 X103.989 Y58.672 E0.07861
G1 X106.474 Y58.345 E0.07860
G1 X108.960 Y58.672 E0.07862
G1 X111.276 Y59.631 E0.07859
G1 X113.265 Y61.157 E0.07861
G1 X114.791 Y63.146 E0.07861
G1 X115.750 Y65.463 E0.07861
G1 X116.078 Y67.948 E0.07860
G1 X115.758 Y70.374 E0.07672
G1 X116.132 Y70.423 F10800.000
G1 F1200.000
G1 X116.118 Y70.532 E0.00344
G1 X115.121 Y72.940 E0.08173
G1 X113.534 Y75.008 E0.08172
G1 X111.466 Y76.595 E0.08172
G1 X109.059 Y77.592 E0.08170
G1 X106.474 Y77.932 E0.08174
G1 X103.890 Y77.592 E0.08171
G1 X101.482 Y76.595 E0.08172
G1 X99.414 Y75.008 E0.08172
G1 X97.828 Y72.940 E0.08171
G1 X96.831 Y70.532 E0.08174
G1 X96.491 Y67.948 E0.08171
G1 X96.831 Y65.364 E0.08171
G1 X97.828 Y62.956 E0.08174
G1 X99.414 Y60.888 E0.08171
G1 X101.482 Y59.302 E0.08173
G1 X103.890 Y58.305 E0.08172
G1 X106.474 Y57.964 E0.08172
G1 X109.059 Y58.305 E0.08174
G1 X111.466 Y59.302 E0.08170
G1 X113.534 Y60.888 E0.08172
G1 X115.121 Y62.956 E0.08172
G1 X116.118 Y65.364 E0.08173
G1 X116.458 Y67.948 E0.08171
G1 X116.140 Y70.364 E0.07640
G1 X116.033 Y70.470 F10800.000
G1 F8640.000
G1 X116.118 Y70.532 E-0.03916
G1 X115.121 Y72.940 E-0.60186
G1 X113.534 Y75.008 E-0.60182
G1 X113.234 Y75.238 E-0.08716
G1 E-0.07000 F2100.00000
G1 Z0.400 F10800.000
G1 X98.029 Y72.143
G1 Z0.200
G1 E1.40000 F2100.00000
G1 F1200.000
G1 X101.967 Y76.081 E0.17613
G1 X102.885 Y76.461 E0.03142
G1 X97.962 Y71.539 E0.22017
G1 X97.581 Y70.620 E0.03144
G1 X103.802 Y76.841 E0.27825
G1 X104.063 Y76.949 E0.00891
G1 X104.507 Y77.007 E0.01416
G1 X97.415 Y69.916 E0.31717
G1 X97.334 Y69.297 E0.01975
G1 X105.126 Y77.089 E0.34852
G1 X105.746 Y77.171 E0.01976
G1 X97.252 Y68.677 E0.37987
G1 X97.171 Y68.058 E0.01975
G1 X106.365 Y77.252 E0.41122
G1 X106.474 Y77.267 E0.00348
G1 X106.866 Y77.215 E0.01249
G1 X97.208 Y67.557 E0.43196
G1 X97.270 Y67.082 E0.01516
G1 X107.341 Y77.153 E0.45042
G1 X107.816 Y77.090 E0.01516
G1 X97.333 Y66.606 E0.46888
G1 X97.395 Y66.131 E0.01516
G1 X108.292 Y77.027 E0.48735
G1 X108.767 Y76.965 E0.01516
G1 X97.458 Y65.656 E0.50581
G1 X97.473 Y65.537 E0.00379
G1 X97.592 Y65.252 E0.00976
G1 X109.171 Y76.831 E0.51791
G1 X109.552 Y76.674 E0.01302
G1 X97.749 Y64.871 E0.52787
G1 X97.907 Y64.491 E0.01302
G1 X109.932 Y76.516 E0.53784
G1 X110.312 Y76.359 E0.01302
G1 X98.064 Y64.111 E0.54780
G1 X98.222 Y63.730 E0.01302
G1 X110.693 Y76.201 E0.55777
G1 X111.073 Y76.043 E0.01302
G1 X98.379 Y63.350 E0.56773
G1 X98.405 Y63.289 E0.00209
G1 X98.601 Y63.033 E0.01019
G1 X111.389 Y75.822 E0.57199
G1 X111.694 Y75.588 E0.01213
G1 X98.834 Y62.729 E0.57515
G1 X99.068 Y62.425 E0.01213
G1 X111.998 Y75.355 E0.57832
G1 X112.302 Y75.121 E0.01213
G1 X99.301 Y62.120 E0.58149
G1 X99.535 Y61.816 E0.01213
G1 X112.607 Y74.888 E0.58466
G1 X112.911 Y74.654 E0.01213
G1 X99.768 Y61.511 E0.58783
G1 X99.885 Y61.359 E0.00607
G1 X100.037 Y61.242 E0.00606
G1 X113.180 Y74.385 E0.58783
G1 X113.414 Y74.081 E0.01213
G1 X100.341 Y61.009 E0.58467
G1 X100.646 Y60.775 E0.01213
G1 X113.647 Y73.777 E0.58150
G1 X113.881 Y73.472 E0.01213
G1 X100.950 Y60.542 E0.57833
G1 X101.254 Y60.308 E0.01213
G1 X114.114 Y73.168 E0.57517
G1 X114.348 Y72.864 E0.01213
G1 X101.559 Y60.075 E0.57200
G1 X101.815 Y59.878 E0.01021
G1 X101.875 Y59.853 E0.00206
G1 X114.569 Y72.547 E0.56775
G1 X114.727 Y72.167 E0.01302
G1 X102.256 Y59.696 E0.55778
G1 X102.636 Y59.538 E0.01302
G1 X114.884 Y71.786 E0.54781
G1 X115.042 Y71.406 E0.01302
G1 X103.016 Y59.381 E0.53784
G1 X103.397 Y59.223 E0.01302
G1 X115.199 Y71.026 E0.52787
G1 X115.357 Y70.645 E0.01302
G1 X103.777 Y59.066 E0.51790
G1 X104.063 Y58.948 E0.00977
G1 X104.181 Y58.932 E0.00379
G1 X115.491 Y70.241 E0.50581
G1 X115.553 Y69.766 E0.01516
G1 X104.657 Y58.869 E0.48736
G1 X105.132 Y58.807 E0.01516
G1 X115.616 Y69.291 E0.46890
G1 X115.678 Y68.815 E0.01516
G1 X105.607 Y58.744 E0.45045
G1 X106.082 Y58.681 E0.01516
G1 X115.741 Y68.340 E0.43199
G1 X115.793 Y67.948 E0.01250
G1 X115.778 Y67.839 E0.00347
G1 X106.583 Y58.644 E0.41127
G1 X107.203 Y58.726 E0.01976
G1 X115.697 Y67.220 E0.37991
G1 X115.615 Y66.600 E0.01976
G1 X107.822 Y58.807 E0.34855
G1 X108.442 Y58.889 E0.01976
G1 X115.533 Y65.981 E0.31719
G1 X115.475 Y65.537 E0.01417
G1 X115.367 Y65.277 E0.00890
G1 X109.145 Y59.055 E0.27829
G1 X110.063 Y59.435 E0.03143
G1 X114.987 Y64.359 E0.22023
G1 X114.607 Y63.441 E0.03142
G1 X110.981 Y59.815 E0.16217
G1 X111.133 Y59.878 E0.00521
G1 X113.063 Y61.359 E0.07692
G1 X113.983 Y62.279 E0.04116
; stop printing object sacrament_cup.stl id:0 copy 5
; printing object sacrament_cup.stl id:0 copy 2
G1 F8640.000
G1 X113.063 Y61.359 E-0.30051
G1 X111.133 Y59.878 E-0.56160
G1 X110.981 Y59.815 E-0.03801
G1 X112.298 Y61.132 E-0.42988
G1 E-0.07000 F2100.00000
G1 Z0.400 F10800.000
G1 X108.960 Y95.724
G1 Z0.200
G1 E1.40000 F2100.00000
G1 F1200.000
G1 X111.276 Y96.683 E0.07859
G1 X113.265 Y98.209 E0.07861
G1 X114.791 Y100.198 E0.07861
G1 X115.750 Y102.515 E0.07861
G1 X116.078 Y105.000 E0.07860
G1 X115.750 Y107.485 E0.07860
G1 X114.791 Y109.802 E0.07861
G1 X113.265 Y111.791 E0.07861
G1 X111.276 Y113.317 E0.07861
G1 X108.960 Y114.276 E0.07859
G1 X106.474 Y114.604 E0.07862
G1 X103.989 Y114.276 E0.07860
G1 X101.672 Y113.317 E0.07861
G1 X99.683 Y111.791 E0.07861
G1 X98.158 Y109.802 E0.07860
G1 X97.198 Y107.485 E0.07862
G1 X96.871 Y105.000 E0.07860
G1 X97.198 Y102.515 E0.07860
G1 X98.158 Y100.198 E0.07862
G1 X99.683 Y98.209 E0.07859
G1 X101.672 Y96.683 E0.07861
G1 X103.989 Y95.724 E0.07861
G1 X106.474 Y95.396 E0.07860
G1 X108.901 Y95.716 E0.07674
G1 X108.950 Y95.342 F10800.000
G1 F1200.000
G1 X109.059 Y95.356 E0.00344
G1 X111.466 Y96.353 E0.08170
G1 X113.534 Y97.940 E0.08172
G1 X115.121 Y100.008 E0.08172
G1 X116.118 Y102.416 E0.08173
G1 X116.458 Y105.000 E0.08171
G1 X116.118 Y107.584 E0.08171
G1 X115.121 Y109.992 E0.08173
G1 X113.534 Y112.060 E0.08172
G1 X111.466 Y113.647 E0.08172
G1 X109.059 Y114.644 E0.08170
G1 X106.474 Y114.984 E0.08174
G1 X103.890 Y114.644 E0.08171
G1 X101.482 Y113.647 E0.08172
G1 X99.414 Y112.060 E0.08172
G1 X97.828 Y109.992 E0.08171
G1 X96.831 Y107.584 E0.08174
G1 X96.491 Y105.000 E0.08171
G1 X96.831 Y102.416 E0.08171
G1 X97.828 Y100.008 E0.08174
G1 X99.414 Y97.940 E0.08171
G1 X101.482 Y96.353 E0.08173
G1 X103.890 Y95.356 E0.08172
G1 X106.474 Y95.016 E0.08172
G1 X108.891 Y95.334 E0.07642
G1 X108.996 Y95.441 F10800.000
G1 F8640.000
G1 X109.059 Y95.356 E-0.03916
G1 X111.466 Y96.353 E-0.60169
G1 X113.534 Y97.940 E-0.60183
G1 X113.764 Y98.240 E-0.08732
G1 E-0.07000 F2100.00000
G1 Z0.400 F10800.000
G1 X98.029 Y109.195
G1 Z0.200
G1 E1.40000 F2100.00000
G1 F1200.000
G1 X101.967 Y113.133 E0.17613
G1 X102.885 Y113.513 E0.03142
G1 X97.962 Y108.590 E0.22017
G1 X97.581 Y107.672 E0.03144
G1 X103.802 Y113.893 E0.27825
G1 X104.063 Y114.001 E0.00891
G1 X104.507 Y114.059 E0.01416
G1 X97.415 Y106.968 E0.31717
G1 X97.334 Y106.349 E0.01975
G1 X105.126 Y114.141 E0.34852
M73 P2 R87
G1 X105.746 Y114.222 E0.01976
G1 X97.252 Y105.729 E0.37987
G1 X97.171 Y105.110 E0.01975
G1 X106.365 Y114.304 E0.41122
G1 X106.474 Y114.318 E0.00348
G1 X106.866 Y114.267 E0.01249
G1 X97.208 Y104.609 E0.43196
G1 X97.270 Y104.134 E0.01516
G1 X107.341 Y114.204 E0.45042
G1 X107.816 Y114.142 E0.01516
G1 X97.333 Y103.658 E0.46888
G1 X97.395 Y103.183 E0.01516
G1 X108.292 Y114.079 E0.48735
G1 X108.767 Y114.016 E0.01516
G1 X97.458 Y102.707 E0.50581
G1 X97.473 Y102.588 E0.00379
G1 X97.592 Y102.303 E0.00976
G1 X109.171 Y113.883 E0.51791
G1 X109.552 Y113.725 E0.01302
G1 X97.749 Y101.923 E0.52787
G1 X97.907 Y101.543 E0.01302
G1 X109.932 Y113.568 E0.53784
G1 X110.312 Y113.410 E0.01302
G1 X98.064 Y101.162 E0.54780
G1 X98.222 Y100.782 E0.01302
G1 X110.693 Y113.253 E0.55777
G1 X111.073 Y113.095 E0.01302
G1 X98.379 Y100.402 E0.56773
G1 X98.405 Y100.341 E0.00209
