; generated by PrusaSlicer 2.2.0+win64 on 2020-10-13 at 07:35:49 UTC


;
;

;
;
; 

; external perimeters extrusion width = 0.45mm
; perimeters extrusion width = 0.45mm
; infill extrusion width = 0.45mm
; solid infill extrusion width = 0.45mm
; top infill extrusion width = 0.40mm
; first layer extrusion width = 0.42mm

M73 P0 R220
M201 X9000 Y9000 Z500 E10000 ; sets maximum accelerations, mm/sec^2
M203 X500 Y500 Z12 E120 ; sets maximum feedrates, mm/sec
M204 P2000 R1500 T2000 ; sets acceleration (P, T) and retract acceleration (R), mm/sec^2
M205 X10.00 Y10.00 Z0.20 E2.50 ; sets the jerk limits, mm/sec
M205 S0 T0 ; sets the minimum extruding and travel feed rate, mm/sec
M107
M83  ; extruder relative mode
M140 S85 ; set bed temp
M109 S160 ; Set extruder temp before bed level
M190 S85 ; wait for bed temp

G28 W ; home all without mesh bed level
G80 N7 ; mesh bed leveling

M109 S240 ; wait for extruder temp

M221 S100 ; Set flow to 100

G1 Y-3.0 F1000.0 ; go outside print area
G92 E0.0
G1 E8 ; Purge Bubble
M73 P0 R220
G1 X60.0 E9.0 F1000.0 ; intro line
G1 X100.0 E12.5 F1000.0 ; intro line
G92 E0.0
G21 ; set units to millimeters
G90 ; use absolute coordinates
M83 ; use relative distances for extrusion
M900 K0.08 ; Filament gcode LA 1.5
M900 K45 ; Filament gcode LA 1.0
;BEFORE_LAYER_CHANGE
G92 E0.0
;0.2


G1 E-1.40000 F2100.00000
G1 Z0.200 F10800.000
;AFTER_LAYER_CHANGE
;0.2
G1 Z0.400
G1 X59.364 Y47.341
G1 Z0.200
G1 E1.40000 F2100.00000
M204 S1000
G1 F1200.000
G1 X60.194 Y47.186 E0.02649
G1 X189.797 Y47.186 E4.06361
G1 X190.699 Y47.365 E0.02884
G1 X191.463 Y47.871 E0.02872
G1 X191.980 Y48.632 E0.02884
G1 X192.170 Y49.532 E0.02884
G1 X192.170 Y160.456 E3.47796
G1 X192.114 Y160.951 E0.01562
G1 X191.955 Y161.427 E0.01574
G1 X191.699 Y161.858 E0.01574
G1 X191.358 Y162.227 E0.01574
G1 X190.636 Y162.659 E0.02637
G1 X189.806 Y162.814 E0.02649
G1 X60.203 Y162.814 E4.06361
G1 X59.700 Y162.759 E0.01585
G1 X59.220 Y162.600 E0.01585
G1 X58.785 Y162.342 E0.01585
G1 X58.417 Y162.001 E0.01574
G1 X57.984 Y161.280 E0.02637
G1 X57.830 Y160.449 E0.02649
G1 X57.830 Y49.559 E3.47688
G1 X57.884 Y49.057 E0.01585
G1 X58.044 Y48.577 E0.01585
G1 X58.301 Y48.142 E0.01585
G1 X58.642 Y47.773 E0.01574
G1 X59.312 Y47.371 E0.02449
; printing object bread_tray_2x3.stl id:0 copy 0
G1 F8640.000
G1 X60.194 Y47.186 E-0.20813
G1 X65.053 Y47.186 E-1.12187
G1 E-0.07000 F2100.00000
G1 Z0.400 F10800.000
G1 X134.714 Y96.711
G1 Z0.200
G1 E1.40000 F2100.00000
G1 F1200.000
G1 X145.188 Y96.711 E0.32842
G1 X145.188 Y113.290 E0.51983
G1 X134.714 Y113.290 E0.32842
G1 X134.714 Y96.771 E0.51795
G1 X135.091 Y97.088 F10800.000
G1 F1200.000
G1 X144.811 Y97.088 E0.30477
G1 X144.811 Y112.913 E0.49618
G1 X135.091 Y112.913 E0.30477
G1 X135.091 Y97.148 E0.49430
G1 X135.018 Y96.695 F10800.000
G1 F8640.000
G1 X140.851 Y97.112 E-1.33000
G1 E-0.07000 F2100.00000
G1 Z0.400 F10800.000
G1 X104.813 Y96.711
G1 Z0.200
G1 E1.40000 F2100.00000
G1 F1200.000
G1 X115.286 Y96.711 E0.32839
G1 X115.286 Y113.290 E0.51983
G1 X104.813 Y113.290 E0.32839
G1 X104.813 Y96.771 E0.51795
G1 X105.190 Y97.088 F10800.000
G1 F1200.000
G1 X114.909 Y97.088 E0.30474
G1 X114.909 Y112.913 E0.49618
G1 X105.190 Y112.913 E0.30474
G1 X105.190 Y97.148 E0.49430
G1 X105.117 Y96.695 F10800.000
G1 F8640.000
G1 X110.950 Y97.112 E-1.33000
G1 E-0.07000 F2100.00000
G1 Z0.400 F10800.000
G1 X61.121 Y50.459
G1 Z0.200
G1 E1.40000 F2100.00000
G1 F1200.000
G1 X188.879 Y50.459 E4.00576
G1 X188.879 Y159.541 E3.42018
G1 X61.121 Y159.541 E4.00576
M73 P0 R219
G1 X61.121 Y50.519 E3.41830
G1 X60.744 Y50.082 F10800.000
G1 F1200.000
G1 X189.256 Y50.082 E4.02940
G1 X189.256 Y159.918 E3.44383
G1 X60.744 Y159.918 E4.02940
G1 X60.744 Y50.142 E3.44195
G1 X61.133 Y50.175 F10800.000
G1 F8640.000
G1 X66.504 Y50.139 E-1.33000
G1 E-0.07000 F2100.00000
G1 Z0.400 F10800.000
G1 X104.700 Y112.990
G1 Z0.200
G1 E1.40000 F2100.00000
G1 F1200.000
G1 X61.404 Y69.694 E1.92161
G1 X61.404 Y69.160 E0.01675
G1 X104.530 Y112.286 E1.91408
G1 X104.530 Y111.752 E0.01675
G1 X61.404 Y68.626 E1.91408
G1 X61.404 Y68.093 E0.01675
G1 X104.530 Y111.219 E1.91408
G1 X104.530 Y110.685 E0.01675
G1 X61.404 Y67.559 E1.91408
G1 X61.404 Y67.025 E0.01675
G1 X104.530 Y110.151 E1.91408
G1 X104.530 Y109.617 E0.01675
G1 X61.404 Y66.491 E1.91408
G1 X61.404 Y65.958 E0.01675
G1 X104.530 Y109.083 E1.91408
G1 X104.530 Y108.550 E0.01675
G1 X61.404 Y65.424 E1.91408
G1 X61.404 Y64.890 E0.01675
G1 X104.530 Y108.016 E1.91408
M73 P0 R218
G1 X104.530 Y107.482 E0.01675
G1 X61.404 Y64.356 E1.91408
G1 X61.404 Y63.822 E0.01675
G1 X104.530 Y106.948 E1.91408
G1 X104.530 Y106.415 E0.01675
G1 X61.404 Y63.289 E1.91408
G1 X61.404 Y62.755 E0.01675
G1 X104.530 Y105.881 E1.91408
G1 X104.530 Y105.347 E0.01675
G1 X61.404 Y62.221 E1.91408
G1 X61.404 Y61.687 E0.01675
G1 X104.530 Y104.813 E1.91408
G1 X104.530 Y104.280 E0.01675
G1 X61.404 Y61.154 E1.91408
G1 X61.404 Y60.620 E0.01675
G1 X104.530 Y103.746 E1.91408
G1 X104.530 Y103.212 E0.01675
G1 X61.404 Y60.086 E1.91408
G1 X61.404 Y59.552 E0.01675
G1 X104.530 Y102.678 E1.91408
G1 X104.530 Y102.144 E0.01675
G1 X61.404 Y59.018 E1.91408
G1 X61.404 Y58.485 E0.01675
G1 X104.530 Y101.611 E1.91408
G1 X104.530 Y101.077 E0.01675
G1 X61.404 Y57.951 E1.91408
G1 X61.404 Y57.417 E0.01675
G1 X104.530 Y100.543 E1.91408
G1 X104.530 Y100.009 E0.01675
G1 X61.404 Y56.883 E1.91408
G1 X61.404 Y56.350 E0.01675
G1 X104.530 Y99.476 E1.91408
G1 X104.530 Y98.942 E0.01675
G1 X61.404 Y55.816 E1.91408
G1 X61.404 Y55.282 E0.01675
G1 X104.530 Y98.408 E1.91408
G1 X104.530 Y97.874 E0.01675
G1 X61.404 Y54.748 E1.91408
G1 X61.404 Y54.214 E0.01675
G1 X104.530 Y97.340 E1.91408
M73 P1 R217
G1 X104.530 Y96.807 E0.01675
G1 X61.404 Y53.681 E1.91408
G1 X61.404 Y53.147 E0.01675
G1 X104.685 Y96.428 E1.92097
G1 X105.219 Y96.428 E0.01675
G1 X61.404 Y52.613 E1.94466
G1 X61.404 Y52.079 E0.01675
G1 X105.753 Y96.428 E1.96836
G1 X106.286 Y96.428 E0.01675
G1 X61.404 Y51.546 E1.99205
G1 X61.404 Y51.012 E0.01675
G1 X106.820 Y96.428 E2.01574
G1 X107.354 Y96.428 E0.01675
G1 X61.668 Y50.742 E2.02772
G1 X62.202 Y50.742 E0.01675
G1 X107.888 Y96.428 E2.02772
G1 X108.421 Y96.428 E0.01675
G1 X62.735 Y50.742 E2.02772
G1 X63.269 Y50.742 E0.01675
G1 X108.955 Y96.428 E2.02772
G1 X109.489 Y96.428 E0.01675
G1 X63.803 Y50.742 E2.02772
G1 X64.337 Y50.742 E0.01675
G1 X110.023 Y96.428 E2.02772
G1 X110.557 Y96.428 E0.01675
G1 X64.870 Y50.742 E2.02772
G1 X65.404 Y50.742 E0.01675
G1 X111.090 Y96.428 E2.02772
G1 X111.624 Y96.428 E0.01675
G1 X65.938 Y50.742 E2.02772
G1 X66.472 Y50.742 E0.01675
G1 X112.158 Y96.428 E2.02772
G1 X112.692 Y96.428 E0.01675
G1 X67.006 Y50.742 E2.02772
G1 X67.539 Y50.742 E0.01675
G1 X113.225 Y96.428 E2.02772
G1 X113.759 Y96.428 E0.01675
G1 X68.073 Y50.742 E2.02772
M73 P1 R216
G1 X68.607 Y50.742 E0.01675
G1 X114.293 Y96.428 E2.02772
G1 X114.827 Y96.428 E0.01675
G1 X69.141 Y50.742 E2.02772
G1 X69.674 Y50.742 E0.01675
G1 X178.191 Y159.258 E4.81633
G1 X178.724 Y159.258 E0.01675
G1 X70.208 Y50.742 E4.81633
G1 X70.742 Y50.742 E0.01675
G1 X179.258 Y159.258 E4.81633
G1 X179.792 Y159.258 E0.01675
G1 X71.276 Y50.742 E4.81633
G1 X71.809 Y50.742 E0.01675
G1 X180.495 Y159.428 E4.82387
G1 F8640.000
G1 X176.422 Y155.355 E-1.33000
G1 E-0.07000 F2100.00000
G1 Z0.400 F10800.000
G1 X177.826 Y159.428
G1 Z0.200
G1 E1.40000 F2100.00000
G1 F1200.000
G1 X115.569 Y97.170 E2.76321
G1 X115.569 Y97.704 E0.01675
G1 X177.123 Y159.258 E2.73199
G1 X176.589 Y159.258 E0.01675
G1 X115.569 Y98.238 E2.70830
G1 X115.569 Y98.772 E0.01675
G1 X176.055 Y159.258 E2.68461
M73 P2 R215
G1 X175.522 Y159.258 E0.01675
G1 X115.569 Y99.305 E2.66092
G1 X115.569 Y99.839 E0.01675
G1 X174.988 Y159.258 E2.63723
G1 X174.454 Y159.258 E0.01675
G1 X115.569 Y100.373 E2.61354
G1 X115.569 Y100.907 E0.01675
G1 X173.920 Y159.258 E2.58985
G1 X173.387 Y159.258 E0.01675
G1 X115.569 Y101.440 E2.56615
G1 X115.569 Y101.974 E0.01675
G1 X172.853 Y159.258 E2.54246
G1 X172.319 Y159.258 E0.01675
G1 X115.569 Y102.508 E2.51877
G1 X115.569 Y103.042 E0.01675
G1 X171.785 Y159.258 E2.49508
G1 X171.251 Y159.258 E0.01675
G1 X115.569 Y103.576 E2.47139
G1 X115.569 Y104.109 E0.01675
G1 X170.718 Y159.258 E2.44770
G1 X170.184 Y159.258 E0.01675
G1 X115.569 Y104.643 E2.42401
G1 X115.569 Y105.177 E0.01675
G1 X169.650 Y159.258 E2.40032
G1 X169.116 Y159.258 E0.01675
G1 X115.569 Y105.711 E2.37663
G1 X115.569 Y106.244 E0.01675
G1 X168.583 Y159.258 E2.35294
G1 X168.049 Y159.258 E0.01675
G1 X115.569 Y106.778 E2.32925
M73 P2 R214
G1 X115.569 Y107.312 E0.01675
G1 X167.515 Y159.258 E2.30556
G1 X166.981 Y159.258 E0.01675
G1 X115.569 Y107.846 E2.28186
G1 X115.569 Y108.379 E0.01675
G1 X166.447 Y159.258 E2.25817
G1 X165.914 Y159.258 E0.01675
G1 X115.569 Y108.913 E2.23448
G1 X115.569 Y109.447 E0.01675
G1 X165.380 Y159.258 E2.21079
G1 X164.846 Y159.258 E0.01675
G1 X115.569 Y109.981 E2.18710
G1 X115.569 Y110.515 E0.01675
G1 X164.312 Y159.258 E2.16341
G1 X163.779 Y159.258 E0.01675
G1 X115.569 Y111.048 E2.13972
G1 X115.569 Y111.582 E0.01675
G1 X163.245 Y159.258 E2.11603
G1 X162.711 Y159.258 E0.01675
G1 X115.569 Y112.116 E2.09234
G1 X115.569 Y112.650 E0.01675
G1 X162.177 Y159.258 E2.06865
G1 X161.643 Y159.258 E0.01675
G1 X115.569 Y113.183 E2.04496
G1 X115.569 Y113.573 E0.01222
G1 X115.425 Y113.573 E0.00453
G1 X161.110 Y159.258 E2.02767
G1 X160.576 Y159.258 E0.01675
G1 X114.891 Y113.573 E2.02767
G1 X114.357 Y113.573 E0.01675
G1 X160.042 Y159.258 E2.02767
G1 X159.508 Y159.258 E0.01675
G1 X113.823 Y113.573 E2.02767
G1 X113.289 Y113.573 E0.01675
G1 X158.975 Y159.258 E2.02767
G1 X158.441 Y159.258 E0.01675
G1 X112.756 Y113.573 E2.02767
M73 P3 R213
G1 X112.222 Y113.573 E0.01675
G1 X157.907 Y159.258 E2.02767
G1 X157.373 Y159.258 E0.01675
G1 X111.688 Y113.573 E2.02767
G1 X111.154 Y113.573 E0.01675
G1 X156.839 Y159.258 E2.02767
G1 X156.306 Y159.258 E0.01675
G1 X110.621 Y113.573 E2.02767
G1 X110.087 Y113.573 E0.01675
G1 X155.772 Y159.258 E2.02767
G1 X155.238 Y159.258 E0.01675
G1 X109.553 Y113.573 E2.02767
G1 X109.019 Y113.573 E0.01675
G1 X154.704 Y159.258 E2.02767
G1 X154.171 Y159.258 E0.01675
G1 X108.485 Y113.573 E2.02767
G1 X107.952 Y113.573 E0.01675
G1 X153.637 Y159.258 E2.02767
G1 X153.103 Y159.258 E0.01675
G1 X107.418 Y113.573 E2.02767
G1 X106.884 Y113.573 E0.01675
G1 X152.569 Y159.258 E2.02767
G1 X152.036 Y159.258 E0.01675
G1 X106.350 Y113.573 E2.02767
G1 X105.817 Y113.573 E0.01675
G1 X151.502 Y159.258 E2.02767
G1 X150.968 Y159.258 E0.01675
G1 X105.113 Y113.403 E2.03520
G1 F8640.000
G1 X109.186 Y117.476 E-1.33000
G1 E-0.07000 F2100.00000
G1 Z0.400 F10800.000
G1 X61.234 Y158.665
G1 Z0.200
G1 E1.40000 F2100.00000
G1 F1200.000
G1 X61.828 Y159.258 E0.02633
G1 X62.361 Y159.258 E0.01675
G1 X61.404 Y158.301 E0.04249
G1 X61.404 Y157.767 E0.01675
G1 X62.895 Y159.258 E0.06618
G1 X63.429 Y159.258 E0.01675
G1 X61.404 Y157.233 E0.08988
G1 X61.404 Y156.699 E0.01675
G1 X63.963 Y159.258 E0.11357
G1 X64.496 Y159.258 E0.01675
G1 X61.404 Y156.166 E0.13726
G1 X61.404 Y155.632 E0.01675
G1 X65.030 Y159.258 E0.16095
G1 X65.564 Y159.258 E0.01675
G1 X61.404 Y155.098 E0.18464
G1 X61.404 Y154.564 E0.01675
G1 X66.098 Y159.258 E0.20833
G1 X66.632 Y159.258 E0.01675
G1 X61.404 Y154.030 E0.23202
G1 X61.404 Y153.497 E0.01675
G1 X67.165 Y159.258 E0.25571
G1 X67.699 Y159.258 E0.01675
G1 X61.404 Y152.963 E0.27940
G1 X61.404 Y152.429 E0.01675
G1 X68.233 Y159.258 E0.30309
G1 X68.767 Y159.258 E0.01675
G1 X61.404 Y151.895 E0.32678
G1 X61.404 Y151.362 E0.01675
G1 X69.300 Y159.258 E0.35047
G1 X69.834 Y159.258 E0.01675
G1 X61.404 Y150.828 E0.37417
G1 X61.404 Y150.294 E0.01675
G1 X70.368 Y159.258 E0.39786
G1 X70.902 Y159.258 E0.01675
G1 X61.404 Y149.760 E0.42155
G1 X61.404 Y149.226 E0.01675
G1 X71.435 Y159.258 E0.44524
G1 X71.969 Y159.258 E0.01675
G1 X61.404 Y148.693 E0.46893
G1 X61.404 Y148.159 E0.01675
G1 X72.503 Y159.258 E0.49262
G1 X73.037 Y159.258 E0.01675
G1 X61.404 Y147.625 E0.51631
G1 X61.404 Y147.091 E0.01675
G1 X73.571 Y159.258 E0.54000
G1 X74.104 Y159.258 E0.01675
G1 X61.404 Y146.558 E0.56369
G1 X61.404 Y146.024 E0.01675
G1 X74.638 Y159.258 E0.58738
G1 X75.172 Y159.258 E0.01675
G1 X61.404 Y145.490 E0.61107
M73 P3 R212
G1 X61.404 Y144.956 E0.01675
G1 X75.706 Y159.258 E0.63476
G1 X76.239 Y159.258 E0.01675
G1 X61.404 Y144.422 E0.65846
G1 X61.404 Y143.889 E0.01675
G1 X76.773 Y159.258 E0.68215
G1 X77.307 Y159.258 E0.01675
G1 X61.404 Y143.355 E0.70584
G1 X61.404 Y142.821 E0.01675
G1 X77.841 Y159.258 E0.72953
G1 X78.375 Y159.258 E0.01675
G1 X61.404 Y142.287 E0.75322
G1 X61.404 Y141.754 E0.01675
G1 X78.908 Y159.258 E0.77691
G1 X79.442 Y159.258 E0.01675
G1 X61.404 Y141.220 E0.80060
G1 X61.404 Y140.686 E0.01675
G1 X79.976 Y159.258 E0.82429
G1 X80.510 Y159.258 E0.01675
G1 X61.404 Y140.152 E0.84798
G1 X61.404 Y139.619 E0.01675
G1 X81.043 Y159.258 E0.87167
G1 X81.577 Y159.258 E0.01675
G1 X61.404 Y139.085 E0.89536
G1 X61.404 Y138.551 E0.01675
G1 X82.111 Y159.258 E0.91905
G1 X82.645 Y159.258 E0.01675
G1 X61.404 Y138.017 E0.94275
G1 X61.404 Y137.483 E0.01675
G1 X83.179 Y159.258 E0.96644
G1 X83.712 Y159.258 E0.01675
G1 X61.404 Y136.950 E0.99013
G1 X61.404 Y136.416 E0.01675
G1 X84.246 Y159.258 E1.01382
G1 X84.780 Y159.258 E0.01675
G1 X61.404 Y135.882 E1.03751
G1 X61.404 Y135.348 E0.01675
G1 X85.314 Y159.258 E1.06120
G1 X85.847 Y159.258 E0.01675
G1 X61.404 Y134.815 E1.08489
G1 X61.404 Y134.281 E0.01675
G1 X86.381 Y159.258 E1.10858
G1 X86.915 Y159.258 E0.01675
G1 X61.404 Y133.747 E1.13227
G1 X61.404 Y133.213 E0.01675
G1 X87.449 Y159.258 E1.15596
G1 X87.983 Y159.258 E0.01675
G1 X61.404 Y132.679 E1.17965
G1 X61.404 Y132.146 E0.01675
G1 X88.516 Y159.258 E1.20335
G1 X89.050 Y159.258 E0.01675
G1 X61.404 Y131.612 E1.22704
G1 X61.404 Y131.078 E0.01675
G1 X89.584 Y159.258 E1.25073
G1 X90.118 Y159.258 E0.01675
G1 X61.404 Y130.544 E1.27442
G1 X61.404 Y130.011 E0.01675
G1 X90.651 Y159.258 E1.29811
G1 X91.185 Y159.258 E0.01675
G1 X61.404 Y129.477 E1.32180
G1 X61.404 Y128.943 E0.01675
G1 X91.719 Y159.258 E1.34549
G1 X92.253 Y159.258 E0.01675
G1 X61.404 Y128.409 E1.36918
G1 X61.404 Y127.875 E0.01675
G1 X92.786 Y159.258 E1.39287
G1 X93.320 Y159.258 E0.01675
G1 X61.404 Y127.342 E1.41656
G1 X61.404 Y126.808 E0.01675
G1 X93.854 Y159.258 E1.44025
G1 X94.388 Y159.258 E0.01675
G1 X61.404 Y126.274 E1.46394
M73 P4 R211
G1 X61.404 Y125.740 E0.01675
G1 X94.922 Y159.258 E1.48764
G1 X95.455 Y159.258 E0.01675
G1 X61.404 Y125.207 E1.51133
G1 X61.404 Y124.673 E0.01675
G1 X95.989 Y159.258 E1.53502
G1 X96.523 Y159.258 E0.01675
G1 X61.404 Y124.139 E1.55871
G1 X61.404 Y123.605 E0.01675
G1 X97.057 Y159.258 E1.58240
G1 X97.590 Y159.258 E0.01675
G1 X61.404 Y123.071 E1.60609
G1 X61.404 Y122.538 E0.01675
G1 X98.124 Y159.258 E1.62978
G1 X98.658 Y159.258 E0.01675
G1 X61.404 Y122.004 E1.65347
G1 X61.404 Y121.470 E0.01675
G1 X99.192 Y159.258 E1.67716
G1 X99.726 Y159.258 E0.01675
G1 X61.404 Y120.936 E1.70085
G1 X61.404 Y120.403 E0.01675
G1 X100.259 Y159.258 E1.72454
G1 X100.793 Y159.258 E0.01675
G1 X61.404 Y119.869 E1.74823
G1 X61.404 Y119.335 E0.01675
G1 X101.327 Y159.258 E1.77193
G1 X101.861 Y159.258 E0.01675
G1 X61.404 Y118.801 E1.79562
G1 X61.404 Y118.268 E0.01675
G1 X102.394 Y159.258 E1.81931
G1 X102.928 Y159.258 E0.01675
G1 X61.404 Y117.734 E1.84300
G1 X61.404 Y117.200 E0.01675
G1 X103.462 Y159.258 E1.86669
G1 X103.996 Y159.258 E0.01675
G1 X61.404 Y116.666 E1.89038
G1 X61.404 Y116.132 E0.01675
G1 X104.530 Y159.258 E1.91407
G1 X105.063 Y159.258 E0.01675
G1 X61.404 Y115.599 E1.93776
G1 X61.404 Y115.065 E0.01675
G1 X105.597 Y159.258 E1.96145
G1 X106.131 Y159.258 E0.01675
G1 X61.404 Y114.531 E1.98514
M73 P4 R210
G1 X61.404 Y113.997 E0.01675
G1 X106.665 Y159.258 E2.00883
G1 X107.198 Y159.258 E0.01675
G1 X61.404 Y113.464 E2.03253
G1 X61.404 Y112.930 E0.01675
G1 X107.732 Y159.258 E2.05622
G1 X108.266 Y159.258 E0.01675
G1 X61.404 Y112.396 E2.07991
G1 X61.404 Y111.862 E0.01675
G1 X108.800 Y159.258 E2.10360
G1 X109.334 Y159.258 E0.01675
G1 X61.404 Y111.328 E2.12729
G1 X61.404 Y110.795 E0.01675
G1 X109.867 Y159.258 E2.15098
G1 X110.401 Y159.258 E0.01675
G1 X61.404 Y110.261 E2.17467
G1 X61.404 Y109.727 E0.01675
G1 X110.935 Y159.258 E2.19836
G1 X111.469 Y159.258 E0.01675
G1 X61.404 Y109.193 E2.22205
