; generated by PrusaSlicer 2.2.0+ on 2020-10-14 at 18:08:38 UTC


;
;

;
;
; 

; external perimeters extrusion width = 0.45mm
; perimeters extrusion width = 0.45mm
; infill extrusion width = 0.45mm
; solid infill extrusion width = 0.45mm
; top infill extrusion width = 0.40mm
; first layer extrusion width = 0.42mm

M73 P0 R35
M201 X9000 Y9000 Z500 E10000 ; sets maximum accelerations, mm/sec^2
M203 X500 Y500 Z12 E120 ; sets maximum feedrates, mm/sec
M204 P2000 R1500 T2000 ; sets acceleration (P, T) and retract acceleration (R), mm/sec^2
M205 X10.00 Y10.00 Z0.20 E4.50 ; sets the jerk limits, mm/sec
M205 S0 T0 ; sets the minimum extruding and travel feed rate, mm/sec
M107
M83  ; extruder relative mode
M140 S85 ; set bed temp
M109 S160 ; Set extruder temp before bed level
M190 S85 ; wait for bed temp

G28 W ; home all without mesh bed level
G80 N7 ; mesh bed leveling

M109 S240 ; wait for extruder temp

M221 S100 ; Set flow to 100

G1 Y-3.0 F1000.0 ; go outside print area
G92 E0.0
G1 E8 ; Purge Bubble
M73 P0 R35
G1 X60.0 E9.0 F1000.0 ; intro line
G1 X100.0 E12.5 F1000.0 ; intro line
G92 E0.0
G21 ; set units to millimeters
G90 ; use absolute coordinates
M83 ; use relative distances for extrusion
M900 K0.08 ; Filament gcode LA 1.5
M900 K45 ; Filament gcode LA 1.0
;BEFORE_LAYER_CHANGE
G92 E0.0
;0.2


G1 E-1.40000 F2100.00000
G1 Z0.200 F10800.000
;AFTER_LAYER_CHANGE
;0.2
G1 Z0.400
G1 X115.650 Y95.650
G1 Z0.200
G1 E1.40000 F2100.00000
M204 S1000
G1 F1200.000
G1 X118.162 Y93.695 E0.09980
G1 X118.931 Y93.298 E0.02715
G1 X121.623 Y92.217 E0.09095
G1 X125.004 Y91.777 E0.10692
G1 X128.396 Y92.221 E0.10725
G1 X131.288 Y93.389 E0.09781
G1 X131.872 Y93.719 E0.02103
G1 X134.350 Y95.650 E0.09851
G1 X136.281 Y98.128 E0.09849
G1 X136.611 Y98.712 E0.02102
G1 X137.779 Y101.607 E0.09788
G1 X138.223 Y105.000 E0.10730
G1 X137.780 Y108.391 E0.10723
G1 X136.611 Y111.288 E0.09794
G1 X136.281 Y111.872 E0.02103
G1 X134.350 Y114.350 E0.09852
G1 X131.872 Y116.281 E0.09849
G1 X131.288 Y116.611 E0.02102
G1 X128.395 Y117.779 E0.09784
G1 X125.000 Y118.223 E0.10734
G1 X121.609 Y117.780 E0.10722
G1 X118.712 Y116.611 E0.09794
G1 X118.128 Y116.281 E0.02103
G1 X115.650 Y114.350 E0.09852
G1 X113.564 Y111.635 E0.10734
G1 X112.344 Y108.763 E0.09783
G1 X112.165 Y108.117 E0.02103
G1 X111.778 Y104.999 E0.09851
G1 X112.165 Y101.879 E0.09857
G1 X112.344 Y101.237 E0.02090
G1 X113.564 Y98.363 E0.09789
G1 X115.613 Y95.698 E0.10541
G1 X115.910 Y95.926 F10800.000
G1 F1200.000
G1 X118.380 Y94.003 E0.09816
G1 X119.075 Y93.647 E0.02450
G1 X121.710 Y92.583 E0.08909
G1 X125.005 Y92.154 E0.10416
G1 X128.305 Y92.587 E0.10435
G1 X131.144 Y93.738 E0.09606
G1 X131.650 Y94.024 E0.01823
G1 X134.084 Y95.918 E0.09671
G1 X135.997 Y98.380 E0.09776
G1 X136.353 Y99.075 E0.02450
G1 X137.417 Y101.710 E0.08909
G1 X137.846 Y105.001 E0.10404
G1 X137.413 Y108.304 E0.10445
G1 X136.263 Y111.143 E0.09607
G1 X135.976 Y111.649 E0.01823
G1 X134.082 Y114.084 E0.09672
G1 X131.484 Y116.088 E0.10288
G1 X129.385 Y116.991 E0.07165
G1 X128.164 Y117.445 E0.04083
G1 X124.999 Y117.846 E0.10004
G1 X121.696 Y117.413 E0.10444
G1 X118.857 Y116.263 E0.09607
G1 X118.351 Y115.976 E0.01823
G1 X115.916 Y114.082 E0.09672
G1 X113.887 Y111.441 E0.10443
G1 X112.692 Y108.619 E0.09608
G1 X112.537 Y108.059 E0.01823
G1 X112.155 Y104.998 E0.09670
G1 X112.543 Y101.906 E0.09772
G1 X112.783 Y101.162 E0.02449
G1 X113.894 Y98.546 E0.08912
G1 X115.873 Y95.973 E0.10178
; printing object sacrament_cup.stl id:0 copy 0
G1 F8640.000
G1 X118.380 Y94.003 E-0.73627
G1 X119.075 Y93.647 E-0.18042
G1 X120.735 Y92.977 E-0.41332
G1 E-0.07000 F2100.00000
G1 Z0.400 F10800.000
G1 X118.209 Y98.209
G1 Z0.200
G1 E1.40000 F2100.00000
G1 F1200.000
G1 X120.198 Y96.683 E0.07861
G1 X122.515 Y95.724 E0.07861
G1 X125.000 Y95.396 E0.07860
G1 X127.486 Y95.724 E0.07862
G1 X129.802 Y96.683 E0.07859
G1 X131.791 Y98.209 E0.07861
G1 X133.317 Y100.198 E0.07861
G1 X134.276 Y102.515 E0.07861
G1 X134.604 Y105.000 E0.07860
G1 X134.276 Y107.485 E0.07860
G1 X133.317 Y109.802 E0.07861
G1 X131.791 Y111.791 E0.07861
G1 X129.802 Y113.317 E0.07861
G1 X127.486 Y114.276 E0.07859
G1 X125.000 Y114.604 E0.07862
G1 X122.515 Y114.276 E0.07860
G1 X120.198 Y113.317 E0.07861
G1 X118.209 Y111.791 E0.07861
G1 X116.684 Y109.802 E0.07860
G1 X115.724 Y107.485 E0.07862
G1 X115.397 Y105.000 E0.07860
G1 X115.724 Y102.515 E0.07860
G1 X116.684 Y100.198 E0.07862
G1 X118.173 Y98.257 E0.07671
G1 X117.873 Y98.027 F10800.000
G1 F1200.000
G1 X117.940 Y97.940 E0.00344
G1 X120.008 Y96.353 E0.08173
G1 X122.416 Y95.356 E0.08172
G1 X125.000 Y95.016 E0.08172
G1 X127.585 Y95.356 E0.08174
G1 X129.992 Y96.353 E0.08170
G1 X132.060 Y97.940 E0.08172
G1 X133.647 Y100.008 E0.08172
G1 X134.644 Y102.416 E0.08173
G1 X134.984 Y105.000 E0.08171
G1 X134.644 Y107.584 E0.08171
G1 X133.647 Y109.992 E0.08173
G1 X132.060 Y112.060 E0.08172
G1 X129.992 Y113.647 E0.08172
G1 X127.585 Y114.644 E0.08170
G1 X125.000 Y114.984 E0.08174
G1 X122.416 Y114.644 E0.08171
G1 X120.008 Y113.647 E0.08172
G1 X117.940 Y112.060 E0.08172
G1 X116.354 Y109.992 E0.08171
G1 X115.356 Y107.584 E0.08174
G1 X115.017 Y105.000 E0.08171
G1 X115.356 Y102.416 E0.08171
G1 X116.354 Y100.008 E0.08174
G1 X117.837 Y98.075 E0.07639
G1 X117.983 Y98.037 F10800.000
G1 F8640.000
G1 X117.940 Y97.940 E-0.03918
G1 X120.008 Y96.353 E-0.60186
G1 X122.416 Y95.356 E-0.60180
G1 X122.790 Y95.307 E-0.08716
G1 E-0.07000 F2100.00000
G1 Z0.400 F10800.000
G1 X132.509 Y99.331
G1 Z0.200
G1 E1.40000 F2100.00000
G1 F1200.000
G1 X131.589 Y98.411 E0.04116
G1 X129.659 Y96.930 E0.07692
G1 X129.507 Y96.867 E0.00521
G1 X133.133 Y100.493 E0.16217
G1 X133.513 Y101.411 E0.03142
G1 X128.589 Y96.487 E0.22023
G1 X127.671 Y96.106 E0.03143
G1 X133.893 Y102.328 E0.27829
G1 X134.001 Y102.588 E0.00890
G1 X134.059 Y103.033 E0.01417
G1 X126.967 Y95.941 E0.31719
G1 X126.348 Y95.859 E0.01976
G1 X134.141 Y103.652 E0.34855
G1 X134.223 Y104.272 E0.01976
G1 X125.728 Y95.777 E0.37991
G1 X125.109 Y95.696 E0.01976
G1 X134.304 Y104.891 E0.41127
G1 X134.319 Y105.000 E0.00347
G1 X134.267 Y105.392 E0.01250
G1 X124.608 Y95.733 E0.43199
G1 X124.133 Y95.796 E0.01516
G1 X134.204 Y105.867 E0.45045
G1 X134.142 Y106.342 E0.01516
G1 X123.658 Y95.858 E0.46890
G1 X123.183 Y95.921 E0.01516
G1 X134.079 Y106.818 E0.48736
G1 X134.016 Y107.293 E0.01516
G1 X122.707 Y95.984 E0.50581
G1 X122.588 Y95.999 E0.00379
G1 X122.303 Y96.117 E0.00977
G1 X133.883 Y107.697 E0.51790
G1 X133.725 Y108.077 E0.01302
G1 X121.923 Y96.275 E0.52787
G1 X121.542 Y96.432 E0.01302
G1 X133.568 Y108.458 E0.53784
G1 X133.410 Y108.838 E0.01302
G1 X121.162 Y96.590 E0.54781
G1 X120.782 Y96.747 E0.01302
G1 X133.253 Y109.219 E0.55778
G1 X133.095 Y109.599 E0.01302
G1 X120.401 Y96.905 E0.56775
G1 X120.341 Y96.930 E0.00206
G1 X120.085 Y97.126 E0.01021
G1 X132.874 Y109.915 E0.57200
G1 X132.640 Y110.220 E0.01213
G1 X119.780 Y97.360 E0.57517
G1 X119.476 Y97.593 E0.01213
G1 X132.407 Y110.524 E0.57833
G1 X132.173 Y110.828 E0.01213
G1 X119.172 Y97.827 E0.58150
G1 X118.867 Y98.061 E0.01213
G1 X131.940 Y111.133 E0.58467
G1 X131.706 Y111.437 E0.01213
G1 X118.563 Y98.294 E0.58783
G1 X118.411 Y98.411 E0.00606
G1 X118.294 Y98.563 E0.00607
G1 X131.437 Y111.706 E0.58783
G1 X131.133 Y111.940 E0.01213
G1 X118.061 Y98.867 E0.58466
G1 X117.827 Y99.172 E0.01213
G1 X130.828 Y112.173 E0.58149
G1 X130.524 Y112.407 E0.01213
G1 X117.594 Y99.476 E0.57832
G1 X117.360 Y99.781 E0.01213
G1 X130.220 Y112.640 E0.57515
G1 X129.915 Y112.874 E0.01213
G1 X117.127 Y100.085 E0.57199
G1 X116.931 Y100.341 E0.01019
G1 X116.905 Y100.402 E0.00209
G1 X129.599 Y113.095 E0.56773
G1 X129.219 Y113.253 E0.01302
G1 X116.748 Y100.782 E0.55777
G1 X116.590 Y101.162 E0.01302
G1 X128.838 Y113.410 E0.54780
G1 X128.458 Y113.568 E0.01302
G1 X116.433 Y101.543 E0.53784
G1 X116.275 Y101.923 E0.01302
G1 X128.077 Y113.725 E0.52787
G1 X127.697 Y113.883 E0.01302
G1 X116.117 Y102.303 E0.51791
G1 X115.999 Y102.588 E0.00976
G1 X115.984 Y102.707 E0.00379
G1 X127.293 Y114.016 E0.50581
G1 X126.817 Y114.079 E0.01516
G1 X115.921 Y103.183 E0.48735
G1 X115.859 Y103.658 E0.01516
G1 X126.342 Y114.142 E0.46888
G1 X125.867 Y114.204 E0.01516
G1 X115.796 Y104.134 E0.45042
G1 X115.734 Y104.609 E0.01516
G1 X125.392 Y114.267 E0.43196
G1 X125.000 Y114.318 E0.01249
G1 X124.891 Y114.304 E0.00348
G1 X115.697 Y105.110 E0.41122
G1 X115.778 Y105.729 E0.01975
G1 X124.271 Y114.222 E0.37987
G1 X123.652 Y114.141 E0.01976
G1 X115.860 Y106.349 E0.34852
G1 X115.941 Y106.968 E0.01975
G1 X123.032 Y114.059 E0.31717
G1 X122.588 Y114.001 E0.01416
G1 X122.328 Y113.893 E0.00891
G1 X116.107 Y107.672 E0.27825
G1 X116.488 Y108.590 E0.03144
G1 X121.410 Y113.513 E0.22017
G1 X120.492 Y113.133 E0.03142
G1 X116.555 Y109.195 E0.17613
; stop printing object sacrament_cup.stl id:0 copy 0
;BEFORE_LAYER_CHANGE
G92 E0.0
;0.4


G1 F8640.000
G1 X120.492 Y113.133 E-1.28591
G1 X120.669 Y113.206 E-0.04409
G1 E-0.07000 F2100.00000
G1 Z0.400 F10800.000
;AFTER_LAYER_CHANGE
;0.4
M104 S250 ; set temperature
M140 S90 ; set bed temperature
G1 Z0.600
G1 X121.609 Y117.780
G1 Z0.400
G1 E1.40000 F2100.00000
G1 F3073
G1 X118.712 Y116.611 E0.09794
G1 X118.128 Y116.281 E0.02103
G1 X115.650 Y114.350 E0.09852
G1 X113.564 Y111.635 E0.10734
G1 X112.344 Y108.763 E0.09783
G1 X112.165 Y108.117 E0.02103
M73 P2 R34
G1 X111.778 Y104.999 E0.09851
G1 X112.165 Y101.879 E0.09857
G1 X112.344 Y101.237 E0.02090
G1 X113.564 Y98.363 E0.09789
G1 X115.650 Y95.650 E0.10730
G1 X118.162 Y93.695 E0.09980
G1 X118.931 Y93.298 E0.02715
G1 X121.623 Y92.217 E0.09095
G1 X125.004 Y91.777 E0.10692
G1 X128.396 Y92.221 E0.10725
G1 X131.288 Y93.389 E0.09781
G1 X131.872 Y93.719 E0.02103
G1 X134.350 Y95.650 E0.09851
G1 X136.281 Y98.128 E0.09849
G1 X136.611 Y98.712 E0.02102
G1 X137.779 Y101.607 E0.09788
G1 X138.223 Y105.000 E0.10730
G1 X137.780 Y108.391 E0.10723
G1 X136.611 Y111.288 E0.09794
G1 X136.281 Y111.872 E0.02103
G1 X134.350 Y114.350 E0.09852
G1 X131.872 Y116.281 E0.09849
G1 X131.288 Y116.611 E0.02102
G1 X128.395 Y117.779 E0.09784
G1 X125.000 Y118.223 E0.10734
G1 X121.669 Y117.788 E0.10534
G1 X121.717 Y117.416 F10800.000
G1 F3073
G1 X118.857 Y116.263 E0.09671
G1 X118.351 Y115.976 E0.01823
G1 X115.916 Y114.082 E0.09672
G1 X113.887 Y111.441 E0.10443
G1 X112.692 Y108.619 E0.09608
G1 X112.537 Y108.059 E0.01823
G1 X112.155 Y104.998 E0.09670
G1 X112.543 Y101.906 E0.09772
G1 X112.783 Y101.162 E0.02449
G1 X113.894 Y98.546 E0.08912
G1 X115.917 Y95.916 E0.10404
G1 X118.380 Y94.003 E0.09779
G1 X119.075 Y93.647 E0.02450
G1 X121.710 Y92.583 E0.08909
G1 X125.005 Y92.154 E0.10416
G1 X128.305 Y92.587 E0.10435
G1 X131.144 Y93.738 E0.09606
G1 X131.650 Y94.024 E0.01823
G1 X134.084 Y95.918 E0.09671
G1 X135.997 Y98.380 E0.09776
G1 X136.353 Y99.075 E0.02450
G1 X137.417 Y101.710 E0.08909
G1 X137.846 Y105.001 E0.10404
G1 X137.413 Y108.304 E0.10445
G1 X136.263 Y111.143 E0.09607
G1 X135.976 Y111.649 E0.01823
G1 X134.082 Y114.084 E0.09672
G1 X131.484 Y116.088 E0.10288
G1 X129.385 Y116.991 E0.07165
G1 X128.164 Y117.445 E0.04083
G1 X124.999 Y117.846 E0.10004
G1 X121.777 Y117.424 E0.10189
; printing object sacrament_cup.stl id:0 copy 0
G1 F8640.000
G1 X118.857 Y116.263 E-0.72563
G1 X118.351 Y115.976 E-0.13423
G1 X116.744 Y114.726 E-0.47014
G1 E-0.07000 F2100.00000
G1 Z0.600 F10800.000
G1 X122.465 Y114.461
G1 Z0.400
G1 E1.40000 F2100.00000
M204 S800
G1 F3073
G1 X120.102 Y113.483 E0.08656
G1 X118.074 Y111.927 E0.08656
G1 X116.517 Y109.898 E0.08654
G1 X115.539 Y107.535 E0.08657
G1 X115.205 Y105.000 E0.08655
G1 X115.539 Y102.465 E0.08655
G1 X116.517 Y100.102 E0.08657
G1 X118.074 Y98.073 E0.08654
G1 X120.102 Y96.517 E0.08656
G1 X122.465 Y95.539 E0.08656
G1 X125.000 Y95.204 E0.08655
G1 X127.536 Y95.539 E0.08657
G1 X129.898 Y96.517 E0.08654
G1 X131.927 Y98.073 E0.08656
G1 X133.483 Y100.102 E0.08656
G1 X134.461 Y102.465 E0.08656
G1 X134.796 Y105.000 E0.08655
G1 X134.461 Y107.535 E0.08655
G1 X133.483 Y109.898 E0.08656
G1 X131.927 Y111.927 E0.08656
G1 X129.898 Y113.483 E0.08656
G1 X127.536 Y114.461 E0.08653
G1 X125.000 Y114.795 E0.08658
G1 X122.524 Y114.469 E0.08452
M204 S1000
G1 X122.471 Y114.873 F10800.000
M204 S800
G1 F3000.000
G1 X122.359 Y114.858 E0.00384
G1 X119.897 Y113.839 E0.09019
G1 X117.783 Y112.217 E0.09019
G1 X116.162 Y110.103 E0.09017
G1 X115.142 Y107.641 E0.09020
G1 X114.795 Y105.000 E0.09017
G1 X115.142 Y102.359 E0.09017
G1 X116.162 Y99.897 E0.09020
G1 X117.783 Y97.783 E0.09017
G1 X119.897 Y96.161 E0.09019
G1 X122.359 Y95.142 E0.09019
G1 X125.000 Y94.794 E0.09018
G1 X127.642 Y95.142 E0.09020
G1 X130.103 Y96.161 E0.09016
G1 X132.217 Y97.783 E0.09019
G1 X133.839 Y99.897 E0.09019
G1 X134.858 Y102.359 E0.09019
G1 X135.206 Y105.000 E0.09018
G1 X134.858 Y107.641 E0.09018
G1 X133.839 Y110.103 E0.09019
G1 X132.217 Y112.217 E0.09019
G1 X130.103 Y113.839 E0.09019
G1 X127.642 Y114.858 E0.09016
G1 X125.000 Y115.206 E0.09020
G1 X122.531 Y114.881 E0.08430
M204 S1000
G1 X122.423 Y114.770 F10800.000
G1 F8640.000
G1 X122.359 Y114.858 E-0.04007
G1 X119.897 Y113.839 E-0.61521
G1 X117.783 Y112.217 E-0.61524
G1 X117.626 Y112.012 E-0.05949
G1 E-0.07000 F2100.00000
G1 Z0.600 F10800.000
G1 X119.289 Y97.294
G1 Z0.400
G1 E1.40000 F2100.00000
M204 S2000
G1 F3073
G1 X118.287 Y98.297 E0.04861
G1 X116.784 Y100.256 E0.08469
G1 X116.694 Y100.473 E0.00804
G1 X120.474 Y96.693 E0.18331
G1 X121.469 Y96.281 E0.03695
G1 X116.282 Y101.469 E0.25160
G1 X115.869 Y102.464 E0.03697
G1 X122.465 Y95.869 E0.31989
G1 X122.545 Y95.836 E0.00297
G1 X123.162 Y95.755 E0.02137
G1 X115.755 Y103.162 E0.35929
G1 X115.667 Y103.834 E0.02323
G1 X123.834 Y95.666 E0.39616
G1 X124.506 Y95.578 E0.02324
G1 X115.578 Y104.505 E0.43302
G1 X115.513 Y105.000 E0.01711
G1 X115.531 Y105.136 E0.00470
G1 X125.137 Y95.530 E0.46589
G1 X125.652 Y95.598 E0.01783
G1 X115.599 Y105.651 E0.48760
G1 X115.667 Y106.167 E0.01783
G1 X126.167 Y95.666 E0.50931
G1 X126.683 Y95.734 E0.01783
G1 X115.734 Y106.682 E0.53103
G1 X115.802 Y107.198 E0.01783
G1 X127.198 Y95.802 E0.55274
G1 X127.456 Y95.836 E0.00892
G1 X127.662 Y95.921 E0.00765
G1 X115.922 Y107.662 E0.56945
G1 X116.092 Y108.074 E0.01531
G1 X128.075 Y96.092 E0.58117
G1 X128.487 Y96.263 E0.01531
G1 X116.263 Y108.487 E0.59289
G1 X116.434 Y108.899 E0.01531
G1 X128.900 Y96.434 E0.60461
G1 X129.312 Y96.605 E0.01531
G1 X116.605 Y109.312 E0.61633
G1 X116.776 Y109.724 E0.01531
G1 X129.725 Y96.775 E0.62805
G1 X130.059 Y97.025 E0.01429
G1 X117.025 Y110.058 E0.63215
G1 X117.278 Y110.388 E0.01427
G1 X130.389 Y97.278 E0.63588
G1 X130.719 Y97.531 E0.01427
G1 X117.532 Y110.718 E0.63960
G1 X117.785 Y111.048 E0.01427
G1 X131.049 Y97.785 E0.64333
G1 X131.379 Y98.038 E0.01427
G1 X118.038 Y111.379 E0.64706
G1 X118.291 Y111.709 E0.01427
G1 X131.709 Y98.291 E0.65078
G1 X131.962 Y98.621 E0.01427
G1 X118.621 Y111.962 E0.64706
G1 X118.951 Y112.215 E0.01427
G1 X132.215 Y98.951 E0.64334
G1 X132.469 Y99.281 E0.01427
G1 X119.281 Y112.469 E0.63961
G1 X119.611 Y112.722 E0.01427
G1 X132.722 Y99.611 E0.63589
G1 X132.975 Y99.941 E0.01427
G1 X119.941 Y112.975 E0.63217
G1 X120.275 Y113.225 E0.01429
G1 X133.225 Y100.275 E0.62807
G1 X133.395 Y100.688 E0.01531
G1 X120.688 Y113.395 E0.61635
G1 X121.100 Y113.566 E0.01531
G1 X133.566 Y101.100 E0.60462
G1 X133.737 Y101.513 E0.01531
G1 X121.513 Y113.737 E0.59290
G1 X121.925 Y113.908 E0.01531
G1 X133.908 Y101.925 E0.58117
G1 X134.078 Y102.338 E0.01531
G1 X122.338 Y114.078 E0.56945
G1 X122.545 Y114.164 E0.00767
G1 X122.802 Y114.198 E0.00889
G1 X134.198 Y102.802 E0.55274
G1 X134.266 Y103.317 E0.01783
G1 X123.317 Y114.266 E0.53104
G1 X123.833 Y114.334 E0.01783
G1 X134.334 Y103.833 E0.50934
G1 X134.402 Y104.348 E0.01783
G1 X124.348 Y114.402 E0.48763
G1 X124.863 Y114.470 E0.01783
G1 X134.470 Y104.863 E0.46593
G1 X134.488 Y105.000 E0.00473
G1 X134.423 Y105.494 E0.01708
G1 X125.494 Y114.423 E0.43307
G1 X126.166 Y114.334 E0.02324
G1 X134.334 Y106.166 E0.39619
G1 X134.245 Y106.837 E0.02324
G1 X126.837 Y114.246 E0.35931
G1 X127.456 Y114.164 E0.02141
G1 X127.535 Y114.132 E0.00292
G1 X134.131 Y107.535 E0.31994
G1 X133.719 Y108.531 E0.03695
G1 X128.530 Y113.719 E0.25166
G1 X129.526 Y113.307 E0.03696
G1 X133.307 Y109.526 E0.18339
G1 X133.217 Y109.744 E0.00809
