; generated by PrusaSlicer 2.9.4 on 2026-03-05 at 15:41:35 UTC


;
;

;
;
; 

; external perimeters extrusion width = 0.45mm
; perimeters extrusion width = 0.45mm
; infill extrusion width = 0.45mm
; solid infill extrusion width = 0.45mm
; top infill extrusion width = 0.40mm
; first layer extrusion width = 0.42mm

M73 P0 R85
M201 X9000 Y9000 Z500 E10000 ; sets maximum accelerations, mm/sec^2
M203 X500 Y500 Z12 E120 ; sets maximum feedrates, mm / sec
M204 S2000 T1500 ; sets acceleration (S) and retract acceleration (R), mm/sec^2
M205 X10.00 Y10.00 Z0.20 E4.50 ; sets the jerk limits, mm/sec
M205 S0 T0 ; sets the minimum extruding and travel feed rate, mm/sec

; printing object Anchor_Bear_Long.stl id:0 copy 0
; stop printing object Anchor_Bear_Long.stl id:0 copy 0

;TYPE:Custom
M83  ; extruder relative mode
M140 S85 ; set bed temp
M109 S160 ; Set extruder temp before bed level
M190 S85 ; wait for bed temp

G28 W ; home all without mesh bed level
G80 N7 ; mesh bed leveling

M109 S240 ; wait for extruder temp

M221 S100 ; Set flow to 100

G1 Y-3.0 F1000.0 ; go outside print area
G92 E0.0
G1 E8 ; Purge Bubble
G1 X60.0 E9.0 F1000.0 ; intro line
G1 X100.0 E12.5 F1000.0 ; intro line
G92 E0.0
G21 ; set units to millimeters
G90 ; use absolute coordinates
M83 ; use relative distances for extrusion

M900 K0.08 ; Filament gcode LA 1.5
M900 K45 ; Filament gcode LA 1.0




M107
;LAYER_CHANGE
;Z:0.2
;HEIGHT:0.2
G1 E-1 F2100
G1 Z.4 F720
G1 X49.253 Y79.943 F6000
G1 Z.2 F720
G1 E1 F2100
M204 S800
;TYPE:Skirt/Brim
;WIDTH:0.42
G1 F1200
G1 X50 Y79.811 E.02378
G1 X209.5 Y79.811 E5.00101
G1 X210.748 Y80.202 E.04101
M73 P0 R84
G1 X211.649 Y81.585 E.05175
G1 X214.689 Y97.529 E.50892
G1 X214.689 Y128.5 E.97107
G1 X214.298 Y129.748 E.04101
G1 X213.265 Y130.551 E.04102
G1 X212.5 Y130.689 E.02437
G1 X38 Y130.689 E5.47132
G1 X36.452 Y130.048 E.05253
G1 X35.952 Y129.548 E.02217
G1 X35.311 Y128 E.05253
G1 X35.311 Y108.1 E.62395
G1 X35.521 Y107.165 E.03005
G1 X47.521 Y81.772 E.88061
G1 X48.213 Y80.736 E.03906
G1 X49.205 Y79.979 E.03913
M204 S1000
;WIPE_START
G1 F4800
G1 X49.253 Y79.943 E-.02494
G1 X50 Y79.811 E-.31528
G1 X51.587 Y79.811 E-.65978
;WIPE_END
G1 Z.4 F720
; printing object Anchor_Bear_Long.stl id:0 copy 0
G1 X123.438 Y115.946 F6000
G1 Z.2 F720
G1 E1 F2100
M204 S800
;TYPE:Perimeter
;WIDTH:0.419999
G1 F1200
G1 X123.686 Y115.528 E.01524
G1 X124.046 Y115.096 E.01763
G1 X124.454 Y114.74 E.01698
G1 X124.911 Y114.454 E.0169
G1 X125.419 Y114.24 E.01728
G1 X125.908 Y114.116 E.01582
G1 X126.434 Y114.066 E.01657
G1 X127.003 Y114.102 E.01788
G1 X127.541 Y114.226 E.01731
G1 X128.012 Y114.415 E.01591
G1 X128.474 Y114.688 E.01683
G1 X128.889 Y115.031 E.01688
G1 X129.246 Y115.435 E.0169
G1 X129.547 Y115.914 E.01774
G1 X129.75 Y116.385 E.01608
G1 X129.884 Y116.905 E.01684
G1 X129.935 Y117.441 E.01688
G1 X129.898 Y118.005 E.01772
G1 X129.777 Y118.533 E.01698
G1 X129.575 Y119.032 E.01688
G1 X129.314 Y119.472 E.01604
G1 X128.954 Y119.904 E.01763
G1 X128.546 Y120.26 E.01698
G1 X128.089 Y120.546 E.0169
G1 X127.622 Y120.747 E.01594
G1 X127.096 Y120.884 E.01704
G1 X126.546 Y120.936 E.01732
G1 X125.994 Y120.898 E.01735
G1 X125.459 Y120.774 E.01722
G1 X124.988 Y120.585 E.01591
G1 X124.526 Y120.312 E.01683
G1 X124.111 Y119.969 E.01688
G1 X123.754 Y119.565 E.0169
G1 X123.453 Y119.086 E.01774
G1 X123.25 Y118.615 E.01608
G1 X123.116 Y118.095 E.01684
G1 X123.063 Y117.512 E.01835
G1 X123.102 Y116.995 E.01626
G1 X123.223 Y116.467 E.01698
G1 X123.412 Y116 E.0158
M204 S1000
G1 X123.774 Y116.117 F6000
M204 S800
;TYPE:External perimeter
G1 F1200
G1 X123.786 Y116.088 E.00098
G1 X124.025 Y115.702 E.01423
G1 X124.352 Y115.321 E.01574
G1 X124.722 Y115.01 E.01515
G1 X125.134 Y114.763 E.01506
G1 X125.588 Y114.58 E.01535
G1 X126.025 Y114.478 E.01407
G1 X126.495 Y114.441 E.01478
G1 X126.995 Y114.48 E.01572
G1 X127.477 Y114.601 E.01558
G1 X127.893 Y114.776 E.01415
G1 X128.302 Y115.027 E.01505
G1 X128.666 Y115.339 E.01503
G1 X128.978 Y115.705 E.01508
G1 X129.239 Y116.137 E.01583
G1 X129.41 Y116.557 E.01422
G1 X129.522 Y117.023 E.01503
G1 X129.559 Y117.502 E.01506
G1 X129.517 Y118.006 E.01586
G1 X129.401 Y118.471 E.01503
G1 X129.214 Y118.912 E.01502
G1 X128.975 Y119.298 E.01423
G1 X128.645 Y119.681 E.01585
G1 X128.278 Y119.99 E.01504
G1 X127.868 Y120.237 E.01501
G1 X127.45 Y120.408 E.01416
G1 X126.975 Y120.522 E.01532
G1 X126.485 Y120.56 E.01541
G1 X125.995 Y120.517 E.01542
G1 X125.523 Y120.399 E.01525
G1 X125.107 Y120.224 E.01415
G1 X124.698 Y119.973 E.01505
G1 X124.334 Y119.661 E.01503
G1 X124.022 Y119.295 E.01508
G1 X123.761 Y118.863 E.01583
G1 X123.59 Y118.443 E.01422
G1 X123.48 Y117.991 E.01459
G1 X123.441 Y117.498 E.01551
G1 X123.483 Y116.994 E.01586
G1 X123.599 Y116.529 E.01503
G1 X123.75 Y116.172 E.01215
M204 S1000
;WIPE_START
G1 F4800
G1 X123.774 Y116.117 E-.02494
G1 X123.786 Y116.088 E-.01304
G1 X124.025 Y115.702 E-.18869
G1 X124.352 Y115.321 E-.20868
G1 X124.722 Y115.01 E-.20089
G1 X125.134 Y114.763 E-.19965
G1 X125.5 Y114.616 E-.16411
;WIPE_END
G1 Z.4 F720
G1 X96.33 Y99.52 F6000
G1 Z.2 F720
G1 E1 F2100
M204 S800
;TYPE:Perimeter
G1 F1200
G1 X96.01 Y99.904 E.01567
G1 X95.602 Y100.26 E.01698
G1 X95.146 Y100.546 E.01688
G1 X94.678 Y100.747 E.01597
G1 X94.152 Y100.884 E.01704
G1 X93.602 Y100.936 E.01732
G1 X93.051 Y100.898 E.01732
G1 X92.516 Y100.774 E.01722
G1 X92.044 Y100.585 E.01594
G1 X91.582 Y100.312 E.01683
G1 X91.167 Y99.969 E.01688
G1 X90.811 Y99.565 E.01688
G1 X90.509 Y99.086 E.01775
G1 X90.307 Y98.615 E.01607
G1 X90.173 Y98.095 E.01684
G1 X90.121 Y97.559 E.01688
G1 X90.158 Y96.995 E.01772
G1 X90.292 Y96.425 E.01836
G1 X90.499 Y95.929 E.01685
G1 X90.767 Y95.492 E.01607
G1 X91.102 Y95.096 E.01626
G1 X91.51 Y94.74 E.01698
G1 X91.967 Y94.454 E.0169
G1 X92.475 Y94.24 E.01728
G1 X92.964 Y94.116 E.01582
G1 X93.49 Y94.066 E.01657
G1 X94.059 Y94.102 E.01788
G1 X94.597 Y94.226 E.01731
G1 X95.068 Y94.415 E.01591
G1 X95.53 Y94.688 E.01683
G1 X95.946 Y95.031 E.01691
G1 X96.302 Y95.435 E.01688
G1 X96.604 Y95.914 E.01775
G1 X96.806 Y96.385 E.01607
G1 X96.94 Y96.905 E.01684
G1 X96.991 Y97.441 E.01688
G1 X96.954 Y98.005 E.01772
G1 X96.833 Y98.533 E.01698
G1 X96.632 Y99.032 E.01687
G1 X96.37 Y99.472 E.01606
G1 X96.368 Y99.474 E.00009
M204 S1000
G1 X96.029 Y99.301 F6000
M204 S800
;TYPE:External perimeter
G1 F1200
G1 X95.702 Y99.681 E.01572
G1 X95.334 Y99.99 E.01507
G1 X94.924 Y100.237 E.01501
G1 X94.507 Y100.408 E.01413
G1 X94.032 Y100.522 E.01532
G1 X93.541 Y100.56 E.01544
G1 X93.051 Y100.517 E.01542
G1 X92.579 Y100.399 E.01525
G1 X92.163 Y100.224 E.01415
G1 X91.754 Y99.973 E.01505
G1 X91.39 Y99.661 E.01503
G1 X91.079 Y99.295 E.01506
G1 X90.819 Y98.867 E.0157
G1 X90.646 Y98.443 E.01436
G1 X90.534 Y97.977 E.01503
G1 X90.497 Y97.498 E.01506
G1 X90.536 Y97.009 E.01538
G1 X90.721 Y96.371 E.02083
G1 X90.921 Y95.96 E.01433
G1 X91.167 Y95.602 E.01362
G1 X91.432 Y95.301 E.01257
G1 X91.778 Y95.01 E.01418
G1 X92.373 Y94.688 E.02121
G1 X92.644 Y94.58 E.00915
G1 X93.081 Y94.478 E.01407
G1 X93.551 Y94.441 E.01478
G1 X94.062 Y94.483 E.01608
G1 X94.534 Y94.601 E.01525
G1 X94.95 Y94.776 E.01415
G1 X95.358 Y95.027 E.01502
G1 X95.723 Y95.339 E.01506
G1 X96.034 Y95.705 E.01506
G1 X96.295 Y96.137 E.01583
G1 X96.467 Y96.557 E.01423
G1 X96.578 Y97.023 E.01502
G1 X96.616 Y97.502 E.01507
G1 X96.574 Y98.002 E.01573
G1 X96.458 Y98.471 E.01515
G1 X96.271 Y98.912 E.01502
G1 X96.061 Y99.251 E.0125
M204 S1000
;WIPE_START
G1 F4800
G1 X96.029 Y99.301 E-.02467
G1 X95.702 Y99.681 E-.20836
G1 X95.334 Y99.99 E-.19972
G1 X94.924 Y100.237 E-.19894
G1 X94.507 Y100.408 E-.18732
G1 X94.083 Y100.51 E-.18099
;WIPE_END
G1 Z.4 F720
G1 X84.953 Y86.929 F6000
G1 Z.2 F720
G1 E1 F2100
M204 S800
G1 F1200
G1 X84.939 Y86.939 E.00054
G1 X84.611 Y87.084 E.01124
G1 X84.292 Y87.162 E.0103
G1 X83.926 Y87.182 E.01149
G1 X83.36 Y87.077 E.01805
G1 X82.896 Y86.83 E.01648
G1 X82.524 Y86.492 E.01576
G1 X82.344 Y86.233 E.00989
G1 X82.198 Y85.914 E.011
G1 X82.114 Y85.592 E.01043
G1 X82.088 Y85.26 E.01044
G1 X82.12 Y84.929 E.01043
G1 X82.209 Y84.608 E.01044
G1 X82.352 Y84.307 E.01045
G1 X82.545 Y84.036 E.01043
G1 X82.783 Y83.803 E.01044
G1 X83.057 Y83.614 E.01044
G1 X83.375 Y83.473 E.01091
;WIDTH:0.466921
G1 X83.643 Y83.399 E.0098
;WIDTH:0.513842
G1 X83.912 Y83.326 E.01091
;WIDTH:0.530616
G1 X84.36 Y83.345 E.01818
G1 X84.553 Y83.434 E.00862
;WIDTH:0.493744
G1 X84.746 Y83.524 E.00798
;WIDTH:0.456872
G1 X84.939 Y83.614 E.00733
;WIDTH:0.419999
G1 X85.238 Y83.824 E.01146
G1 X85.472 Y84.061 E.01044
G1 X85.661 Y84.336 E.01046
G1 X85.799 Y84.639 E.01044
G1 X85.882 Y84.961 E.01043
G1 X85.908 Y85.293 E.01044
G1 X85.876 Y85.624 E.01043
G1 X85.787 Y85.945 E.01044
G1 X85.531 Y86.407 E.01656
G1 X85.213 Y86.75 E.01467
G1 X85.002 Y86.896 E.00805
M204 S1000
;WIPE_START
G1 F4800
G1 X84.953 Y86.929 E-.02455
G1 X84.939 Y86.939 E-.00715
G1 X84.611 Y87.084 E-.14905
G1 X84.292 Y87.162 E-.13649
G1 X83.926 Y87.182 E-.15235
G1 X83.36 Y87.077 E-.23926
G1 X82.896 Y86.83 E-.21847
G1 X82.767 Y86.712 E-.07268
;WIPE_END
G1 Z.4 F720
G1 X83.989 Y120.994 F6000
G1 Z.2 F720
G1 E1 F2100
M204 S800
;TYPE:Perimeter
G1 F1200
G1 X84.359 Y121.007 E.01161
G1 X84.818 Y121.133 E.01492
G1 X85.175 Y121.309 E.01248
G1 X85.496 Y121.545 E.01249
G1 X85.841 Y121.931 E.01623
G1 X86.121 Y122.436 E.0181
G1 X86.249 Y122.916 E.01558
G1 X86.275 Y123.313 E.01247
G1 X86.232 Y123.71 E.01252
G1 X86.121 Y124.092 E.01247
G1 X85.944 Y124.45 E.01252
G1 X85.709 Y124.771 E.01247
G1 X85.421 Y125.047 E.01251
G1 X85.09 Y125.268 E.01248
G1 X84.725 Y125.429 E.01251
G1 X84.338 Y125.524 E.01249
G1 X83.94 Y125.55 E.01251
G1 X83.544 Y125.507 E.01249
G1 X83.161 Y125.395 E.01251
G1 X82.804 Y125.219 E.01248
G1 X82.482 Y124.983 E.01252
G1 X82.207 Y124.696 E.01246
G1 X81.985 Y124.364 E.01252
G1 X81.825 Y124 E.01247
G1 X81.73 Y123.612 E.01252
G1 X81.704 Y123.215 E.01247
G1 X81.747 Y122.819 E.01249
G1 X81.858 Y122.436 E.0125
G1 X82.035 Y122.079 E.01249
G1 X82.27 Y121.757 E.0125
G1 X82.621 Y121.437 E.01489
G1 X82.889 Y121.26 E.01007
G1 X83.298 Y121.089 E.0139
G1 X83.844 Y120.989 E.0174
G1 X83.93 Y120.992 E.0027
M204 S1000
G1 X83.989 Y121.365 F6000
M204 S800
;TYPE:External perimeter
G1 F1200
G1 X84.337 Y121.386 E.01093
G1 X84.658 Y121.475 E.01044
G1 X84.959 Y121.618 E.01045
G1 X85.23 Y121.811 E.01043
G1 X85.532 Y122.147 E.01417
G1 X85.779 Y122.595 E.01604
G1 X85.873 Y122.949 E.01148
G1 X85.9 Y123.281 E.01044
G1 X85.868 Y123.612 E.01043
G1 X85.779 Y123.933 E.01044
G1 X85.635 Y124.233 E.01043
G1 X85.442 Y124.505 E.01046
G1 X85.205 Y124.738 E.01042
G1 X84.93 Y124.927 E.01046
G1 X84.627 Y125.065 E.01044
G1 X84.305 Y125.148 E.01043
G1 X83.973 Y125.174 E.01044
G1 X83.642 Y125.142 E.01043
G1 X83.321 Y125.053 E.01044
G1 X83.02 Y124.91 E.01045
G1 X82.749 Y124.717 E.01043
G1 X82.516 Y124.479 E.01044
G1 X82.327 Y124.205 E.01044
G1 X82.189 Y123.902 E.01044
G1 X82.105 Y123.58 E.01043
G1 X82.079 Y123.248 E.01044
G1 X82.111 Y122.916 E.01046
G1 X82.2 Y122.595 E.01044
G1 X82.343 Y122.295 E.01042
G1 X82.537 Y122.024 E.01045
G1 X82.837 Y121.746 E.01282
G1 X83.321 Y121.475 E.01739
G1 X83.912 Y121.36 E.01888
G1 X83.93 Y121.361 E.00057
M204 S1000
;WIPE_START
G1 F4800
G1 X83.989 Y121.365 E-.02458
G1 X84.337 Y121.386 E-.1449
G1 X84.658 Y121.475 E-.13845
G1 X84.959 Y121.618 E-.1385
G1 X85.23 Y121.811 E-.13828
G1 X85.532 Y122.147 E-.18777
G1 X85.779 Y122.595 E-.21262
G1 X85.788 Y122.63 E-.0149
;WIPE_END
G1 Z.4 F720
G1 X44.602 Y120.993 F6000
G1 Z.2 F720
G1 E1 F2100
M204 S800
;TYPE:Perimeter
G1 F1200
G1 X44.614 Y121.041 E.00155
G1 X44.64 Y121.439 E.01251
G1 X44.597 Y121.835 E.01249
G1 X44.486 Y122.217 E.01247
G1 X44.309 Y122.575 E.01252
G1 X44.137 Y122.821 E.00941
G1 X43.786 Y123.172 E.01556
G1 X43.455 Y123.394 E.0125
G1 X43.09 Y123.554 E.0125
G1 X42.703 Y123.649 E.01249
G1 X42.305 Y123.675 E.01251
G1 X41.909 Y123.632 E.01249
G1 X41.526 Y123.52 E.01251
G1 X41.169 Y123.344 E.01248
G1 X40.847 Y123.109 E.0125
G1 X40.572 Y122.821 E.01249
G1 X40.35 Y122.49 E.0125
G1 X40.19 Y122.125 E.0125
G1 X40.095 Y121.738 E.01249
G1 X40.069 Y121.34 E.01251
G1 X40.112 Y120.944 E.01249
G1 X40.223 Y120.561 E.0125
G1 X40.4 Y120.204 E.01249
G1 X40.635 Y119.882 E.0125
G1 X40.923 Y119.607 E.01249
G1 X41.254 Y119.385 E.0125
G1 X41.663 Y119.215 E.01389
G1 X42.209 Y119.115 E.0174
G1 X42.79 Y119.144 E.01824
G1 X43.183 Y119.258 E.01283
G1 X43.54 Y119.434 E.01248
G1 X43.862 Y119.67 E.01252
G1 X44.145 Y119.969 E.01291
G1 X44.359 Y120.289 E.01207
G1 X44.519 Y120.654 E.0125
G1 X44.588 Y120.935 E.00907
M204 S1000
G1 X44.234 Y121.058 F6000
M204 S800
;TYPE:External perimeter
G1 F1200
G1 X44.238 Y121.074 E.00052
G1 X44.265 Y121.406 E.01044
G1 X44.233 Y121.737 E.01043
G1 X44.144 Y122.058 E.01044
G1 X44 Y122.359 E.01046
G1 X43.828 Y122.605 E.00941
G1 X43.57 Y122.863 E.01144
G1 X43.295 Y123.052 E.01046
G1 X42.992 Y123.19 E.01044
G1 X42.67 Y123.273 E.01043
G1 X42.338 Y123.299 E.01044
G1 X42.007 Y123.268 E.01042
G1 X41.686 Y123.179 E.01044
G1 X41.385 Y123.035 E.01046
G1 X41.114 Y122.842 E.01043
G1 X40.881 Y122.605 E.01042
G1 X40.692 Y122.33 E.01046
G1 X40.554 Y122.027 E.01044
G1 X40.471 Y121.705 E.01043
G1 X40.444 Y121.373 E.01044
G1 X40.476 Y121.041 E.01046
G1 X40.565 Y120.721 E.01041
G1 X40.708 Y120.42 E.01045
G1 X40.902 Y120.149 E.01045
G1 X41.139 Y119.916 E.01042
G1 X41.414 Y119.727 E.01046
G1 X41.731 Y119.585 E.01089
G1 X42.277 Y119.485 E.0174
G1 X42.702 Y119.511 E.01335
G1 X43.023 Y119.6 E.01044
G1 X43.324 Y119.743 E.01045
G1 X43.595 Y119.937 E.01045
G1 X43.836 Y120.185 E.01084
G1 X44.017 Y120.448 E.01001
G1 X44.155 Y120.751 E.01044
G1 X44.219 Y121 E.00806
M204 S1000
;WIPE_START
G1 F4800
G1 X44.234 Y121.058 E-.0249
G1 X44.238 Y121.074 E-.00685
G1 X44.265 Y121.406 E-.13844
G1 X44.233 Y121.737 E-.13821
G1 X44.144 Y122.058 E-.13845
G1 X44 Y122.359 E-.13868
G1 X43.828 Y122.605 E-.12476
G1 X43.57 Y122.863 E-.15165
G1 X43.297 Y123.051 E-.13806
;WIPE_END
G1 Z.4 F720
G1 X165.23 Y98.042 F6000
G1 Z.2 F720
G1 E1 F2100
M204 S800
;TYPE:Perimeter
G1 F1200
G1 X165.184 Y97.559 E.01521
G1 X165.221 Y96.995 E.01772
G1 X165.342 Y96.467 E.01698
G1 X165.544 Y95.968 E.01688
G1 X165.806 Y95.528 E.01606
G1 X166.165 Y95.096 E.01761
G1 X166.573 Y94.74 E.01698
G1 X167.03 Y94.454 E.0169
G1 X167.538 Y94.24 E.01728
G1 X168.027 Y94.116 E.01582
G1 X168.553 Y94.066 E.01657
G1 X169.122 Y94.102 E.01788
G1 X169.621 Y94.217 E.01606
G1 X170.131 Y94.415 E.01715
G1 X170.593 Y94.688 E.01683
G1 X171.008 Y95.031 E.01688
G1 X171.365 Y95.435 E.0169
G1 X171.666 Y95.914 E.01774
G1 X171.869 Y96.385 E.01608
G1 X172.003 Y96.905 E.01684
G1 X172.054 Y97.441 E.01688
G1 X172.017 Y98.005 E.01772
G1 X171.896 Y98.533 E.01698
G1 X171.694 Y99.032 E.01688
G1 X171.433 Y99.472 E.01604
G1 X171.073 Y99.904 E.01763
G1 X170.665 Y100.26 E.01698
G1 X170.209 Y100.546 E.01688
G1 X169.741 Y100.747 E.01597
G1 X169.215 Y100.884 E.01704
G1 X168.665 Y100.936 E.01732
G1 X168.113 Y100.898 E.01735
G1 X167.578 Y100.774 E.01722
G1 X167.107 Y100.585 E.01591
G1 X166.645 Y100.312 E.01683
G1 X166.23 Y99.969 E.01688
G1 X165.873 Y99.565 E.0169
G1 X165.572 Y99.086 E.01774
G1 X165.369 Y98.615 E.01608
G1 X165.237 Y98.101 E.01664
M204 S1000
G1 X165.599 Y97.983 F6000
M204 S800
;TYPE:External perimeter
G1 F1200
G1 X165.597 Y97.977 E.0002
G1 X165.56 Y97.498 E.01506
G1 X165.602 Y96.994 E.01586
G1 X165.718 Y96.529 E.01503
G1 X165.905 Y96.088 E.01502
G1 X166.144 Y95.702 E.01423
G1 X166.474 Y95.319 E.01585
G1 X166.841 Y95.01 E.01504
G1 X167.253 Y94.763 E.01506
G1 X167.707 Y94.58 E.01535
G1 X168.144 Y94.478 E.01407
G1 X168.614 Y94.441 E.01478
G1 X169.124 Y94.483 E.01604
G1 X169.622 Y94.612 E.01613
G1 X170.032 Y94.788 E.01399
G1 X170.421 Y95.027 E.01431
G1 X170.925 Y95.501 E.02169
G1 X171.163 Y95.813 E.0123
G1 X171.375 Y96.178 E.01323
G1 X171.539 Y96.594 E.01402
G1 X171.641 Y97.023 E.01383
G1 X171.678 Y97.502 E.01506
G1 X171.637 Y98.003 E.01576
G1 X171.52 Y98.471 E.01513
G1 X171.333 Y98.912 E.01502
G1 X171.094 Y99.298 E.01423
G1 X170.765 Y99.681 E.01583
G1 X170.397 Y99.99 E.01507
G1 X169.987 Y100.237 E.01501
G1 X169.569 Y100.408 E.01416
G1 X169.094 Y100.522 E.01532
G1 X168.604 Y100.56 E.01541
G1 X168.114 Y100.517 E.01542
G1 X167.642 Y100.399 E.01525
