; generated by PrusaSlicer 2.9.4 on 2026-03-05 at 15:42:27 UTC


;
;

;
;
; 

; external perimeters extrusion width = 0.45mm
; perimeters extrusion width = 0.45mm
; infill extrusion width = 0.45mm
; solid infill extrusion width = 0.45mm
; top infill extrusion width = 0.40mm
; first layer extrusion width = 0.42mm

M73 P0 R73
M201 X9000 Y9000 Z500 E10000 ; sets maximum accelerations, mm/sec^2
M203 X500 Y500 Z12 E120 ; sets maximum feedrates, mm / sec
M204 S2000 T1500 ; sets acceleration (S) and retract acceleration (R), mm/sec^2
M205 X10.00 Y10.00 Z0.20 E4.50 ; sets the jerk limits, mm/sec
M205 S0 T0 ; sets the minimum extruding and travel feed rate, mm/sec

; printing object Anchor_Bear_Short.stl id:0 copy 0
; stop printing object Anchor_Bear_Short.stl id:0 copy 0

;TYPE:Custom
M83  ; extruder relative mode
M140 S85 ; set bed temp
M109 S160 ; Set extruder temp before bed level
M190 S85 ; wait for bed temp

G28 W ; home all without mesh bed level
G80 N7 ; mesh bed leveling

M109 S240 ; wait for extruder temp

M221 S100 ; Set flow to 100

G1 Y-3.0 F1000.0 ; go outside print area
G92 E0.0
G1 E8 ; Purge Bubble
G1 X60.0 E9.0 F1000.0 ; intro line
G1 X100.0 E12.5 F1000.0 ; intro line
G92 E0.0
G21 ; set units to millimeters
G90 ; use absolute coordinates
M83 ; use relative distances for extrusion

M900 K0.08 ; Filament gcode LA 1.5
M900 K45 ; Filament gcode LA 1.0




M107
;LAYER_CHANGE
;Z:0.2
;HEIGHT:0.2
G1 E-1 F2100
G1 Z.4 F720
G1 X52.285 Y79.949 F6000
G1 Z.2 F720
G1 E1 F2100
M204 S800
;TYPE:Skirt/Brim
;WIDTH:0.42
G1 F1200
G1 X53.05 Y79.811 E.02437
G1 X193.95 Y79.811 E4.41782
G1 X195.198 Y80.202 E.04101
M73 P0 R72
G1 X196.099 Y81.585 E.05175
G1 X199.139 Y97.529 E.50892
G1 X199.139 Y128.5 E.97107
G1 X198.748 Y129.748 E.04101
G1 X197.715 Y130.551 E.04102
G1 X196.95 Y130.689 E.02437
G1 X53.05 Y130.689 E4.51188
G1 X51.802 Y130.298 E.04101
G1 X50.999 Y129.265 E.04102
G1 X50.861 Y128.5 E.02437
G1 X50.861 Y82 E1.45797
G1 X51.252 Y80.752 E.04101
G1 X52.238 Y79.986 E.03915
M204 S1000
;WIPE_START
G1 F4800
G1 X52.285 Y79.949 E-.02486
G1 X53.05 Y79.811 E-.32309
G1 X54.619 Y79.811 E-.65205
;WIPE_END
G1 Z.4 F720
; printing object Anchor_Bear_Short.stl id:0 copy 0
G1 X108.177 Y115.48 F6000
G1 Z.2 F720
G1 E1 F2100
M204 S800
;TYPE:Perimeter
;WIDTH:0.419999
G1 F1200
G1 X108.496 Y115.096 E.01565
G1 X108.904 Y114.74 E.01698
G1 X109.361 Y114.454 E.0169
G1 X109.869 Y114.24 E.01728
G1 X110.358 Y114.116 E.01582
G1 X110.884 Y114.066 E.01657
G1 X111.453 Y114.102 E.01788
G1 X111.991 Y114.226 E.01731
G1 X112.462 Y114.415 E.01591
G1 X112.924 Y114.688 E.01683
G1 X113.339 Y115.031 E.01688
G1 X113.696 Y115.435 E.0169
G1 X113.997 Y115.914 E.01774
G1 X114.2 Y116.385 E.01608
G1 X114.334 Y116.905 E.01684
G1 X114.385 Y117.441 E.01688
G1 X114.348 Y118.005 E.01772
G1 X114.227 Y118.533 E.01698
G1 X114.025 Y119.032 E.01688
G1 X113.764 Y119.472 E.01604
G1 X113.404 Y119.904 E.01763
G1 X112.996 Y120.26 E.01698
G1 X112.539 Y120.546 E.0169
G1 X112.072 Y120.747 E.01594
G1 X111.546 Y120.884 E.01704
G1 X110.996 Y120.936 E.01732
G1 X110.444 Y120.898 E.01735
G1 X109.909 Y120.774 E.01722
G1 X109.438 Y120.585 E.01591
G1 X108.976 Y120.312 E.01683
G1 X108.561 Y119.969 E.01688
G1 X108.204 Y119.565 E.0169
G1 X107.903 Y119.086 E.01774
G1 X107.7 Y118.615 E.01608
G1 X107.566 Y118.095 E.01684
G1 X107.515 Y117.559 E.01688
G1 X107.552 Y116.995 E.01772
G1 X107.673 Y116.467 E.01698
G1 X107.875 Y115.968 E.01688
G1 X108.136 Y115.528 E.01604
G1 X108.139 Y115.526 E.00011
M204 S1000
G1 X108.478 Y115.699 F6000
M204 S800
;TYPE:External perimeter
G1 F1200
G1 X108.802 Y115.321 E.01561
G1 X109.172 Y115.01 E.01515
G1 X109.584 Y114.763 E.01506
G1 X110.038 Y114.58 E.01535
G1 X110.475 Y114.478 E.01407
G1 X110.945 Y114.441 E.01478
G1 X111.445 Y114.48 E.01572
G1 X111.927 Y114.601 E.01558
G1 X112.343 Y114.776 E.01415
G1 X112.752 Y115.027 E.01505
G1 X113.116 Y115.339 E.01503
G1 X113.428 Y115.705 E.01508
G1 X113.689 Y116.137 E.01583
G1 X113.86 Y116.557 E.01422
G1 X113.972 Y117.023 E.01503
G1 X114.009 Y117.502 E.01506
G1 X113.967 Y118.006 E.01586
G1 X113.851 Y118.471 E.01503
G1 X113.664 Y118.912 E.01502
G1 X113.425 Y119.298 E.01423
G1 X113.095 Y119.681 E.01585
G1 X112.728 Y119.99 E.01504
G1 X112.318 Y120.237 E.01501
G1 X111.9 Y120.408 E.01416
G1 X111.425 Y120.522 E.01532
G1 X110.935 Y120.56 E.01541
G1 X110.445 Y120.517 E.01542
G1 X109.973 Y120.399 E.01525
G1 X109.557 Y120.224 E.01415
G1 X109.148 Y119.973 E.01505
G1 X108.784 Y119.661 E.01503
G1 X108.472 Y119.295 E.01508
G1 X108.211 Y118.863 E.01583
G1 X108.04 Y118.443 E.01422
G1 X107.928 Y117.977 E.01503
G1 X107.891 Y117.528 E.01413
G1 X107.928 Y117.024 E.01585
G1 X108.046 Y116.537 E.01571
G1 X108.236 Y116.088 E.01529
G1 X108.446 Y115.749 E.0125
M204 S1000
;WIPE_START
G1 F4800
G1 X108.478 Y115.699 E-.02467
G1 X108.802 Y115.321 E-.20692
G1 X109.172 Y115.01 E-.20089
G1 X109.584 Y114.763 E-.19965
G1 X110.038 Y114.58 E-.20345
G1 X110.423 Y114.49 E-.16442
;WIPE_END
G1 Z.4 F720
G1 X81.068 Y99.054 F6000
G1 Z.2 F720
G1 E1 F2100
M204 S800
;TYPE:Perimeter
G1 F1200
G1 X80.82 Y99.472 E.01524
G1 X80.46 Y99.904 E.01763
G1 X80.052 Y100.26 E.01698
G1 X79.596 Y100.546 E.01688
G1 X79.128 Y100.747 E.01597
G1 X78.602 Y100.884 E.01704
G1 X78.052 Y100.936 E.01732
G1 X77.501 Y100.898 E.01732
G1 X76.966 Y100.774 E.01722
G1 X76.494 Y100.585 E.01594
G1 X76.032 Y100.312 E.01683
G1 X75.617 Y99.969 E.01688
G1 X75.261 Y99.565 E.01688
G1 X74.959 Y99.086 E.01775
G1 X74.757 Y98.615 E.01607
G1 X74.623 Y98.095 E.01684
G1 X74.571 Y97.559 E.01688
G1 X74.594 Y97.177 E.012
G1 X74.73 Y96.467 E.02267
G1 X74.931 Y95.968 E.01687
G1 X75.193 Y95.528 E.01606
G1 X75.525 Y95.128 E.0163
G1 X75.96 Y94.74 E.01828
G1 X76.417 Y94.454 E.0169
G1 X76.925 Y94.24 E.01728
G1 X77.414 Y94.116 E.01582
G1 X77.94 Y94.066 E.01657
G1 X78.509 Y94.102 E.01788
G1 X79.047 Y94.226 E.01731
G1 X79.518 Y94.415 E.01591
G1 X79.98 Y94.688 E.01683
G1 X80.396 Y95.031 E.01691
G1 X80.752 Y95.435 E.01688
G1 X81.054 Y95.914 E.01775
G1 X81.256 Y96.385 E.01607
G1 X81.39 Y96.905 E.01684
G1 X81.441 Y97.441 E.01688
G1 X81.404 Y98.005 E.01772
G1 X81.283 Y98.533 E.01698
G1 X81.094 Y99 E.0158
M204 S1000
G1 X80.733 Y98.883 F6000
M204 S800
;TYPE:External perimeter
G1 F1200
G1 X80.721 Y98.912 E.00098
G1 X80.481 Y99.298 E.01425
G1 X80.152 Y99.681 E.01583
G1 X79.784 Y99.99 E.01507
G1 X79.374 Y100.237 E.01501
G1 X78.957 Y100.408 E.01413
G1 X78.482 Y100.522 E.01532
G1 X77.991 Y100.56 E.01544
G1 X77.501 Y100.517 E.01542
G1 X77.029 Y100.399 E.01525
G1 X76.613 Y100.224 E.01415
G1 X76.204 Y99.973 E.01505
G1 X75.84 Y99.661 E.01503
G1 X75.529 Y99.295 E.01506
G1 X75.268 Y98.863 E.01583
G1 X75.096 Y98.443 E.01423
G1 X74.984 Y97.977 E.01503
G1 X74.947 Y97.498 E.01506
G1 X75.096 Y96.557 E.02987
G1 X75.292 Y96.088 E.01594
G1 X75.617 Y95.601 E.01836
G1 X75.882 Y95.301 E.01255
G1 X76.228 Y95.01 E.01418
G1 X76.823 Y94.688 E.02121
G1 X77.094 Y94.58 E.00915
G1 X77.531 Y94.478 E.01407
G1 X78.001 Y94.441 E.01478
G1 X78.512 Y94.483 E.01608
G1 X78.984 Y94.601 E.01525
G1 X79.4 Y94.776 E.01415
G1 X79.808 Y95.027 E.01502
G1 X80.173 Y95.339 E.01506
G1 X80.484 Y95.705 E.01506
G1 X80.745 Y96.137 E.01583
G1 X80.917 Y96.557 E.01423
G1 X81.028 Y97.023 E.01502
G1 X81.066 Y97.502 E.01507
G1 X81.024 Y98.002 E.01573
G1 X80.908 Y98.471 E.01515
G1 X80.756 Y98.828 E.01217
M204 S1000
;WIPE_START
G1 F4800
G1 X80.733 Y98.883 E-.02478
G1 X80.721 Y98.912 E-.01304
G1 X80.481 Y99.298 E-.18891
G1 X80.152 Y99.681 E-.20985
G1 X79.784 Y99.99 E-.19972
G1 X79.374 Y100.237 E-.19894
G1 X79.007 Y100.387 E-.16476
;WIPE_END
G1 Z.4 F720
G1 X69.9 Y86.495 F6000
G1 Z.2 F720
G1 E1 F2100
M204 S800
G1 F1200
G1 X69.663 Y86.75 E.01092
G1 X69.389 Y86.939 E.01044
G1 X69.061 Y87.084 E.01124
G1 X68.742 Y87.162 E.0103
G1 X68.375 Y87.182 E.01152
G1 X67.81 Y87.077 E.01802
G1 X67.479 Y86.922 E.01146
G1 X67.208 Y86.729 E.01043
G1 X66.974 Y86.492 E.01044
G1 X66.786 Y86.217 E.01044
G1 X66.648 Y85.914 E.01044
G1 X66.564 Y85.592 E.01043
G1 X66.538 Y85.26 E.01044
G1 X66.57 Y84.929 E.01043
G1 X66.659 Y84.608 E.01044
G1 X66.802 Y84.307 E.01045
G1 X66.995 Y84.036 E.01043
G1 X67.233 Y83.803 E.01044
G1 X67.507 Y83.614 E.01044
G1 X67.825 Y83.473 E.01091
;WIDTH:0.466922
G1 X68.093 Y83.399 E.0098
;WIDTH:0.513845
G1 X68.362 Y83.326 E.01091
;WIDTH:0.530622
G1 X68.81 Y83.345 E.01818
G1 X69.003 Y83.434 E.00862
;WIDTH:0.493748
G1 X69.196 Y83.524 E.00798
;WIDTH:0.456874
G1 X69.389 Y83.614 E.00733
;WIDTH:0.419999
G1 X69.688 Y83.824 E.01146
G1 X69.922 Y84.061 E.01044
G1 X70.111 Y84.336 E.01046
G1 X70.249 Y84.639 E.01044
G1 X70.332 Y84.961 E.01043
G1 X70.358 Y85.293 E.01044
G1 X70.326 Y85.624 E.01043
G1 X70.237 Y85.945 E.01044
G1 X69.981 Y86.407 E.01656
G1 X69.941 Y86.451 E.00186
M204 S1000
;WIPE_START
G1 F4800
G1 X69.9 Y86.495 E-.025
G1 X69.663 Y86.75 E-.14469
G1 X69.389 Y86.939 E-.13835
G1 X69.061 Y87.084 E-.14905
G1 X68.742 Y87.162 E-.13649
G1 X68.375 Y87.182 E-.15276
G1 X67.81 Y87.077 E-.23885
G1 X67.778 Y87.062 E-.01481
;WIPE_END
G1 Z.4 F720
G1 X68.439 Y120.994 F6000
G1 Z.2 F720
G1 E1 F2100
M204 S800
;TYPE:Perimeter
G1 F1200
G1 X68.809 Y121.007 E.01161
G1 X69.268 Y121.133 E.01492
G1 X69.625 Y121.309 E.01248
G1 X69.946 Y121.545 E.01249
G1 X70.291 Y121.931 E.01623
G1 X70.571 Y122.436 E.0181
G1 X70.699 Y122.916 E.01558
G1 X70.725 Y123.313 E.01247
G1 X70.682 Y123.71 E.01252
G1 X70.571 Y124.092 E.01247
G1 X70.394 Y124.45 E.01252
G1 X70.159 Y124.771 E.01247
G1 X69.871 Y125.047 E.01251
G1 X69.54 Y125.268 E.01248
G1 X69.175 Y125.429 E.01251
G1 X68.788 Y125.524 E.01249
G1 X68.39 Y125.55 E.01251
G1 X67.994 Y125.507 E.01249
G1 X67.611 Y125.395 E.01251
G1 X67.254 Y125.219 E.01248
G1 X66.932 Y124.983 E.01252
G1 X66.72 Y124.771 E.0094
G1 X66.435 Y124.364 E.01558
G1 X66.275 Y124 E.01247
G1 X66.18 Y123.612 E.01252
G1 X66.154 Y123.215 E.01247
G1 X66.197 Y122.819 E.01249
G1 X66.308 Y122.436 E.0125
G1 X66.485 Y122.078 E.01252
G1 X66.72 Y121.757 E.01247
G1 X67.008 Y121.481 E.01251
G1 X67.339 Y121.26 E.01248
G1 X67.748 Y121.089 E.0139
G1 X68.294 Y120.989 E.0174
G1 X68.38 Y120.992 E.0027
M204 S1000
G1 X68.439 Y121.365 F6000
M204 S800
;TYPE:External perimeter
G1 F1200
G1 X68.787 Y121.386 E.01093
G1 X69.108 Y121.475 E.01044
G1 X69.409 Y121.618 E.01045
G1 X69.68 Y121.811 E.01043
G1 X69.982 Y122.147 E.01417
G1 X70.229 Y122.595 E.01604
G1 X70.323 Y122.949 E.01148
G1 X70.35 Y123.281 E.01044
G1 X70.318 Y123.612 E.01043
G1 X70.229 Y123.933 E.01044
G1 X70.085 Y124.233 E.01043
G1 X69.892 Y124.505 E.01046
G1 X69.655 Y124.738 E.01042
G1 X69.38 Y124.927 E.01046
G1 X69.077 Y125.065 E.01044
G1 X68.755 Y125.148 E.01043
G1 X68.423 Y125.174 E.01044
G1 X68.092 Y125.142 E.01043
G1 X67.771 Y125.053 E.01044
G1 X67.47 Y124.91 E.01045
G1 X67.199 Y124.717 E.01043
G1 X66.987 Y124.505 E.0094
G1 X66.777 Y124.205 E.01148
G1 X66.639 Y123.902 E.01044
G1 X66.555 Y123.58 E.01043
G1 X66.529 Y123.248 E.01044
G1 X66.561 Y122.916 E.01046
G1 X66.65 Y122.595 E.01044
G1 X66.793 Y122.295 E.01042
G1 X66.987 Y122.024 E.01045
G1 X67.224 Y121.79 E.01044
G1 X67.499 Y121.602 E.01044
G1 X67.816 Y121.46 E.01089
G1 X68.362 Y121.36 E.0174
G1 X68.38 Y121.361 E.00057
M204 S1000
;WIPE_START
G1 F4800
G1 X68.439 Y121.365 E-.02458
G1 X68.787 Y121.386 E-.1449
G1 X69.108 Y121.475 E-.13845
G1 X69.409 Y121.618 E-.1385
G1 X69.68 Y121.811 E-.13828
G1 X69.982 Y122.147 E-.18777
G1 X70.229 Y122.595 E-.21262
G1 X70.238 Y122.63 E-.0149
;WIPE_END
G1 Z.4 F720
G1 X149.807 Y98.566 F6000
G1 Z.2 F720
G1 E1 F2100
M204 S800
;TYPE:Perimeter
G1 F1200
G1 X149.686 Y98.095 E.01525
G1 X149.634 Y97.559 E.01688
G1 X149.671 Y96.995 E.01772
G1 X149.792 Y96.467 E.01698
G1 X149.994 Y95.968 E.01688
G1 X150.256 Y95.528 E.01606
G1 X150.615 Y95.096 E.01761
G1 X151.023 Y94.74 E.01698
G1 X151.48 Y94.454 E.0169
G1 X151.988 Y94.24 E.01728
G1 X152.477 Y94.116 E.01582
G1 X153.003 Y94.066 E.01657
G1 X153.572 Y94.102 E.01788
G1 X154.071 Y94.217 E.01606
G1 X154.581 Y94.415 E.01715
G1 X155.043 Y94.688 E.01683
G1 X155.458 Y95.031 E.01688
G1 X155.815 Y95.435 E.0169
G1 X156.116 Y95.914 E.01774
G1 X156.319 Y96.385 E.01608
G1 X156.453 Y96.905 E.01684
G1 X156.504 Y97.441 E.01688
G1 X156.467 Y98.005 E.01772
G1 X156.346 Y98.533 E.01698
G1 X156.144 Y99.032 E.01688
G1 X155.883 Y99.472 E.01604
G1 X155.523 Y99.904 E.01763
G1 X155.115 Y100.26 E.01698
G1 X154.659 Y100.546 E.01688
G1 X154.191 Y100.747 E.01597
G1 X153.665 Y100.884 E.01704
G1 X153.115 Y100.936 E.01732
G1 X152.563 Y100.898 E.01735
G1 X152.028 Y100.774 E.01722
G1 X151.557 Y100.585 E.01591
G1 X151.095 Y100.312 E.01683
G1 X150.68 Y99.969 E.01688
G1 X150.323 Y99.565 E.0169
G1 X150.022 Y99.086 E.01774
G1 X149.823 Y98.623 E.0158
M204 S1000
G1 X150.161 Y98.45 F6000
M204 S800
;TYPE:External perimeter
G1 F1200
G1 X150.047 Y97.977 E.01526
G1 X150.01 Y97.498 E.01506
G1 X150.052 Y96.994 E.01586
G1 X150.168 Y96.529 E.01503
G1 X150.355 Y96.088 E.01502
G1 X150.594 Y95.702 E.01423
G1 X150.924 Y95.319 E.01585
G1 X151.291 Y95.01 E.01504
G1 X151.703 Y94.763 E.01506
G1 X152.157 Y94.58 E.01535
G1 X152.594 Y94.478 E.01407
G1 X153.064 Y94.441 E.01478
G1 X153.574 Y94.483 E.01604
G1 X154.072 Y94.612 E.01613
G1 X154.482 Y94.788 E.01399
G1 X154.871 Y95.027 E.01431
G1 X155.374 Y95.501 E.02167
G1 X155.613 Y95.813 E.01232
G1 X155.825 Y96.178 E.01323
G1 X155.989 Y96.594 E.01402
G1 X156.091 Y97.023 E.01383
G1 X156.128 Y97.502 E.01506
G1 X156.087 Y98.003 E.01576
G1 X155.97 Y98.471 E.01513
G1 X155.783 Y98.912 E.01502
G1 X155.544 Y99.298 E.01423
G1 X155.215 Y99.681 E.01583
G1 X154.847 Y99.99 E.01507
G1 X154.437 Y100.237 E.01501
G1 X154.019 Y100.408 E.01416
G1 X153.544 Y100.522 E.01532
G1 X153.054 Y100.56 E.01541
G1 X152.564 Y100.517 E.01542
G1 X152.092 Y100.399 E.01525
G1 X151.676 Y100.224 E.01415
G1 X151.267 Y99.973 E.01505
G1 X150.903 Y99.661 E.01503
G1 X150.591 Y99.295 E.01508
G1 X150.33 Y98.863 E.01583
G1 X150.183 Y98.506 E.01211
M204 S1000
;WIPE_START
G1 F4800
G1 X150.161 Y98.45 E-.02501
G1 X150.047 Y97.977 E-.20222
G1 X150.01 Y97.498 E-.19968
G1 X150.052 Y96.994 E-.2102
G1 X150.168 Y96.529 E-.19919
G1 X150.322 Y96.166 E-.1637
;WIPE_END
G1 Z.4 F720
G1 X161.229 Y86.71 F6000
G1 Z.2 F720
G1 E1 F2100
M204 S800
G1 F1200
G1 X161.215 Y86.701 E.00052
G1 X160.982 Y86.463 E.01044
G1 X160.81 Y86.217 E.00941
G1 X160.655 Y85.886 E.01146
G1 X160.572 Y85.563 E.01046
G1 X160.545 Y85.231 E.01044
G1 X160.577 Y84.9 E.01043
G1 X160.666 Y84.579 E.01044
G1 X160.81 Y84.279 E.01043
G1 X161.003 Y84.007 E.01046
G1 X161.24 Y83.774 E.01042
G1 X161.515 Y83.585 E.01046
G1 X161.832 Y83.444 E.01088
;WIDTH:0.45981
G1 X162.102 Y83.374 E.00967
;WIDTH:0.49962
G1 X162.371 Y83.305 E.01055
;WIDTH:0.516094
G1 X162.816 Y83.323 E.01752
G1 X163.106 Y83.454 E.01252
;WIDTH:0.468047
G1 X163.396 Y83.585 E.01125
;WIDTH:0.419999
G1 X163.696 Y83.795 E.01148
G1 X163.929 Y84.033 E.01044
G1 X164.118 Y84.307 E.01044
G1 X164.256 Y84.61 E.01044
G1 X164.34 Y84.932 E.01043
G1 X164.366 Y85.264 E.01044
G1 X164.334 Y85.596 E.01046
G1 X164.245 Y85.917 E.01044
G1 X164.102 Y86.217 E.01042
G1 X163.908 Y86.488 E.01045
G1 X163.671 Y86.722 E.01044
G1 X163.396 Y86.91 E.01044
G1 X163.093 Y87.048 E.01044
G1 X162.733 Y87.135 E.01161
G1 X162.394 Y87.154 E.01065
G1 X161.985 Y87.093 E.01297
G1 X161.515 Y86.91 E.01581
G1 X161.278 Y86.745 E.00905
M204 S1000
;WIPE_START
G1 F4800
G1 X161.229 Y86.71 E-.02503
G1 X161.215 Y86.701 E-.00692
G1 X160.982 Y86.463 E-.13843
G1 X160.81 Y86.217 E-.12476
G1 X160.655 Y85.886 E-.15191
G1 X160.572 Y85.563 E-.13861
G1 X160.545 Y85.231 E-.13844
G1 X160.577 Y84.9 E-.13821
G1 X160.666 Y84.581 E-.13769
;WIPE_END
G1 Z.4 F720
G1 X162.057 Y121.027 F6000
G1 Z.2 F720
G1 E1 F2100
M204 S800
;TYPE:Perimeter
G1 F1200
G1 X162.305 Y120.982 E.0079
G1 X162.824 Y121 E.01628
G1 X163.278 Y121.126 E.01477
G1 X163.636 Y121.302 E.01251
G1 X163.957 Y121.538 E.01249
G1 X164.233 Y121.825 E.01248
G1 X164.455 Y122.157 E.01252
G1 X164.615 Y122.521 E.01247
G1 X164.71 Y122.909 E.01252
G1 X164.736 Y123.306 E.01247
G1 X164.693 Y123.702 E.01249
G1 X164.581 Y124.085 E.01251
G1 X164.405 Y124.442 E.01248
G1 X164.17 Y124.764 E.0125
G1 X163.882 Y125.04 E.01251
G1 X163.551 Y125.261 E.01248
G1 X163.186 Y125.422 E.01251
G1 X162.799 Y125.516 E.01249
G1 X162.401 Y125.543 E.01251
