; generated by PrusaSlicer 2.9.4 on 2026-03-05 at 15:43:25 UTC


;
;

;
;
; 

; external perimeters extrusion width = 0.45mm
; perimeters extrusion width = 0.45mm
; infill extrusion width = 0.45mm
; solid infill extrusion width = 0.45mm
; top infill extrusion width = 0.40mm
; first layer extrusion width = 0.42mm

M73 P0 R36
M201 X9000 Y9000 Z500 E10000 ; sets maximum accelerations, mm/sec^2
M203 X500 Y500 Z12 E120 ; sets maximum feedrates, mm / sec
M204 S2000 T1500 ; sets acceleration (S) and retract acceleration (R), mm/sec^2
M205 X10.00 Y10.00 Z0.20 E4.50 ; sets the jerk limits, mm/sec
M205 S0 T0 ; sets the minimum extruding and travel feed rate, mm/sec

; printing object Fan_Cover_40x40x10mm.stl id:0 copy 0
; stop printing object Fan_Cover_40x40x10mm.stl id:0 copy 0

;TYPE:Custom
M83  ; extruder relative mode
M140 S85 ; set bed temp
M109 S160 ; Set extruder temp before bed level
M190 S85 ; wait for bed temp

G28 W ; home all without mesh bed level
G80 N7 ; mesh bed leveling

M109 S240 ; wait for extruder temp

M221 S100 ; Set flow to 100

G1 Y-3.0 F1000.0 ; go outside print area
G92 E0.0
G1 E8 ; Purge Bubble
G1 X60.0 E9.0 F1000.0 ; intro line
G1 X100.0 E12.5 F1000.0 ; intro line
G92 E0.0
G21 ; set units to millimeters
G90 ; use absolute coordinates
M83 ; use relative distances for extrusion

M900 K0.08 ; Filament gcode LA 1.5
M900 K45 ; Filament gcode LA 1.0




M107
;LAYER_CHANGE
;Z:0.2
;HEIGHT:0.2
G1 E-1 F2100
G1 Z.4 F720
G1 X102.502 Y83.052 F6000
G1 Z.2 F720
G1 E1 F2100
M204 S800
;TYPE:Skirt/Brim
;WIDTH:0.42
G1 F1200
G1 X103.535 Y82.25 E.041
G1 X104.3 Y82.112 E.02437
G1 X145.7 Y82.112 E1.29807
G1 X146.948 Y82.503 E.04101
G1 X147.751 Y83.536 E.04102
G1 X147.889 Y84.3 E.02434
G1 X147.889 Y125.7 E1.29807
G1 X147.498 Y126.949 E.04104
G1 X146.465 Y127.751 E.041
G1 X145.7 Y127.889 E.02437
G1 X104.3 Y127.889 E1.29807
G1 X103.052 Y127.498 E.04101
G1 X102.249 Y126.465 E.04102
G1 X102.111 Y125.7 E.02437
G1 X102.111 Y84.3 E1.29807
G1 X102.484 Y83.109 E.03913
M204 S1000
;WIPE_START
G1 F4800
G1 X102.502 Y83.052 E-.02484
G1 X103.535 Y82.25 E-.54355
G1 X104.3 Y82.112 E-.32309
G1 X104.561 Y82.112 E-.10852
;WIPE_END
G1 Z.4 F720
; printing object Fan_Cover_40x40x10mm.stl id:0 copy 0
G1 X120.868 Y102.579 F6000
G1 Z.2 F720
G1 E1 F2100
M204 S800
;TYPE:External perimeter
;WIDTH:0.606039
G1 F1200
G1 X122.858 Y101.43 E.1076
;WIDTH:0.568318
G1 X124.939 Y100.229 E.10497
;WIDTH:0.606039
G1 X125 Y100.194 E.00329
;WIDTH:0.568319
G1 X127.081 Y101.395 E.10497
;WIDTH:0.606041
G1 X129.162 Y102.597 E.11253
G1 X129.162 Y104.93 E.10924
;WIDTH:0.568319
G1 X129.162 Y107.333 E.10498
;WIDTH:0.606041
G1 X129.162 Y107.403 E.00328
G1 X127.142 Y108.57 E.10923
;WIDTH:0.568318
G1 X125.061 Y109.771 E.10497
;WIDTH:0.606039
G1 X125 Y109.806 E.00329
G1 X120.837 Y107.403 E.22507
G1 X120.837 Y102.621 E.22391
M204 S1000
;WIPE_START
G1 F4800
G1 X120.868 Y102.579 E-.0217
G1 X122.858 Y101.43 E-.95506
G1 X122.906 Y101.402 E-.02324
;WIPE_END
G1 Z.4 F720
G1 X125.275 Y99.789 F6000
G1 Z.2 F720
G1 E1 F2100
M204 S800
G1 F1200
G1 X125.244 Y99.771 E.00168
;WIDTH:0.568318
G1 X125.244 Y97.368 E.10498
;WIDTH:0.606039
G1 X125.244 Y94.965 E.11252
G1 X129.406 Y92.562 E.22503
G1 X131.426 Y93.728 E.10921
;WIDTH:0.568317
G1 X133.507 Y94.93 E.10499
;WIDTH:0.606039
G1 X133.568 Y94.965 E.00329
G1 X133.568 Y97.298 E.10924
;WIDTH:0.568318
G1 X133.568 Y99.701 E.10498
;WIDTH:0.606039
G1 X133.568 Y99.771 E.00328
G1 X131.548 Y100.938 E.10923
;WIDTH:0.568319
G1 X129.467 Y102.139 E.10497
;WIDTH:0.606041
G1 X129.406 Y102.174 E.00329
G1 X127.386 Y101.008 E.10921
;WIDTH:0.568318
G1 X125.327 Y99.819 E.10387
M204 S1000
G1 X124.725 Y99.789 F6000
M204 S800
;WIDTH:0.606039
G1 F1200
G1 X122.736 Y100.938 E.10755
;WIDTH:0.568319
G1 X120.654 Y102.139 E.105
;WIDTH:0.606041
G1 X120.593 Y102.174 E.00329
G1 X118.573 Y101.008 E.10921
;WIDTH:0.568318
G1 X116.492 Y99.807 E.10497
;WIDTH:0.606039
G1 X116.431 Y99.771 E.00332
;WIDTH:0.568318
G1 X116.431 Y97.368 E.10498
;WIDTH:0.606039
G1 X116.431 Y94.965 E.11252
G1 X120.593 Y92.562 E.22503
G1 X122.614 Y93.728 E.10925
;WIDTH:0.568317
G1 X124.695 Y94.93 E.10499
;WIDTH:0.606039
G1 X124.756 Y94.965 E.00329
G1 X124.756 Y97.298 E.10924
;WIDTH:0.568318
G1 X124.756 Y99.701 E.10498
;WIDTH:0.606039
G1 X124.756 Y99.747 E.00215
M204 S1000
;WIPE_START
G1 F4800
G1 X124.725 Y99.789 E-.0217
G1 X122.736 Y100.938 E-.9547
G1 X122.687 Y100.966 E-.0236
;WIPE_END
G1 Z.4 F720
G1 X120.318 Y102.579 F6000
G1 Z.2 F720
M73 P1 R36
G1 E1 F2100
M204 S800
;WIDTH:0.606041
G1 F1200
G1 X120.35 Y102.597 E.00172
G1 X120.35 Y104.93 E.10924
;WIDTH:0.568319
G1 X120.35 Y107.333 E.10498
;WIDTH:0.606041
G1 X120.35 Y107.403 E.00328
G1 X118.329 Y108.57 E.10927
;WIDTH:0.568318
G1 X116.248 Y109.771 E.10497
;WIDTH:0.606039
G1 X116.187 Y109.806 E.00329
G1 X112.025 Y107.403 E.22503
G1 X112.025 Y102.597 E.22503
G1 X114.045 Y101.43 E.10923
;WIDTH:0.568318
G1 X116.126 Y100.229 E.10497
;WIDTH:0.606039
G1 X116.187 Y100.194 E.00329
;WIDTH:0.53246
G1 X120.246 Y102.537 E.19077
;WIDTH:0.569251
G1 X120.266 Y102.549 E.00102
M204 S1000
;WIPE_START
G1 F4800
G1 X120.318 Y102.579 E-.02495
G1 X120.35 Y102.597 E-.01526
G1 X120.35 Y104.906 E-.95979
;WIPE_END
G1 Z.4 F720
G1 X115.912 Y99.789 F6000
G1 Z.2 F720
G1 E1 F2100
M204 S800
;WIDTH:0.606039
G1 F1200
G1 X113.923 Y100.938 E.10755
;WIDTH:0.568319
G1 X111.842 Y102.139 E.10497
;WIDTH:0.606041
G1 X111.781 Y102.174 E.00329
G1 X109.761 Y101.008 E.10921
;WIDTH:0.568318
G1 X107.74 Y99.842 E.10193
;WIDTH:0.530594
G1 X107.718 Y99.771 E.00301
;WIDTH:0.493729
G1 X107.696 Y99.701 E.00275
;WIDTH:0.456864
G1 X107.674 Y99.631 E.00253
;WIDTH:0.419999
G1 X107.674 Y97.973 E.05199
G1 X107.985 Y97.218 E.0256
G1 X108.291 Y96.581 E.02216
G1 X108.621 Y95.956 E.02216
G1 X108.975 Y95.344 E.02217
G1 X109.351 Y94.745 E.02217
G1 X109.749 Y94.162 E.02213
G1 X110.194 Y93.56 E.02347
G1 X111.745 Y92.658 E.05626
;WIDTH:0.456865
G1 X111.798 Y92.65 E.00184
;WIDTH:0.49373
G1 X111.85 Y92.641 E.00198
;WIDTH:0.530595
G1 X111.903 Y92.632 E.00218
;WIDTH:0.532458
G1 X115.84 Y94.905 E.18505
;WIDTH:0.569249
G1 X115.892 Y94.935 E.00263
;WIDTH:0.606039
G1 X115.943 Y94.965 E.00277
G1 X115.943 Y97.298 E.10924
;WIDTH:0.568318
G1 X115.943 Y99.701 E.10498
;WIDTH:0.606039
G1 X115.943 Y99.747 E.00215
M204 S1000
;WIPE_START
G1 F4800
G1 X115.912 Y99.789 E-.0217
G1 X113.923 Y100.938 E-.9547
G1 X113.874 Y100.966 E-.0236
;WIPE_END
G1 Z.4 F720
G1 X111.506 Y102.579 F6000
G1 Z.2 F720
G1 E1 F2100
M204 S800
;WIDTH:0.606041
G1 F1200
G1 X111.537 Y102.597 E.00168
G1 X111.537 Y104.93 E.10924
;WIDTH:0.568319
G1 X111.537 Y107.333 E.10498
;WIDTH:0.606041
G1 X111.537 Y107.403 E.00328
G1 X109.517 Y108.57 E.10923
;WIDTH:0.568318
G1 X107.497 Y109.736 E.10189
;WIDTH:0.530594
G1 X107.425 Y109.72 E.00299
;WIDTH:0.493729
G1 X107.353 Y109.704 E.00276
;WIDTH:0.456864
G1 X107.28 Y109.688 E.00257
;WIDTH:0.419999
G1 X106.888 Y109.461 E.0142
G1 X106.798 Y109.337 E.0048
G1 X106.63 Y108.553 E.02514
G1 X106.508 Y107.85 E.02237
G1 X106.413 Y107.142 E.0224
G1 X106.345 Y106.431 E.02239
G1 X106.304 Y105.718 E.02239
G1 X106.29 Y105.004 E.02239
G1 X106.304 Y104.289 E.02242
G1 X106.344 Y103.576 E.02239
G1 X106.412 Y102.865 E.02239
G1 X106.507 Y102.157 E.0224
G1 X106.629 Y101.453 E.0224
G1 X106.798 Y100.662 E.02536
G1 X106.888 Y100.539 E.00478
G1 X107.339 Y100.29 E.01615
;WIDTH:0.456864
G1 X107.392 Y100.281 E.00185
;WIDTH:0.493729
G1 X107.444 Y100.273 E.00197
;WIDTH:0.530594
G1 X107.497 Y100.264 E.00218
;WIDTH:0.53246
G1 X111.434 Y102.537 E.18505
;WIDTH:0.569251
G1 X111.454 Y102.549 E.00102
M204 S1000
;WIPE_START
G1 F4800
G1 X111.506 Y102.579 E-.02495
G1 X111.537 Y102.597 E-.0149
G1 X111.537 Y104.907 E-.96015
;WIPE_END
G1 Z.4 F720
G1 X116.156 Y94.525 F6000
G1 Z.2 F720
G1 E1 F2100
M204 S800
;WIDTH:0.606039
G1 F1200
G1 X114.167 Y93.376 E.10755
;WIDTH:0.568317
G1 X112.147 Y92.21 E.10189
;WIDTH:0.530595
G1 X112.125 Y92.139 E.00301
;WIDTH:0.49373
G1 X112.102 Y92.069 E.00276
;WIDTH:0.456865
G1 X112.08 Y91.999 E.00253
;WIDTH:0.419999
G1 X112.08 Y91.546 E.0142
G1 X112.142 Y91.405 E.00483
G1 X112.738 Y90.869 E.02513
G1 X113.286 Y90.411 E.02239
G1 X113.851 Y89.975 E.02238
G1 X114.433 Y89.56 E.02241
G1 X115.03 Y89.168 E.02239
G1 X116.267 Y88.453 E.0448
G1 X116.905 Y88.132 E.02239
G1 X117.555 Y87.835 E.02241
G1 X118.22 Y87.562 E.02254
G1 X119.258 Y87.197 E.0345
G1 X119.713 Y87.059 E.01491
G1 X120.2 Y87.311 E.01719
;WIDTH:0.456865
G1 X120.25 Y87.365 E.00253
;WIDTH:0.493731
G1 X120.3 Y87.419 E.00276
;WIDTH:0.530597
G1 X120.35 Y87.474 E.00301
;WIDTH:0.532459
G1 X120.35 Y92.02 E.18505
;WIDTH:0.569249
G1 X120.35 Y92.08 E.00263
;WIDTH:0.606039
G1 X120.35 Y92.139 E.00276
G1 X118.329 Y93.306 E.10927
;WIDTH:0.568317
G1 X116.248 Y94.507 E.10497
;WIDTH:0.606039
G1 X116.208 Y94.531 E.00218
M204 S1000
;WIPE_START
G1 F4800
G1 X116.156 Y94.525 E-.02176
G1 X114.167 Y93.376 E-.9547
G1 X114.118 Y93.348 E-.02354
;WIPE_END
G1 Z.4 F720
G1 X120.868 Y92.157 F6000
G1 Z.2 F720
G1 E1 F2100
M204 S800
G1 F1200
G1 X120.837 Y92.139 E.00168
G1 X120.837 Y89.807 E.10919
;WIDTH:0.568318
G1 X120.837 Y87.474 E.10192
;WIDTH:0.530597
G1 X120.887 Y87.419 E.00301
;WIDTH:0.493731
G1 X120.937 Y87.365 E.00276
;WIDTH:0.456865
G1 X120.987 Y87.311 E.00253
;WIDTH:0.419999
G1 X122.422 Y86.482 E.05196
G1 X123.232 Y86.374 E.02562
G1 X123.941 Y86.32 E.02229
G1 X125.034 Y86.294 E.03428
G1 X126.053 Y86.32 E.03196
G1 X126.76 Y86.373 E.02223
G1 X127.543 Y86.462 E.02471
G1 X129.061 Y87.351 E.05516
;WIDTH:0.456865
G1 X129.095 Y87.392 E.00183
;WIDTH:0.493731
G1 X129.128 Y87.433 E.00197
;WIDTH:0.530597
G1 X129.162 Y87.474 E.00216
;WIDTH:0.532459
G1 X129.162 Y92.02 E.18505
;WIDTH:0.569249
G1 X129.162 Y92.08 E.00263
;WIDTH:0.606039
G1 X129.162 Y92.139 E.00276
G1 X127.142 Y93.306 E.10923
;WIDTH:0.568317
G1 X125.061 Y94.507 E.10497
;WIDTH:0.606039
G1 X125 Y94.543 E.00332
G1 X120.92 Y92.187 E.2206
M204 S1000
;WIPE_START
G1 F4800
G1 X120.868 Y92.157 E-.02495
G1 X120.837 Y92.139 E-.0149
G1 X120.837 Y89.829 E-.96015
;WIPE_END
G1 Z.4 F720
G1 X129.681 Y92.157 F6000
G1 Z.2 F720
G1 E1 F2100
M204 S800
G1 F1200
G1 X129.65 Y92.139 E.00168
G1 X129.65 Y89.807 E.10919
;WIDTH:0.568318
G1 X129.65 Y87.474 E.10192
;WIDTH:0.530597
G1 X129.7 Y87.419 E.00301
;WIDTH:0.493731
G1 X129.75 Y87.365 E.00276
;WIDTH:0.456865
G1 X129.799 Y87.311 E.00251
;WIDTH:0.419999
G1 X130.254 Y87.061 E.01628
G1 X131.107 Y87.315 E.02791
G1 X131.777 Y87.561 E.02238
G1 X132.438 Y87.832 E.0224
G1 X133.088 Y88.129 E.02241
G1 X133.726 Y88.45 E.02239
G1 X134.351 Y88.795 E.02238
G1 X134.963 Y89.164 E.02241
G1 X135.56 Y89.556 E.02239
G1 X136.142 Y89.97 E.02239
G1 X136.708 Y90.406 E.0224
G1 X137.256 Y90.864 E.02239
G1 X137.857 Y91.405 E.02535
G1 X137.919 Y91.545 E.0048
G1 X137.909 Y92.06 E.01615
;WIDTH:0.456865
G1 X137.89 Y92.11 E.00184
;WIDTH:0.49373
G1 X137.871 Y92.16 E.00201
;WIDTH:0.530595
G1 X137.853 Y92.21 E.00215
;WIDTH:0.568317
G1 X135.832 Y93.376 E.10193
;WIDTH:0.606039
G1 X133.812 Y94.543 E.10923
G1 X129.733 Y92.187 E.22056
M204 S1000
;WIPE_START
G1 F4800
G1 X129.681 Y92.157 E-.02495
G1 X129.65 Y92.139 E-.0149
G1 X129.65 Y89.829 E-.96015
;WIPE_END
G1 Z.4 F720
G1 X134.087 Y94.947 F6000
G1 Z.2 F720
G1 E1 F2100
M204 S800
G1 F1200
G1 X136.076 Y93.799 E.10753
;WIDTH:0.568317
G1 X138.097 Y92.632 E.10195
;WIDTH:0.530595
G1 X138.169 Y92.648 E.00299
;WIDTH:0.49373
G1 X138.241 Y92.664 E.00276
;WIDTH:0.456865
G1 X138.313 Y92.68 E.00254
;WIDTH:0.419999
G1 X139.749 Y93.509 E.05199
G1 X140.247 Y94.156 E.0256
G1 X140.645 Y94.74 E.02216
G1 X141.022 Y95.338 E.02216
G1 X141.375 Y95.949 E.02212
G1 X141.705 Y96.574 E.02216
G1 X142.011 Y97.211 E.02216
G1 X142.326 Y97.933 E.0247
G1 X142.315 Y99.692 E.05515
;WIDTH:0.456864
G1 X142.296 Y99.742 E.00184
;WIDTH:0.493729
G1 X142.278 Y99.792 E.00199
;WIDTH:0.530593
G1 X142.259 Y99.842 E.00217
;WIDTH:0.532461
G1 X138.322 Y102.115 E.18505
;WIDTH:0.569251
G1 X138.27 Y102.145 E.00263
;WIDTH:0.606041
G1 X138.218 Y102.174 E.00279
G1 X136.198 Y101.008 E.10921
;WIDTH:0.568318
G1 X134.117 Y99.807 E.10497
;WIDTH:0.606039
G1 X134.056 Y99.771 E.00332
G1 X134.056 Y94.989 E.22391
M204 S1000
;WIPE_START
G1 F4800
G1 X134.087 Y94.947 E-.0217
G1 X136.076 Y93.799 E-.95449
G1 X136.126 Y93.77 E-.02381
;WIPE_END
G1 Z.4 F720
G1 X138.493 Y102.579 F6000
G1 Z.2 F720
G1 E1 F2100
M204 S800
;WIDTH:0.606041
G1 F1200
G1 X140.483 Y101.43 E.1076
;WIDTH:0.568317
G1 X142.503 Y100.264 E.10189
;WIDTH:0.530593
G1 X142.575 Y100.28 E.00299
;WIDTH:0.493729
G1 X142.647 Y100.296 E.00276
;WIDTH:0.456864
G1 X142.719 Y100.312 E.00254
;WIDTH:0.419999
G1 X143.112 Y100.539 E.01423
G1 X143.202 Y100.663 E.0048
G1 X143.369 Y101.447 E.02513
G1 X143.492 Y102.15 E.02238
G1 X143.587 Y102.858 E.0224
G1 X143.655 Y103.569 E.02239
G1 X143.696 Y104.282 E.02239
G1 X143.71 Y104.996 E.02239
G1 X143.697 Y105.71 E.02239
G1 X143.656 Y106.423 E.02239
G1 X143.588 Y107.134 E.02239
G1 X143.493 Y107.842 E.0224
G1 X143.371 Y108.546 E.0224
G1 X143.203 Y109.337 E.02535
G1 X143.112 Y109.461 E.00482
;WIDTH:0.425728
G1 X142.661 Y109.713 E.01644
;WIDTH:0.460684
G1 X142.608 Y109.72 E.00186
;WIDTH:0.49564
G1 X142.555 Y109.728 E.00202
;WIDTH:0.530595
G1 X142.503 Y109.736 E.00213
;WIDTH:0.568318
G1 X140.483 Y108.57 E.10189
;WIDTH:0.606041
G1 X138.462 Y107.403 E.10927
G1 X138.462 Y102.621 E.22391
M204 S1000
G1 X137.943 Y102.579 F6000
M204 S800
G1 F1200
G1 X137.975 Y102.597 E.00172
G1 X137.975 Y104.93 E.10924
;WIDTH:0.568319
G1 X137.975 Y107.333 E.10498
;WIDTH:0.606041
G1 X137.975 Y107.403 E.00328
G1 X135.954 Y108.57 E.10927
;WIDTH:0.568318
G1 X133.934 Y109.736 E.10189
;WIDTH:0.532457
G1 X133.812 Y109.806 E.00573
;WIDTH:0.569249
G1 X131.731 Y108.605 E.10515
;WIDTH:0.606041
G1 X129.65 Y107.403 E.11253
G1 X129.65 Y102.597 E.22503
G1 X131.67 Y101.43 E.10923
;WIDTH:0.568318
G1 X133.751 Y100.229 E.10497
;WIDTH:0.606039
G1 X133.812 Y100.194 E.00329
G1 X135.832 Y101.36 E.10921
;WIDTH:0.568318
G1 X137.891 Y102.549 E.10387
M204 S1000
;WIPE_START
G1 F4800
G1 X137.943 Y102.579 E-.02495
G1 X137.975 Y102.597 E-.01526
G1 X137.975 Y104.906 E-.95979
;WIPE_END
G1 Z.4 F720
G1 X138.271 Y91.53 F6000
G1 Z.2 F720
G1 E1 F2100
M204 S800
;TYPE:Perimeter
;WIDTH:0.419999
G1 F1200
G1 X138.296 Y91.999 E.01473
G1 X138.265 Y92.184 E.00588
G1 X138.156 Y92.317 E.00539
G1 X138.325 Y92.288 E.00538
G1 X138.894 Y92.58 E.02005
G1 X139.937 Y93.183 E.03777
G1 X140.109 Y93.336 E.00722
G1 X140.55 Y93.932 E.02325
G1 X140.957 Y94.527 E.0226
G1 X141.341 Y95.137 E.0226
G1 X141.702 Y95.761 E.0226
G1 X142.038 Y96.398 E.02258
G1 X142.351 Y97.047 E.02259
G1 X142.656 Y97.746 E.02391
G1 X142.703 Y97.972 E.00724
G1 X142.703 Y99.631 E.05202
G1 X142.671 Y99.816 E.00589
G1 X142.562 Y99.948 E.00537
G1 X142.732 Y99.92 E.0054
G1 X143.301 Y100.212 E.02005
G1 X143.571 Y100.584 E.01441
G1 X143.718 Y101.271 E.02203
;WIDTH:0.46425
G1 X143.757 Y101.362 E.00347
;WIDTH:0.5085
G1 X143.796 Y101.452 E.0038
;WIDTH:0.552751
G1 X143.835 Y101.542 E.00416
;WIDTH:0.597001
G1 X143.874 Y101.633 E.00456
G1 X143.94 Y102.218 E.02712
;WIDTH:0.552909
G1 X144.005 Y102.802 E.02492
;WIDTH:0.508816
G1 X144.057 Y103.531 E.02831
;WIDTH:0.473198
G1 X144.089 Y104.26 E.02611
;WIDTH:0.451758
G1 X144.099 Y104.989 E.02478
;WIDTH:0.451169
G1 X144.089 Y105.718 E.02475
;WIDTH:0.471982
G1 X144.058 Y106.447 E.02603
;WIDTH:0.506918
G1 X144.007 Y107.175 E.02816
;WIDTH:0.556056
G1 X143.934 Y107.902 E.03118
;WIDTH:0.597002
G1 X143.874 Y108.368 E.02165
G1 X143.835 Y108.458 E.00452
;WIDTH:0.552752
G1 X143.796 Y108.549 E.0042
;WIDTH:0.508501
G1 X143.757 Y108.639 E.0038
;WIDTH:0.46425
G1 X143.718 Y108.73 E.00347
;WIDTH:0.419999
G1 X143.571 Y109.416 E.022
G1 X143.301 Y109.787 E.01439
;WIDTH:0.425728
G1 X142.733 Y110.089 E.02048
G1 X142.597 Y110.072 E.00436
G1 X142.703 Y110.212 E.00559
;WIDTH:0.419999
G1 X142.703 Y112.029 E.05697
G1 X142.656 Y112.254 E.00721
G1 X142.36 Y112.934 E.02325
G1 X142.048 Y113.583 E.02258
G1 X141.712 Y114.221 E.02261
G1 X141.352 Y114.845 E.02259
G1 X140.969 Y115.455 E.02258
G1 X140.563 Y116.05 E.02259
G1 X140.11 Y116.663 E.0239
G1 X139.938 Y116.817 E.00724
G1 X138.501 Y117.646 E.05202
;WIDTH:0.425714
G1 X138.327 Y117.72 E.00602
G1 X138.19 Y117.704 E.00439
G1 X138.273 Y117.813 E.00436
