; generated by PrusaSlicer 2.9.4 on 2026-03-05 at 15:44:50 UTC


;
;

;
;
; 

; external perimeters extrusion width = 0.45mm
; perimeters extrusion width = 0.45mm
; infill extrusion width = 0.45mm
; solid infill extrusion width = 0.45mm
; top infill extrusion width = 0.40mm
; first layer extrusion width = 0.42mm

M73 P0 R83
M201 X9000 Y9000 Z500 E10000 ; sets maximum accelerations, mm/sec^2
M203 X500 Y500 Z12 E120 ; sets maximum feedrates, mm / sec
M204 S2000 T1500 ; sets acceleration (S) and retract acceleration (R), mm/sec^2
M205 X10.00 Y10.00 Z0.20 E4.50 ; sets the jerk limits, mm/sec
M205 S0 T0 ; sets the minimum extruding and travel feed rate, mm/sec

; printing object Fan_Cover_60x60x20mm.stl id:0 copy 0
; stop printing object Fan_Cover_60x60x20mm.stl id:0 copy 0

;TYPE:Custom
M83  ; extruder relative mode
M140 S85 ; set bed temp
M109 S160 ; Set extruder temp before bed level
M190 S85 ; wait for bed temp

G28 W ; home all without mesh bed level
G80 N7 ; mesh bed leveling

M109 S240 ; wait for extruder temp

M221 S100 ; Set flow to 100

G1 Y-3.0 F1000.0 ; go outside print area
G92 E0.0
G1 E8 ; Purge Bubble
G1 X60.0 E9.0 F1000.0 ; intro line
G1 X100.0 E12.5 F1000.0 ; intro line
G92 E0.0
G21 ; set units to millimeters
G90 ; use absolute coordinates
M83 ; use relative distances for extrusion

M900 K0.08 ; Filament gcode LA 1.5
M900 K45 ; Filament gcode LA 1.0




M107
;LAYER_CHANGE
;Z:0.2
;HEIGHT:0.2
G1 E-1 F2100
G1 Z.4 F720
G1 X87.502 Y68.288 F6000
G1 Z.2 F720
G1 E1 F2100
M204 S800
;TYPE:Skirt/Brim
;WIDTH:0.42
G1 F1200
G1 X88.535 Y67.486 E.041
G1 X89.3 Y67.348 E.02437
G1 X160.7 Y67.348 E2.2387
G1 X161.948 Y67.739 E.04101
G1 X162.751 Y68.772 E.04102
G1 X162.889 Y69.537 E.02437
G1 X162.889 Y140.937 E2.2387
G1 X162.498 Y142.185 E.04101
G1 X161.465 Y142.987 E.041
G1 X160.7 Y143.125 E.02437
G1 X89.3 Y143.125 E2.2387
G1 X88.052 Y142.734 E.04101
G1 X87.249 Y141.701 E.04102
G1 X87.111 Y140.937 E.02434
G1 X87.111 Y69.537 E2.2387
G1 X87.484 Y68.346 E.03913
M204 S1000
;WIPE_START
G1 F4800
G1 X87.502 Y68.288 E-.02524
G1 X88.535 Y67.486 E-.54355
G1 X89.3 Y67.348 E-.32309
G1 X89.56 Y67.348 E-.10812
;WIPE_END
G1 Z.4 F720
; printing object Fan_Cover_60x60x20mm.stl id:0 copy 0
G1 X120.982 Y109.546 F6000
G1 Z.2 F720
G1 E1 F2100
M204 S800
;TYPE:External perimeter
;WIDTH:0.606036
G1 F1200
G1 X125.114 Y107.161 E.22339
G1 X127.134 Y108.327 E.10921
;WIDTH:0.568316
G1 X129.215 Y109.528 E.10497
;WIDTH:0.606039
G1 X129.276 Y109.564 E.00332
G1 X129.276 Y111.896 E.10919
;WIDTH:0.568318
G1 X129.276 Y114.3 E.10502
;WIDTH:0.606041
G1 X129.276 Y114.37 E.00328
G1 X127.256 Y115.536 E.10921
;WIDTH:0.568318
G1 X125.175 Y116.738 E.10499
;WIDTH:0.606039
G1 X125.114 Y116.773 E.00329
G1 X120.951 Y114.37 E.22507
G1 X120.951 Y112.037 E.10924
;WIDTH:0.568316
G1 X120.951 Y109.704 E.10192
;WIDTH:0.568315
G1 X120.951 Y109.634 E.00306
;WIDTH:0.606036
G1 X120.951 Y109.588 E.00215
M204 S1000
G1 X120.432 Y109.546 F6000
M204 S800
G1 F1200
G1 X120.464 Y109.564 E.00172
G1 X120.464 Y111.896 E.10919
;WIDTH:0.568315
G1 X120.464 Y114.229 E.10192
;WIDTH:0.569247
G1 X120.464 Y114.3 E.00311
;WIDTH:0.606039
G1 X120.464 Y114.37 E.00328
G1 X118.443 Y115.536 E.10925
;WIDTH:0.568318
G1 X116.362 Y116.738 E.10499
;WIDTH:0.606039
G1 X116.301 Y116.773 E.00329
G1 X112.139 Y114.37 E.22503
G1 X112.139 Y112.037 E.10924
;WIDTH:0.568317
G1 X112.139 Y109.634 E.10498
;WIDTH:0.606036
G1 X112.139 Y109.564 E.00328
G1 X116.301 Y107.161 E.22503
G1 X118.321 Y108.327 E.10921
;WIDTH:0.568315
G1 X120.381 Y109.516 E.10391
M204 S1000
;WIPE_START
G1 F4800
G1 X120.432 Y109.546 E-.02459
G1 X120.464 Y109.564 E-.01526
G1 X120.464 Y111.875 E-.96015
;WIPE_END
G1 Z.4 F720
G1 X125.358 Y117.232 F6000
G1 Z.2 F720
G1 E1 F2100
M204 S800
;WIDTH:0.569248
G1 F1200
G1 X125.358 Y117.196 E.00158
;WIDTH:0.56925
G1 X127.439 Y115.994 E.10517
;WIDTH:0.606041
G1 X129.52 Y114.792 E.11253
G1 X131.54 Y115.959 E.10923
;WIDTH:0.568319
G1 X133.621 Y117.16 E.10497
;WIDTH:0.606041
G1 X133.682 Y117.196 E.00332
G1 X133.682 Y119.528 E.10919
;WIDTH:0.568319
G1 X133.682 Y121.931 E.10498
;WIDTH:0.606039
G1 X133.682 Y122.002 E.00332
G1 X131.662 Y123.168 E.10921
;WIDTH:0.568317
G1 X129.581 Y124.37 E.10499
;WIDTH:0.606039
G1 X129.52 Y124.405 E.00329
G1 X127.5 Y123.239 E.10921
;WIDTH:0.568316
G1 X125.419 Y122.037 E.10499
;WIDTH:0.606037
G1 X125.358 Y122.002 E.00329
G1 X125.358 Y119.599 E.11252
;WIDTH:0.569248
G1 X125.358 Y117.292 E.10096
M204 S1000
;WIPE_START
G1 F4800
G1 X125.358 Y117.232 E-.02494
G1 X125.358 Y117.196 E-.01496
G1 X127.358 Y116.041 E-.9601
;WIPE_END
G1 Z.4 F720
G1 X129.795 Y114.388 F6000
G1 Z.2 F720
G1 E1 F2100
M204 S800
;WIDTH:0.606041
G1 F1200
G1 X129.764 Y114.37 E.00168
;WIDTH:0.569249
G1 X129.764 Y111.967 E.10517
;WIDTH:0.606039
G1 X129.764 Y109.564 E.11252
G1 X133.926 Y107.161 E.22503
G1 X135.946 Y108.327 E.10921
;WIDTH:0.568317
G1 X138.028 Y109.528 E.105
;WIDTH:0.606039
G1 X138.089 Y109.564 E.00332
G1 X138.089 Y111.896 E.10919
;WIDTH:0.568318
G1 X138.089 Y114.3 E.10502
;WIDTH:0.606041
G1 X138.089 Y114.37 E.00328
G1 X136.068 Y115.536 E.10925
;WIDTH:0.568319
G1 X133.987 Y116.738 E.10499
;WIDTH:0.606041
G1 X133.926 Y116.773 E.00329
G1 X129.847 Y114.418 E.22054
M204 S1000
;WIPE_START
G1 F4800
G1 X129.795 Y114.388 E-.02495
G1 X129.764 Y114.37 E-.0149
G1 X129.764 Y112.06 E-.96015
;WIPE_END
G1 Z.4 F720
G1 X129.551 Y109.123 F6000
G1 Z.2 F720
G1 E1 F2100
M204 S800
;WIDTH:0.606039
G1 F1200
G1 X129.52 Y109.141 E.00168
G1 X127.5 Y107.975 E.10921
;WIDTH:0.568316
G1 X125.419 Y106.773 E.10499
;WIDTH:0.606036
G1 X125.358 Y106.738 E.00329
G1 X125.358 Y101.932 E.22503
G1 X129.52 Y99.529 E.22503
G1 X131.54 Y100.695 E.10921
;WIDTH:0.568319
G1 X133.621 Y101.897 E.10499
;WIDTH:0.606041
G1 X133.682 Y101.932 E.00329
G1 X133.682 Y104.265 E.10924
;WIDTH:0.568319
G1 X133.682 Y106.668 E.10498
;WIDTH:0.606039
G1 X133.682 Y106.738 E.00328
;WIDTH:0.532457
G1 X129.623 Y109.082 E.19079
;WIDTH:0.569248
G1 X129.603 Y109.093 E.001
M204 S1000
;WIPE_START
G1 F4800
G1 X129.551 Y109.123 E-.02495
G1 X129.52 Y109.141 E-.0149
G1 X127.519 Y107.986 E-.96015
;WIPE_END
G1 Z.4 F720
G1 X134.201 Y106.756 F6000
G1 Z.2 F720
G1 E1 F2100
M204 S800
;WIDTH:0.569249
G1 F1200
G1 X134.17 Y106.738 E.00157
;WIDTH:0.56925
G1 X134.17 Y104.335 E.10517
;WIDTH:0.606041
G1 X134.17 Y101.932 E.11252
G1 X136.19 Y100.765 E.10923
;WIDTH:0.568318
G1 X138.272 Y99.564 E.105
;WIDTH:0.606039
G1 X138.332 Y99.529 E.00325
G1 X140.353 Y100.695 E.10925
;WIDTH:0.568319
G1 X142.434 Y101.897 E.10499
;WIDTH:0.606041
G1 X142.495 Y101.932 E.00329
G1 X142.495 Y104.265 E.10924
;WIDTH:0.568319
G1 X142.495 Y106.668 E.10498
;WIDTH:0.606039
G1 X142.495 Y106.738 E.00328
G1 X140.475 Y107.905 E.10923
;WIDTH:0.568317
G1 X138.393 Y109.106 E.105
;WIDTH:0.606039
G1 X138.332 Y109.141 E.00329
G1 X136.251 Y107.94 E.1125
;WIDTH:0.569249
G1 X134.253 Y106.786 E.10098
M204 S1000
;WIPE_START
G1 F4800
G1 X134.201 Y106.756 E-.02495
G1 X134.17 Y106.738 E-.0149
G1 X134.17 Y104.428 E-.96015
;WIPE_END
G1 Z.4 F720
G1 X138.607 Y109.546 F6000
G1 Z.2 F720
G1 E1 F2100
M204 S800
;WIDTH:0.606039
G1 F1200
G1 X142.739 Y107.161 E.22339
G1 X144.759 Y108.327 E.10921
;WIDTH:0.568317
G1 X146.84 Y109.528 E.10497
;WIDTH:0.606039
G1 X146.901 Y109.564 E.00332
G1 X146.901 Y111.896 E.10919
;WIDTH:0.568318
G1 X146.901 Y114.3 E.10502
;WIDTH:0.606041
G1 X146.901 Y114.37 E.00328
G1 X144.881 Y115.536 E.10921
;WIDTH:0.568319
G1 X142.8 Y116.738 E.10499
;WIDTH:0.606041
G1 X142.739 Y116.773 E.00329
G1 X138.576 Y114.37 E.22507
G1 X138.576 Y112.037 E.10924
;WIDTH:0.568319
G1 X138.576 Y109.634 E.10498
;WIDTH:0.606039
G1 X138.576 Y109.588 E.00215
M204 S1000
;WIPE_START
G1 F4800
G1 X138.607 Y109.546 E-.0217
G1 X140.645 Y108.369 E-.9783
;WIPE_END
G1 Z.4 F720
G1 X142.77 Y101.491 F6000
G1 Z.2 F720
G1 E1 F2100
M204 S800
;WIDTH:0.606041
G1 F1200
G1 X142.739 Y101.509 E.00168
G1 X140.718 Y100.343 E.10925
;WIDTH:0.568317
G1 X138.698 Y99.177 E.10189
;WIDTH:0.532459
G1 X138.576 Y99.106 E.00575
;WIDTH:0.56925
G1 X138.576 Y96.703 E.10517
;WIDTH:0.606041
G1 X138.576 Y94.3 E.11252
G1 X142.739 Y91.897 E.22507
G1 X144.759 Y93.063 E.10921
;WIDTH:0.56832
G1 X146.84 Y94.265 E.10499
;WIDTH:0.606041
G1 X146.901 Y94.3 E.00329
G1 X146.901 Y96.633 E.10924
;WIDTH:0.568319
G1 X146.901 Y99.036 E.10498
;WIDTH:0.606039
G1 X146.901 Y99.106 E.00328
G1 X144.881 Y100.273 E.10923
;WIDTH:0.568319
G1 X142.822 Y101.461 E.10385
M204 S1000
;WIPE_START
G1 F4800
G1 X142.77 Y101.491 E-.02495
G1 X142.739 Y101.509 E-.0149
G1 X140.738 Y100.355 E-.96015
;WIPE_END
G1 Z.4 F720
G1 X138.057 Y99.124 F6000
G1 Z.2 F720
G1 E1 F2100
M204 S800
;WIDTH:0.606039
G1 F1200
G1 X136.068 Y100.273 E.10755
;WIDTH:0.568319
G1 X133.987 Y101.474 E.10497
;WIDTH:0.606041
G1 X133.926 Y101.509 E.00329
G1 X131.906 Y100.343 E.10921
;WIDTH:0.568317
G1 X129.825 Y99.142 E.10497
;WIDTH:0.606039
G1 X129.764 Y99.106 E.00332
G1 X129.764 Y94.3 E.22503
;WIDTH:0.606041
G1 X133.926 Y91.897 E.22503
G1 X135.946 Y93.063 E.10921
;WIDTH:0.568319
G1 X138.028 Y94.265 E.10503
;WIDTH:0.606041
G1 X138.089 Y94.3 E.00329
G1 X138.089 Y96.633 E.10924
;WIDTH:0.568319
G1 X138.089 Y99.036 E.10498
;WIDTH:0.606039
G1 X138.089 Y99.082 E.00215
M204 S1000
;WIPE_START
G1 F4800
G1 X138.057 Y99.124 E-.02195
G1 X136.068 Y100.273 E-.9547
G1 X136.019 Y100.301 E-.02335
;WIPE_END
G1 Z.4 F720
G1 X124.87 Y91.438 F6000
G1 Z.2 F720
G1 E1 F2100
M204 S800
G1 F1200
G1 X124.87 Y91.474 E.00169
G1 X122.85 Y92.641 E.10923
;WIDTH:0.568319
G1 X120.768 Y93.842 E.105
;WIDTH:0.606039
G1 X120.707 Y93.878 E.00332
G1 X116.545 Y91.474 E.22505
G1 X116.545 Y89.142 E.10919
;WIDTH:0.568316
G1 X116.545 Y86.739 E.10498
;WIDTH:0.606036
G1 X116.545 Y86.668 E.00332
G1 X120.707 Y84.265 E.22503
G1 X122.728 Y85.431 E.10925
;WIDTH:0.568315
G1 X124.809 Y86.633 E.10499
;WIDTH:0.606036
G1 X124.87 Y86.668 E.00329
G1 X124.87 Y89.001 E.10924
;WIDTH:0.568315
G1 X124.87 Y91.378 E.10384
M204 S1000
G1 X125.358 Y91.438 F6000
M204 S800
;WIDTH:0.606039
G1 F1200
G1 X125.358 Y89.142 E.10751
;WIDTH:0.568316
G1 X125.358 Y86.809 E.10192
;WIDTH:0.530593
G1 X125.358 Y86.668 E.00572
;WIDTH:0.568316
G1 X127.439 Y85.467 E.10497
;WIDTH:0.606039
G1 X129.52 Y84.265 E.11253
G1 X131.54 Y85.431 E.10921
;WIDTH:0.568317
G1 X133.621 Y86.633 E.10499
;WIDTH:0.606039
G1 X133.682 Y86.668 E.00329
G1 X133.682 Y89.001 E.10924
;WIDTH:0.568318
G1 X133.682 Y91.404 E.10498
;WIDTH:0.606041
G1 X133.682 Y91.474 E.00328
G1 X131.662 Y92.641 E.10923
;WIDTH:0.568319
G1 X129.581 Y93.842 E.10497
;WIDTH:0.606041
G1 X129.52 Y93.878 E.00332
G1 X127.5 Y92.711 E.10923
;WIDTH:0.568318
G1 X125.419 Y91.51 E.10497
;WIDTH:0.606039
G1 X125.378 Y91.486 E.00222
M204 S1000
;WIPE_START
G1 F4800
G1 X125.358 Y91.438 E-.02161
G1 X125.358 Y89.142 E-.95428
G1 X125.358 Y89.084 E-.02411
;WIPE_END
G1 Z.4 F720
G1 X125.145 Y86.228 F6000
G1 Z.2 F720
G1 E1 F2100
M204 S800
;WIDTH:0.606036
G1 F1200
G1 X125.114 Y86.246 E.00168
G1 X120.951 Y83.843 E.22507
G1 X120.951 Y79.036 E.22508
G1 X125.114 Y76.633 E.22507
G1 X127.134 Y77.799 E.10921
;WIDTH:0.568316
G1 X129.215 Y79.001 E.10499
;WIDTH:0.606039
G1 X129.276 Y79.036 E.00329
;WIDTH:0.568318
G1 X129.276 Y81.439 E.10498
;WIDTH:0.606039
G1 X129.276 Y83.843 E.11256
G1 X127.256 Y85.009 E.10921
;WIDTH:0.568316
G1 X125.197 Y86.198 E.10387
M204 S1000
;WIPE_START
G1 F4800
G1 X125.145 Y86.228 E-.02495
G1 X125.114 Y86.246 E-.0149
G1 X123.113 Y85.091 E-.96015
;WIPE_END
G1 Z.4 F720
G1 X134.201 Y76.229 F6000
G1 Z.2 F720
G1 E1 F2100
M204 S800
;WIDTH:0.606039
G1 F1200
G1 X134.17 Y76.211 E.00168
;WIDTH:0.530597
G1 X134.17 Y73.768 E.09906
G1 X134.204 Y73.715 E.00255
;WIDTH:0.492465
G1 X134.238 Y73.661 E.00239
;WIDTH:0.454333
G1 X134.426 Y73.574 E.00709
;WIDTH:0.419999
G1 X135.471 Y73.91 E.03442
G1 X136.877 Y74.416 E.04685
G1 X137.579 Y74.696 E.0237
G1 X138.952 Y75.298 E.04701
G1 X140.292 Y75.96 E.04686
G1 X141.068 Y76.376 E.02761
G1 X141.142 Y76.448 E.00324
G1 X141.171 Y76.8 E.01107
;WIDTH:0.456865
G1 X141.16 Y76.864 E.00224
;WIDTH:0.493731
G1 X141.15 Y76.929 E.00247
;WIDTH:0.530596
G1 X141.14 Y76.993 E.00263
G1 X138.454 Y78.544 E.12577
;WIDTH:0.568317
G1 X138.393 Y78.579 E.00307
;WIDTH:0.606039
G1 X138.332 Y78.614 E.00329
G1 X134.253 Y76.259 E.22054
M204 S1000
G1 X133.957 Y76.651 F6000
M204 S800
G1 F1200
G1 X135.946 Y77.799 E.10753
;WIDTH:0.568317
G1 X138.028 Y79.001 E.10503
;WIDTH:0.606039
G1 X138.089 Y79.036 E.00329
;WIDTH:0.532459
G1 X138.089 Y83.723 E.19079
;WIDTH:0.569249
G1 X138.089 Y83.783 E.00263
;WIDTH:0.606039
G1 X138.089 Y83.843 E.00281
G1 X136.068 Y85.009 E.10925
;WIDTH:0.568317
G1 X133.987 Y86.211 E.10499
;WIDTH:0.606039
G1 X133.926 Y86.246 E.00329
G1 X129.764 Y83.843 E.22503
G1 X129.764 Y79.036 E.22508
G1 X133.905 Y76.645 E.2239
M204 S1000
;WIPE_START
G1 F4800
G1 X133.957 Y76.651 E-.02176
G1 X135.946 Y77.799 E-.95449
G1 X135.995 Y77.828 E-.02375
;WIPE_END
G1 Z.4 F720
G1 X138.607 Y79.018 F6000
G1 Z.2 F720
G1 E1 F2100
M204 S800
G1 F1200
G1 X139.962 Y78.236 E.07325
;WIDTH:0.568318
G1 X141.348 Y77.436 E.06991
;WIDTH:0.530596
G1 X141.523 Y77.356 E.0078
;WIDTH:0.493731
G1 X141.697 Y77.277 E.00716
;WIDTH:0.456865
G1 X141.872 Y77.197 E.00662
;WIDTH:0.419999
G1 X142.175 Y77.052 E.01053
G1 X143.032 Y77.563 E.03128
G1 X144.299 Y78.431 E.04815
G1 X145.524 Y79.357 E.04815
G1 X146.778 Y80.401 E.05116
G1 X146.846 Y80.546 E.00502
G1 X146.846 Y81.16 E.01925
;WIDTH:0.456865
G1 X146.864 Y81.378 E.00753
;WIDTH:0.493731
G1 X146.883 Y81.595 E.00817
;WIDTH:0.530597
G1 X146.901 Y81.813 E.00887
;WIDTH:0.568318
G1 X146.901 Y82.828 E.04434
;WIDTH:0.606039
G1 X146.901 Y83.843 E.04753
G1 X144.881 Y85.009 E.10921
;WIDTH:0.568317
G1 X142.8 Y86.211 E.10499
;WIDTH:0.606039
G1 X142.739 Y86.246 E.00329
G1 X138.576 Y83.843 E.22507
G1 X138.576 Y79.06 E.22396
M204 S1000
;WIPE_START
G1 F4800
G1 X138.607 Y79.018 E-.0217
G1 X139.962 Y78.236 E-.65023
G1 X140.646 Y77.841 E-.32807
;WIPE_END
G1 Z.4 F720
G1 X147.699 Y81.586 F6000
G1 Z.2 F720
G1 E1 F2100
M204 S800
;WIDTH:0.419999
G1 F1200
G1 X147.892 Y81.512 E.00648
G1 X148.042 Y81.568 E.00502
G1 X149.185 Y82.741 E.05135
G1 X150.18 Y83.86 E.04695
G1 X151.098 Y84.992 E.0457
G1 X151.135 Y85.152 E.00515
G1 X150.802 Y85.572 E.01681
;WIDTH:0.456865
G1 X150.725 Y85.609 E.00294
;WIDTH:0.49373
G1 X150.649 Y85.645 E.00315
;WIDTH:0.530595
G1 X150.573 Y85.681 E.00341
G1 X147.511 Y83.913 E.14338
;WIDTH:0.568316
G1 X147.45 Y83.878 E.00307
;WIDTH:0.606039
G1 X147.389 Y83.843 E.00329
G1 X147.389 Y82.828 E.04753
;WIDTH:0.568318
G1 X147.389 Y81.813 E.04434
;WIDTH:0.530597
G1 X147.446 Y81.755 E.0033
;WIDTH:0.493731
G1 X147.503 Y81.697 E.00305
;WIDTH:0.456865
G1 X147.561 Y81.639 E.00282
;WIDTH:0.419999
G1 X147.643 Y81.607 E.00276
M204 S1000
;WIPE_START
G1 F4800
G1 X147.699 Y81.586 E-.02486
G1 X147.892 Y81.512 E-.08591
G1 X148.042 Y81.568 E-.06655
G1 X149.185 Y82.741 E-.68071
G1 X149.412 Y82.996 E-.14197
;WIPE_END
G1 Z.4 F720
G1 X142.464 Y86.65 F6000
G1 Z.2 F720
G1 E1 F2100
M204 S800
;WIDTH:0.606039
G1 F1200
G1 X142.495 Y86.668 E.00168
G1 X142.495 Y89.001 E.10924
;WIDTH:0.568318
G1 X142.495 Y91.404 E.10498
;WIDTH:0.606041
G1 X142.495 Y91.474 E.00328
G1 X140.475 Y92.641 E.10923
;WIDTH:0.56832
G1 X138.393 Y93.842 E.105
M73 P1 R83
;WIDTH:0.606041
G1 X138.332 Y93.878 E.00332
G1 X134.17 Y91.474 E.22505
G1 X134.17 Y89.142 E.10919
;WIDTH:0.568319
G1 X134.17 Y86.739 E.10498
;WIDTH:0.606039
G1 X134.17 Y86.668 E.00332
G1 X138.332 Y84.265 E.22503
;WIDTH:0.532457
G1 X142.391 Y86.608 E.19077
;WIDTH:0.569248
G1 X142.412 Y86.62 E.00106
M204 S1000
G1 X143.014 Y86.65 F6000
M204 S800
;WIDTH:0.606039
G1 F1200
G1 X145.064 Y85.467 E.11082
;WIDTH:0.568316
G1 X147.145 Y84.265 E.10499
;WIDTH:0.530595
G1 X150.293 Y86.083 E.14741
G1 X150.517 Y86.233 E.01093
;WIDTH:0.49373
G1 X150.741 Y86.384 E.01013
;WIDTH:0.456865
G1 X150.964 Y86.534 E.00925
;WIDTH:0.419999
G1 X151.201 Y86.68 E.00873
G1 X151.252 Y86.809 E.00435
;WIDTH:0.456865
G1 X151.271 Y86.968 E.00551
;WIDTH:0.493731
G1 X151.289 Y87.127 E.006
;WIDTH:0.530597
G1 X151.307 Y87.287 E.00653
G1 X151.307 Y91.334 E.16411
;WIDTH:0.568319
G1 X151.307 Y91.404 E.00306
;WIDTH:0.606041
G1 X151.307 Y91.474 E.00328
;WIDTH:0.53246
G1 X147.248 Y93.818 E.19079
;WIDTH:0.569251
G1 X147.197 Y93.848 E.00259
;WIDTH:0.606041
