; generated by PrusaSlicer 2.9.4 on 2026-03-05 at 15:44:17 UTC


;
;

;
;
; 

; external perimeters extrusion width = 0.45mm
; perimeters extrusion width = 0.45mm
; infill extrusion width = 0.45mm
; solid infill extrusion width = 0.45mm
; top infill extrusion width = 0.40mm
; first layer extrusion width = 0.42mm

M73 P0 R42
M201 X9000 Y9000 Z500 E10000 ; sets maximum accelerations, mm/sec^2
M203 X500 Y500 Z12 E120 ; sets maximum feedrates, mm / sec
M204 S2000 T1500 ; sets acceleration (S) and retract acceleration (R), mm/sec^2
M205 X10.00 Y10.00 Z0.20 E4.50 ; sets the jerk limits, mm/sec
M205 S0 T0 ; sets the minimum extruding and travel feed rate, mm/sec

; printing object Fan_Cover_40x40x20mm.stl id:0 copy 0
; stop printing object Fan_Cover_40x40x20mm.stl id:0 copy 0

;TYPE:Custom
M83  ; extruder relative mode
M140 S85 ; set bed temp
M109 S160 ; Set extruder temp before bed level
M190 S85 ; wait for bed temp

G28 W ; home all without mesh bed level
G80 N7 ; mesh bed leveling

M109 S240 ; wait for extruder temp

M221 S100 ; Set flow to 100

G1 Y-3.0 F1000.0 ; go outside print area
G92 E0.0
G1 E8 ; Purge Bubble
G1 X60.0 E9.0 F1000.0 ; intro line
G1 X100.0 E12.5 F1000.0 ; intro line
G92 E0.0
G21 ; set units to millimeters
G90 ; use absolute coordinates
M83 ; use relative distances for extrusion

M900 K0.08 ; Filament gcode LA 1.5
M900 K45 ; Filament gcode LA 1.0




M107
;LAYER_CHANGE
;Z:0.2
;HEIGHT:0.2
G1 E-1 F2100
G1 Z.4 F720
G1 X102.502 Y83.052 F6000
G1 Z.2 F720
G1 E1 F2100
M204 S800
;TYPE:Skirt/Brim
;WIDTH:0.42
G1 F1200
G1 X103.535 Y82.25 E.041
G1 X104.3 Y82.112 E.02437
G1 X145.7 Y82.112 E1.29807
G1 X146.948 Y82.503 E.04101
G1 X147.751 Y83.536 E.04102
G1 X147.889 Y84.3 E.02434
G1 X147.889 Y125.7 E1.29807
G1 X147.498 Y126.949 E.04104
G1 X146.465 Y127.751 E.041
G1 X145.7 Y127.889 E.02437
G1 X104.3 Y127.889 E1.29807
G1 X103.052 Y127.498 E.04101
G1 X102.249 Y126.465 E.04102
G1 X102.111 Y125.7 E.02437
G1 X102.111 Y84.3 E1.29807
G1 X102.484 Y83.109 E.03913
M204 S1000
;WIPE_START
G1 F4800
G1 X102.502 Y83.052 E-.02484
G1 X103.535 Y82.25 E-.54355
G1 X104.3 Y82.112 E-.32309
G1 X104.561 Y82.112 E-.10852
;WIPE_END
G1 Z.4 F720
; printing object Fan_Cover_40x40x20mm.stl id:0 copy 0
G1 X120.868 Y102.579 F6000
G1 Z.2 F720
G1 E1 F2100
M204 S800
;TYPE:External perimeter
;WIDTH:0.606039
G1 F1200
G1 X122.858 Y101.43 E.1076
;WIDTH:0.568318
G1 X124.939 Y100.229 E.10497
;WIDTH:0.606039
G1 X125 Y100.194 E.00329
G1 X127.02 Y101.36 E.10921
;WIDTH:0.568318
G1 X129.04 Y102.526 E.10189
;WIDTH:0.569251
G1 X129.101 Y102.562 E.0031
;WIDTH:0.606041
G1 X129.162 Y102.597 E.00329
G1 X129.162 Y104.93 E.10924
;WIDTH:0.568319
G1 X129.162 Y107.333 E.10498
;WIDTH:0.606041
G1 X129.162 Y107.403 E.00328
G1 X127.142 Y108.57 E.10923
;WIDTH:0.568318
G1 X125.061 Y109.771 E.10497
;WIDTH:0.606039
G1 X125 Y109.806 E.00329
G1 X120.837 Y107.403 E.22507
G1 X120.837 Y102.621 E.22391
M204 S1000
;WIPE_START
G1 F4800
G1 X120.868 Y102.579 E-.0217
G1 X122.858 Y101.43 E-.95506
G1 X122.906 Y101.402 E-.02324
;WIPE_END
G1 Z.4 F720
G1 X111.703 Y91.546 F6000
G1 Z.2 F720
G1 E1 F2100
M204 S800
;TYPE:Perimeter
;WIDTH:0.419999
G1 F1200
G1 X111.775 Y91.27 E.00894
G1 X112.327 Y90.728 E.02426
G1 X113.122 Y90.059 E.03258
G1 X114.365 Y89.15 E.04828
G1 X115.68 Y88.343 E.04838
G1 X117.035 Y87.655 E.04765
G1 X118.002 Y87.242 E.03297
G1 X119.005 Y86.88 E.03343
G1 X119.542 Y86.709 E.01767
G1 X119.714 Y86.682 E.00546
G1 X119.997 Y86.758 E.00919
G1 X120.533 Y87.104 E.02
G1 X120.593 Y87.265 E.00539
G1 X120.654 Y87.104 E.0054
G1 X120.968 Y86.886 E.01199
;WIDTH:0.443787
G1 X122.227 Y86.145 E.04869
;WIDTH:0.486968
G1 X122.339 Y86.087 E.00466
;WIDTH:0.530149
G1 X122.45 Y86.028 E.00509
G1 X122.965 Y85.987 E.02093
;WIDTH:0.502091
G1 X123.48 Y85.946 E.01973
;WIDTH:0.474032
G1 X124.549 Y85.905 E.03835
;WIDTH:0.45734
G1 X125.987 Y85.921 E.04956
;WIDTH:0.497403
G1 X127.281 Y86.005 E.049
;WIDTH:0.463686
G1 X127.559 Y86.029 E.00976
;WIDTH:0.429968
G1 X129.031 Y86.886 E.05482
;WIDTH:0.419999
G1 X129.346 Y87.104 E.01201
G1 X129.406 Y87.265 E.00539
G1 X129.466 Y87.104 E.00539
G1 X130.003 Y86.758 E.02003
G1 X130.336 Y86.668 E.01082
G1 X131.52 Y87.061 E.03912
G1 X132.923 Y87.636 E.04754
G1 X133.854 Y88.091 E.03249
G1 X134.752 Y88.593 E.03226
G1 X135.242 Y88.895 E.01805
G1 X136.045 Y89.434 E.03032
G1 X136.868 Y90.051 E.03225
G1 X137.656 Y90.712 E.03225
G1 X138.112 Y91.128 E.01935
G1 X138.262 Y91.351 E.00843
G1 X138.296 Y91.999 E.02035
G1 X138.265 Y92.184 E.00588
G1 X138.156 Y92.317 E.00539
G1 X138.325 Y92.288 E.00538
G1 X138.894 Y92.58 E.02005
G1 X139.937 Y93.182 E.03776
G1 X140.111 Y93.339 E.00735
G1 X140.713 Y94.164 E.03202
G1 X141.006 Y94.602 E.01652
G1 X141.765 Y95.877 E.04652
G1 X142.234 Y96.795 E.03232
G1 X142.654 Y97.743 E.03251
G1 X142.703 Y97.972 E.00734
G1 X142.703 Y99.631 E.05202
G1 X142.671 Y99.816 E.00589
G1 X142.562 Y99.948 E.00537
G1 X142.732 Y99.92 E.0054
G1 X143.3 Y100.212 E.02002
G1 X143.57 Y100.581 E.01434
G1 X143.697 Y101.161 E.01862
;WIDTH:0.464346
G1 X143.741 Y101.293 E.00488
;WIDTH:0.508692
G1 X143.785 Y101.424 E.00535
;WIDTH:0.553039
G1 X143.829 Y101.555 E.00586
;WIDTH:0.597385
G1 X143.873 Y101.687 E.00641
G1 X143.933 Y102.174 E.02262
;WIDTH:0.557669
G1 X143.992 Y102.661 E.021
;WIDTH:0.517952
G1 X144.029 Y103.179 E.02051
;WIDTH:0.492563
G1 X144.066 Y103.698 E.01945
;WIDTH:0.467173
G1 X144.098 Y104.727 E.03632
;WIDTH:0.451961
G1 X144.088 Y105.756 E.035
;WIDTH:0.486435
G1 X144.037 Y106.784 E.03796
;WIDTH:0.519261
G1 X143.989 Y107.313 E.02104
;WIDTH:0.552087
G1 X143.941 Y107.842 E.02249
G1 X143.861 Y108.167 E.01417
;WIDTH:0.508058
G1 X143.781 Y108.491 E.01291
;WIDTH:0.464029
G1 X143.702 Y108.816 E.01171
;WIDTH:0.419999
G1 X143.57 Y109.419 E.01935
G1 X143.3 Y109.788 E.01434
;WIDTH:0.425713
G1 X142.733 Y110.089 E.02043
G1 X142.597 Y110.072 E.00436
G1 X142.703 Y110.212 E.00559
;WIDTH:0.419999
G1 X142.703 Y112.028 E.05694
G1 X142.654 Y112.258 E.00737
G1 X142.24 Y113.191 E.032
G1 X142.008 Y113.664 E.01652
G1 X141.283 Y114.958 E.04651
G1 X140.723 Y115.823 E.03231
G1 X140.112 Y116.66 E.03249
G1 X139.938 Y116.817 E.00735
G1 X138.501 Y117.646 E.05202
;WIDTH:0.425714
G1 X138.327 Y117.72 E.00602
G1 X138.19 Y117.704 E.00439
G1 X138.273 Y117.813 E.00436
G1 X138.296 Y118.455 E.02045
;WIDTH:0.419999
G1 X138.225 Y118.731 E.00894
G1 X138.107 Y118.878 E.00591
G1 X137.29 Y119.604 E.03427
G1 X136.485 Y120.245 E.03226
G1 X135.647 Y120.842 E.03226
G1 X134.762 Y121.402 E.03284
G1 X133.429 Y122.125 E.04755
G1 X132.488 Y122.557 E.03246
G1 X131.517 Y122.941 E.03274
G1 X130.465 Y123.29 E.03475
G1 X130.287 Y123.319 E.00565
G1 X130.004 Y123.243 E.00919
;WIDTH:0.425716
G1 X129.46 Y122.902 E.02044
G1 X129.406 Y122.775 E.00439
G1 X129.339 Y122.933 E.00546
;WIDTH:0.44377
G1 X127.77 Y123.856 E.06067
;WIDTH:0.486873
G1 X127.659 Y123.914 E.00462
;WIDTH:0.529975
G1 X127.547 Y123.973 E.00513
G1 X127.038 Y124.013 E.02068
;WIDTH:0.502845
G1 X126.529 Y124.054 E.01953
;WIDTH:0.475714
G1 X125.52 Y124.094 E.03634
;WIDTH:0.448146
G1 X124.51 Y124.095 E.03403
;WIDTH:0.475747
G1 X123.48 Y124.055 E.0371
G1 X122.446 Y123.972 E.03733
;WIDTH:0.426895
G1 X120.968 Y123.114 E.05456
;WIDTH:0.425716
G1 X120.647 Y122.902 E.01224
G1 X120.593 Y122.775 E.00439
G1 X120.54 Y122.902 E.00438
G1 X119.996 Y123.243 E.02044
;WIDTH:0.419999
G1 X119.713 Y123.318 E.00918
G1 X118.975 Y123.112 E.02402
G1 X118.016 Y122.764 E.03199
G1 X117.069 Y122.362 E.03226
G1 X116.145 Y121.909 E.03227
G1 X115.231 Y121.398 E.03283
G1 X113.941 Y120.558 E.04827
G1 X112.724 Y119.616 E.04825
G1 X111.893 Y118.877 E.03487
G1 X111.738 Y118.65 E.00862
G1 X111.703 Y118.001 E.02038
;WIDTH:0.425714
G1 X111.726 Y117.813 E.00603
G1 X111.809 Y117.704 E.00436
G1 X111.672 Y117.72 E.00439
G1 X111.106 Y117.42 E.02039
;WIDTH:0.419999
G1 X110.062 Y116.818 E.03779
G1 X109.888 Y116.661 E.00735
G1 X109.287 Y115.835 E.03203
G1 X108.736 Y114.99 E.03163
G1 X108.231 Y114.116 E.03165
G1 X107.766 Y113.204 E.0321
G1 X107.345 Y112.256 E.03252
G1 X107.297 Y112.027 E.00734
G1 X107.297 Y110.369 E.05199
;WIDTH:0.425715
G1 X107.32 Y110.182 E.006
G1 X107.403 Y110.072 E.00439
G1 X107.266 Y110.089 E.00439
G1 X106.7 Y109.788 E.0204
;WIDTH:0.419999
G1 X106.43 Y109.419 E.01434
G1 X106.294 Y108.799 E.0199
;WIDTH:0.464221
G1 X106.216 Y108.481 E.01147
;WIDTH:0.508443
G1 X106.138 Y108.163 E.01267
;WIDTH:0.552665
G1 X106.059 Y107.845 E.01389
G1 X106.012 Y107.324 E.02217
;WIDTH:0.519387
G1 X105.964 Y106.803 E.02073
;WIDTH:0.486108
G1 X105.903 Y105.281 E.05613
;WIDTH:0.453231
G1 X105.912 Y104.221 E.03617
;WIDTH:0.483522
G1 X105.958 Y103.465 E.02775
;WIDTH:0.513813
G1 X106.004 Y102.71 E.02962
;WIDTH:0.541559
G1 X106.058 Y102.216 E.0206
;WIDTH:0.569305
G1 X106.113 Y101.722 E.02176
G1 X106.218 Y101.344 E.01717
;WIDTH:0.519537
G1 X106.323 Y100.966 E.01555
;WIDTH:0.469768
G1 X106.429 Y100.588 E.01393
;WIDTH:0.419999
G1 X106.7 Y100.212 E.01453
G1 X107.268 Y99.92 E.02002
G1 X107.437 Y99.948 E.00537
G1 X107.328 Y99.816 E.00537
G1 X107.297 Y99.631 E.00588
G1 X107.297 Y97.974 E.05195
G1 X107.345 Y97.745 E.00734
G1 X107.767 Y96.793 E.03265
G1 X108.459 Y95.476 E.04665
G1 X108.99 Y94.609 E.03188
G1 X109.562 Y93.777 E.03166
G1 X109.894 Y93.333 E.01738
G1 X110.064 Y93.182 E.00713
G1 X111.498 Y92.354 E.05192
G1 X111.674 Y92.288 E.00589
G1 X111.844 Y92.317 E.00541
G1 X111.734 Y92.184 E.00541
G1 X111.706 Y91.606 E.01814
M204 S1000
;WIPE_START
G1 F4800
G1 X111.703 Y91.546 E-.02497
G1 X111.775 Y91.27 E-.11855
G1 X112.327 Y90.728 E-.32153
G1 X113.122 Y90.059 E-.43185
G1 X113.322 Y89.913 E-.1031
;WIPE_END
G1 Z.4 F720
G1 X125.275 Y110.211 F6000
G1 Z.2 F720
M73 P1 R42
G1 E1 F2100
M204 S800
;TYPE:External perimeter
;WIDTH:0.569249
G1 F1200
G1 X127.325 Y109.027 E.10361
;WIDTH:0.606041
G1 X129.406 Y107.826 E.1125
G1 X131.426 Y108.992 E.10921
;WIDTH:0.568318
G1 X133.507 Y110.193 E.10497
;WIDTH:0.606039
G1 X133.568 Y110.229 E.00332
G1 X133.568 Y112.561 E.10919
;WIDTH:0.568318
G1 X133.568 Y114.965 E.10502
;WIDTH:0.606039
G1 X133.568 Y115.035 E.00328
G1 X131.548 Y116.201 E.10921
;WIDTH:0.568317
G1 X129.467 Y117.403 E.10499
;WIDTH:0.606039
G1 X129.406 Y117.438 E.00329
G1 X125.244 Y115.035 E.22503
G1 X125.244 Y112.632 E.11252
;WIDTH:0.569248
G1 X125.244 Y110.253 E.10412
M204 S1000
;WIPE_START
G1 F4800
G1 X125.275 Y110.211 E-.0217
G1 X127.313 Y109.034 E-.9783
;WIPE_END
G1 Z.4 F720
G1 X134.087 Y110.211 F6000
G1 Z.2 F720
G1 E1 F2100
M204 S800
;WIDTH:0.569249
G1 F1200
G1 X136.137 Y109.027 E.10361
;WIDTH:0.606041
G1 X138.218 Y107.826 E.1125
G1 X140.239 Y108.992 E.10925
;WIDTH:0.568318
G1 X142.259 Y110.158 E.10189
;WIDTH:0.530594
G1 X142.281 Y110.229 E.00301
;WIDTH:0.493729
G1 X142.303 Y110.299 E.00275
;WIDTH:0.456864
G1 X142.326 Y110.369 E.00254
;WIDTH:0.419999
G1 X142.326 Y112.068 E.05327
G1 X141.896 Y113.038 E.03327
G1 X141.671 Y113.493 E.01592
G1 X140.954 Y114.774 E.04603
G1 X140.412 Y115.609 E.03121
G1 X139.808 Y116.438 E.03216
G1 X138.706 Y117.093 E.04019
;WIDTH:0.425714
G1 X138.255 Y117.345 E.01644
;WIDTH:0.460675
G1 X138.202 Y117.352 E.00186
;WIDTH:0.495635
G1 X138.149 Y117.36 E.00202
;WIDTH:0.530595
G1 X138.097 Y117.368 E.00213
;WIDTH:0.568317
G1 X136.076 Y116.201 E.10195
;WIDTH:0.606039
G1 X134.056 Y115.035 E.10921
G1 X134.056 Y112.632 E.11252
;WIDTH:0.569248
G1 X134.056 Y110.253 E.10412
M204 S1000
G1 X133.843 Y109.788 F6000
M204 S800
;WIDTH:0.606039
G1 F1200
G1 X133.812 Y109.806 E.00168
G1 X129.65 Y107.403 E.22503
G1 X129.65 Y102.597 E.22503
G1 X131.67 Y101.43 E.10923
;WIDTH:0.568318
G1 X133.751 Y100.229 E.10497
;WIDTH:0.606039
G1 X133.812 Y100.194 E.00329
G1 X135.832 Y101.36 E.10921
;WIDTH:0.568318
G1 X137.914 Y102.562 E.10503
;WIDTH:0.606041
G1 X137.975 Y102.597 E.00329
G1 X137.975 Y104.93 E.10924
;WIDTH:0.568319
G1 X137.975 Y107.333 E.10498
;WIDTH:0.606041
G1 X137.975 Y107.403 E.00328
G1 X135.954 Y108.57 E.10927
;WIDTH:0.568318
G1 X133.895 Y109.758 E.10385
M204 S1000
;WIPE_START
G1 F4800
G1 X133.843 Y109.788 E-.02495
G1 X133.812 Y109.806 E-.0149
G1 X131.811 Y108.651 E-.96015
;WIPE_END
G1 Z.4 F720
G1 X138.493 Y107.421 F6000
G1 Z.2 F720
G1 E1 F2100
M204 S800
;WIDTH:0.606041
G1 F1200
G1 X138.462 Y107.403 E.00168
;WIDTH:0.56925
G1 X138.462 Y105 E.10517
;WIDTH:0.606041
G1 X138.462 Y102.597 E.11252
G1 X140.483 Y101.43 E.10927
;WIDTH:0.568317
G1 X142.503 Y100.264 E.10189
;WIDTH:0.530593
G1 X142.575 Y100.28 E.00299
;WIDTH:0.493729
G1 X142.647 Y100.296 E.00276
;WIDTH:0.456864
G1 X142.719 Y100.312 E.00254
;WIDTH:0.419999
G1 X143.112 Y100.539 E.01423
G1 X143.202 Y100.662 E.00478
G1 X143.329 Y101.242 E.01862
G1 X143.572 Y102.729 E.04724
G1 X143.667 Y103.735 E.03168
G1 X143.708 Y104.743 E.03163
G1 X143.695 Y105.751 E.03161
G1 X143.627 Y106.757 E.03161
G1 X143.506 Y107.758 E.03161
G1 X143.33 Y108.751 E.03162
G1 X143.202 Y109.338 E.01884
G1 X143.112 Y109.461 E.00478
;WIDTH:0.425713
G1 X142.661 Y109.713 E.01644
;WIDTH:0.460674
G1 X142.608 Y109.72 E.00186
;WIDTH:0.495634
G1 X142.555 Y109.728 E.00202
;WIDTH:0.530594
G1 X142.503 Y109.736 E.00213
;WIDTH:0.568318
G1 X140.483 Y108.57 E.10189
;WIDTH:0.606041
G1 X138.545 Y107.451 E.10478
M204 S1000
;WIPE_START
G1 F4800
G1 X138.493 Y107.421 E-.02495
G1 X138.462 Y107.403 E-.0149
G1 X138.462 Y105.093 E-.96015
;WIPE_END
G1 Z.4 F720
G1 X138.25 Y102.156 F6000
G1 Z.2 F720
G1 E1 F2100
M204 S800
G1 F1200
G1 X138.218 Y102.174 E.00172
G1 X136.198 Y101.008 E.10921
;WIDTH:0.568318
G1 X134.117 Y99.807 E.10497
;WIDTH:0.606039
G1 X134.056 Y99.771 E.00332
G1 X134.056 Y94.965 E.22503
G1 X136.076 Y93.799 E.10921
;WIDTH:0.568317
G1 X138.097 Y92.632 E.10195
;WIDTH:0.530595
G1 X138.169 Y92.648 E.00299
;WIDTH:0.49373
G1 X138.241 Y92.664 E.00276
;WIDTH:0.456865
G1 X138.313 Y92.68 E.00254
;WIDTH:0.419999
G1 X139.783 Y93.529 E.05323
G1 X140.408 Y94.386 E.03326
G1 X140.69 Y94.808 E.01591
G1 X141.441 Y96.07 E.04605
G1 X141.893 Y96.958 E.03124
G1 X142.326 Y97.933 E.03345
G1 X142.315 Y99.692 E.05515
;WIDTH:0.456864
G1 X142.296 Y99.742 E.00184
;WIDTH:0.493729
G1 X142.278 Y99.792 E.00199
;WIDTH:0.530593
G1 X142.259 Y99.842 E.00217
;WIDTH:0.532461
G1 X138.322 Y102.115 E.18505
;WIDTH:0.569251
G1 X138.302 Y102.126 E.001
M204 S1000
;WIPE_START
G1 F4800
G1 X138.25 Y102.156 E-.02495
G1 X138.218 Y102.174 E-.01526
G1 X136.218 Y101.02 E-.95979
;WIPE_END
G1 Z.4 F720
G1 X133.537 Y99.789 F6000
G1 Z.2 F720
G1 E1 F2100
M204 S800
;WIDTH:0.606039
G1 F1200
G1 X131.548 Y100.938 E.10755
;WIDTH:0.568319
G1 X129.467 Y102.139 E.10497
;WIDTH:0.606041
G1 X129.406 Y102.174 E.00329
G1 X127.386 Y101.008 E.10921
;WIDTH:0.568318
G1 X125.305 Y99.807 E.10497
;WIDTH:0.606039
G1 X125.244 Y99.771 E.00332
G1 X125.244 Y94.965 E.22503
G1 X129.406 Y92.562 E.22503
G1 X131.426 Y93.728 E.10921
;WIDTH:0.568317
G1 X133.507 Y94.93 E.10499
;WIDTH:0.606039
G1 X133.568 Y94.965 E.00329
G1 X133.568 Y97.298 E.10924
;WIDTH:0.568318
G1 X133.568 Y99.701 E.10498
;WIDTH:0.606039
G1 X133.568 Y99.747 E.00215
M204 S1000
;WIPE_START
G1 F4800
G1 X133.537 Y99.789 E-.0217
G1 X131.548 Y100.938 E-.9547
G1 X131.499 Y100.966 E-.0236
;WIPE_END
G1 Z.4 F720
G1 X124.725 Y99.789 F6000
G1 Z.2 F720
G1 E1 F2100
M204 S800
G1 F1200
G1 X122.736 Y100.938 E.10755
;WIDTH:0.568319
G1 X120.654 Y102.139 E.105
;WIDTH:0.606041
G1 X120.593 Y102.174 E.00329
G1 X118.573 Y101.008 E.10921
;WIDTH:0.568318
G1 X116.492 Y99.807 E.10497
;WIDTH:0.606039
G1 X116.431 Y99.771 E.00332
G1 X116.431 Y94.965 E.22503
G1 X120.593 Y92.562 E.22503
G1 X122.614 Y93.728 E.10925
;WIDTH:0.568317
G1 X124.695 Y94.93 E.10499
;WIDTH:0.606039
G1 X124.756 Y94.965 E.00329
;WIDTH:0.568318
G1 X124.756 Y97.368 E.10498
;WIDTH:0.606039
G1 X124.756 Y99.747 E.11139
M204 S1000
;WIPE_START
G1 F4800
G1 X124.725 Y99.789 E-.0217
G1 X122.736 Y100.938 E-.9547
G1 X122.687 Y100.966 E-.0236
;WIPE_END
G1 Z.4 F720
G1 X124.969 Y94.525 F6000
G1 Z.2 F720
G1 E1 F2100
M204 S800
G1 F1200
G1 X120.837 Y92.139 E.22341
G1 X120.837 Y89.807 E.10919
;WIDTH:0.568318
G1 X120.837 Y87.474 E.10192
;WIDTH:0.530597
G1 X120.887 Y87.42 E.00298
;WIDTH:0.493731
G1 X120.937 Y87.365 E.00279
;WIDTH:0.456865
G1 X120.987 Y87.311 E.00253
;WIDTH:0.419999
G1 X122.456 Y86.462 E.0532
G1 X123.517 Y86.349 E.03345
G1 X124.558 Y86.296 E.03268
G1 X125.981 Y86.316 E.04462
G1 X126.97 Y86.394 E.03111
