; generated by PrusaSlicer 2.9.4 on 2026-03-05 at 15:50:48 UTC


;
;

;
;
; 

; external perimeters extrusion width = 0.45mm
; perimeters extrusion width = 0.45mm
; infill extrusion width = 0.45mm
; solid infill extrusion width = 0.45mm
; top infill extrusion width = 0.40mm
; support material extrusion width = 0.35mm
; first layer extrusion width = 0.42mm

M73 P0 R90
M201 X9000 Y9000 Z500 E10000 ; sets maximum accelerations, mm/sec^2
M203 X500 Y500 Z12 E120 ; sets maximum feedrates, mm / sec
M204 S2000 T1500 ; sets acceleration (S) and retract acceleration (R), mm/sec^2
M205 X10.00 Y10.00 Z0.20 E4.50 ; sets the jerk limits, mm/sec
M205 S0 T0 ; sets the minimum extruding and travel feed rate, mm/sec

; printing object Raspberry_Cover_P4B.stl id:0 copy 0
; stop printing object Raspberry_Cover_P4B.stl id:0 copy 0

;TYPE:Custom
M83  ; extruder relative mode
M140 S85 ; set bed temp
M109 S160 ; Set extruder temp before bed level
M190 S85 ; wait for bed temp

G28 W ; home all without mesh bed level
G80 N7 ; mesh bed leveling

M109 S240 ; wait for extruder temp

M221 S100 ; Set flow to 100

G1 Y-3.0 F1000.0 ; go outside print area
G92 E0.0
G1 E8 ; Purge Bubble
G1 X60.0 E9.0 F1000.0 ; intro line
G1 X100.0 E12.5 F1000.0 ; intro line
G92 E0.0
G21 ; set units to millimeters
G90 ; use absolute coordinates
M83 ; use relative distances for extrusion

M900 K0.08 ; Filament gcode LA 1.5
M900 K45 ; Filament gcode LA 1.0




M107
;LAYER_CHANGE
;Z:0.2
;HEIGHT:0.2
G1 E-1 F2100
G1 Z.4 F720
G1 X62.547 Y78.769 F6000
G1 Z.2 F720
G1 E1 F2100
M204 S800
;TYPE:Skirt/Brim
;WIDTH:0.42
G1 F1200
G1 X67.137 Y75.523 E.17627
G1 X68.399 Y75.121 E.04153
G1 X186.231 Y75.021 E3.69454
G1 X187.479 Y75.412 E.04101
G1 X188.282 Y76.445 E.04102
G1 X188.42 Y77.21 E.02437
G1 X188.379 Y130.946 E1.68486
G1 X187.987 Y132.194 E.04102
G1 X187.454 Y132.731 E.02372
G1 X185.449 Y134.149 E.077
G1 X184.336 Y134.545 E.03704
G1 X183.007 Y134.632 E.04176
G1 X67.002 Y134.832 E3.63726
G1 X65.664 Y134.745 E.04204
G1 X64.551 Y134.349 E.03704
G1 X62.547 Y132.931 E.07697
G1 X61.753 Y131.891 E.04103
G1 X61.622 Y131.144 E.02378
G1 X61.622 Y80.556 E1.58615
G1 X62.013 Y79.308 E.04101
G1 X62.504 Y78.811 E.02191
M204 S1000
;WIPE_START
G1 F4800
G1 X62.547 Y78.769 E-.02498
G1 X64.462 Y77.415 E-.97502
;WIPE_END
G1 Z.4 F720
; printing object Raspberry_Cover_P4B.stl id:0 copy 0
G1 X181.92 Y81.566 F6000
G1 Z.2 F720
G1 E1 F2100
M204 S800
;TYPE:Support material interface
;WIDTH:0.35
G1 F1200
G1 X182.129 Y81.714 E.00654
G1 X182.554 Y82.237 E.01721
G1 X182.554 Y81.914 E.00825
G1 X182.475 Y81.761 E.0044
G1 X181.265 Y80.946 E.03725
G1 X181.794 Y81.477 E.01914
G1 X181.442 Y81.276 E.01035
G1 X180.877 Y81.276 E.01443
G1 X180.547 Y80.946 E.01192
G1 X179.829 Y80.946 E.01833
G1 X180.159 Y81.276 E.01192
G1 X179.442 Y81.276 E.01831
G1 X179.112 Y80.946 E.01192
G1 X178.395 Y80.946 E.01831
G1 X178.725 Y81.276 E.01192
G1 X178.008 Y81.276 E.01831
G1 X177.678 Y80.946 E.01192
G1 X176.961 Y80.946 E.01831
G1 X177.291 Y81.276 E.01192
G1 X176.574 Y81.276 E.01831
G1 X176.244 Y80.946 E.01192
G1 X175.527 Y80.946 E.01831
G1 X175.857 Y81.276 E.01192
G1 X175.14 Y81.276 E.01831
G1 X174.81 Y80.946 E.01192
G1 X174.092 Y80.946 E.01833
G1 X174.423 Y81.276 E.01193
G1 X173.705 Y81.276 E.01833
G1 X173.375 Y80.946 E.01192
G1 X172.658 Y80.946 E.01831
G1 X172.988 Y81.276 E.01192
G1 X172.271 Y81.276 E.01831
G1 X171.941 Y80.946 E.01192
G1 X171.224 Y80.946 E.01831
G1 X171.554 Y81.276 E.01192
G1 X170.837 Y81.276 E.01831
G1 X170.507 Y80.946 E.01192
G1 X169.79 Y80.946 E.01831
G1 X170.12 Y81.276 E.01192
G1 X169.403 Y81.276 E.01831
G1 X169.073 Y80.946 E.01192
G1 X168.356 Y80.946 E.01831
G1 X168.686 Y81.276 E.01192
G1 X167.968 Y81.276 E.01833
G1 X167.638 Y80.946 E.01192
G1 X166.921 Y80.946 E.01831
G1 X167.251 Y81.276 E.01192
G1 X166.534 Y81.276 E.01831
G1 X166.204 Y80.946 E.01192
G1 X165.487 Y80.946 E.01831
G1 X165.817 Y81.276 E.01192
G1 X165.1 Y81.276 E.01831
G1 X164.77 Y80.946 E.01192
G1 X164.053 Y80.946 E.01831
G1 X164.383 Y81.276 E.01192
G1 X163.666 Y81.276 E.01831
G1 X163.336 Y80.946 E.01192
G1 X162.619 Y80.946 E.01831
G1 X162.949 Y81.276 E.01192
G1 X162.232 Y81.276 E.01831
G1 X161.901 Y80.946 E.01193
G1 X161.184 Y80.946 E.01831
G1 X161.514 Y81.276 E.01192
G1 X160.797 Y81.276 E.01831
G1 X160.467 Y80.946 E.01192
G1 X159.75 Y80.946 E.01831
G1 X160.08 Y81.276 E.01192
G1 X159.363 Y81.276 E.01831
G1 X159.033 Y80.946 E.01192
G1 X158.316 Y80.946 E.01831
G1 X158.646 Y81.276 E.01192
G1 X157.929 Y81.276 E.01831
G1 X157.599 Y80.946 E.01192
G1 X156.882 Y80.946 E.01831
G1 X157.212 Y81.276 E.01192
G1 X156.495 Y81.276 E.01831
G1 X156.165 Y80.946 E.01192
G1 X155.447 Y80.946 E.01833
G1 X155.777 Y81.276 E.01192
G1 X155.06 Y81.276 E.01831
G1 X154.73 Y80.946 E.01192
G1 X154.013 Y80.946 E.01831
G1 X154.343 Y81.276 E.01192
G1 X153.626 Y81.276 E.01831
G1 X153.296 Y80.946 E.01192
G1 X152.579 Y80.946 E.01831
G1 X152.909 Y81.276 E.01192
G1 X152.192 Y81.276 E.01831
G1 X151.862 Y80.946 E.01192
G1 X151.145 Y80.946 E.01831
G1 X151.475 Y81.276 E.01192
G1 X150.758 Y81.276 E.01831
G1 X150.428 Y80.946 E.01192
G1 X149.71 Y80.946 E.01833
G1 X150.041 Y81.276 E.01193
G1 X149.323 Y81.276 E.01833
G1 X148.993 Y80.946 E.01192
G1 X148.276 Y80.946 E.01831
G1 X148.606 Y81.276 E.01192
G1 X147.889 Y81.276 E.01831
G1 X147.559 Y80.946 E.01192
G1 X146.842 Y80.946 E.01831
G1 X147.172 Y81.276 E.01192
G1 X146.455 Y81.276 E.01831
G1 X146.125 Y80.946 E.01192
G1 X145.408 Y80.946 E.01831
G1 X145.738 Y81.276 E.01192
G1 X145.021 Y81.276 E.01831
G1 X144.691 Y80.946 E.01192
G1 X143.974 Y80.946 E.01831
G1 X144.304 Y81.276 E.01192
G1 X143.586 Y81.276 E.01833
G1 X143.256 Y80.946 E.01192
G1 X142.539 Y80.946 E.01831
G1 X142.869 Y81.276 E.01192
G1 X142.152 Y81.276 E.01831
G1 X141.822 Y80.946 E.01192
G1 X141.105 Y80.946 E.01831
G1 X141.435 Y81.276 E.01192
G1 X140.718 Y81.276 E.01831
G1 X140.388 Y80.946 E.01192
G1 X139.671 Y80.946 E.01831
G1 X140.001 Y81.276 E.01192
G1 X139.284 Y81.276 E.01831
G1 X138.954 Y80.946 E.01192
G1 X138.237 Y80.946 E.01831
G1 X138.567 Y81.276 E.01192
G1 X137.849 Y81.276 E.01833
G1 X137.519 Y80.946 E.01192
G1 X136.802 Y80.946 E.01831
G1 X137.132 Y81.276 E.01192
G1 X136.415 Y81.276 E.01831
G1 X136.085 Y80.946 E.01192
G1 X135.368 Y80.946 E.01831
G1 X135.698 Y81.276 E.01192
G1 X134.981 Y81.276 E.01831
G1 X134.651 Y80.946 E.01192
G1 X133.934 Y80.946 E.01831
G1 X134.264 Y81.276 E.01192
G1 X133.547 Y81.276 E.01831
G1 X133.217 Y80.946 E.01192
G1 X132.5 Y80.946 E.01831
G1 X132.83 Y81.276 E.01192
G1 X132.113 Y81.276 E.01831
G1 X131.783 Y80.946 E.01192
G1 X131.065 Y80.946 E.01833
G1 X131.395 Y81.276 E.01192
G1 X130.678 Y81.276 E.01831
G1 X130.348 Y80.946 E.01192
G1 X129.631 Y80.946 E.01831
G1 X129.961 Y81.276 E.01192
G1 X129.244 Y81.276 E.01831
G1 X128.914 Y80.946 E.01192
G1 X128.197 Y80.946 E.01831
G1 X128.527 Y81.276 E.01192
G1 X127.81 Y81.276 E.01831
G1 X127.48 Y80.946 E.01192
G1 X126.763 Y80.946 E.01831
G1 X127.093 Y81.276 E.01192
G1 X126.376 Y81.276 E.01831
G1 X126.046 Y80.946 E.01192
G1 X125.328 Y80.946 E.01833
G1 X125.658 Y81.276 E.01192
G1 X124.941 Y81.276 E.01831
G1 X124.611 Y80.946 E.01192
G1 X123.894 Y80.946 E.01831
G1 X124.224 Y81.276 E.01192
G1 X123.507 Y81.276 E.01831
G1 X123.177 Y80.946 E.01192
G1 X122.46 Y80.946 E.01831
G1 X122.79 Y81.276 E.01192
G1 X122.073 Y81.276 E.01831
G1 X121.743 Y80.946 E.01192
G1 X121.026 Y80.946 E.01831
G1 X121.356 Y81.276 E.01192
G1 X120.639 Y81.276 E.01831
G1 X120.309 Y80.946 E.01192
G1 X119.592 Y80.946 E.01831
G1 X119.922 Y81.276 E.01192
G1 X119.204 Y81.276 E.01833
G1 X118.874 Y80.946 E.01192
G1 X118.157 Y80.946 E.01831
G1 X118.487 Y81.276 E.01192
G1 X117.77 Y81.276 E.01831
G1 X117.44 Y80.946 E.01192
G1 X116.723 Y80.946 E.01831
G1 X117.053 Y81.276 E.01192
G1 X116.336 Y81.276 E.01831
G1 X116.006 Y80.946 E.01192
G1 X115.289 Y80.946 E.01831
G1 X115.619 Y81.276 E.01192
G1 X114.902 Y81.276 E.01831
G1 X114.572 Y80.946 E.01192
G1 X113.855 Y80.946 E.01831
G1 X114.185 Y81.276 E.01192
G1 X113.467 Y81.276 E.01833
G1 X113.137 Y80.946 E.01192
G1 X112.42 Y80.946 E.01831
G1 X112.75 Y81.276 E.01192
G1 X112.033 Y81.276 E.01831
G1 X111.703 Y80.946 E.01192
G1 X110.986 Y80.946 E.01831
G1 X111.316 Y81.276 E.01192
G1 X110.599 Y81.276 E.01831
G1 X110.269 Y80.946 E.01192
G1 X109.552 Y80.946 E.01831
G1 X109.882 Y81.276 E.01192
G1 X109.165 Y81.276 E.01831
G1 X108.835 Y80.946 E.01192
G1 X108.118 Y80.946 E.01831
G1 X108.448 Y81.276 E.01192
G1 X107.731 Y81.276 E.01831
G1 X107.401 Y80.946 E.01192
G1 X106.683 Y80.946 E.01833
G1 X107.013 Y81.276 E.01192
G1 X106.296 Y81.276 E.01831
G1 X105.966 Y80.946 E.01192
G1 X105.249 Y80.946 E.01831
G1 X105.579 Y81.276 E.01192
G1 X104.862 Y81.276 E.01831
G1 X104.532 Y80.946 E.01192
G1 X103.815 Y80.946 E.01831
G1 X104.145 Y81.276 E.01192
G1 X103.428 Y81.276 E.01831
G1 X103.098 Y80.946 E.01192
G1 X102.381 Y80.946 E.01831
G1 X102.711 Y81.276 E.01192
G1 X101.994 Y81.276 E.01831
G1 X101.664 Y80.946 E.01192
G1 X100.946 Y80.946 E.01833
G1 X101.276 Y81.276 E.01192
G1 X100.559 Y81.276 E.01831
G1 X100.229 Y80.946 E.01192
G1 X99.512 Y80.946 E.01831
G1 X99.842 Y81.276 E.01192
G1 X99.125 Y81.276 E.01831
G1 X98.795 Y80.946 E.01192
G1 X98.078 Y80.946 E.01831
G1 X98.408 Y81.276 E.01192
G1 X97.691 Y81.276 E.01831
G1 X97.361 Y80.946 E.01192
G1 X96.644 Y80.946 E.01831
G1 X96.974 Y81.276 E.01192
G1 X96.257 Y81.276 E.01831
G1 X95.927 Y80.946 E.01192
G1 X95.209 Y80.946 E.01833
G1 X95.54 Y81.276 E.01193
G1 X94.822 Y81.276 E.01833
G1 X94.492 Y80.946 E.01192
G1 X93.775 Y80.946 E.01831
G1 X94.105 Y81.276 E.01192
G1 X93.388 Y81.276 E.01831
G1 X93.058 Y80.946 E.01192
G1 X92.341 Y80.946 E.01831
G1 X92.671 Y81.276 E.01192
G1 X91.954 Y81.276 E.01831
G1 X91.624 Y80.946 E.01192
G1 X90.907 Y80.946 E.01831
G1 X91.237 Y81.276 E.01192
G1 X90.52 Y81.276 E.01831
G1 X90.19 Y80.946 E.01192
G1 X89.473 Y80.946 E.01831
G1 X89.803 Y81.276 E.01192
G1 X89.085 Y81.276 E.01833
G1 X88.755 Y80.946 E.01192
G1 X88.038 Y80.946 E.01831
G1 X88.368 Y81.276 E.01192
G1 X87.651 Y81.276 E.01831
G1 X87.321 Y80.946 E.01192
G1 X86.604 Y80.946 E.01831
G1 X86.934 Y81.276 E.01192
G1 X86.217 Y81.276 E.01831
G1 X85.887 Y80.946 E.01192
G1 X85.17 Y80.946 E.01831
G1 X85.5 Y81.276 E.01192
G1 X84.783 Y81.276 E.01831
G1 X84.453 Y80.946 E.01192
G1 X83.736 Y80.946 E.01831
G1 X84.066 Y81.276 E.01192
G1 X83.349 Y81.276 E.01831
G1 X83.018 Y80.946 E.01193
G1 X82.301 Y80.946 E.01831
G1 X82.631 Y81.276 E.01192
G1 X81.914 Y81.276 E.01831
G1 X81.584 Y80.946 E.01192
G1 X80.867 Y80.946 E.01831
G1 X81.197 Y81.276 E.01192
G1 X80.48 Y81.276 E.01831
G1 X80.15 Y80.946 E.01192
G1 X79.433 Y80.946 E.01831
G1 X79.763 Y81.276 E.01192
G1 X79.046 Y81.276 E.01831
G1 X78.716 Y80.946 E.01192
G1 X77.999 Y80.946 E.01831
G1 X78.329 Y81.276 E.01192
G1 X77.612 Y81.276 E.01831
G1 X77.282 Y80.946 E.01192
G1 X76.564 Y80.946 E.01833
G1 X76.894 Y81.276 E.01192
G1 X76.177 Y81.276 E.01831
G1 X75.847 Y80.946 E.01192
G1 X75.13 Y80.946 E.01831
G1 X75.46 Y81.276 E.01192
G1 X74.743 Y81.276 E.01831
G1 X74.413 Y80.946 E.01192
G1 X73.696 Y80.946 E.01831
G1 X74.026 Y81.276 E.01192
G1 X73.309 Y81.276 E.01831
G1 X72.979 Y80.946 E.01192
G1 X72.262 Y80.946 E.01831
G1 X72.592 Y81.276 E.01192
G1 X71.875 Y81.276 E.01831
G1 X71.545 Y80.946 E.01192
G1 X70.827 Y80.946 E.01833
G1 X71.158 Y81.276 E.01193
G1 X70.44 Y81.276 E.01833
G1 X70.11 Y80.946 E.01192
G1 X69.393 Y80.946 E.01831
G1 X69.723 Y81.276 E.01192
G1 X69.006 Y81.276 E.01831
G1 X68.807 Y81.078 E.00717
G1 X68.647 Y81.276 E.0065
G1 X68.853 Y81.276 E.00526
M204 S1000
;WIPE_START
G1 F4800
G1 X68.647 Y81.276 E-.08562
G1 X68.807 Y81.078 E-.1058
G1 X69.006 Y81.276 E-.11668
G1 X69.723 Y81.276 E-.298
G1 X69.393 Y80.946 E-.19397
G1 X69.874 Y80.946 E-.19993
;WIPE_END
G1 Z.4 F720
G1 X67.777 Y82.045 F6000
G1 Z.2 F720
G1 E1 F2100
M204 S800
G1 F1200
G1 X67.806 Y81.841 E.00526
G1 X67.521 Y81.942 E.00772
G1 X67.777 Y82.198 E.00924
G1 X67.777 Y82.916 E.01833
G1 X67.447 Y82.585 E.01193
G1 X67.447 Y83.303 E.01833
G1 X67.777 Y83.633 E.01192
G1 X67.777 Y84.35 E.01831
G1 X67.447 Y84.02 E.01192
G1 X67.447 Y84.737 E.01831
G1 X67.777 Y85.067 E.01192
G1 X67.777 Y85.784 E.01831
G1 X67.447 Y85.454 E.01192
G1 X67.447 Y86.171 E.01831
G1 X67.777 Y86.501 E.01192
G1 X67.777 Y87.218 E.01831
G1 X67.447 Y86.888 E.01192
G1 X67.447 Y87.605 E.01831
G1 X67.777 Y87.935 E.01192
G1 X67.777 Y88.652 E.01831
G1 X67.447 Y88.322 E.01192
G1 X67.447 Y89.04 E.01833
G1 X67.777 Y89.37 E.01192
G1 X67.777 Y90.087 E.01831
G1 X67.447 Y89.757 E.01192
G1 X67.447 Y90.474 E.01831
G1 X67.777 Y90.804 E.01192
G1 X67.777 Y91.521 E.01831
G1 X67.447 Y91.191 E.01192
G1 X67.447 Y91.908 E.01831
G1 X67.777 Y92.238 E.01192
G1 X67.777 Y92.955 E.01831
G1 X67.447 Y92.625 E.01192
G1 X67.447 Y93.342 E.01831
G1 X67.777 Y93.672 E.01192
G1 X67.777 Y94.389 E.01831
G1 X67.447 Y94.059 E.01192
G1 X67.447 Y94.776 E.01831
G1 X67.777 Y95.107 E.01193
G1 X67.777 Y95.824 E.01831
G1 X67.447 Y95.494 E.01192
G1 X67.447 Y96.211 E.01831
G1 X67.777 Y96.541 E.01192
G1 X67.777 Y97.258 E.01831
G1 X67.447 Y96.928 E.01192
G1 X67.447 Y97.645 E.01831
G1 X67.777 Y97.975 E.01192
G1 X67.777 Y98.692 E.01831
G1 X67.447 Y98.362 E.01192
G1 X67.447 Y99.079 E.01831
G1 X67.777 Y99.409 E.01192
G1 X67.777 Y100.126 E.01831
G1 X67.447 Y99.796 E.01192
G1 X67.447 Y100.513 E.01831
G1 X67.777 Y100.843 E.01192
G1 X67.777 Y101.561 E.01833
G1 X67.447 Y101.231 E.01192
G1 X67.447 Y101.948 E.01831
G1 X67.777 Y102.278 E.01192
G1 X67.777 Y102.995 E.01831
G1 X67.447 Y102.665 E.01192
G1 X67.447 Y103.382 E.01831
G1 X67.777 Y103.712 E.01192
G1 X67.777 Y104.429 E.01831
G1 X67.447 Y104.099 E.01192
G1 X67.447 Y104.816 E.01831
G1 X67.777 Y105.146 E.01192
G1 X67.777 Y105.863 E.01831
G1 X67.447 Y105.533 E.01192
M73 P0 R89
G1 X67.447 Y106.25 E.01831
G1 X67.777 Y106.58 E.01192
G1 X67.777 Y107.298 E.01833
G1 X67.447 Y106.967 E.01193
G1 X67.447 Y107.685 E.01833
G1 X67.777 Y108.015 E.01192
G1 X67.777 Y108.732 E.01831
G1 X67.447 Y108.402 E.01192
G1 X67.447 Y109.119 E.01831
G1 X67.777 Y109.449 E.01192
G1 X67.777 Y110.166 E.01831
G1 X67.447 Y109.836 E.01192
G1 X67.447 Y110.553 E.01831
G1 X67.777 Y110.883 E.01192
G1 X67.777 Y111.6 E.01831
G1 X67.447 Y111.27 E.01192
G1 X67.447 Y111.987 E.01831
G1 X67.777 Y112.317 E.01192
G1 X67.777 Y113.034 E.01831
G1 X67.447 Y112.704 E.01192
G1 X67.447 Y113.422 E.01833
G1 X67.777 Y113.752 E.01192
G1 X67.777 Y114.469 E.01831
G1 X67.447 Y114.139 E.01192
G1 X67.447 Y114.856 E.01831
G1 X67.777 Y115.186 E.01192
G1 X67.777 Y115.903 E.01831
G1 X67.447 Y115.573 E.01192
G1 X67.447 Y116.29 E.01831
G1 X67.777 Y116.62 E.01192
G1 X67.777 Y117.337 E.01831
G1 X67.447 Y117.007 E.01192
G1 X67.447 Y117.724 E.01831
G1 X67.777 Y118.054 E.01192
G1 X67.777 Y118.771 E.01831
G1 X67.447 Y118.441 E.01192
G1 X67.447 Y119.158 E.01831
G1 X67.777 Y119.489 E.01193
G1 X67.777 Y120.206 E.01831
G1 X67.447 Y119.876 E.01192
G1 X67.447 Y120.593 E.01831
G1 X67.777 Y120.923 E.01192
G1 X67.777 Y121.64 E.01831
G1 X67.447 Y121.31 E.01192
G1 X67.447 Y122.027 E.01831
G1 X67.777 Y122.357 E.01192
G1 X67.777 Y123.074 E.01831
G1 X67.447 Y122.744 E.01192
G1 X67.447 Y123.461 E.01831
G1 X67.777 Y123.791 E.01192
G1 X67.777 Y124.508 E.01831
G1 X67.447 Y124.178 E.01192
G1 X67.447 Y124.895 E.01831
G1 X67.777 Y125.225 E.01192
G1 X67.777 Y125.943 E.01833
G1 X67.447 Y125.613 E.01192
G1 X67.447 Y126.33 E.01831
G1 X67.777 Y126.66 E.01192
G1 X67.777 Y127.377 E.01831
G1 X67.447 Y127.047 E.01192
G1 X67.447 Y127.764 E.01831
G1 X67.777 Y128.094 E.01192
G1 X67.777 Y128.811 E.01831
G1 X67.447 Y128.481 E.01192
G1 X67.447 Y129.198 E.01831
G1 X67.777 Y129.528 E.01192
G1 X67.777 Y129.691 E.00416
G1 X67.447 Y129.683 E.00843
G1 X67.447 Y129.352 E.00845
M204 S1000
;WIPE_START
G1 F4800
G1 X67.447 Y129.683 E-.13757
G1 X67.777 Y129.691 E-.1372
G1 X67.777 Y129.528 E-.06775
G1 X67.447 Y129.198 E-.19397
G1 X67.447 Y128.481 E-.298
G1 X67.728 Y128.763 E-.16551
;WIPE_END
G1 Z.4 F720
G1 X70.159 Y132.623 F6000
G1 Z.2 F720
G1 E1 F2100
M204 S800
;TYPE:Support material
;WIDTH:0.42
G1 F1200
G1 X66.998 Y132.643 E.09911
G1 X65.815 Y132.562 E.03718
G1 X63.81 Y131.144 E.077
G1 X63.81 Y80.556 E1.58615
G1 X65.815 Y79.138 E.077
G1 X66.538 Y79.088 E.02272
G1 X67.121 Y78.215 E.03291
