; generated by PrusaSlicer 2.9.4 on 2026-03-05 at 15:48:56 UTC


;
;

;
;
; 

; external perimeters extrusion width = 0.45mm
; perimeters extrusion width = 0.45mm
; infill extrusion width = 0.45mm
; solid infill extrusion width = 0.45mm
; top infill extrusion width = 0.40mm
; first layer extrusion width = 0.42mm

M73 P0 R38
M201 X9000 Y9000 Z500 E10000 ; sets maximum accelerations, mm/sec^2
M203 X500 Y500 Z12 E120 ; sets maximum feedrates, mm / sec
M204 S2000 T1500 ; sets acceleration (S) and retract acceleration (R), mm/sec^2
M205 X10.00 Y10.00 Z0.20 E4.50 ; sets the jerk limits, mm/sec
M205 S0 T0 ; sets the minimum extruding and travel feed rate, mm/sec

; printing object Raspberry_Cover_Grid.stl id:0 copy 0
; stop printing object Raspberry_Cover_Grid.stl id:0 copy 0

;TYPE:Custom
M83  ; extruder relative mode
M140 S85 ; set bed temp
M109 S160 ; Set extruder temp before bed level
M190 S85 ; wait for bed temp

G28 W ; home all without mesh bed level
G80 N7 ; mesh bed leveling

M109 S240 ; wait for extruder temp

M221 S100 ; Set flow to 100

G1 Y-3.0 F1000.0 ; go outside print area
G92 E0.0
G1 E8 ; Purge Bubble
G1 X60.0 E9.0 F1000.0 ; intro line
G1 X100.0 E12.5 F1000.0 ; intro line
G92 E0.0
G21 ; set units to millimeters
G90 ; use absolute coordinates
M83 ; use relative distances for extrusion

M900 K0.08 ; Filament gcode LA 1.5
M900 K45 ; Filament gcode LA 1.0




M107
;LAYER_CHANGE
;Z:0.2
;HEIGHT:0.2
G1 E-1 F2100
G1 Z.4 F720
G1 X96.629 Y71.172 F6000
G1 Z.2 F720
G1 E1 F2100
M204 S800
;TYPE:Skirt/Brim
;WIDTH:0.42
G1 F1200
G1 X98.059 Y70.263 E.05313
G1 X105.476 Y69.032 E.23574
G1 X142.747 Y69.051 E1.16861
G1 X151.859 Y70.251 E.28817
G1 X153.046 Y70.801 E.04102
G1 X153.762 Y72.421 E.05553
G1 X153.762 Y137.559 E2.04236
G1 X153.371 Y138.808 E.04104
G1 X151.864 Y139.729 E.05538
G1 X142.461 Y140.968 E.29737
G1 X105.476 Y140.968 E1.15964
G1 X98.053 Y139.716 E.23603
G1 X96.89 Y139.118 E.041
G1 X96.238 Y137.559 E.05298
G1 X96.238 Y72.421 E2.04236
G1 X96.611 Y71.23 E.03913
M204 S1000
;WIPE_START
G1 F4800
G1 X96.629 Y71.172 E-.02524
G1 X98.059 Y70.263 E-.70426
G1 X98.701 Y70.156 E-.2705
;WIPE_END
G1 Z.4 F720
; printing object Raspberry_Cover_Grid.stl id:0 copy 0
G1 X125.497 Y95.489 F6000
G1 Z.2 F720
G1 E1 F2100
M204 S800
;TYPE:External perimeter
;WIDTH:0.606042
G1 F1200
G1 X125.497 Y95.453 E.00169
G1 X127.517 Y94.286 E.10923
;WIDTH:0.568318
G1 X129.599 Y93.085 E.105
;WIDTH:0.606039
G1 X129.66 Y93.049 E.00332
G1 X131.68 Y94.216 E.10923
;WIDTH:0.568319
G1 X133.761 Y95.417 E.10497
;WIDTH:0.606042
G1 X133.822 Y95.453 E.00332
G1 X133.822 Y97.785 E.10919
;WIDTH:0.56832
G1 X133.822 Y100.189 E.10502
;WIDTH:0.606039
G1 X133.822 Y100.259 E.00328
G1 X131.802 Y101.425 E.10921
;WIDTH:0.568318
G1 X129.72 Y102.627 E.10503
;WIDTH:0.606041
G1 X129.66 Y102.662 E.00325
G1 X127.639 Y101.496 E.10925
;WIDTH:0.568317
G1 X125.558 Y100.294 E.10499
;WIDTH:0.606039
G1 X125.497 Y100.259 E.00329
;WIDTH:0.606042
G1 X125.497 Y95.549 E.22054
M204 S1000
;WIPE_START
G1 F4800
G1 X125.497 Y95.489 E-.02494
G1 X125.497 Y95.453 E-.01496
G1 X127.498 Y94.298 E-.9601
;WIPE_END
G1 Z.4 F720
G1 X134.341 Y95.435 F6000
G1 Z.2 F720
G1 E1 F2100
M204 S800
G1 F1200
G1 X136.33 Y94.286 E.10756
;WIDTH:0.568318
G1 X138.411 Y93.085 E.10497
;WIDTH:0.606039
G1 X138.472 Y93.049 E.00332
G1 X140.492 Y94.216 E.10923
;WIDTH:0.568318
G1 X142.512 Y95.382 E.10189
;WIDTH:0.530597
G1 X142.535 Y95.453 E.00303
;WIDTH:0.493731
G1 X142.557 Y95.523 E.00275
;WIDTH:0.456865
G1 X142.579 Y95.593 E.00253
;WIDTH:0.419999
G1 X142.579 Y100.118 E.14188
;WIDTH:0.456864
G1 X142.557 Y100.189 E.00256
M73 P1 R38
;WIDTH:0.493729
G1 X142.535 Y100.259 E.00275
;WIDTH:0.530593
G1 X142.512 Y100.329 E.00299
;WIDTH:0.53246
G1 X138.575 Y102.602 E.18505
;WIDTH:0.569251
G1 X138.524 Y102.632 E.00259
;WIDTH:0.606041
G1 X138.472 Y102.662 E.00281
G1 X136.452 Y101.496 E.10921
;WIDTH:0.568318
G1 X134.371 Y100.294 E.10499
;WIDTH:0.606039
G1 X134.31 Y100.259 E.00329
;WIDTH:0.606042
G1 X134.31 Y95.477 E.22391
M204 S1000
;WIPE_START
G1 F4800
G1 X134.341 Y95.435 E-.0217
G1 X136.33 Y94.286 E-.9547
G1 X136.379 Y94.258 E-.0236
;WIPE_END
G1 Z.4 F720
G1 X138.747 Y103.066 F6000
G1 Z.2 F720
G1 E1 F2100
M204 S800
;WIDTH:0.606039
G1 F1200
G1 X140.736 Y101.918 E.10753
;WIDTH:0.568317
G1 X142.756 Y100.752 E.10189
;WIDTH:0.530593
G1 X142.828 Y100.768 E.00299
;WIDTH:0.493729
G1 X142.9 Y100.784 E.00276
;WIDTH:0.456864
G1 X142.973 Y100.8 E.00257
;WIDTH:0.419999
G1 X146.891 Y103.062 E.14185
G1 X146.985 Y103.171 E.00451
G1 X146.985 Y107.75 E.14357
G1 X146.931 Y107.89 E.0047
G1 X142.973 Y110.176 E.14331
;WIDTH:0.456866
G1 X142.9 Y110.192 E.00257
;WIDTH:0.493732
G1 X142.828 Y110.208 E.00276
;WIDTH:0.530598
G1 X142.756 Y110.224 E.00299
;WIDTH:0.568319
G1 X140.736 Y109.057 E.10192
;WIDTH:0.606039
G1 X138.716 Y107.891 E.10921
G1 X138.716 Y103.108 E.22396
M204 S1000
;WIPE_START
G1 F4800
G1 X138.747 Y103.066 E-.0217
G1 X140.736 Y101.918 E-.95449
G1 X140.786 Y101.889 E-.02381
;WIPE_END
G1 Z.4 F720
G1 X138.503 Y108.331 F6000
G1 Z.2 F720
G1 E1 F2100
M204 S800
G1 F1200
G1 X140.492 Y109.48 E.10755
;WIDTH:0.568319
G1 X142.512 Y110.646 E.10189
;WIDTH:0.53246
G1 X142.535 Y110.716 E.003
;WIDTH:0.494973
G1 X142.557 Y110.787 E.00279
;WIDTH:0.457486
G1 X142.579 Y110.857 E.00253
;WIDTH:0.419999
G1 X142.579 Y115.382 E.14188
;WIDTH:0.456865
G1 X142.557 Y115.452 E.00253
;WIDTH:0.493731
G1 X142.535 Y115.523 E.00279
;WIDTH:0.530597
G1 X142.512 Y115.593 E.00299
;WIDTH:0.532458
G1 X138.575 Y117.866 E.18505
;WIDTH:0.569249
G1 X138.524 Y117.896 E.00259
;WIDTH:0.606039
G1 X138.472 Y117.926 E.00281
G1 X134.31 Y115.523 E.22503
G1 X134.31 Y110.716 E.22508
G1 X136.33 Y109.55 E.10921
;WIDTH:0.568318
G1 X138.411 Y108.348 E.10499
;WIDTH:0.606039
G1 X138.451 Y108.325 E.00216
M204 S1000
G1 X138.197 Y107.909 F6000
M204 S800
G1 F1200
G1 X136.208 Y109.057 E.10753
;WIDTH:0.568318
G1 X134.127 Y110.259 E.10499
;WIDTH:0.606041
G1 X134.066 Y110.294 E.00329
;WIDTH:0.56925
G1 X131.985 Y109.092 E.10517
;WIDTH:0.606039
G1 X129.903 Y107.891 E.11254
G1 X129.903 Y103.084 E.22508
G1 X131.924 Y101.918 E.10925
;WIDTH:0.568318
G1 X134.005 Y100.716 E.10499
;WIDTH:0.606039
G1 X134.066 Y100.681 E.00329
G1 X136.086 Y101.848 E.10923
;WIDTH:0.568318
G1 X138.167 Y103.049 E.10497
;WIDTH:0.606041
G1 X138.228 Y103.084 E.00329
G1 X138.228 Y105.417 E.10924
;WIDTH:0.568319
G1 X138.228 Y107.82 E.10498
;WIDTH:0.606039
G1 X138.228 Y107.867 E.0022
M204 S1000
;WIPE_START
G1 F4800
G1 X138.197 Y107.909 E-.0217
G1 X136.208 Y109.057 E-.95449
G1 X136.158 Y109.086 E-.02381
;WIPE_END
G1 Z.4 F720
G1 X133.791 Y110.698 F6000
G1 Z.2 F720
G1 E1 F2100
M204 S800
;WIDTH:0.606041
G1 F1200
G1 X133.822 Y110.716 E.00168
G1 X133.822 Y113.049 E.10924
;WIDTH:0.568319
G1 X133.822 Y115.452 E.10498
;WIDTH:0.606041
G1 X133.822 Y115.523 E.00332
G1 X131.802 Y116.689 E.10921
;WIDTH:0.568318
G1 X129.72 Y117.891 E.10503
;WIDTH:0.606039
G1 X129.66 Y117.926 E.00325
G1 X125.497 Y115.523 E.22507
G1 X125.497 Y110.716 E.22508
G1 X127.517 Y109.55 E.10921
;WIDTH:0.568318
G1 X129.599 Y108.348 E.10503
;WIDTH:0.606039
G1 X129.66 Y108.313 E.00329
G1 X131.68 Y109.48 E.10923
;WIDTH:0.568318
G1 X133.7 Y110.646 E.10189
;WIDTH:0.569251
G1 X133.739 Y110.668 E.00196
M204 S1000
;WIPE_START
G1 F4800
G1 X133.791 Y110.698 E-.02495
G1 X133.822 Y110.716 E-.0149
G1 X133.822 Y113.026 E-.96015
;WIPE_END
G1 Z.4 F720
G1 X129.384 Y107.909 F6000
G1 Z.2 F720
G1 E1 F2100
M204 S800
;WIDTH:0.606039
G1 F1200
G1 X127.395 Y109.057 E.10753
;WIDTH:0.568318
G1 X125.314 Y110.259 E.10499
;WIDTH:0.606041
G1 X125.253 Y110.294 E.00329
;WIDTH:0.56925
G1 X123.172 Y109.092 E.10517
;WIDTH:0.606039
G1 X121.091 Y107.891 E.1125
G1 X121.091 Y103.084 E.22508
G1 X123.111 Y101.918 E.10921
;WIDTH:0.568318
G1 X125.192 Y100.716 E.10499
;WIDTH:0.606039
G1 X125.253 Y100.681 E.00329
G1 X127.274 Y101.848 E.10927
;WIDTH:0.568318
G1 X129.355 Y103.049 E.10497
;WIDTH:0.606041
G1 X129.416 Y103.084 E.00329
G1 X129.416 Y105.417 E.10924
;WIDTH:0.568319
G1 X129.416 Y107.82 E.10498
;WIDTH:0.606039
G1 X129.416 Y107.867 E.0022
M204 S1000
;WIPE_START
G1 F4800
G1 X129.384 Y107.909 E-.02195
G1 X127.395 Y109.057 E-.95449
G1 X127.346 Y109.085 E-.02356
;WIPE_END
G1 Z.4 F720
G1 X124.978 Y110.698 F6000
G1 Z.2 F720
G1 E1 F2100
M204 S800
;WIDTH:0.606041
G1 F1200
G1 X125.009 Y110.716 E.00168
G1 X125.009 Y113.049 E.10924
;WIDTH:0.568319
G1 X125.009 Y115.452 E.10498
;WIDTH:0.606041
G1 X125.009 Y115.523 E.00332
G1 X122.989 Y116.689 E.10921
;WIDTH:0.568318
G1 X120.908 Y117.891 E.10499
;WIDTH:0.606039
G1 X120.847 Y117.926 E.00329
G1 X116.685 Y115.523 E.22503
G1 X116.685 Y110.716 E.22508
G1 X118.705 Y109.55 E.10921
;WIDTH:0.568317
G1 X120.786 Y108.348 E.10499
;WIDTH:0.606039
G1 X120.847 Y108.313 E.00329
G1 X122.867 Y109.48 E.10923
;WIDTH:0.568318
G1 X124.888 Y110.646 E.10193
;WIDTH:0.569251
G1 X124.926 Y110.668 E.00192
M204 S1000
;WIPE_START
G1 F4800
G1 X124.978 Y110.698 E-.02495
G1 X125.009 Y110.716 E-.0149
G1 X125.009 Y113.026 E-.96015
;WIPE_END
G1 Z.4 F720
G1 X142.362 Y131.315 F6000
G1 Z.2 F720
G1 E1 F2100
M204 S800
;TYPE:Perimeter
;WIDTH:0.419999
G1 F1200
G1 X138.755 Y133.398 E.1306
G1 X138.472 Y133.474 E.00919
G1 X138.189 Y133.398 E.00919
G1 X134.271 Y131.135 E.14187
;WIDTH:0.425714
G1 X134.119 Y131.021 E.00605
G1 X134.066 Y130.895 E.00435
G1 X133.997 Y131.057 E.0056
;WIDTH:0.419999
G1 X129.942 Y133.398 E.14681
G1 X129.66 Y133.474 E.00916
G1 X129.377 Y133.398 E.00919
G1 X125.458 Y131.135 E.14189
;WIDTH:0.425714
G1 X125.307 Y131.021 E.00602
G1 X125.253 Y130.895 E.00436
G1 X125.185 Y131.057 E.00559
;WIDTH:0.419999
G1 X121.13 Y133.398 E.14681
G1 X120.847 Y133.474 E.00919
G1 X120.564 Y133.398 E.00919
G1 X116.646 Y131.135 E.14187
;WIDTH:0.425714
G1 X116.494 Y131.021 E.00605
G1 X116.441 Y130.895 E.00435
G1 X116.372 Y131.057 E.0056
;WIDTH:0.419999
G1 X112.317 Y133.398 E.14681
G1 X112.035 Y133.474 E.00916
G1 X111.752 Y133.398 E.00919
G1 X107.833 Y131.135 E.14189
G1 X107.639 Y130.95 E.00841
G1 X107.55 Y130.721 E.0077
G1 X107.55 Y126.121 E.14423
;WIDTH:0.425714
G1 X107.573 Y125.933 E.00603
G1 X107.656 Y125.823 E.00439
G1 X107.482 Y125.845 E.00558
;WIDTH:0.419999
G1 X103.427 Y123.504 E.14681
G1 X103.29 Y123.393 E.00553
G1 X103.144 Y123.094 E.01043
G1 X103.144 Y118.489 E.14439
G1 X103.184 Y118.279 E.0067
G1 X103.29 Y118.11 E.00625
G1 X103.427 Y117.999 E.00553
G1 X107.345 Y115.737 E.14185
G1 X107.521 Y115.671 E.00589
G1 X107.691 Y115.7 E.00541
G1 X107.581 Y115.567 E.00541
G1 X107.55 Y115.382 E.00588
G1 X107.55 Y110.857 E.14188
;WIDTH:0.425713
G1 X107.573 Y110.669 E.00603
G1 X107.656 Y110.559 E.00439
G1 X107.482 Y110.581 E.00558
;WIDTH:0.419999
G1 X103.427 Y108.24 E.14681
G1 X103.29 Y108.129 E.00553
G1 X103.144 Y107.83 E.01043
G1 X103.144 Y103.225 E.14439
G1 X103.184 Y103.015 E.0067
G1 X103.29 Y102.846 E.00625
G1 X103.427 Y102.735 E.00553
G1 X107.345 Y100.473 E.14185
G1 X107.521 Y100.407 E.00589
G1 X107.691 Y100.436 E.00541
G1 X107.581 Y100.303 E.00541
G1 X107.55 Y100.118 E.00588
G1 X107.55 Y95.593 E.14188
;WIDTH:0.425713
G1 X107.573 Y95.405 E.00603
G1 X107.656 Y95.296 E.00436
G1 X107.482 Y95.317 E.00558
;WIDTH:0.419999
G1 X103.427 Y92.976 E.14681
G1 X103.29 Y92.866 E.00551
G1 X103.144 Y92.567 E.01043
G1 X103.144 Y87.962 E.14439
G1 X103.184 Y87.752 E.0067
G1 X103.29 Y87.582 E.00628
G1 X103.427 Y87.472 E.00551
G1 X107.345 Y85.209 E.14187
G1 X107.521 Y85.144 E.00588
G1 X107.691 Y85.172 E.0054
G1 X107.581 Y85.04 E.00539
G1 X107.55 Y84.854 E.00591
G1 X107.55 Y80.33 E.14185
G1 X107.594 Y80.111 E.007
G1 X107.757 Y79.892 E.00856
G1 X108.202 Y79.627 E.01624
G1 X111.752 Y77.577 E.12853
G1 X112.035 Y77.502 E.00918
G1 X112.317 Y77.577 E.00915
G1 X116.236 Y79.84 E.14189
G1 X116.381 Y79.959 E.00588
G1 X116.441 Y80.121 E.00542
G1 X116.501 Y79.959 E.00542
G1 X116.646 Y79.84 E.00588
G1 X120.564 Y77.577 E.14187
G1 X120.847 Y77.502 E.00918
G1 X121.13 Y77.577 E.00918
G1 X125.048 Y79.84 E.14187
G1 X125.193 Y79.959 E.00588
G1 X125.253 Y80.121 E.00542
G1 X125.313 Y79.959 E.00542
G1 X125.458 Y79.84 E.00588
G1 X129.377 Y77.577 E.14189
G1 X129.66 Y77.502 E.00918
G1 X129.942 Y77.577 E.00915
G1 X133.861 Y79.84 E.14189
G1 X134.006 Y79.959 E.00588
G1 X134.066 Y80.121 E.00542
G1 X134.126 Y79.959 E.00542
G1 X134.271 Y79.84 E.00588
G1 X138.189 Y77.577 E.14187
G1 X138.472 Y77.502 E.00918
G1 X138.755 Y77.577 E.00918
G1 X142.673 Y79.84 E.14187
G1 X142.887 Y80.059 E.0096
G1 X142.956 Y80.33 E.00877
G1 X142.956 Y84.854 E.14185
G1 X142.925 Y85.04 E.00591
G1 X142.815 Y85.172 E.00539
G1 X142.985 Y85.144 E.0054
G1 X143.161 Y85.209 E.00588
G1 X147.08 Y87.472 E.14189
G1 X147.216 Y87.582 E.00548
G1 X147.322 Y87.752 E.00628
G1 X147.362 Y87.962 E.0067
G1 X147.362 Y92.486 E.14185
G1 X147.322 Y92.696 E.0067
G1 X147.216 Y92.866 E.00628
G1 X147.08 Y92.976 E.00548
G1 X143.161 Y95.239 E.14189
;WIDTH:0.425713
G1 X142.987 Y95.313 E.00602
G1 X142.85 Y95.296 E.00439
G1 X142.956 Y95.436 E.00559
;WIDTH:0.419999
G1 X142.956 Y100.118 E.1468
G1 X142.925 Y100.303 E.00588
G1 X142.815 Y100.436 E.00541
G1 X142.985 Y100.407 E.00541
G1 X143.161 Y100.473 E.00589
G1 X147.08 Y102.735 E.14188
G1 X147.216 Y102.846 E.0055
G1 X147.322 Y103.015 E.00625
G1 X147.362 Y103.225 E.0067
G1 X147.362 Y107.75 E.14188
G1 X147.322 Y107.96 E.0067
G1 X147.216 Y108.129 E.00625
G1 X147.08 Y108.24 E.0055
G1 X143.161 Y110.502 E.14188
;WIDTH:0.425713
G1 X142.987 Y110.576 E.00602
G1 X142.85 Y110.559 E.00439
G1 X142.956 Y110.7 E.00561
;WIDTH:0.419999
G1 X142.956 Y115.382 E.1468
G1 X142.925 Y115.567 E.00588
G1 X142.815 Y115.7 E.00541
G1 X142.985 Y115.671 E.00541
G1 X143.161 Y115.737 E.00589
G1 X147.08 Y117.999 E.14188
G1 X147.216 Y118.11 E.0055
G1 X147.322 Y118.279 E.00625
G1 X147.362 Y118.489 E.0067
G1 X147.362 Y123.014 E.14188
G1 X147.322 Y123.224 E.0067
G1 X147.216 Y123.393 E.00625
G1 X147.08 Y123.504 E.0055
G1 X143.161 Y125.766 E.14188
;WIDTH:0.425714
G1 X142.987 Y125.84 E.00602
G1 X142.85 Y125.823 E.00439
G1 X142.956 Y125.963 E.00559
;WIDTH:0.419999
G1 X142.956 Y130.646 E.14683
G1 X142.889 Y130.912 E.0086
M73 P1 R37
G1 X142.746 Y131.093 E.00723
G1 X142.414 Y131.285 E.01202
M204 S1000
;WIPE_START
G1 F4800
G1 X142.362 Y131.315 E-.02495
G1 X140.33 Y132.488 E-.97505
;WIPE_END
G1 Z.4 F720
G1 X120.572 Y107.909 F6000
G1 Z.2 F720
M73 P2 R37
G1 E1 F2100
M204 S800
;TYPE:External perimeter
;WIDTH:0.606039
G1 F1200
G1 X118.583 Y109.057 E.10753
;WIDTH:0.568318
G1 X116.563 Y110.224 E.10192
;WIDTH:0.569251
G1 X116.502 Y110.259 E.00308
;WIDTH:0.606041
G1 X116.441 Y110.294 E.00329
G1 X114.421 Y109.128 E.10921
;WIDTH:0.568318
G1 X112.339 Y107.926 E.10503
;WIDTH:0.606039
G1 X112.278 Y107.891 E.00329
G1 X112.278 Y103.084 E.22508
G1 X114.299 Y101.918 E.10925
;WIDTH:0.568318
G1 X116.38 Y100.716 E.10499
;WIDTH:0.606039
G1 X116.441 Y100.681 E.00329
G1 X118.461 Y101.848 E.10923
;WIDTH:0.568318
G1 X120.542 Y103.049 E.10497
;WIDTH:0.606041
G1 X120.603 Y103.084 E.00329
G1 X120.603 Y105.417 E.10924
;WIDTH:0.568319
G1 X120.603 Y107.82 E.10498
;WIDTH:0.606039
G1 X120.603 Y107.867 E.0022
M204 S1000
;WIPE_START
G1 F4800
G1 X120.572 Y107.909 E-.0217
G1 X118.583 Y109.057 E-.95449
G1 X118.533 Y109.086 E-.02381
;WIPE_END
G1 Z.4 F720
G1 X116.166 Y110.698 F6000
G1 Z.2 F720
G1 E1 F2100
M204 S800
;WIDTH:0.606041
G1 F1200
G1 X116.197 Y110.716 E.00168
;WIDTH:0.568319
G1 X116.197 Y113.119 E.10498
;WIDTH:0.606041
G1 X116.197 Y115.523 E.11256
G1 X114.177 Y116.689 E.10921
;WIDTH:0.568318
G1 X112.095 Y117.891 E.10503
;WIDTH:0.606039
G1 X112.035 Y117.926 E.00325
G1 X110.014 Y116.759 E.10927
;WIDTH:0.568319
G1 X107.994 Y115.593 E.10189
;WIDTH:0.530599
G1 X107.972 Y115.523 E.00298
;WIDTH:0.493733
G1 X107.95 Y115.452 E.00279
;WIDTH:0.456866
G1 X107.927 Y115.382 E.00254
;WIDTH:0.419999
G1 X107.927 Y110.857 E.14188
;WIDTH:0.456866
G1 X107.95 Y110.787 E.00254
;WIDTH:0.493732
G1 X107.972 Y110.716 E.00279
;WIDTH:0.530598
G1 X107.994 Y110.646 E.00298
;WIDTH:0.568319
G1 X110.014 Y109.48 E.10189
;WIDTH:0.606039
G1 X112.035 Y108.313 E.10927
G1 X114.055 Y109.48 E.10923
;WIDTH:0.568319
G1 X116.114 Y110.668 E.10385
M204 S1000
;WIPE_START
G1 F4800
G1 X116.166 Y110.698 E-.02495
G1 X116.197 Y110.716 E-.0149
G1 X116.197 Y113.027 E-.96015
;WIPE_END
G1 Z.4 F720
G1 X116.472 Y115.963 F6000
