; generated by PrusaSlicer 2.9.4 on 2026-03-05 at 15:51:12 UTC


;
;

;
;
; 

; external perimeters extrusion width = 0.45mm
; perimeters extrusion width = 0.45mm
; infill extrusion width = 0.45mm
; solid infill extrusion width = 0.45mm
; top infill extrusion width = 0.40mm
; first layer extrusion width = 0.42mm

M73 P0 R7
M201 X9000 Y9000 Z500 E10000 ; sets maximum accelerations, mm/sec^2
M203 X500 Y500 Z12 E120 ; sets maximum feedrates, mm / sec
M204 S2000 T1500 ; sets acceleration (S) and retract acceleration (R), mm/sec^2
M205 X10.00 Y10.00 Z0.20 E4.50 ; sets the jerk limits, mm/sec
M205 S0 T0 ; sets the minimum extruding and travel feed rate, mm/sec

; printing object UEB_Bear_Logo.stl id:0 copy 0
; stop printing object UEB_Bear_Logo.stl id:0 copy 0

;TYPE:Custom
M83  ; extruder relative mode
M140 S85 ; set bed temp
M109 S160 ; Set extruder temp before bed level
M190 S85 ; wait for bed temp

G28 W ; home all without mesh bed level
G80 N7 ; mesh bed leveling

M109 S240 ; wait for extruder temp

M221 S100 ; Set flow to 100

G1 Y-3.0 F1000.0 ; go outside print area
G92 E0.0
G1 E8 ; Purge Bubble
G1 X60.0 E9.0 F1000.0 ; intro line
G1 X100.0 E12.5 F1000.0 ; intro line
G92 E0.0
G21 ; set units to millimeters
G90 ; use absolute coordinates
M83 ; use relative distances for extrusion

M900 K0.08 ; Filament gcode LA 1.5
M900 K45 ; Filament gcode LA 1.0




M107
;LAYER_CHANGE
;Z:0.2
;HEIGHT:0.2
G1 E-1 F2100
M73 P1 R7
G1 Z.4 F720
G1 X109.007 Y76.593 F6000
G1 Z.2 F720
G1 E1 F2100
M204 S800
;TYPE:Skirt/Brim
;WIDTH:0.42
G1 F1200
G1 X109.875 Y75.393 E.04644
G1 X110.265 Y74.98 E.01781
G1 X111.427 Y74.032 E.04702
G1 X111.89 Y73.742 E.01713
G1 X113.758 Y72.938 E.06376
G1 X115.725 Y72.575 E.06272
G1 X134.475 Y72.545 E.58789
G1 X136.008 Y72.85 E.04901
G1 X137.884 Y73.639 E.06381
G1 X139.518 Y74.863 E.06401
M73 P2 R7
G1 X139.911 Y75.273 E.01781
G1 X140.789 Y76.467 E.04647
G1 X141.056 Y76.946 E.01719
G1 X141.744 Y78.807 E.06221
G1 X141.977 Y80.296 E.04725
G1 X144.168 Y102.304 E.69346
G1 X143.063 Y126.746 E.76714
G1 X142.907 Y128.682 E.0609
G1 X142.364 Y130.835 E.06962
G1 X141.476 Y132.792 E.06738
G1 X140.05 Y134.786 E.07686
G1 X138.967 Y135.822 E.04699
G1 X137.47 Y136.791 E.05591
G1 X136.932 Y137.025 E.0184
G1 X135.846 Y137.333 E.03539
G1 X135.258 Y137.416 E.01862
G1 X115.021 Y137.496 E.63452
G1 X114.433 Y137.418 E.0186
G1 X113.344 Y137.119 E.03541
M73 P3 R7
G1 X112.804 Y136.889 E.0184
G1 X111.299 Y135.932 E.05592
G1 X109.937 Y134.596 E.05982
G1 X108.965 Y133.255 E.05193
G1 X107.863 Y130.971 E.07951
G1 X107.303 Y128.823 E.0696
G1 X107.137 Y126.968 E.05839
G1 X105.839 Y102.139 E.77956
G1 X107.835 Y80.551 E.67976
G1 X108.199 Y78.459 E.06658
G1 X108.744 Y77.074 E.04667
G1 X108.978 Y76.645 E.01532
M204 S1000
;WIPE_START
G1 F4800
G1 X109.007 Y76.593 E-.02475
G1 X109.875 Y75.393 E-.61555
G1 X110.265 Y74.98 E-.23609
G1 X110.495 Y74.792 E-.12361
;WIPE_END
G1 Z.4 F720
; printing object UEB_Bear_Logo.stl id:0 copy 0
G1 X131.551 Y98.242 F6000
G1 Z.2 F720
G1 E1 F2100
M204 S800
;TYPE:External perimeter
;WIDTH:0.419999
G1 F1200
G1 X131.9 Y97.864 E.01613
G1 X132.37 Y97.487 E.01889
G1 X132.802 Y97.212 E.01606
G1 X133.261 Y96.984 E.01607
G1 X133.813 Y96.788 E.01837
G1 X134.375 Y96.667 E.01802
G1 X134.879 Y96.624 E.01586
G1 X135.36 Y96.637 E.01509
G1 X135.873 Y96.71 E.01625
G1 X136.372 Y96.843 E.01619
G1 X136.926 Y97.067 E.01874
G1 X137.375 Y97.312 E.01604
G1 X137.794 Y97.602 E.01598
G1 X138.185 Y97.939 E.01618
G1 X138.654 Y98.423 E.02113
G1 X139.003 Y98.875 E.01791
G1 X139.385 Y99.49 E.0227
G1 X139.639 Y100.004 E.01798
G1 X139.9 Y100.669 E.0224
G1 X140.093 Y101.354 E.02231
G1 X140.196 Y101.867 E.01641
G1 X140.282 Y102.599 E.02311
G1 X140.305 Y103.141 E.01701
G1 X140.289 Y103.729 E.01844
;WIDTH:0.469528
G1 X140.297 Y103.896 E.00593
;WIDTH:0.519056
G1 X140.304 Y104.062 E.00658
M73 P4 R7
;WIDTH:0.568584
G1 X140.312 Y104.229 E.00731
G1 X140.187 Y104.943 E.03168
;WIDTH:0.549451
G1 X139.983 Y105.657 E.03128
;WIDTH:0.522224
G1 X139.798 Y106.177 E.022
;WIDTH:0.535154
G1 X139.529 Y106.78 E.02702
;WIDTH:0.561048
G1 X139.276 Y107.253 E.02311
G1 X139.135 Y107.416 E.00929
;WIDTH:0.514032
G1 X138.994 Y107.579 E.00844
;WIDTH:0.467016
G1 X138.853 Y107.742 E.0076
;WIDTH:0.419999
G1 X138.162 Y108.496 E.03207
G1 X137.672 Y108.892 E.01975
G1 X137.241 Y109.168 E.01605
G1 X136.783 Y109.395 E.01603
G1 X136.23 Y109.591 E.0184
G1 X135.668 Y109.712 E.01802
G1 X135.086 Y109.757 E.0183
G1 X134.56 Y109.731 E.01651
G1 X133.941 Y109.616 E.01974
G1 X133.452 Y109.458 E.01611
G1 X132.987 Y109.247 E.01601
G1 X132.457 Y108.929 E.01938
G1 X132.049 Y108.617 E.0161
G1 X131.302 Y107.85 E.03357
G1 X130.906 Y107.302 E.0212
G1 X130.588 Y106.761 E.01968
G1 X130.137 Y105.693 E.03635
G1 X129.95 Y105.025 E.02175
G1 X129.847 Y104.512 E.01641
G1 X129.768 Y103.846 E.02103
G1 X129.738 Y103.245 E.01887
G1 X129.751 Y102.705 E.01694
G1 X129.809 Y102.111 E.01871
G1 X129.929 Y101.39 E.02292
G1 X130.106 Y100.734 E.0213
G1 X130.291 Y100.218 E.01719
G1 X130.564 Y99.622 E.02055
G1 X130.826 Y99.159 E.01668
G1 X131.189 Y98.635 E.01999
G1 X131.511 Y98.286 E.01489
M204 S1000
;WIPE_START
G1 F4800
G1 X131.551 Y98.242 E-.02471
G1 X131.9 Y97.864 E-.21383
G1 X132.37 Y97.487 E-.25042
G1 X132.802 Y97.212 E-.21284
G1 X133.261 Y96.984 E-.21301
G1 X133.454 Y96.915 E-.08519
;WIPE_END
G1 Z.4 F720
G1 X130.607 Y94.357 F6000
G1 Z.2 F720
G1 E1 F2100
M204 S800
;TYPE:Perimeter
G1 F1200
G1 X130.421 Y94.667 E.01134
G1 X130.139 Y95.07 E.01542
G1 X129.469 Y95.737 E.02964
G1 X128.534 Y96.374 E.03547
G1 X127.62 Y96.795 E.03155
G1 X126.529 Y97.106 E.03557
G1 X125.334 Y97.255 E.03776
G1 X124.044 Y97.215 E.04047
G1 X123.463 Y97.124 E.01844
G1 X122.733 Y96.947 E.02355
G1 X121.676 Y96.537 E.03555
G1 X120.818 Y96.032 E.03122
G1 X120.341 Y95.658 E.01901
G1 X119.91 Y95.236 E.01891
G1 X119.541 Y94.774 E.01854
G1 X119.249 Y94.303 E.01738
G1 X119.003 Y93.779 E.01815
G1 X118.842 Y93.256 E.01716
G1 X118.749 Y92.701 E.01764
G1 X118.755 Y92.087 E.01925
G1 X118.772 Y91.731 E.01117
G1 X118.887 Y91.194 E.01722
G1 X119.064 Y90.692 E.01669
G1 X119.307 Y90.207 E.01701
G1 X119.598 Y89.764 E.01662
G1 X119.705 Y89.633 E.0053
G1 X119.322 Y89.762 E.01267
G1 X118.682 Y89.859 E.0203
G1 X118.039 Y89.838 E.02017
G1 X117.508 Y89.714 E.0171
G1 X117.224 Y89.629 E.00929
G1 X116.69 Y89.365 E.01868
G1 X116.188 Y88.996 E.01953
G1 X115.766 Y88.55 E.01925
G1 X115.336 Y87.848 E.02581
G1 X115.153 Y87.354 E.01652
G1 X115.022 Y86.49 E.0274
G1 X115.049 Y85.96 E.01664
G1 X115.216 Y85.258 E.02262
G1 X115.521 Y84.611 E.02243
G1 X115.89 Y84.108 E.01956
G1 X116.337 Y83.686 E.01927
G1 X116.94 Y83.305 E.02236
G1 X117.495 Y83.088 E.01868
G1 X118.062 Y82.982 E.01809
G1 X118.397 Y82.943 E.01057
G1 X118.927 Y82.969 E.01664
G1 X119.629 Y83.137 E.02263
G1 X120.276 Y83.442 E.02243
G1 X120.778 Y83.811 E.01953
G1 X121.2 Y84.257 E.01925
G1 X121.509 Y84.742 E.01803
G1 X121.675 Y85.082 E.01186
G1 X121.841 Y85.56 E.01587
G1 X121.938 Y86.204 E.02042
G1 X121.917 Y86.848 E.0202
G1 X121.709 Y87.66 E.02628
G1 X121.448 Y88.198 E.01875
G1 X122.385 Y87.779 E.03218
G1 X123.39 Y87.499 E.03271
G1 X124.075 Y87.389 E.02175
G1 X124.726 Y87.346 E.02046
G1 X125.8 Y87.393 E.03371
G1 X126.524 Y87.515 E.02302
G1 X127.211 Y87.664 E.02204
G1 X128.052 Y87.985 E.02822
G1 X128.483 Y88.208 E.01522
G1 X128.244 Y87.796 E.01493
G1 X128.061 Y87.303 E.01649
G1 X127.935 Y86.552 E.02388
G1 X127.954 Y85.968 E.01832
G1 X128.124 Y85.207 E.02445
G1 X128.429 Y84.56 E.02243
G1 X128.798 Y84.057 E.01956
G1 X129.245 Y83.635 E.01927
G1 X129.848 Y83.253 E.02238
G1 X130.44 Y83.023 E.01991
G1 X131.192 Y82.897 E.02391
G1 X131.835 Y82.918 E.02017
G1 X132.537 Y83.086 E.02263
G1 X133.166 Y83.382 E.0218
G1 X133.686 Y83.76 E.02016
G1 X134.108 Y84.206 E.01925
G1 X134.49 Y84.809 E.02238
G1 X134.721 Y85.402 E.01995
G1 X134.846 Y86.153 E.02387
G1 X134.825 Y86.794 E.02011
G1 X134.658 Y87.498 E.02269
G1 X134.363 Y88.124 E.0217
G1 X133.984 Y88.648 E.02028
G1 X133.537 Y89.07 E.01927
G1 X132.934 Y89.452 E.02238
M73 P5 R7
G1 X132.395 Y89.663 E.01815
G1 X131.601 Y89.806 E.0253
G1 X130.947 Y89.787 E.02051
G1 X130.204 Y89.604 E.02399
G1 X130.578 Y90.131 E.02026
G1 X130.855 Y90.722 E.02046
G1 X131.003 Y91.086 E.01232
G1 X131.167 Y91.878 E.02536
G1 X131.149 Y92.874 E.03123
G1 X131.038 Y93.399 E.01682
G1 X130.753 Y94.114 E.02413
G1 X130.638 Y94.305 E.00699
M204 S1000
G1 X130.282 Y94.172 F6000
M204 S800
;TYPE:External perimeter
G1 F1200
G1 X130.107 Y94.458 E.01051
G1 X129.873 Y94.803 E.01307
G1 X129.203 Y95.469 E.02962
G1 X128.27 Y96.081 E.03499
G1 X127.463 Y96.452 E.02785
G1 X126.429 Y96.743 E.03368
G1 X125.162 Y96.879 E.03995
G1 X124.105 Y96.842 E.03316
G1 X123.522 Y96.752 E.0185
G1 X122.825 Y96.582 E.02249
G1 X122.137 Y96.32 E.02308
G1 X121.609 Y96.06 E.01845
G1 X121.01 Y95.707 E.0218
G1 X120.576 Y95.363 E.01736
G1 X120.176 Y94.969 E.0176
G1 X119.837 Y94.541 E.01712
G1 X119.572 Y94.109 E.01589
G1 X119.349 Y93.627 E.01665
G1 X119.203 Y93.147 E.01573
G1 X119.122 Y92.642 E.01604
G1 X119.141 Y91.806 E.02622
G1 X119.266 Y91.251 E.01784
G1 X119.494 Y90.672 E.01951
G1 X119.775 Y90.178 E.01782
G1 X120.147 Y89.688 E.01929
;WIDTH:0.454076
G1 X120.608 Y89.207 E.02278
;WIDTH:0.489026
G1 X121.055 Y88.868 E.02081
G1 X121.285 Y88.729 E.00997
;WIDTH:0.454513
G1 X121.514 Y88.59 E.00917
;WIDTH:0.419999
G1 X122.486 Y88.142 E.03356
G1 X123.494 Y87.861 E.03281
G1 X124.132 Y87.762 E.02024
G1 X124.75 Y87.722 E.01942
G1 X125.779 Y87.77 E.0323
G1 X126.444 Y87.883 E.02115
G1 X127.131 Y88.032 E.02204
G1 X127.915 Y88.336 E.02637
G1 X128.498 Y88.654 E.02082
;WIDTH:0.464561
G1 X128.954 Y88.901 E.01818
;WIDTH:0.47834
G1 X129.442 Y89.318 E.02324
G1 X129.655 Y89.554 E.01151
;WIDTH:0.44917
G1 X129.868 Y89.79 E.01074
;WIDTH:0.419999
G1 X130.263 Y90.338 E.02118
G1 X130.634 Y91.162 E.02833
G1 X130.797 Y91.954 E.02535
G1 X130.783 Y92.765 E.02543
G1 X130.684 Y93.263 E.01592
G1 X130.403 Y93.974 E.02397
G1 X130.313 Y94.12 E.00538
M204 S1000
;WIPE_START
G1 F4800
G1 X130.282 Y94.172 E-.02516
G1 X130.107 Y94.458 E-.13936
G1 X129.873 Y94.803 E-.17326
G1 X129.203 Y95.469 E-.39264
G1 X128.661 Y95.825 E-.26958
;WIPE_END
G1 Z.4 F720
G1 X130.948 Y89.406 F6000
G1 Z.2 F720
G1 E1 F2100
M204 S800
G1 F1200
G1 X130.47 Y89.288 E.01544
;WIDTH:0.437525
G1 X129.981 Y89.092 E.01729
;WIDTH:0.47834
G1 X129.716 Y88.98 E.01042
G1 X129.311 Y88.661 E.01867
;WIDTH:0.460922
G1 X128.951 Y88.244 E.01915
;WIDTH:0.419999
G1 X128.66 Y87.775 E.01731
G1 X128.415 Y87.172 E.02041
G1 X128.308 Y86.495 E.02149
G1 X128.33 Y85.988 E.01591
G1 X128.489 Y85.3 E.02214
G1 X128.767 Y84.726 E.02
G1 X129.098 Y84.285 E.01729
G1 X129.5 Y83.913 E.01717
G1 X130.045 Y83.575 E.02011
G1 X130.571 Y83.376 E.01763
G1 X131.248 Y83.27 E.02149
G1 X131.816 Y83.295 E.01783
G1 X132.444 Y83.451 E.02029
G1 X132.999 Y83.72 E.01934
G1 X133.458 Y84.06 E.01791
G1 X133.83 Y84.461 E.01715
G1 X134.169 Y85.006 E.02012
G1 X134.367 Y85.533 E.01765
G1 X134.474 Y86.209 E.02146
G1 X134.449 Y86.775 E.01776
G1 X134.292 Y87.405 E.02036
G1 X134.025 Y87.958 E.01925
G1 X133.683 Y88.42 E.01802
G1 X133.282 Y88.792 E.01715
G1 X132.737 Y89.13 E.02011
G1 X132.264 Y89.309 E.01586
G1 X131.545 Y89.433 E.02288
G1 X131.008 Y89.412 E.01685
M204 S1000
;WIPE_START
G1 F4800
G1 X130.948 Y89.406 E-.02506
G1 X130.47 Y89.288 E-.20463
G1 X129.981 Y89.092 E-.21896
G1 X129.716 Y88.98 E-.11957
G1 X129.311 Y88.661 E-.21427
G1 X128.969 Y88.265 E-.21751
;WIPE_END
G1 Z.4 F720
G1 X121.483 Y87.058 F6000
G1 Z.2 F720
G1 E1 F2100
M204 S800
G1 F1200
G1 X121.384 Y87.456 E.01286
G1 X121.106 Y88.03 E.02
;WIDTH:0.447543
G1 X120.952 Y88.259 E.00928
;WIDTH:0.475087
G1 X120.797 Y88.488 E.00994
G1 X120.386 Y88.856 E.01982
;WIDTH:0.454789
G1 X119.851 Y89.168 E.02121
;WIDTH:0.419999
G1 X119.303 Y89.38 E.01842
G1 X118.626 Y89.486 E.02149
G1 X118.058 Y89.461 E.01783
G1 X117.43 Y89.305 E.02029
G1 X116.857 Y89.027 E.01997
G1 X116.416 Y88.696 E.01729
G1 X116.043 Y88.295 E.01717
G1 X115.705 Y87.75 E.02011
G1 X115.507 Y87.223 E.01765
G1 X115.398 Y86.509 E.02265
G1 X115.425 Y85.979 E.01664
G1 X115.581 Y85.351 E.02029
G1 X115.859 Y84.778 E.01997
G1 X116.19 Y84.336 E.01731
G1 X116.592 Y83.964 E.01717
G1 X117.137 Y83.626 E.02011
G1 X117.626 Y83.441 E.01639
G1 X118.378 Y83.319 E.02389
G1 X118.908 Y83.346 E.01664
G1 X119.536 Y83.502 E.02029
G1 X120.109 Y83.78 E.01997
M73 P6 R7
G1 X120.55 Y84.111 E.01729
G1 X120.922 Y84.512 E.01715
G1 X121.188 Y84.939 E.01577
G1 X121.437 Y85.525 E.01996
G1 X121.566 Y86.261 E.02343
G1 X121.541 Y86.828 E.0178
G1 X121.498 Y87 E.00556
M204 S1000
;WIPE_START
G1 F4800
G1 X121.483 Y87.058 E-.0249
G1 X121.384 Y87.456 E-.17046
G1 X121.106 Y88.03 E-.26508
G1 X120.952 Y88.259 E-.1147
G1 X120.797 Y88.488 E-.11493
G1 X120.386 Y88.856 E-.22929
G1 X120.218 Y88.954 E-.08064
;WIPE_END
G1 Z.4 F720
G1 X116.851 Y97.126 F6000
G1 Z.2 F720
G1 E1 F2100
M204 S800
G1 F1200
G1 X116.872 Y97.133 E.00069
G1 X117.362 Y97.396 E.01744
G1 X117.803 Y97.703 E.01685
G1 X118.193 Y98.044 E.01624
G1 X118.657 Y98.531 E.02109
G1 X119.002 Y98.986 E.0179
G1 X119.379 Y99.604 E.0227
G1 X119.637 Y100.135 E.01851
G1 X119.872 Y100.753 E.02073
G1 X120.04 Y101.353 E.01954
G1 X120.171 Y101.988 E.02033
G1 X120.244 Y102.652 E.02094
G1 X120.27 Y103.253 E.01886
G1 X120.252 Y103.796 E.01703
G1 X120.175 Y104.516 E.0227
G1 X120.078 Y105.036 E.01659
G1 X119.899 Y105.701 E.02159
G1 X119.692 Y106.277 E.01919
G1 X119.415 Y106.872 E.02058
G1 X119.149 Y107.333 E.01669
G1 X118.782 Y107.853 E.01996
G1 X118.261 Y108.413 E.02398
G1 X117.947 Y108.712 E.01359
G1 X117.566 Y109.01 E.01517
G1 X117.14 Y109.274 E.01571
G1 X116.68 Y109.495 E.016
G1 X116.143 Y109.68 E.01781
G1 X115.58 Y109.796 E.01802
G1 X115.035 Y109.834 E.01713
G1 X114.473 Y109.806 E.01764
G1 X113.855 Y109.687 E.01973
G1 X113.367 Y109.525 E.01612
G1 X112.904 Y109.31 E.01601
G1 X112.377 Y108.988 E.01936
G1 X111.961 Y108.664 E.01653
G1 X111.23 Y107.9 E.03315
;WIDTH:0.466194
G1 X111.073 Y107.718 E.00846
;WIDTH:0.51239
G1 X110.915 Y107.535 E.00944
;WIDTH:0.558586
G1 X110.757 Y107.353 E.01033
G1 X110.475 Y106.833 E.02536
;WIDTH:0.533511
G1 X110.044 Y105.775 E.0466
;WIDTH:0.546557
G1 X109.839 Y105.081 E.0303
;WIDTH:0.556469
G1 X109.734 Y104.563 E.02257
;WIDTH:0.568402
G1 X109.705 Y104.356 E.00913
G1 X109.71 Y104.176 E.00787
;WIDTH:0.518935
G1 X109.715 Y103.997 E.00709
;WIDTH:0.469467
G1 X109.721 Y103.818 E.00635
;WIDTH:0.419999
G1 X109.702 Y103.276 E.017
G1 X109.722 Y102.687 E.01848
G1 X109.801 Y101.987 E.02209
G1 X109.909 Y101.429 E.01782
G1 X110.091 Y100.775 E.02128
G1 X110.28 Y100.26 E.0172
G1 X110.558 Y99.666 E.02056
G1 X110.823 Y99.205 E.01667
G1 X111.19 Y98.684 E.01998
G1 X111.835 Y97.994 E.02961
G1 X112.381 Y97.545 E.02216
G1 X112.815 Y97.273 E.01606
G1 X113.275 Y97.05 E.01603
G1 X113.829 Y96.858 E.01838
G1 X114.392 Y96.742 E.01802
G1 X114.899 Y96.703 E.01594
G1 X115.487 Y96.736 E.01847
G1 X116.161 Y96.87 E.02155
G1 X116.795 Y97.105 E.0212
M204 S1000
;WIPE_START
G1 F4800
G1 X116.851 Y97.126 E-.02486
G1 X116.872 Y97.133 E-.0092
G1 X117.362 Y97.396 E-.23114
G1 X117.803 Y97.703 E-.22333
G1 X118.193 Y98.044 E-.21532
G1 X118.657 Y98.531 E-.27957
G1 X118.681 Y98.563 E-.01658
;WIPE_END
G1 Z.4 F720
G1 X119.389 Y132.063 F6000
G1 Z.2 F720
G1 E1 F2100
M204 S800
;WIDTH:0.449532
G1 F1200
G1 X119.378 Y132.076 E.00058
G1 X118.908 Y132.456 E.02043
;WIDTH:0.423312
G1 X118.207 Y132.939 E.02693
;WIDTH:0.42197
G1 X117.569 Y133.311 E.02328
;WIDTH:0.455161
G1 X116.815 Y133.624 E.02798
;WIDTH:0.491131
G1 X116.348 Y133.731 E.01786
G1 X115.852 Y133.713 E.0185
;WIDTH:0.455565
G1 X115.356 Y133.694 E.01703
;WIDTH:0.419999
G1 X114.846 Y133.601 E.01625
;WIDTH:0.451082
G1 X114.358 Y133.469 E.01716
;WIDTH:0.486208
G1 X114.201 Y133.422 E.00604
;WIDTH:0.521334
G1 X114.044 Y133.374 E.00653
;WIDTH:0.55646
G1 X113.887 Y133.326 E.00701
G1 X113.443 Y133.06 E.0221
;WIDTH:0.523399
G1 X113.034 Y132.749 E.02053
;WIDTH:0.483964
G1 X112.571 Y132.326 E.023
;WIDTH:0.458714
G1 X112.197 Y131.895 E.01973
;WIDTH:0.438394
G1 X111.795 Y131.313 E.02326
G1 X111.429 Y130.652 E.02485
;WIDTH:0.432106
G1 X111.112 Y129.952 E.02487
G1 X110.875 Y129.187 E.02592
;WIDTH:0.428128
G1 X110.698 Y128.444 E.02446
G1 X110.635 Y127.912 E.01716
;WIDTH:0.42599
