; generated by PrusaSlicer 2.9.4 on 2026-03-07 at 13:28:22 UTC


;
;

;
;
; 

; external perimeters extrusion width = 0.45mm
; perimeters extrusion width = 0.45mm
; infill extrusion width = 0.45mm
; solid infill extrusion width = 0.45mm
; top infill extrusion width = 0.40mm
; first layer extrusion width = 0.42mm

; external perimeters extrusion width = 0.45mm
; perimeters extrusion width = 0.45mm
; infill extrusion width = 0.45mm
; solid infill extrusion width = 0.45mm
; top infill extrusion width = 0.40mm
; first layer extrusion width = 0.42mm

M73 P0 R75
M201 X9000 Y9000 Z500 E10000 ; sets maximum accelerations, mm/sec^2
M203 X500 Y500 Z12 E120 ; sets maximum feedrates, mm / sec
M204 S2000 T1500 ; sets acceleration (S) and retract acceleration (R), mm/sec^2
M205 X10.00 Y10.00 Z0.20 E4.50 ; sets the jerk limits, mm/sec
M205 S0 T0 ; sets the minimum extruding and travel feed rate, mm/sec

; printing object UEB_CableHolder.stl id:0 copy 0
; stop printing object UEB_CableHolder.stl id:0 copy 0
; printing object UEB_CableHolder.stl id:0 copy 1
; stop printing object UEB_CableHolder.stl id:0 copy 1
; printing object UEB_CableHolder.stl id:0 copy 2
; stop printing object UEB_CableHolder.stl id:0 copy 2
; printing object UEB_CableHolder.stl id:0 copy 3
; stop printing object UEB_CableHolder.stl id:0 copy 3
; printing object UEB_CableHolder_Short.stl id:1 copy 0
; stop printing object UEB_CableHolder_Short.stl id:1 copy 0
; printing object UEB_CableHolder_Short.stl id:1 copy 1
; stop printing object UEB_CableHolder_Short.stl id:1 copy 1
; printing object UEB_CableHolder_Short.stl id:1 copy 2
; stop printing object UEB_CableHolder_Short.stl id:1 copy 2
; printing object UEB_CableHolder_Short.stl id:1 copy 3
; stop printing object UEB_CableHolder_Short.stl id:1 copy 3

;TYPE:Custom
M83  ; extruder relative mode
M140 S85 ; set bed temp
M109 S160 ; Set extruder temp before bed level
M190 S85 ; wait for bed temp

G28 W ; home all without mesh bed level
G80 N7 ; mesh bed leveling

M109 S240 ; wait for extruder temp

M221 S100 ; Set flow to 100

G1 Y-3.0 F1000.0 ; go outside print area
G92 E0.0
G1 E8 ; Purge Bubble
G1 X60.0 E9.0 F1000.0 ; intro line
G1 X100.0 E12.5 F1000.0 ; intro line
G92 E0.0
G21 ; set units to millimeters
G90 ; use absolute coordinates
M83 ; use relative distances for extrusion

M900 K0.08 ; Filament gcode LA 1.5
M900 K45 ; Filament gcode LA 1.0




M107
;LAYER_CHANGE
;Z:0.2
;HEIGHT:0.2
G1 E-1 F2100
G1 Z.4 F720
G1 X37.482 Y48.461 F6000
G1 Z.2 F720
G1 E1 F2100
M204 S800
;TYPE:Skirt/Brim
;WIDTH:0.42
G1 F1200
G1 X38.266 Y48.15 E.02645
G1 X41.706 Y47.51 E.10971
G1 X93.706 Y39.953 E1.64755
G1 X207.475 Y39.943 E3.56715
G1 X208.296 Y40.015 E.02584
G1 X211.641 Y40.603 E.10649
G1 X212.802 Y41.204 E.04099
G1 X213.275 Y41.901 E.02641
G1 X215.443 Y46.993 E.17352
G1 X215.583 Y47.457 E.0152
G1 X215.781 Y48.789 E.04222
G1 X214.104 Y124.42 E2.37194
G1 X211.679 Y153.591 E.91779
G1 X211.125 Y156.74 E.10025
G1 X210.142 Y158.203 E.05526
G1 X206.241 Y160.675 E.1448
G1 X205.381 Y160.993 E.02875
G1 X152.068 Y168.634 E1.68867
G1 X149.175 Y168.627 E.09071
M73 P0 R74
G1 X43.081 Y161.208 E3.33463
G1 X42.062 Y160.874 E.03362
G1 X38.161 Y158.402 E.1448
G1 X37.178 Y156.939 E.05526
G1 X36.624 Y153.79 E.10025
G1 X34.199 Y124.571 E.91929
G1 X34.199 Y56.241 E2.14244
G1 X34.53 Y54.583 E.05301
G1 X36.644 Y49.466 E.17359
G1 X37.444 Y48.508 E.03913
M204 S1000
;WIPE_START
G1 F4800
G1 X37.482 Y48.461 E-.02512
G1 X38.266 Y48.15 E-.35055
G1 X39.743 Y47.875 E-.62433
;WIPE_END
G1 Z.4 F720
G1 X190.869 Y120.282 F6000
G1 Z.2 F720
G1 E1 F2100
M204 S800
G1 F1200
G1 X191.876 Y119.172 E.04699
G1 X193.364 Y118.359 E.05316
G1 X194.794 Y118.076 E.04571
G1 X196.029 Y118.051 E.03873
G1 X197.381 Y118.246 E.04283
G1 X203.496 Y118.246 E.19173
G1 X204.864 Y118.049 E.04334
G1 X205.798 Y118.052 E.02929
G1 X207.129 Y118.248 E.04218
G1 X208.371 Y118.741 E.0419
G1 X209.513 Y119.672 E.0462
G1 X209.996 Y120.257 E.02379
G1 X210.602 Y121.56 E.04506
G1 X210.775 Y122.501 E.03
G1 X210.744 Y123.673 E.03676
G1 X211.077 Y124.267 E.02135
G1 X211.468 Y125.988 E.05534
G1 X209.265 Y151.392 E.79951
G1 X209.246 Y153 E.05042
G1 X208.954 Y154.526 E.04871
G1 X208.519 Y155.618 E.03686
G1 X208.028 Y156.342 E.02743
G1 X207.399 Y156.976 E.028
G1 X206.448 Y157.599 E.03565
G1 X205.347 Y157.997 E.03671
G1 X204.52 Y158.108 E.02616
G1 X203.71 Y158.081 E.02541
G1 X202.041 Y157.593 E.05452
G1 X200.424 Y156.427 E.06251
G1 X198.959 Y157.531 E.05752
G1 X197.458 Y158.028 E.04958
G1 X196.415 Y158.109 E.0328
G1 X195.386 Y157.962 E.03259
G1 X194.435 Y157.599 E.03192
G1 X193.557 Y157.039 E.03265
G1 X192.721 Y156.178 E.03763
G1 X192.277 Y155.461 E.02644
G1 X191.972 Y154.695 E.02585
G1 X191.646 Y153.143 E.04972
G1 X191.613 Y151.392 E.05491
G1 X189.405 Y126.052 E.79753
G1 X189.771 Y124.339 E.05492
G1 X190.156 Y123.643 E.02494
G1 X190.09 Y123.226 E.01324
G1 X190.223 Y121.743 E.04669
G1 X190.844 Y120.337 E.04819
M204 S1000
G1 X191.188 Y120.492 F6000
M204 S800
G1 F1200
G1 X191.199 Y120.465 E.00091
G1 X192.132 Y119.45 E.04323
G1 X193.466 Y118.723 E.04763
G1 X194.818 Y118.453 E.04323
G1 X196.019 Y118.429 E.03766
G1 X197.366 Y118.623 E.04267
G1 X203.511 Y118.623 E.19267
G1 X204.879 Y118.426 E.04334
G1 X205.784 Y118.429 E.02838
G1 X207.011 Y118.606 E.03887
G1 X208.204 Y119.08 E.04025
G1 X209.258 Y119.95 E.04285
G1 X209.689 Y120.477 E.02135
G1 X210.236 Y121.653 E.04067
M73 P1 R74
G1 X210.398 Y122.513 E.02744
G1 X210.338 Y123.725 E.03805
G1 X210.716 Y124.38 E.02371
G1 X211.094 Y126.043 E.05347
G1 X208.888 Y151.367 E.79702
G1 X208.869 Y152.986 E.05077
G1 X208.587 Y154.437 E.04635
G1 X208.194 Y155.425 E.03334
G1 X207.748 Y156.089 E.02508
G1 X207.145 Y156.696 E.02683
G1 X206.299 Y157.252 E.03174
G1 X205.238 Y157.635 E.03537
G1 X204.488 Y157.732 E.02371
G1 X203.748 Y157.705 E.02322
G1 X202.179 Y157.241 E.0513
G1 X200.773 Y156.214 E.05459
G1 X200.43 Y155.754 E.01799
G1 X200.019 Y156.306 E.02158
G1 X198.763 Y157.208 E.04848
G1 X197.365 Y157.663 E.0461
G1 X196.409 Y157.732 E.03005
G1 X195.462 Y157.593 E.03001
G1 X194.589 Y157.254 E.02936
G1 X193.78 Y156.734 E.03015
G1 X193.007 Y155.932 E.03492
G1 X192.607 Y155.279 E.02401
G1 X192.329 Y154.572 E.02382
G1 X192.019 Y153.085 E.04763
G1 X191.989 Y151.367 E.05387
G1 X189.783 Y126.048 E.79687
G1 X190.133 Y124.449 E.05132
G1 X190.553 Y123.711 E.02662
G1 X190.468 Y123.233 E.01522
G1 X190.596 Y121.809 E.04483
G1 X191.163 Y120.546 E.04341
M204 S1000
G1 X191.499 Y120.696 F6000
M204 S800
G1 F1200
G1 X192.341 Y119.765 E.03936
G1 X193.62 Y119.069 E.04566
G1 X194.874 Y118.826 E.04005
G1 X195.972 Y118.803 E.03443
G1 X197.352 Y119 E.04371
G1 X203.525 Y119 E.19355
G1 X204.896 Y118.803 E.04343
G1 X205.744 Y118.804 E.02659
G1 X206.936 Y118.977 E.03777
G1 X207.987 Y119.39 E.03541
G1 X209.004 Y120.23 E.04136
G1 X209.359 Y120.66 E.01748
G1 X209.87 Y121.749 E.03772
G1 X210.02 Y122.524 E.02475
G1 X209.933 Y123.785 E.03963
G1 X210.356 Y124.495 E.02591
G1 X210.716 Y126.041 E.04977
G1 X208.512 Y151.342 E.7963
G1 X208.495 Y152.935 E.04995
G1 X208.23 Y154.314 E.04403
G1 X207.852 Y155.266 E.03212
G1 X207.446 Y155.862 E.02261
G1 X206.921 Y156.392 E.02339
G1 X206.11 Y156.925 E.03043
G1 X205.169 Y157.264 E.03136
G1 X204.485 Y157.354 E.02163
G1 X203.786 Y157.329 E.02193
G1 X202.32 Y156.89 E.04798
G1 X201.025 Y155.931 E.05053
G1 X200.434 Y155.09 E.03223
G1 X199.77 Y156.02 E.03583
G1 X198.617 Y156.859 E.04471
G1 X197.312 Y157.288 E.04307
G1 X196.443 Y157.355 E.02733
G1 X195.539 Y157.223 E.02864
G1 X194.745 Y156.91 E.02676
G1 X194.035 Y156.455 E.02644
G1 X193.317 Y155.715 E.03233
G1 X192.951 Y155.124 E.0218
G1 X192.695 Y154.478 E.02179
G1 X192.396 Y153.066 E.04525
G1 X192.365 Y151.341 E.05409
G1 X190.158 Y126.101 E.7944
G1 X190.495 Y124.56 E.04946
G1 X190.951 Y123.777 E.02841
G1 X190.846 Y123.239 E.01719
G1 X190.969 Y121.874 E.04297
G1 X191.474 Y120.751 E.03861
M204 S1000
G1 X191.799 Y120.926 F6000
M204 S800
G1 F1200
G1 X192.599 Y120.042 E.03738
G1 X193.721 Y119.433 E.04003
G1 X194.898 Y119.203 E.0376
G1 X195.961 Y119.181 E.03334
G1 X197.338 Y119.377 E.04361
G1 X203.54 Y119.377 E.19446
G1 X204.912 Y119.18 E.04346
G1 X205.729 Y119.181 E.02562
G1 X206.859 Y119.346 E.03581
G1 X207.818 Y119.729 E.03238
G1 X208.748 Y120.507 E.03802
G1 X209.051 Y120.879 E.01504
G1 X209.505 Y121.845 E.03347
G1 X209.643 Y122.536 E.02209
G1 X209.62 Y123.487 E.02983
G1 X209.526 Y123.843 E.01154
G1 X209.996 Y124.611 E.02823
G1 X210.342 Y126.097 E.04784
G1 X208.136 Y151.316 E.79374
G1 X208.121 Y152.884 E.04917
G1 X207.863 Y154.226 E.04285
G1 X207.528 Y155.071 E.0285
G1 X207.144 Y155.635 E.02139
G1 X206.669 Y156.111 E.02108
G1 X205.923 Y156.597 E.02792
G1 X205.099 Y156.893 E.02745
G1 X204.452 Y156.978 E.02046
G1 X203.825 Y156.953 E.01967
G1 X202.462 Y156.539 E.04466
G1 X201.277 Y155.649 E.04647
G1 X200.437 Y154.421 E.04665
G1 X199.521 Y155.736 E.05025
G1 X198.469 Y156.511 E.04097
G1 X197.26 Y156.914 E.03996
G1 X196.436 Y156.978 E.02591
G1 X195.618 Y156.853 E.02595
G1 X194.902 Y156.568 E.02416
G1 X194.258 Y156.151 E.02406
G1 X193.626 Y155.499 E.02847
G1 X193.295 Y154.969 E.01959
G1 X193.051 Y154.354 E.02075
G1 X192.769 Y153.009 E.04309
G1 X192.742 Y151.316 E.05309
G1 X190.536 Y126.098 E.79371
G1 X190.856 Y124.673 E.04579
G1 X191.352 Y123.844 E.03029
G1 X191.224 Y123.24 E.01936
G1 X191.327 Y121.996 E.03914
G1 X191.775 Y120.981 E.03479
M204 S1000
G1 X192.12 Y121.133 F6000
M204 S800
G1 F1200
G1 X192.131 Y121.108 E.00086
G1 X192.855 Y120.321 E.03353
G1 X193.822 Y119.797 E.03448
G1 X194.922 Y119.579 E.03516
G1 X195.95 Y119.558 E.03224
G1 X197.323 Y119.755 E.04349
G1 X203.554 Y119.755 E.19537
G1 X204.929 Y119.557 E.04356
G1 X205.715 Y119.558 E.02464
G1 X206.781 Y119.716 E.03379
G1 X207.648 Y120.067 E.02933
G1 X208.489 Y120.782 E.03461
G1 X208.743 Y121.097 E.01269
G1 X209.153 Y121.982 E.03058
G1 X209.269 Y122.586 E.01928
G1 X209.244 Y123.45 E.0271
G1 X209.099 Y123.962 E.01668
G1 X209.637 Y124.729 E.02938
G1 X209.963 Y126.095 E.04403
G1 X207.76 Y151.291 E.79302
G1 X207.746 Y152.833 E.04835
G1 X207.496 Y154.138 E.04166
G1 X207.204 Y154.878 E.02494
G1 X206.865 Y155.382 E.01904
G1 X206.417 Y155.83 E.01987
G1 X205.737 Y156.268 E.02536
G1 X205.029 Y156.522 E.02358
G1 X204.45 Y156.601 E.01832
G1 X203.865 Y156.578 E.01836
G1 X202.606 Y156.189 E.04132
G1 X201.531 Y155.369 E.04239
G1 X200.439 Y153.633 E.0643
G1 X200.139 Y154.188 E.01978
G1 X199.229 Y155.495 E.04993
G1 X198.32 Y156.163 E.03537
G1 X197.205 Y156.541 E.03691
G1 X196.47 Y156.602 E.02312
G1 X195.697 Y156.484 E.02452
G1 X195.062 Y156.226 E.02149
G1 X194.482 Y155.847 E.02172
G1 X193.935 Y155.282 E.02466
G1 X193.625 Y154.784 E.01839
G1 X193.408 Y154.232 E.0186
G1 X193.143 Y152.953 E.04095
G1 X193.118 Y151.29 E.05215
G1 X190.914 Y126.095 E.79299
G1 X191.216 Y124.787 E.04209
G1 X191.769 Y123.971 E.03091
G1 X191.602 Y123.238 E.02357
G1 X191.685 Y122.118 E.03521
G1 X192.096 Y121.188 E.03188
M204 S1000
G1 X192.431 Y121.339 F6000
M204 S800
G1 F1200
G1 X193.11 Y120.601 E.03144
G1 X193.972 Y120.144 E.03059
G1 X194.976 Y119.953 E.03204
G1 X195.937 Y119.935 E.03014
G1 X197.309 Y120.132 E.04346
G1 X203.569 Y120.132 E.19628
G1 X204.946 Y119.934 E.04362
G1 X205.7 Y119.935 E.02364
G1 X206.702 Y120.085 E.03177
G1 X207.475 Y120.403 E.02621
G1 X208.432 Y121.312 E.04138
G1 X208.8 Y122.116 E.02772
G1 X208.894 Y122.632 E.01645
G1 X208.868 Y123.412 E.02447
G1 X208.674 Y124.063 E.0213
G1 X209.278 Y124.851 E.03113
G1 X209.585 Y126.094 E.04014
G1 X207.383 Y151.265 E.79223
G1 X207.369 Y152.819 E.04873
G1 X207.127 Y154.058 E.03958
G1 X206.88 Y154.684 E.0211
G1 X206.563 Y155.155 E.0178
G1 X206.167 Y155.547 E.01747
G1 X205.553 Y155.938 E.02282
G1 X204.959 Y156.151 E.01979
G1 X203.906 Y156.202 E.03305
G1 X202.805 Y155.867 E.03608
G1 X201.826 Y155.132 E.03838
G1 X201.054 Y153.983 E.0434
G1 X200.438 Y152.829 E.04102
G1 X199.823 Y153.982 E.04097
G1 X198.938 Y155.253 E.04856
G1 X198.124 Y155.841 E.03148
G1 X197.149 Y156.167 E.03223
G1 X196.501 Y156.225 E.0204
G1 X195.816 Y156.125 E.02171
G1 X195.252 Y155.899 E.01905
G1 X194.706 Y155.543 E.02044
G1 X194.245 Y155.066 E.0208
G1 X193.955 Y154.601 E.01718
G1 X193.767 Y154.116 E.01631
G1 X193.516 Y152.891 E.03921
G1 X193.494 Y151.265 E.05099
G1 X191.292 Y126.093 E.79226
G1 X191.576 Y124.906 E.03827
G1 X191.886 Y124.4 E.01861
G1 X192.185 Y124.082 E.01369
G1 X191.98 Y123.232 E.02742
G1 X192.045 Y122.236 E.0313
G1 X192.407 Y121.394 E.02874
M204 S1000
G1 X192.732 Y121.569 F6000
M204 S800
G1 F1200
G1 X193.364 Y120.881 E.02929
G1 X194.118 Y120.493 E.02659
G1 X195.028 Y120.327 E.029
G1 X195.923 Y120.313 E.02807
G1 X197.305 Y120.509 E.04377
G1 X203.572 Y120.509 E.1965
G1 X204.964 Y120.311 E.04408
G1 X205.685 Y120.312 E.02261
G1 X206.621 Y120.455 E.02969
G1 X207.3 Y120.738 E.02306
G1 X208.12 Y121.525 E.03564
G1 X208.446 Y122.248 E.02487
G1 X208.519 Y122.675 E.01358
G1 X208.492 Y123.371 E.02184
G1 X208.247 Y124.163 E.02599
G1 X208.684 Y124.62 E.01983
G1 X208.944 Y125.028 E.01517
G1 X209.207 Y126.092 E.03437
G1 X207.007 Y151.24 E.79151
G1 X206.995 Y152.764 E.04779
G1 X206.758 Y153.977 E.03875
G1 X206.554 Y154.493 E.0174
G1 X205.946 Y155.24 E.0302
G1 X205.369 Y155.608 E.02146
G1 X204.854 Y155.788 E.01711
G1 X203.949 Y155.827 E.0284
G1 X202.95 Y155.518 E.03279
G1 X202.081 Y154.853 E.03431
G1 X201.374 Y153.783 E.04021
G1 X200.438 Y152.098 E.06044
G1 X199.507 Y153.776 E.06017
G1 X198.648 Y155.009 E.04712
G1 X197.93 Y155.516 E.02756
G1 X197.091 Y155.794 E.02771
G1 X196.532 Y155.849 E.01761
G1 X195.894 Y155.756 E.02022
G1 X195.414 Y155.558 E.01628
G1 X194.931 Y155.24 E.01813
G1 X194.553 Y154.848 E.01707
G1 X194.126 Y153.998 E.02982
G1 X193.889 Y152.832 E.03731
G1 X193.87 Y151.239 E.04995
G1 X191.671 Y126.092 E.79148
G1 X191.934 Y125.028 E.03437
G1 X192.193 Y124.62 E.01515
G1 X192.662 Y124.129 E.02129
G1 X192.52 Y123.865 E.0094
G1 X192.358 Y123.222 E.02079
G1 X192.405 Y122.35 E.02738
G1 X192.709 Y121.624 E.02468
M204 S1000
G1 X193.035 Y121.795 F6000
M204 S800
G1 F1200
G1 X193.572 Y121.198 E.02518
G1 X194.215 Y120.858 E.02281
G1 X195.08 Y120.7 E.02757
G1 X195.908 Y120.69 E.02596
G1 X197.298 Y120.886 E.04401
G1 X203.579 Y120.886 E.19694
G1 X204.982 Y120.688 E.04443
G1 X205.67 Y120.689 E.02157
G1 X206.54 Y120.823 E.0276
G1 X207.122 Y121.072 E.01985
G1 X207.806 Y121.734 E.02985
G1 X208.091 Y122.378 E.02208
G1 X208.123 Y123.288 E.02855
G1 X207.952 Y123.859 E.01869
G1 X207.7 Y124.263 E.01493
G1 X207.991 Y124.441 E.0107
G1 X208.608 Y125.202 E.03072
G1 X208.828 Y126.09 E.02868
G1 X206.631 Y151.214 E.79075
G1 X206.621 Y152.71 E.04691
G1 X206.389 Y153.895 E.03786
G1 X205.977 Y154.68 E.0278
G1 X205.725 Y154.934 E.01122
G1 X205.186 Y155.278 E.02005
G1 X204.752 Y155.425 E.01437
G1 X204.036 Y155.459 E.02247
G1 X203.095 Y155.168 E.03088
G1 X202.34 Y154.577 E.03006
G1 X201.695 Y153.585 E.0371
G1 X200.696 Y151.791 E.06438
G1 X200.438 Y151.1 E.02313
G1 X200.181 Y151.791 E.02312
G1 X199.19 Y153.572 E.0639
G1 X198.4 Y154.723 E.04377
G1 X197.783 Y155.167 E.02383
G1 X196.994 Y155.429 E.02607
G1 X196.523 Y155.471 E.01483
G1 X195.975 Y155.387 E.01738
G1 X195.157 Y154.937 E.02927
G1 X194.86 Y154.628 E.01344
G1 X194.485 Y153.881 E.02621
G1 X194.262 Y152.773 E.03544
G1 X194.247 Y151.214 E.04888
G1 X192.049 Y126.09 E.79075
G1 X192.269 Y125.202 E.02868
G1 X192.886 Y124.441 E.03072
G1 X193.186 Y124.26 E.01099
G1 X192.878 Y123.743 E.01887
G1 X192.73 Y123.157 E.01895
G1 X192.767 Y122.46 E.02188
G1 X193.013 Y121.85 E.02062
M204 S1000
G1 X193.343 Y122.016 F6000
M204 S800
G1 F1200
G1 X193.783 Y121.512 E.02098
G1 X194.313 Y121.224 E.01891
G1 X195.131 Y121.074 E.02608
G1 X195.891 Y121.067 E.02383
G1 X197.292 Y121.263 E.04436
G1 X203.586 Y121.263 E.19734
G1 X205.001 Y121.065 E.0448
G1 X205.655 Y121.066 E.02051
G1 X206.456 Y121.192 E.02542
G1 X206.94 Y121.404 E.01657
G1 X207.488 Y121.938 E.02399
G1 X207.735 Y122.505 E.01939
G1 X207.755 Y123.206 E.02199
G1 X207.6 Y123.722 E.01689
G1 X207.148 Y124.404 E.02565
G1 X207.742 Y124.726 E.02118
G1 X208.111 Y125.112 E.01674
G1 X208.272 Y125.374 E.00964
G1 X208.45 Y126.089 E.0231
G1 X206.254 Y151.189 E.79
G1 X206.243 Y152.701 E.04741
G1 X206.021 Y153.811 E.03549
