; generated by PrusaSlicer 2.9.4 on 2026-03-10 at 07:44:09 UTC


;
;

;
;
; 

; external perimeters extrusion width = 0.45mm
; perimeters extrusion width = 0.45mm
; infill extrusion width = 0.45mm
; solid infill extrusion width = 0.45mm
; top infill extrusion width = 0.40mm
; first layer extrusion width = 0.42mm

; external perimeters extrusion width = 0.45mm
; perimeters extrusion width = 0.45mm
; infill extrusion width = 0.45mm
; solid infill extrusion width = 0.45mm
; top infill extrusion width = 0.40mm
; first layer extrusion width = 0.42mm

M73 P0 R16
M201 X9000 Y9000 Z500 E10000 ; sets maximum accelerations, mm/sec^2
M203 X500 Y500 Z12 E120 ; sets maximum feedrates, mm / sec
M204 S2000 T1500 ; sets acceleration (S) and retract acceleration (R), mm/sec^2
M205 X10.00 Y10.00 Z0.20 E4.50 ; sets the jerk limits, mm/sec
M205 S0 T0 ; sets the minimum extruding and travel feed rate, mm/sec

; printing object UEB_Screw.stl id:0 copy 0
; stop printing object UEB_Screw.stl id:0 copy 0
; printing object UEB_Screw.stl id:0 copy 1
; stop printing object UEB_Screw.stl id:0 copy 1
; printing object UEB_Pin.stl id:1 copy 0
; stop printing object UEB_Pin.stl id:1 copy 0
; printing object UEB_Pin.stl id:1 copy 1
; stop printing object UEB_Pin.stl id:1 copy 1
; printing object UEB_Pin.stl id:1 copy 2
; stop printing object UEB_Pin.stl id:1 copy 2
; printing object UEB_Pin.stl id:1 copy 3
; stop printing object UEB_Pin.stl id:1 copy 3
; printing object UEB_Pin.stl id:1 copy 4
; stop printing object UEB_Pin.stl id:1 copy 4
; printing object UEB_Pin.stl id:1 copy 5
; stop printing object UEB_Pin.stl id:1 copy 5

;TYPE:Custom
M83  ; extruder relative mode
M140 S85 ; set bed temp
M109 S160 ; Set extruder temp before bed level
M190 S85 ; wait for bed temp

G28 W ; home all without mesh bed level
G80 N7 ; mesh bed leveling

M109 S240 ; wait for extruder temp

M221 S100 ; Set flow to 100

G1 Y-3.0 F1000.0 ; go outside print area
G92 E0.0
G1 E8 ; Purge Bubble
G1 X60.0 E9.0 F1000.0 ; intro line
G1 X100.0 E12.5 F1000.0 ; intro line
G92 E0.0
G21 ; set units to millimeters
G90 ; use absolute coordinates
M83 ; use relative distances for extrusion

M900 K0.08 ; Filament gcode LA 1.5
M900 K45 ; Filament gcode LA 1.0




M107
;LAYER_CHANGE
;Z:0.2
;HEIGHT:0.2
G1 E-1 F2100
G1 Z.4 F720
G1 X77.798 Y56.653 F6000
G1 Z.2 F720
G1 E1 F2100
M204 S800
;TYPE:Skirt/Brim
;WIDTH:0.42
G1 F1200
G1 X78.061 Y56.291 E.01403
G1 X79.499 Y54.918 E.06234
G1 X80.319 Y54.342 E.03142
G1 X81.222 Y53.839 E.03241
G1 X82.259 Y53.401 E.0353
G1 X83.141 Y53.132 E.02891
G1 X84.19 Y52.924 E.03353
G1 X85.164 Y52.834 E.03067
G1 X165.325 Y52.863 E2.51339
G1 X167.214 Y53.045 E.0595
M73 P1 R16
G1 X168.986 Y53.565 E.0579
G1 X170.572 Y54.367 E.05572
G1 X172.089 Y55.533 E.05999
G1 X173.314 Y56.914 E.05788
G1 X174.236 Y58.444 E.05601
G1 X174.899 Y60.228 E.05967
G1 X175.205 Y62.054 E.05805
G1 X175.23 Y147.475 E2.67832
G1 X175.061 Y149.067 E.0502
G1 X174.582 Y150.761 E.0552
G1 X173.849 Y152.28 E.05288
G1 X172.887 Y153.631 E.052
G1 X172.154 Y154.408 E.03349
G1 X171.295 Y155.136 E.0353
G1 X170.473 Y155.695 E.03117
G1 X169.556 Y156.188 E.03264
G1 X168.664 Y156.557 E.03027
G1 X167.584 Y156.876 E.03531
G1 X166.532 Y157.063 E.0335
G1 X165.533 Y157.135 E.0314
G1 X85.4 Y157.096 E2.51251
G1 X83.65 Y156.906 E.05519
M73 P2 R16
G1 X82.111 Y156.467 E.05018
G1 X80.625 Y155.763 E.05156
G1 X79.232 Y154.788 E.05331
G1 X77.896 Y153.431 E.05971
G1 X76.831 Y151.819 E.06058
G1 X76.095 Y150.017 E.06103
G1 X75.726 Y148.101 E.06118
G1 X74.915 Y105.051 E1.35004
G1 X75.706 Y62.046 E1.34862
G1 X75.945 Y60.463 E.0502
G1 X76.42 Y58.979 E.04886
G1 X77.148 Y57.544 E.05045
G1 X77.762 Y56.701 E.0327
M204 S1000
;WIPE_START
G1 F4800
G1 X77.798 Y56.653 E-.02494
G1 X78.061 Y56.291 E-.18597
G1 X79.434 Y54.979 E-.78909
;WIPE_END
G1 Z.4 F720
G1 X79.783 Y58.092 F6000
G1 Z.2 F720
G1 E1 F2100
M204 S800
G1 F1200
G1 X80.776 Y57.068 E.04472
G1 X82.007 Y56.22 E.04687
G1 X83.369 Y55.638 E.04644
G1 X84.544 Y55.374 E.03776
G1 X86.16 Y55.322 E.05069
G1 X87.664 Y55.596 E.04793
G1 X89.03 Y56.145 E.04616
G1 X90.29 Y56.976 E.04732
G1 X91.321 Y58.002 E.04561
G1 X92.144 Y59.232 E.0464
G1 X92.713 Y60.617 E.04695
G1 X92.995 Y62.092 E.04709
G1 X92.972 Y63.586 E.04685
G1 X92.639 Y65.08 E.04799
G1 X91.917 Y66.625 E.05347
G1 X91.267 Y67.527 E.03486
G1 X90.23 Y68.535 E.04534
G1 X89.021 Y69.322 E.04523
G1 X87.665 Y69.866 E.04581
G1 X86.297 Y70.131 E.04369
G1 X84.791 Y70.122 E.04722
G1 X83.554 Y69.88 E.03952
G1 X82.436 Y69.46 E.03745
G1 X81.052 Y68.617 E.05081
G1 X79.904 Y67.522 E.04974
G1 X79.042 Y66.252 E.04813
G1 X78.499 Y64.958 E.044
G1 X78.2 Y63.523 E.04596
G1 X78.188 Y62.054 E.04606
G1 X78.465 Y60.615 E.04595
G1 X79.012 Y59.272 E.04547
G1 X79.751 Y58.142 E.04233
M204 S1000
G1 X80.065 Y58.348 F6000
M73 P3 R16
M204 S800
G1 F1200
G1 X80.083 Y58.321 E.00102
G1 X81.026 Y57.35 E.04244
G1 X82.196 Y56.546 E.04451
G1 X83.488 Y55.996 E.04403
G1 X84.59 Y55.748 E.03542
G1 X85.355 Y55.682 E.02408
G1 X86.142 Y55.699 E.02468
G1 X87.568 Y55.96 E.04545
G1 X88.863 Y56.483 E.04379
G1 X90.059 Y57.274 E.04496
G1 X91.035 Y58.249 E.04326
G1 X91.816 Y59.417 E.04405
G1 X92.354 Y60.733 E.04458
G1 X92.619 Y62.13 E.04458
G1 X92.598 Y63.537 E.04412
G1 X92.284 Y64.95 E.04538
G1 X91.591 Y66.435 E.05138
G1 X90.983 Y67.278 E.03259
G1 X90.001 Y68.235 E.04299
M73 P3 R15
G1 X88.854 Y68.984 E.04295
G1 X87.568 Y69.502 E.04347
G1 X86.256 Y69.756 E.0419
G1 X84.834 Y69.747 E.04459
G1 X83.653 Y69.516 E.03773
G1 X82.603 Y69.122 E.03516
G1 X81.274 Y68.312 E.0488
G1 X80.189 Y67.274 E.04708
G1 X79.376 Y66.077 E.04537
G1 X78.856 Y64.837 E.04216
G1 X78.574 Y63.474 E.04364
G1 X78.565 Y62.08 E.04371
G1 X78.824 Y60.73 E.0431
G1 X79.35 Y59.44 E.04368
G1 X80.032 Y58.398 E.03905
M204 S1000
G1 X80.347 Y58.605 F6000
M204 S800
G1 F1200
G1 X80.382 Y58.551 E.00202
G1 X81.276 Y57.633 E.04018
G1 X82.384 Y56.873 E.04213
G1 X83.606 Y56.354 E.04163
G1 X84.635 Y56.123 E.03307
G1 X86.123 Y56.076 E.04668
G1 X87.471 Y56.325 E.04298
G1 X88.695 Y56.821 E.04141
G1 X89.827 Y57.572 E.04259
G1 X90.75 Y58.495 E.04093
G1 X91.487 Y59.602 E.0417
G1 X91.995 Y60.848 E.04219
G1 X92.244 Y62.167 E.04209
G1 X92.224 Y63.489 E.04146
G1 X91.93 Y64.821 E.04277
G1 X91.265 Y66.245 E.04928
G1 X90.699 Y67.03 E.03034
G1 X89.758 Y67.947 E.0412
G1 X88.672 Y68.653 E.04061
G1 X87.47 Y69.138 E.04064
G1 X86.216 Y69.38 E.04004
G1 X84.878 Y69.372 E.04195
G1 X83.752 Y69.152 E.03597
G1 X82.77 Y68.784 E.03288
G1 X81.497 Y68.007 E.04676
G1 X80.474 Y67.026 E.04444
G1 X79.711 Y65.902 E.0426
G1 X79.214 Y64.716 E.04032
G1 X78.948 Y63.426 E.0413
G1 X78.941 Y62.106 E.04139
G1 X79.188 Y60.829 E.04078
G1 X79.687 Y59.608 E.04136
G1 X80.314 Y58.655 E.03577
M204 S1000
G1 X80.628 Y58.862 F6000
M204 S800
G1 F1200
G1 X80.681 Y58.78 E.00306
G1 X81.526 Y57.916 E.03789
G1 X82.572 Y57.2 E.03974
G1 X83.724 Y56.713 E.03922
G1 X84.681 Y56.497 E.03076
G1 X85.379 Y56.436 E.02197
G1 X86.103 Y56.453 E.02271
G1 X87.373 Y56.689 E.0405
G1 X88.527 Y57.159 E.03907
G1 X89.594 Y57.869 E.04018
G1 X90.464 Y58.741 E.03862
G1 X91.158 Y59.786 E.03933
G1 X91.635 Y60.963 E.03982
G1 X91.868 Y62.203 E.03956
G1 X91.847 Y63.467 E.03964
G1 X91.576 Y64.692 E.03934
G1 X90.94 Y66.055 E.04716
G1 X90.414 Y66.782 E.02814
G1 X89.516 Y67.657 E.03931
G1 X88.491 Y68.323 E.03833
G1 X87.356 Y68.778 E.03834
G1 X86.177 Y69.005 E.03765
G1 X84.922 Y68.997 E.03935
G1 X83.851 Y68.788 E.03421
G1 X82.937 Y68.445 E.03061
G1 X81.72 Y67.703 E.04469
G1 X80.759 Y66.779 E.0418
G1 X80.045 Y65.727 E.03986
G1 X79.576 Y64.612 E.03793
G1 X79.324 Y63.395 E.03897
G1 X79.316 Y62.15 E.03904
G1 X79.552 Y60.929 E.03899
G1 X80.025 Y59.777 E.03905
G1 X80.595 Y58.912 E.03248
M204 S1000
G1 X80.908 Y59.119 F6000
M204 S800
G1 F1200
G1 X80.98 Y59.011 E.00407
G1 X81.775 Y58.199 E.03563
G1 X82.76 Y57.527 E.03739
G1 X83.841 Y57.071 E.03679
G1 X84.726 Y56.872 E.02844
G1 X86.084 Y56.829 E.0426
G1 X87.275 Y57.054 E.038
G1 X88.359 Y57.496 E.0367
G1 X89.362 Y58.166 E.03782
G1 X90.166 Y58.973 E.03572
G1 X90.82 Y59.955 E.03699
G1 X91.271 Y61.06 E.03742
G1 X91.493 Y62.24 E.03765
G1 X91.473 Y63.418 E.03694
G1 X91.221 Y64.563 E.03676
G1 X90.614 Y65.864 E.04501
G1 X90.13 Y66.534 E.02592
G1 X89.287 Y67.357 E.03694
G1 X88.325 Y67.984 E.036
G1 X87.258 Y68.414 E.03607
G1 X86.137 Y68.63 E.03579
G1 X84.965 Y68.623 E.03675
G1 X83.95 Y68.424 E.03243
G1 X83.104 Y68.107 E.02833
G1 X81.943 Y67.399 E.04264
G1 X81.045 Y66.533 E.03912
G1 X80.379 Y65.551 E.0372
G1 X79.934 Y64.492 E.03602
G1 X79.698 Y63.347 E.03666
G1 X79.692 Y62.176 E.03672
G1 X79.916 Y61.029 E.03664
G1 X80.362 Y59.946 E.03672
G1 X80.875 Y59.169 E.02919
M204 S1000
G1 X81.188 Y59.377 F6000
M204 S800
G1 F1200
G1 X81.278 Y59.242 E.00509
G1 X82.023 Y58.483 E.03335
G1 X82.947 Y57.855 E.03503
G1 X83.958 Y57.43 E.03439
G1 X85.424 Y57.189 E.04658
G1 X86.063 Y57.206 E.02004
G1 X87.177 Y57.418 E.03556
G1 X88.19 Y57.833 E.03432
G1 X89.129 Y58.462 E.03544
G1 X89.88 Y59.219 E.03343
G1 X90.491 Y60.139 E.03463
G1 X90.912 Y61.175 E.03506
G1 X91.117 Y62.277 E.03515
G1 X91.099 Y63.37 E.03427
G1 X90.866 Y64.435 E.03418
G1 X90.289 Y65.673 E.04283
G1 X89.845 Y66.287 E.02376
G1 X89.058 Y67.058 E.03454
G1 X88.158 Y67.646 E.03371
G1 X87.16 Y68.05 E.03376
G1 X86.097 Y68.255 E.03394
G1 X85.008 Y68.248 E.03415
G1 X84.049 Y68.06 E.03064
G1 X83.27 Y67.768 E.02608
G1 X82.166 Y67.095 E.04054
G1 X81.331 Y66.286 E.03645
G1 X80.713 Y65.376 E.03449
G1 X80.291 Y64.371 E.03418
G1 X80.072 Y63.299 E.03431
G1 X80.068 Y62.203 E.03436
G1 X80.279 Y61.129 E.03432
G1 X80.699 Y60.116 E.03438
M73 P4 R15
G1 X81.155 Y59.427 E.02591
M204 S1000
G1 X81.468 Y59.634 F6000
M204 S800
G1 F1200
G1 X81.566 Y59.486 E.00557
G1 X82.258 Y58.778 E.03104
G1 X83.133 Y58.183 E.03318
G1 X84.075 Y57.788 E.03203
G1 X84.818 Y57.621 E.02388
G1 X86.042 Y57.582 E.0384
G1 X87.078 Y57.782 E.03308
G1 X88.021 Y58.17 E.03197
G1 X88.895 Y58.758 E.03303
G1 X89.594 Y59.464 E.03115
G1 X90.162 Y60.322 E.03226
G1 X90.552 Y61.288 E.03266
G1 X90.741 Y62.312 E.03265
G1 X90.725 Y63.321 E.03164
G1 X90.511 Y64.308 E.03167
G1 X89.963 Y65.483 E.04065
G1 X89.561 Y66.039 E.02151
G1 X88.816 Y66.769 E.0327
G1 X87.991 Y67.308 E.0309
G1 X87.045 Y67.691 E.032
G1 X86.058 Y67.879 E.0315
G1 X85.051 Y67.873 E.03157
G1 X84.149 Y67.696 E.02882
G1 X83.437 Y67.43 E.02383
G1 X82.391 Y66.792 E.03842
G1 X81.617 Y66.04 E.03384
G1 X81.047 Y65.2 E.03183
G1 X80.649 Y64.252 E.03224
G1 X80.446 Y63.252 E.03199
G1 X80.443 Y62.248 E.03148
G1 X80.638 Y61.246 E.03201
G1 X81.035 Y60.286 E.03257
G1 X81.434 Y59.684 E.02264
M204 S1000
G1 X81.747 Y59.892 F6000
M204 S800
G1 F1200
G1 X81.864 Y59.716 E.00663
G1 X82.506 Y59.062 E.02873
G1 X83.319 Y58.511 E.03079
G1 X84.191 Y58.147 E.02963
G1 X85.468 Y57.942 E.04055
G1 X86.019 Y57.959 E.01728
G1 X86.978 Y58.145 E.03063
G1 X87.85 Y58.507 E.0296
G1 X88.661 Y59.054 E.03067
G1 X89.307 Y59.709 E.02884
G1 X89.832 Y60.505 E.0299
G1 X90.192 Y61.402 E.03031
G1 X90.366 Y62.348 E.03016
G1 X90.35 Y63.274 E.02904
G1 X90.156 Y64.18 E.02905
G1 X89.929 Y64.759 E.0195
G1 X89.276 Y65.792 E.03832
G1 X88.586 Y66.47 E.03033
G1 X87.823 Y66.97 E.0286
G1 X86.946 Y67.327 E.02969
G1 X86.019 Y67.504 E.02959
G1 X85.094 Y67.498 E.029
G1 X84.249 Y67.332 E.027
G1 X83.603 Y67.091 E.02162
G1 X82.616 Y66.489 E.03625
G1 X81.903 Y65.795 E.0312
G1 X81.381 Y65.024 E.02919
G1 X81.007 Y64.133 E.0303
G1 X80.821 Y63.205 E.02968
G1 X80.819 Y62.275 E.02916
G1 X81.001 Y61.347 E.02965
G1 X81.372 Y60.456 E.03026
G1 X81.714 Y59.942 E.01936
M204 S1000
G1 X82.026 Y60.151 F6000
M204 S800
G1 F1200
G1 X82.162 Y59.948 E.00766
G1 X82.754 Y59.346 E.02647
G1 X83.504 Y58.84 E.02837
G1 X84.307 Y58.506 E.02727
G1 X84.91 Y58.37 E.01938
G1 X85.996 Y58.336 E.03407
G1 X86.877 Y58.509 E.02815
G1 X87.68 Y58.843 E.02727
G1 X88.426 Y59.349 E.02826
G1 X89.02 Y59.953 E.02656
G1 X89.502 Y60.688 E.02756
G1 X89.832 Y61.514 E.02789
G1 X89.99 Y62.383 E.02769
G1 X89.976 Y63.226 E.02644
G1 X89.801 Y64.054 E.02653
G1 X89.313 Y65.099 E.03616
G1 X88.99 Y65.545 E.01727
G1 X88.356 Y66.171 E.02794
G1 X87.654 Y66.632 E.02633
G1 X86.847 Y66.963 E.02735
G1 X85.98 Y67.129 E.02768
G1 X85.137 Y67.123 E.02643
G1 X84.348 Y66.968 E.02521
G1 X83.77 Y66.753 E.01934
G1 X82.841 Y66.187 E.03411
G1 X82.19 Y65.549 E.02858
G1 X81.714 Y64.848 E.02657
G1 X81.365 Y64.014 E.02835
G1 X81.195 Y63.159 E.02733
G1 X81.195 Y62.303 E.02684
G1 X81.365 Y61.448 E.02733
G1 X81.708 Y60.627 E.0279
G1 X81.993 Y60.201 E.01607
M204 S1000
G1 X82.305 Y60.41 F6000
M204 S800
G1 F1200
G1 X82.459 Y60.18 E.00868
G1 X83.001 Y59.631 E.02419
G1 X83.689 Y59.169 E.02598
G1 X84.422 Y58.866 E.02487
G1 X85.51 Y58.695 E.03453
G1 X86.776 Y58.872 E.04008
G1 X87.508 Y59.179 E.02489
G1 X88.191 Y59.644 E.02591
G1 X88.732 Y60.197 E.02426
G1 X89.171 Y60.869 E.02517
G1 X89.472 Y61.626 E.02554
G1 X89.614 Y62.418 E.02523
G1 X89.602 Y63.18 E.02389
G1 X89.445 Y63.929 E.02399
G1 X89.256 Y64.42 E.0165
G1 X88.705 Y65.299 E.03253
G1 X88.126 Y65.872 E.02554
G1 X87.486 Y66.295 E.02405
G1 X86.732 Y66.604 E.02555
G1 X85.942 Y66.754 E.02521
G1 X85.18 Y66.748 E.02389
G1 X84.449 Y66.605 E.02335
G1 X83.936 Y66.414 E.01716
G1 X83.068 Y65.885 E.03187
G1 X82.477 Y65.305 E.02596
G1 X82.048 Y64.672 E.02398
G1 X81.723 Y63.896 E.02638
G1 X81.57 Y63.114 E.02498
G1 X81.571 Y62.331 E.02455
G1 X81.728 Y61.55 E.02498
G1 X82.044 Y60.799 E.02555
G1 X82.271 Y60.46 E.01279
M204 S1000
G1 X82.583 Y60.67 F6000
M204 S800
G1 F1200
G1 X82.756 Y60.412 E.00974
G1 X83.248 Y59.917 E.02188
G1 X83.872 Y59.498 E.02357
G1 X84.537 Y59.225 E.02254
G1 X85.002 Y59.119 E.01495
G1 X85.947 Y59.088 E.02965
G1 X86.674 Y59.235 E.02326
G1 X87.336 Y59.515 E.02254
G1 X87.955 Y59.938 E.02351
G1 X88.443 Y60.44 E.02195
G1 X88.832 Y61.035 E.02229
G1 X89.112 Y61.738 E.02373
G1 X89.239 Y62.452 E.02274
G1 X89.227 Y63.133 E.02136
G1 X88.918 Y64.25 E.03634
G1 X88.419 Y65.053 E.02964
G1 X87.895 Y65.574 E.02317
G1 X87.316 Y65.958 E.02178
G1 X86.616 Y66.244 E.02371
G1 X85.904 Y66.378 E.02272
G1 X85.222 Y66.373 E.02138
G1 X84.103 Y66.076 E.0363
G1 X83.295 Y65.584 E.02966
G1 X82.764 Y65.06 E.02339
G1 X82.381 Y64.495 E.0214
G1 X82.086 Y63.794 E.02385
G1 X81.946 Y63.086 E.02263
G1 X81.946 Y62.377 E.02223
G1 X82.086 Y61.669 E.02263
G1 X82.379 Y60.972 E.02371
G1 X82.549 Y60.72 E.00953
M204 S1000
G1 X82.868 Y60.894 F6000
M204 S800
G1 F1200
G1 X83.275 Y60.402 E.02002
G1 X83.798 Y59.979 E.02109
G1 X84.371 Y59.682 E.02024
G1 X85.048 Y59.493 E.02204
G1 X85.552 Y59.449 E.01586
G1 X86.571 Y59.598 E.03229
G1 X87.163 Y59.85 E.02017
G1 X87.718 Y60.232 E.02113
G1 X88.155 Y60.683 E.01969
G1 X88.494 Y61.202 E.01944
G1 X88.751 Y61.849 E.02183
G1 X88.863 Y62.485 E.02025
G1 X88.853 Y63.087 E.01888
G1 X88.726 Y63.7 E.01963
G1 X88.581 Y64.08 E.01275
G1 X88.121 Y64.822 E.02737
G1 X87.663 Y65.277 E.02024
G1 X87.147 Y65.621 E.01944
G1 X86.502 Y65.885 E.02185
G1 X85.867 Y66.003 E.02025
G1 X85.265 Y65.999 E.01888
G1 X84.651 Y65.878 E.01962
G1 X83.823 Y65.499 E.02855
G1 X83.287 Y65.073 E.02147
G1 X82.566 Y64.015 E.04014
G1 X82.368 Y63.369 E.02118
G1 X82.305 Y62.73 E.02013
G1 X82.368 Y62.093 E.02007
G1 X82.559 Y61.467 E.02052
G1 X82.839 Y60.946 E.01855
M204 S1000
G1 X83.156 Y61.162 F6000
M204 S800
G1 F1200
G1 X83.348 Y60.88 E.0107
G1 X83.739 Y60.489 E.01734
G1 X84.236 Y60.159 E.01871
G1 X84.765 Y59.944 E.0179
G1 X85.892 Y59.841 E.03548
G1 X86.467 Y59.961 E.01842
G1 X86.991 Y60.186 E.01788
G1 X87.482 Y60.526 E.01873
G1 X87.865 Y60.924 E.01732
G1 X88.156 Y61.369 E.01667
G1 X88.391 Y61.959 E.01991
G1 X88.487 Y62.518 E.01778
G1 X88.478 Y63.041 E.0164
G1 X88.244 Y63.911 E.02825
G1 X87.824 Y64.589 E.02501
G1 X87.418 Y64.99 E.01789
G1 X86.976 Y65.285 E.01666
G1 X86.388 Y65.525 E.01991
G1 X85.83 Y65.627 E.01779
G1 X85.308 Y65.624 E.01637
G1 X84.435 Y65.398 E.02827
G1 X83.753 Y64.984 E.02502
G1 X83.34 Y64.572 E.01829
G1 X83.047 Y64.14 E.01637
G1 X82.803 Y63.558 E.01979
G1 X82.695 Y62.997 E.01791
G1 X82.695 Y62.466 E.01665
G1 X82.803 Y61.904 E.01794
G1 X83.049 Y61.319 E.0199
G1 X83.122 Y61.212 E.00406
M204 S1000
;WIPE_START
G1 F4800
G1 X83.156 Y61.162 E-.02513
G1 X83.348 Y60.88 E-.14179
G1 X83.739 Y60.489 E-.22982
G1 X84.236 Y60.159 E-.24795
G1 X84.765 Y59.944 E-.23733
G1 X85.048 Y59.918 E-.11798
;WIPE_END
