; generated by PrusaSlicer 2.2.0+ on 2020-05-20 at 15:22:31 UTC


;
;

;
;
; 

; external perimeters extrusion width = 0.45mm
; perimeters extrusion width = 0.45mm
; infill extrusion width = 0.45mm
; solid infill extrusion width = 0.45mm
; top infill extrusion width = 0.40mm
; first layer extrusion width = 0.42mm

M73 P0 R45
M201 X9000 Y9000 Z500 E10000 ; sets maximum accelerations, mm/sec^2
M203 X500 Y500 Z12 E120 ; sets maximum feedrates, mm/sec
M204 P2000 R1500 T2000 ; sets acceleration (P, T) and retract acceleration (R), mm/sec^2
M205 X10.00 Y10.00 Z0.20 E4.50 ; sets the jerk limits, mm/sec
M205 S0 T0 ; sets the minimum extruding and travel feed rate, mm/sec
M107
M83  ; extruder relative mode
M140 S75 ; set bed temp
M109 S160 ; Set extruder temp before bed level
M190 S75 ; wait for bed temp

G28 W ; home all without mesh bed level
G80 N7 ; mesh bed leveling

M109 S240 ; wait for extruder temp

M221 S100 ; Set flow to 100

G1 Y-3.0 F1000.0 ; go outside print area
G92 E0.0
G1 E8 ; Purge Bubble
M73 P0 R45
G1 X60.0 E9.0 F1000.0 ; intro line
G1 X100.0 E12.5 F1000.0 ; intro line
G92 E0.0
G21 ; set units to millimeters
G90 ; use absolute coordinates
M83 ; use relative distances for extrusion
M900 K45; Filament gcode
;BEFORE_LAYER_CHANGE
G92 E0.0
;0.2


G1 E-0.80000 F2100.00000
G1 Z0.600 F10800.000
;AFTER_LAYER_CHANGE
;0.2
G1 X100.024 Y82.313
G1 Z0.200
G1 E0.80000 F2100.00000
M204 S1000
G1 F1200.000
G1 X100.982 Y81.219 E0.04195
G1 X102.043 Y80.240 E0.04162
G1 X103.214 Y79.371 E0.04206
G1 X104.457 Y78.640 E0.04162
G1 X105.778 Y78.040 E0.04184
G1 X107.155 Y77.585 E0.04184
G1 X108.577 Y77.278 E0.04195
G1 X110.724 Y77.106 E0.06214
G1 X139.266 Y77.106 E0.82331
G1 X141.485 Y77.289 E0.06423
G1 X142.847 Y77.586 E0.04020
G1 X144.159 Y78.017 E0.03987
G1 X145.648 Y78.697 E0.04721
G1 X146.798 Y79.379 E0.03855
G1 X147.914 Y80.206 E0.04009
G1 X149.107 Y81.315 E0.04699
G1 X149.985 Y82.323 E0.03855
G1 X150.814 Y83.504 E0.04162
G1 X151.513 Y84.766 E0.04162
G1 X152.036 Y85.996 E0.03855
G1 X152.511 Y87.546 E0.04677
G1 X152.769 Y88.931 E0.04063
G1 X152.885 Y90.407 E0.04272
G1 X152.850 Y120.281 E0.86175
G1 X152.652 Y121.791 E0.04392
G1 X152.272 Y123.305 E0.04502
G1 X151.817 Y124.557 E0.03844
G1 X151.238 Y125.757 E0.03844
G1 X150.427 Y127.073 E0.04458
G1 X149.518 Y128.233 E0.04250
G1 X148.506 Y129.272 E0.04184
G1 X147.389 Y130.198 E0.04184
G1 X146.174 Y131.003 E0.04206
G1 X144.890 Y131.670 E0.04173
G1 X143.532 Y132.200 E0.04206
G1 X142.132 Y132.581 E0.04184
G1 X140.617 Y132.818 E0.04425
G1 X139.267 Y132.887 E0.03899
G1 X110.738 Y132.887 E0.82294
G1 X109.381 Y132.818 E0.03918
G1 X107.855 Y132.578 E0.04458
G1 X106.355 Y132.160 E0.04491
G1 X105.108 Y131.669 E0.03866
G1 X103.931 Y131.061 E0.03822
G1 X102.680 Y130.247 E0.04304
G1 X101.501 Y129.278 E0.04403
G1 X100.488 Y128.240 E0.04184
G1 X99.587 Y127.093 E0.04206
G1 X98.820 Y125.867 E0.04173
G1 X98.184 Y124.559 E0.04195
G1 X97.691 Y123.194 E0.04184
G1 X97.346 Y121.782 E0.04195
G1 X97.153 Y120.333 E0.04217
G1 X97.119 Y90.300 E0.86631
G1 X97.251 Y88.805 E0.04330
G1 X97.500 Y87.500 E0.03833
G1 X97.884 Y86.216 E0.03866
G1 X98.483 Y84.774 E0.04502
G1 X99.244 Y83.416 E0.04491
G1 X99.989 Y82.362 E0.03726
@Object support_ps3.STL id:0 copy 2
G1 F8640.000
G1 X100.982 Y81.219 E-0.34960
G1 X102.043 Y80.240 E-0.33317
G1 X102.311 Y80.041 E-0.07724
G1 E-0.04000 F2100.00000
G1 Z0.800 F10800.000
G1 X131.767 Y111.961
G1 Z0.200
G1 E0.80000 F2100.00000
G1 F1200.000
G1 X132.585 Y111.206 E0.03212
G1 X133.479 Y110.542 E0.03212
G1 X134.438 Y109.976 E0.03212
G1 X135.452 Y109.516 E0.03212
G1 X136.510 Y109.166 E0.03212
G1 X137.598 Y108.931 E0.03212
G1 X138.715 Y108.812 E0.03240
G1 X139.296 Y108.798 E0.01676
G1 X139.808 Y108.812 E0.01479
G1 X140.926 Y108.931 E0.03243
G1 X142.015 Y109.166 E0.03212
G1 X143.072 Y109.516 E0.03212
G1 X144.086 Y109.976 E0.03212
G1 X145.045 Y110.542 E0.03212
G1 X145.939 Y111.206 E0.03212
G1 X146.757 Y111.961 E0.03212
G1 X147.491 Y112.799 E0.03212
G1 X148.092 Y113.655 E0.03018
G1 X148.671 Y114.686 E0.03411
G1 X149.103 Y115.711 E0.03207
G1 X149.425 Y116.777 E0.03212
G1 X149.631 Y117.871 E0.03212
G1 X149.720 Y118.981 E0.03212
G1 X149.690 Y120.094 E0.03212
G1 X149.543 Y121.198 E0.03212
G1 X149.278 Y122.280 E0.03212
G1 X148.901 Y123.327 E0.03212
G1 X148.414 Y124.329 E0.03212
G1 X147.823 Y125.273 E0.03212
G1 X147.135 Y126.149 E0.03212
G1 X146.358 Y126.947 E0.03212
G1 X145.501 Y127.657 E0.03212
G1 X144.573 Y128.273 E0.03212
G1 X143.585 Y128.786 E0.03212
G1 X142.548 Y129.192 E0.03212
G1 X141.473 Y129.485 E0.03212
G1 X140.374 Y129.662 E0.03212
G1 X139.262 Y129.721 E0.03212
G1 X138.150 Y129.662 E0.03212
G1 X137.051 Y129.485 E0.03212
G1 X135.976 Y129.192 E0.03212
G1 X134.939 Y128.786 E0.03212
G1 X133.951 Y128.273 E0.03212
G1 X133.023 Y127.657 E0.03212
G1 X132.166 Y126.947 E0.03212
G1 X131.389 Y126.149 E0.03212
G1 X130.701 Y125.273 E0.03212
G1 X130.110 Y124.329 E0.03212
G1 X129.623 Y123.327 E0.03212
G1 X129.246 Y122.280 E0.03212
G1 X128.981 Y121.198 E0.03212
G1 X128.834 Y120.094 E0.03212
G1 X128.804 Y118.981 E0.03212
G1 X128.893 Y117.871 E0.03212
G1 X129.099 Y116.777 E0.03212
G1 X129.421 Y115.711 E0.03212
G1 X129.854 Y114.685 E0.03212
G1 X130.393 Y113.710 E0.03212
G1 X131.033 Y112.799 E0.03212
G1 X131.727 Y112.006 E0.03039
G1 X131.443 Y111.758 F10800.000
G1 F1200.000
G1 X132.344 Y110.915 E0.03558
G1 X133.270 Y110.227 E0.03328
G1 X134.264 Y109.641 E0.03328
G1 X135.315 Y109.164 E0.03328
G1 X136.410 Y108.802 E0.03328
G1 X137.538 Y108.558 E0.03328
G1 X138.690 Y108.435 E0.03343
G1 X139.296 Y108.421 E0.01749
G1 X139.833 Y108.435 E0.01550
G1 X140.986 Y108.558 E0.03344
G1 X142.114 Y108.802 E0.03328
G1 X143.209 Y109.164 E0.03328
G1 X144.260 Y109.641 E0.03328
G1 X145.254 Y110.227 E0.03328
G1 X146.180 Y110.915 E0.03328
G1 X147.028 Y111.698 E0.03328
G1 X147.788 Y112.566 E0.03328
G1 X148.412 Y113.454 E0.03130
G1 X149.010 Y114.520 E0.03527
G1 X149.459 Y115.582 E0.03326
G1 X149.792 Y116.687 E0.03328
G1 X150.006 Y117.821 E0.03328
G1 X150.098 Y118.971 E0.03328
G1 X150.067 Y120.124 E0.03328
G1 X149.914 Y121.268 E0.03328
G1 X149.640 Y122.389 E0.03328
G1 X149.249 Y123.474 E0.03328
G1 X148.744 Y124.512 E0.03328
G1 X148.132 Y125.490 E0.03328
G1 X147.419 Y126.397 E0.03328
G1 X146.615 Y127.224 E0.03328
G1 X145.726 Y127.961 E0.03328
G1 X144.765 Y128.598 E0.03328
G1 X143.741 Y129.130 E0.03328
G1 X142.666 Y129.551 E0.03328
G1 X141.553 Y129.854 E0.03328
G1 X140.414 Y130.038 E0.03328
G1 X139.262 Y130.099 E0.03328
G1 X138.110 Y130.038 E0.03328
G1 X136.971 Y129.854 E0.03328
G1 X135.858 Y129.551 E0.03328
G1 X134.783 Y129.130 E0.03328
G1 X133.759 Y128.598 E0.03328
G1 X132.798 Y127.961 E0.03328
G1 X131.910 Y127.224 E0.03328
G1 X131.105 Y126.397 E0.03328
G1 X130.392 Y125.490 E0.03328
G1 X129.780 Y124.512 E0.03328
G1 X129.276 Y123.474 E0.03328
G1 X128.884 Y122.389 E0.03328
G1 X128.610 Y121.268 E0.03328
G1 X128.457 Y120.124 E0.03328
G1 X128.426 Y118.971 E0.03328
G1 X128.519 Y117.821 E0.03328
G1 X128.732 Y116.687 E0.03328
G1 X129.065 Y115.582 E0.03328
G1 X129.514 Y114.519 E0.03328
G1 X130.073 Y113.510 E0.03328
G1 X130.736 Y112.566 E0.03328
G1 X131.404 Y111.803 E0.02924
G1 X131.832 Y111.854 F10800.000
G1 F8640.000
G1 X132.344 Y110.915 E-0.29860
G1 X133.270 Y110.227 E-0.26641
G1 X133.998 Y109.798 E-0.19499
G1 E-0.04000 F2100.00000
G1 Z0.800 F10800.000
G1 X147.735 Y113.343
G1 Z0.200
G1 E0.80000 F2100.00000
G1 F1200.000
G1 X146.496 Y112.105 E0.05143
G1 X145.758 Y111.424 E0.02948
G1 X144.889 Y110.778 E0.03181
G1 X144.250 Y110.401 E0.02178
G1 X148.106 Y114.257 E0.16012
G1 X148.417 Y114.811 E0.01864
G1 X148.636 Y115.330 E0.01655
G1 X143.183 Y109.877 E0.22642
G1 X142.969 Y109.780 E0.00691
G1 X142.332 Y109.569 E0.01967
G1 X148.952 Y116.189 E0.27488
G1 X149.170 Y116.949 E0.02321
G1 X141.583 Y109.362 E0.31504
G1 X140.890 Y109.213 E0.02080
G1 X149.296 Y117.618 E0.34903
G1 X149.351 Y117.909 E0.00867
G1 X149.377 Y118.243 E0.00984
G1 X140.281 Y109.146 E0.37769
G1 X139.683 Y109.091 E0.01764
G1 X149.425 Y118.833 E0.40449
G1 X149.427 Y119.378 E0.01600
G1 X139.134 Y109.085 E0.42739
G1 X138.613 Y109.107 E0.01530
G1 X149.413 Y119.906 E0.44842
G1 X149.364 Y120.401 E0.01458
G1 X138.123 Y109.159 E0.46676
G1 X137.633 Y109.213 E0.01445
G1 X149.300 Y120.879 E0.48442
G1 X149.217 Y121.339 E0.01372
G1 X137.187 Y109.309 E0.49951
G1 X136.741 Y109.406 E0.01341
G1 X149.111 Y121.775 E0.51362
G1 X149.003 Y122.210 E0.01316
G1 X136.320 Y109.527 E0.52664
G1 X135.912 Y109.662 E0.01261
G1 X148.859 Y122.609 E0.53760
G1 X148.715 Y123.008 E0.01245
G1 X135.508 Y109.801 E0.54838
G1 X135.135 Y109.971 E0.01204
G1 X148.555 Y123.391 E0.55724
G1 X148.378 Y123.756 E0.01192
G1 X134.761 Y110.140 E0.56537
G1 X134.403 Y110.325 E0.01183
G1 X148.200 Y124.122 E0.57286
G1 X147.997 Y124.461 E0.01162
G1 X134.062 Y110.526 E0.57862
G1 X133.720 Y110.727 E0.01164
G1 X147.788 Y124.795 E0.58413
G1 X147.578 Y125.127 E0.01155
G1 X133.401 Y110.951 E0.58862
G1 X133.090 Y111.183 E0.01139
G1 X147.339 Y125.432 E0.59164
G1 X147.100 Y125.736 E0.01135
G1 X132.779 Y111.414 E0.59466
G1 X132.495 Y111.673 E0.01128
G1 X146.854 Y126.032 E0.59621
G1 X146.586 Y126.307 E0.01127
G1 X132.213 Y111.934 E0.59681
G1 X131.970 Y112.159 E0.00973
G1 X131.935 Y112.198 E0.00155
G1 X146.318 Y126.582 E0.59725
G1 X146.038 Y126.845 E0.01127
G1 X131.681 Y112.488 E0.59613
G1 X131.428 Y112.777 E0.01129
G1 X145.741 Y127.091 E0.59432
G1 X145.445 Y127.337 E0.01132
G1 X131.184 Y113.076 E0.59213
G1 X130.960 Y113.395 E0.01144
G1 X145.130 Y127.565 E0.58834
G1 X144.803 Y127.781 E0.01150
G1 X130.736 Y113.714 E0.58409
G1 X130.529 Y114.049 E0.01158
G1 X144.477 Y127.997 E0.57916
G1 X144.124 Y128.188 E0.01176
G1 X130.335 Y114.399 E0.57255
G1 X130.142 Y114.748 E0.01172
G1 X143.767 Y128.373 E0.56575
G1 X143.404 Y128.553 E0.01189
G1 X129.975 Y115.124 E0.55762
G1 X129.814 Y115.506 E0.01216
G1 X143.014 Y128.706 E0.54810
G1 X142.624 Y128.859 E0.01230
G1 X129.660 Y115.895 E0.53828
G1 X129.535 Y116.312 E0.01279
G1 X142.213 Y128.990 E0.52643
G1 X141.786 Y129.107 E0.01298
G1 X129.409 Y116.729 E0.51394
M73 P2 R44
G1 X129.312 Y117.175 E0.01339
G1 X141.355 Y129.218 E0.50005
G1 X140.887 Y129.293 E0.01390
G1 X129.226 Y117.631 E0.48422
G1 X129.158 Y118.106 E0.01408
G1 X140.420 Y129.368 E0.46763
G1 X139.912 Y129.404 E0.01494
G1 X129.117 Y118.609 E0.44823
G1 X129.091 Y119.125 E0.01517
G1 X139.397 Y129.431 E0.42794
G1 X138.839 Y129.416 E0.01639
G1 X129.106 Y119.682 E0.40415
G1 X129.116 Y120.072 E0.01144
G1 X129.141 Y120.261 E0.00560
G1 X138.266 Y129.385 E0.37886
G1 X137.629 Y129.292 E0.01887
G1 X129.225 Y120.887 E0.34897
G1 X129.260 Y121.146 E0.00765
G1 X129.363 Y121.568 E0.01277
G1 X136.963 Y129.168 E0.31557
G1 X136.216 Y128.964 E0.02271
G1 X129.554 Y122.302 E0.27662
G1 X129.861 Y123.151 E0.02650
G1 X135.355 Y128.645 E0.22813
G1 X135.056 Y128.529 E0.00941
G1 X134.305 Y128.138 E0.02487
G1 X130.358 Y124.192 E0.16386
G1 X130.933 Y125.110 E0.03181
G1 X131.602 Y125.962 E0.03181
G1 X133.387 Y127.763 E0.07444
; stop printing object support_ps3.STL id:0 copy 2
@Object support_ps3.STL id:0 copy 3
G1 F8640.000
G1 X131.602 Y125.962 E-0.58540
G1 X131.135 Y125.368 E-0.17460
G1 E-0.04000 F2100.00000
G1 Z0.800 F10800.000
G1 X120.377 Y123.327
G1 Z0.200
G1 E0.80000 F2100.00000
G1 F1200.000
G1 X119.890 Y124.329 E0.03212
G1 X119.299 Y125.273 E0.03212
G1 X118.611 Y126.149 E0.03212
G1 X117.834 Y126.947 E0.03212
G1 X116.977 Y127.657 E0.03212
G1 X116.049 Y128.273 E0.03212
G1 X115.061 Y128.786 E0.03212
G1 X114.024 Y129.192 E0.03212
G1 X112.949 Y129.485 E0.03212
G1 X111.850 Y129.662 E0.03212
G1 X110.738 Y129.721 E0.03212
G1 X109.626 Y129.662 E0.03212
G1 X108.527 Y129.485 E0.03212
G1 X107.452 Y129.192 E0.03212
G1 X106.415 Y128.786 E0.03212
G1 X105.427 Y128.273 E0.03212
G1 X104.499 Y127.657 E0.03212
G1 X103.642 Y126.947 E0.03212
G1 X102.865 Y126.149 E0.03212
G1 X102.177 Y125.273 E0.03212
G1 X101.586 Y124.329 E0.03212
G1 X101.099 Y123.327 E0.03212
G1 X100.722 Y122.280 E0.03212
G1 X100.457 Y121.198 E0.03212
G1 X100.310 Y120.094 E0.03212
G1 X100.280 Y118.981 E0.03212
G1 X100.369 Y117.871 E0.03212
G1 X100.575 Y116.777 E0.03212
G1 X100.897 Y115.711 E0.03212
G1 X101.330 Y114.685 E0.03212
G1 X101.869 Y113.710 E0.03212
G1 X102.509 Y112.799 E0.03212
G1 X103.243 Y111.961 E0.03212
G1 X104.061 Y111.206 E0.03212
G1 X104.955 Y110.542 E0.03212
G1 X105.914 Y109.976 E0.03212
G1 X106.928 Y109.516 E0.03212
G1 X107.985 Y109.166 E0.03212
G1 X109.074 Y108.931 E0.03212
G1 X110.191 Y108.812 E0.03240
G1 X110.772 Y108.798 E0.01676
G1 X111.284 Y108.812 E0.01479
G1 X112.402 Y108.931 E0.03243
G1 X113.490 Y109.166 E0.03212
G1 X114.548 Y109.516 E0.03212
G1 X115.562 Y109.976 E0.03212
G1 X116.521 Y110.542 E0.03212
G1 X117.415 Y111.206 E0.03212
G1 X118.233 Y111.961 E0.03212
G1 X118.967 Y112.799 E0.03212
G1 X119.568 Y113.655 E0.03018
G1 X120.147 Y114.686 E0.03411
G1 X120.579 Y115.711 E0.03207
G1 X120.901 Y116.777 E0.03212
G1 X121.107 Y117.871 E0.03212
G1 X121.196 Y118.981 E0.03212
G1 X121.166 Y120.094 E0.03212
G1 X121.019 Y121.198 E0.03212
G1 X120.754 Y122.280 E0.03212
G1 X120.397 Y123.271 E0.03039
G1 X120.752 Y123.399 F10800.000
G1 F1200.000
G1 X120.220 Y124.512 E0.03558
G1 X119.608 Y125.490 E0.03328
G1 X118.895 Y126.397 E0.03328
G1 X118.090 Y127.224 E0.03328
G1 X117.202 Y127.961 E0.03328
G1 X116.241 Y128.598 E0.03328
G1 X115.217 Y129.130 E0.03328
G1 X114.142 Y129.551 E0.03328
G1 X113.029 Y129.854 E0.03328
G1 X111.890 Y130.038 E0.03328
G1 X110.738 Y130.099 E0.03328
G1 X109.586 Y130.038 E0.03328
G1 X108.447 Y129.854 E0.03328
G1 X107.334 Y129.551 E0.03328
G1 X106.259 Y129.130 E0.03328
G1 X105.235 Y128.598 E0.03328
G1 X104.274 Y127.961 E0.03328
G1 X103.385 Y127.224 E0.03328
G1 X102.581 Y126.397 E0.03328
G1 X101.868 Y125.490 E0.03328
G1 X101.256 Y124.512 E0.03328
G1 X100.751 Y123.474 E0.03328
G1 X100.360 Y122.389 E0.03328
G1 X100.086 Y121.268 E0.03328
G1 X99.933 Y120.124 E0.03328
G1 X99.902 Y118.971 E0.03328
G1 X99.994 Y117.821 E0.03328
G1 X100.208 Y116.687 E0.03328
G1 X100.541 Y115.582 E0.03328
G1 X100.990 Y114.519 E0.03328
G1 X101.549 Y113.510 E0.03328
G1 X102.212 Y112.566 E0.03328
G1 X102.972 Y111.698 E0.03328
G1 X103.820 Y110.915 E0.03328
G1 X104.746 Y110.227 E0.03328
G1 X105.740 Y109.641 E0.03328
G1 X106.791 Y109.164 E0.03328
G1 X107.886 Y108.802 E0.03328
G1 X109.014 Y108.558 E0.03328
G1 X110.166 Y108.435 E0.03343
G1 X110.772 Y108.421 E0.01749
G1 X111.309 Y108.435 E0.01550
G1 X112.462 Y108.558 E0.03344
G1 X113.590 Y108.802 E0.03328
G1 X114.685 Y109.164 E0.03328
G1 X115.736 Y109.641 E0.03328
G1 X116.730 Y110.227 E0.03328
G1 X117.656 Y110.915 E0.03328
G1 X118.504 Y111.698 E0.03328
G1 X119.264 Y112.566 E0.03328
G1 X119.888 Y113.454 E0.03130
G1 X120.486 Y114.520 E0.03527
G1 X120.935 Y115.582 E0.03326
G1 X121.268 Y116.687 E0.03328
G1 X121.481 Y117.821 E0.03328
G1 X121.574 Y118.971 E0.03328
G1 X121.543 Y120.124 E0.03328
G1 X121.390 Y121.268 E0.03328
G1 X121.116 Y122.389 E0.03328
G1 X120.772 Y123.342 E0.02924
G1 X120.355 Y123.451 F10800.000
G1 F8640.000
G1 X120.220 Y124.512 E-0.29860
G1 X119.608 Y125.490 E-0.26641
G1 X119.086 Y126.154 E-0.19499
G1 E-0.04000 F2100.00000
G1 Z0.800 F10800.000
G1 X104.863 Y127.763
G1 Z0.200
G1 E0.80000 F2100.00000
G1 F1200.000
G1 X103.078 Y125.962 E0.07444
G1 X102.409 Y125.110 E0.03181
G1 X101.834 Y124.192 E0.03181
G1 X105.781 Y128.138 E0.16386
G1 X106.532 Y128.529 E0.02487
G1 X106.831 Y128.645 E0.00941
G1 X101.336 Y123.151 E0.22813
G1 X101.030 Y122.302 E0.02650
G1 X107.692 Y128.964 E0.27662
G1 X108.439 Y129.168 E0.02271
G1 X100.839 Y121.568 E0.31557
G1 X100.736 Y121.146 E0.01277
G1 X100.701 Y120.887 E0.00765
G1 X109.105 Y129.292 E0.34897
G1 X109.741 Y129.385 E0.01887
G1 X100.617 Y120.261 E0.37886
G1 X100.592 Y120.072 E0.00560
G1 X100.581 Y119.682 E0.01144
G1 X110.315 Y129.416 E0.40415
G1 X110.873 Y129.431 E0.01639
G1 X100.567 Y119.125 E0.42794
G1 X100.593 Y118.609 E0.01517
G1 X111.388 Y129.404 E0.44823
G1 X111.896 Y129.368 E0.01494
G1 X100.634 Y118.106 E0.46763
G1 X100.702 Y117.631 E0.01408
G1 X112.363 Y129.293 E0.48422
G1 X112.831 Y129.218 E0.01390
G1 X100.788 Y117.175 E0.50005
G1 X100.885 Y116.729 E0.01339
G1 X113.262 Y129.107 E0.51394
G1 X113.689 Y128.990 E0.01298
