; generated by PrusaSlicer 2.9.4 on 2026-03-12 at 20:31:55 UTC


;
;

;
;
; 

; external perimeters extrusion width = 0.45mm
; perimeters extrusion width = 0.45mm
; infill extrusion width = 0.45mm
; solid infill extrusion width = 0.45mm
; top infill extrusion width = 0.40mm
; first layer extrusion width = 0.42mm

M73 P0 R8
M201 X9000 Y9000 Z500 E10000 ; sets maximum accelerations, mm/sec^2
M203 X500 Y500 Z12 E120 ; sets maximum feedrates, mm / sec
M204 S2000 T1500 ; sets acceleration (S) and retract acceleration (R), mm/sec^2
M205 X10.00 Y10.00 Z0.20 E4.50 ; sets the jerk limits, mm/sec
M205 S0 T0 ; sets the minimum extruding and travel feed rate, mm/sec

; printing object M3 spacer 5m.stl id:0 copy 0
; stop printing object M3 spacer 5m.stl id:0 copy 0
; printing object M3 spacer 5m.stl id:0 copy 1
; stop printing object M3 spacer 5m.stl id:0 copy 1
; printing object M3 spacer 5m.stl id:0 copy 2
; stop printing object M3 spacer 5m.stl id:0 copy 2
; printing object M3 spacer 5m.stl id:0 copy 3
; stop printing object M3 spacer 5m.stl id:0 copy 3

;TYPE:Custom
M83  ; extruder relative mode
M140 S85 ; set bed temp
M109 S160 ; Set extruder temp before bed level
M190 S85 ; wait for bed temp

G28 W ; home all without mesh bed level
G80 N7 ; mesh bed leveling

M109 S240 ; wait for extruder temp

M221 S100 ; Set flow to 100

G1 Y-3.0 F1000.0 ; go outside print area
G92 E0.0
G1 E8 ; Purge Bubble
G1 X60.0 E9.0 F1000.0 ; intro line
G1 X100.0 E12.5 F1000.0 ; intro line
G92 E0.0
G21 ; set units to millimeters
G90 ; use absolute coordinates
M83 ; use relative distances for extrusion

M900 K0.08 ; Filament gcode LA 1.5
M900 K45 ; Filament gcode LA 1.0




M107
;LAYER_CHANGE
;Z:0.2
;HEIGHT:0.2
G1 E-1 F2100
M73 P1 R7
G1 Z.4 F720
G1 X96.11 Y77.507 F10800
G1 Z.2 F720
G1 E1 F2100
M204 S800
;TYPE:Skirt/Brim
;WIDTH:0.42
G1 F1200
G1 X97.507 Y76.11 E.06195
G1 X98.411 Y75.447 E.03515
G1 X99.216 Y74.974 E.02927
G1 X100.164 Y74.535 E.03276
G1 X101.226 Y74.174 E.03517
G1 X103.171 Y73.831 E.06193
G1 X146.151 Y73.802 E1.34761
G1 X147.865 Y73.965 E.05398
M73 P2 R7
G1 X149.616 Y74.449 E.05696
G1 X151.212 Y75.213 E.05548
G1 X152.829 Y76.399 E.06288
G1 X154.067 Y77.729 E.05697
G1 X155.026 Y79.216 E.05548
G1 X155.712 Y80.847 E.05548
G1 X156.105 Y82.572 E.05547
G1 X156.199 Y83.897 E.04165
G1 X156.187 Y126.546 E1.33723
G1 X155.98 Y128.143 E.05049
G1 X155.551 Y129.616 E.0481
G1 X154.867 Y131.075 E.05052
G1 X153.89 Y132.493 E.05399
G1 X153.152 Y133.298 E.03424
G1 X152.309 Y134.038 E.03517
G1 X150.643 Y135.099 E.06193
G1 X149.616 Y135.551 E.03518
G1 X148.621 Y135.867 E.03273
G1 X147.475 Y136.098 E.03665
G1 X146.387 Y136.193 E.03424
G1 X103.454 Y136.187 E1.34613
G1 X101.856 Y135.98 E.05052
M73 P3 R7
G1 X100.384 Y135.551 E.04807
G1 X98.925 Y134.867 E.05052
G1 X97.507 Y133.89 E.05399
G1 X96.702 Y133.152 E.03424
G1 X95.933 Y132.271 E.03667
G1 X95.336 Y131.414 E.03275
G1 X94.796 Y130.431 E.03517
G1 X94.378 Y129.422 E.03424
G1 X94.065 Y128.345 E.03517
G1 X93.807 Y126.387 E.06192
G1 X93.813 Y83.454 E1.34613
G1 X94.02 Y81.856 E.05052
G1 X94.449 Y80.384 E.04807
G1 X95.133 Y78.925 E.05052
G1 X96.076 Y77.556 E.05212
M204 S1000
;WIPE_START
G1 F8640
G1 X96.11 Y77.507 E-.01377
G1 X97.507 Y76.11 E-.45618
G1 X98.411 Y75.447 E-.25886
G1 X99.216 Y74.974 E-.21559
G1 X99.434 Y74.873 E-.0556
;WIPE_END
G1 Z.4 F720
G1 X140.782 Y120.458 F10800
G1 Z.2 F720
M73 P4 R7
G1 E1 F2100
M204 S800
G1 F1200
G1 X142.012 Y119.515 E.0486
G1 X143.289 Y118.881 E.0447
G1 X144.827 Y118.466 E.04995
G1 X146.49 Y118.384 E.05221
G1 X147.859 Y118.586 E.04339
G1 X149.199 Y119.045 E.04441
G1 X150.566 Y119.839 E.04957
G1 X151.636 Y120.782 E.04472
G1 X152.58 Y122.012 E.04861
G1 X153.214 Y123.289 E.0447
G1 X153.627 Y124.816 E.0496
G1 X153.724 Y126.244 E.04488
G1 X153.513 Y127.844 E.0506
G1 X153.05 Y129.198 E.04487
G1 X152.256 Y130.566 E.04959
G1 X151.313 Y131.636 E.04472
G1 X150.083 Y132.58 E.04861
G1 X148.806 Y133.214 E.0447
G1 X147.279 Y133.627 E.0496
G1 X145.854 Y133.724 E.04478
G1 X144.284 Y133.521 E.04964
G1 X142.929 Y133.064 E.04484
G1 X141.53 Y132.257 E.05064
G1 X140.458 Y131.313 E.04479
G1 X139.515 Y130.083 E.0486
G1 X138.881 Y128.806 E.0447
G1 X138.468 Y127.279 E.0496
G1 X138.371 Y125.854 E.04478
G1 X138.574 Y124.284 E.04964
G1 X139.03 Y122.928 E.04486
G1 X139.838 Y121.53 E.05063
G1 X140.742 Y120.503 E.0429
M204 S1000
G1 X141.012 Y120.763 F10800
M204 S800
G1 F1200
G1 X141.044 Y120.73 E.00144
G1 X142.206 Y119.838 E.04593
G1 X142.81 Y119.505 E.02163
G1 X143.429 Y119.232 E.02121
G1 X144.881 Y118.84 E.04716
G1 X145.652 Y118.76 E.0243
G1 X146.476 Y118.761 E.02584
G1 X147.765 Y118.951 E.04085
G1 X148.42 Y119.145 E.02142
G1 X149.048 Y119.391 E.02115
G1 X150.341 Y120.142 E.04688
G1 X150.867 Y120.566 E.02118
G1 X151.365 Y121.044 E.02164
G1 X152.257 Y122.206 E.04593
G1 X152.589 Y122.81 E.02161
G1 X152.863 Y123.428 E.0212
G1 X153.254 Y124.872 E.04691
G1 X153.33 Y125.56 E.0217
G1 X153.346 Y126.238 E.02126
G1 X153.147 Y127.752 E.04788
G1 X152.956 Y128.403 E.02127
G1 X152.704 Y129.047 E.02168
G1 X151.953 Y130.341 E.04691
G1 X151.529 Y130.867 E.02118
G1 X151.051 Y131.365 E.02164
G1 X149.889 Y132.257 E.04593
G1 X149.284 Y132.589 E.02164
G1 X148.666 Y132.863 E.0212
G1 X147.223 Y133.254 E.04688
G1 X146.552 Y133.329 E.02117
G1 X145.859 Y133.346 E.02174
G1 X144.375 Y133.155 E.04691
G1 X143.711 Y132.962 E.02168
G1 X143.078 Y132.718 E.02127
G1 X141.755 Y131.954 E.0479
G1 X141.227 Y131.529 E.02125
G1 X140.73 Y131.051 E.02162
G1 X139.838 Y129.889 E.04593
G1 X139.505 Y129.284 E.02165
G1 X139.232 Y128.666 E.02118
G1 X138.841 Y127.222 E.04691
G1 X138.766 Y126.551 E.02117
G1 X138.748 Y125.859 E.0217
G1 X138.94 Y124.375 E.04692
G1 X139.133 Y123.71 E.02171
M73 P5 R7
G1 X139.377 Y123.078 E.02124
G1 X140.14 Y121.755 E.04789
G1 X140.566 Y121.227 E.02127
G1 X140.971 Y120.806 E.01832
M204 S1000
G1 X141.256 Y121.058 F10800
M204 S800
G1 F1200
G1 X141.306 Y121.001 E.00238
G1 X142.401 Y120.161 E.04327
G1 X143.568 Y119.582 E.04085
G1 X144.935 Y119.213 E.0444
G1 X146.462 Y119.138 E.04794
G1 X147.671 Y119.317 E.03832
G1 X148.897 Y119.737 E.04063
G1 X150.116 Y120.444 E.04418
G1 X151.093 Y121.306 E.04085
G1 X151.933 Y122.4 E.04325
G1 X152.512 Y123.568 E.04087
G1 X152.881 Y124.929 E.04421
G1 X152.969 Y126.233 E.04098
G1 X152.781 Y127.66 E.04513
G1 X152.358 Y128.896 E.04096
G1 X151.65 Y130.115 E.0442
G1 X150.789 Y131.093 E.04085
G1 X149.694 Y131.933 E.04327
G1 X148.527 Y132.512 E.04085
G1 X147.166 Y132.881 E.04421
G1 X145.864 Y132.969 E.04092
G1 X144.466 Y132.789 E.0442
G1 X143.228 Y132.371 E.04097
G1 X141.981 Y131.652 E.04513
G1 X141.001 Y130.789 E.04094
G1 X140.161 Y129.694 E.04327
G1 X139.582 Y128.527 E.04085
G1 X139.214 Y127.166 E.04421
G1 X139.126 Y125.864 E.04092
G1 X139.306 Y124.466 E.0442
G1 X139.723 Y123.227 E.04099
G1 X140.443 Y121.981 E.04512
G1 X141.217 Y121.103 E.0367
M204 S1000
G1 X141.484 Y121.36 F10800
M204 S800
G1 F1200
G1 X141.568 Y121.273 E.00379
G1 X142.595 Y120.485 E.04059
G1 X143.145 Y120.181 E.0197
G1 X143.707 Y119.933 E.01926
G1 X144.99 Y119.586 E.04167
G1 X145.672 Y119.514 E.0215
G1 X146.448 Y119.515 E.02433
G1 X147.577 Y119.682 E.03578
G1 X148.175 Y119.858 E.01955
G1 X148.746 Y120.082 E.01923
G1 X149.89 Y120.747 E.04149
G1 X150.369 Y121.132 E.01927
G1 X150.822 Y121.568 E.01971
G1 X151.61 Y122.595 E.04059
G1 X151.914 Y123.145 E.0197
G1 X152.162 Y123.707 E.01926
G1 X152.508 Y124.985 E.04151
G1 X152.578 Y125.611 E.01975
G1 X152.592 Y126.227 E.01932
G1 X152.415 Y127.568 E.04241
G1 X152.242 Y128.159 E.01931
G1 X152.012 Y128.745 E.01974
G1 X151.348 Y129.89 E.0415
G1 X150.963 Y130.369 E.01927
G1 X150.527 Y130.822 E.01971
G1 X149.5 Y131.61 E.04059
G1 X148.949 Y131.914 E.01973
G1 X148.388 Y132.162 E.01923
G1 X147.11 Y132.507 E.04151
G1 X146.484 Y132.578 E.01975
G1 X145.87 Y132.592 E.01926
G1 X144.557 Y132.422 E.04151
G1 X143.967 Y132.253 E.01924
G1 X143.377 Y132.025 E.01983
G1 X142.206 Y131.349 E.04239
G1 X141.726 Y130.963 E.01931
G1 X141.273 Y130.527 E.01971
G1 X140.485 Y129.5 E.04059
G1 X140.181 Y128.949 E.01973
G1 X139.933 Y128.388 E.01923
G1 X139.587 Y127.11 E.04151
G1 X139.517 Y126.483 E.01978
G1 X139.503 Y125.87 E.01923
G1 X139.672 Y124.557 E.04151
G1 X139.847 Y123.951 E.01978
G1 X140.07 Y123.377 E.01931
G1 X140.746 Y122.206 E.04239
G1 X141.132 Y121.726 E.01931
G1 X141.443 Y121.403 E.01406
M204 S1000
G1 X141.731 Y121.657 F10800
M204 S800
G1 F1200
G1 X141.829 Y121.545 E.00467
G1 X142.79 Y120.808 E.03797
G1 X143.846 Y120.284 E.03696
G1 X145.045 Y119.96 E.03894
G1 X146.434 Y119.892 E.0436
G1 X147.484 Y120.048 E.03328
G1 X148.594 Y120.428 E.03679
M73 P6 R7
G1 X149.665 Y121.05 E.03883
G1 X150.55 Y121.829 E.03697
G1 X151.287 Y122.79 E.03797
G1 X151.811 Y123.846 E.03696
G1 X152.134 Y125.042 E.03884
G1 X152.215 Y126.221 E.03705
G1 X152.049 Y127.476 E.03969
G1 X151.667 Y128.594 E.03704
G1 X151.045 Y129.665 E.03883
G1 X150.265 Y130.55 E.03699
G1 X149.305 Y131.287 E.03795
G1 X148.248 Y131.811 E.03699
G1 X147.053 Y132.134 E.03881
G1 X145.876 Y132.214 E.03699
G1 X144.647 Y132.056 E.03885
G1 X143.527 Y131.679 E.03705
G1 X142.431 Y131.046 E.03968
G1 X141.545 Y130.265 E.03703
G1 X140.808 Y129.305 E.03795
G1 X140.284 Y128.248 E.03699
G1 X139.96 Y127.053 E.03882
G1 X139.88 Y125.875 E.03702
G1 X140.039 Y124.647 E.03882
G1 X140.416 Y123.527 E.03705
G1 X141.049 Y122.431 E.03968
G1 X141.691 Y121.702 E.03046
M204 S1000
G1 X141.956 Y121.957 F10800
M204 S800
G1 F1200
G1 X142.091 Y121.817 E.0061
G1 X142.985 Y121.131 E.03533
G1 X143.481 Y120.857 E.01777
G1 X143.985 Y120.635 E.01727
G1 X145.101 Y120.333 E.03625
G1 X145.692 Y120.268 E.01864
G1 X146.419 Y120.269 E.02279
G1 X147.931 Y120.572 E.04835
G1 X148.443 Y120.774 E.01726
G1 X149.44 Y121.353 E.03615
G1 X149.87 Y121.698 E.01729
G1 X150.278 Y122.091 E.01776
G1 X150.964 Y122.985 E.03533
G1 X151.238 Y123.48 E.01774
G1 X151.46 Y123.985 E.0173
G1 X151.761 Y125.098 E.03615
G1 X151.825 Y125.662 E.0178
G1 X151.837 Y126.215 E.01734
G1 X151.683 Y127.384 E.03697
G1 X151.529 Y127.915 E.01734
G1 X151.321 Y128.443 E.01779
G1 X150.742 Y129.44 E.03615
G1 X150.397 Y129.87 E.01729
G1 X150.004 Y130.278 E.01776
G1 X149.11 Y130.964 E.03533
G1 X148.614 Y131.238 E.01777
G1 X148.11 Y131.46 E.01727
G1 X146.996 Y131.761 E.03618
G1 X146.45 Y131.824 E.01723
G1 X145.881 Y131.837 E.01785
G1 X144.737 Y131.69 E.03616
G1 X144.192 Y131.533 E.01778
G1 X143.677 Y131.332 E.01733
G1 X142.655 Y130.743 E.03698
G1 X142.224 Y130.397 E.01733
G1 X141.817 Y130.004 E.01774
G1 X141.131 Y129.11 E.03533
G1 X140.857 Y128.614 E.01777
G1 X140.635 Y128.11 E.01727
G1 X140.333 Y126.996 E.03619
G1 X140.27 Y126.432 E.01779
G1 X140.257 Y125.881 E.01728
G1 X140.405 Y124.737 E.03617
G1 X140.562 Y124.192 E.01778
G1 X140.762 Y123.677 E.01732
G1 X141.352 Y122.655 E.037
G1 X141.698 Y122.224 E.01733
G1 X141.914 Y122 E.00976
M204 S1000
G1 X142.205 Y122.256 F10800
M204 S800
G1 F1200
G1 X142.352 Y122.089 E.00698
G1 X143.18 Y121.454 E.03272
G1 X144.124 Y120.985 E.03305
G1 X145.157 Y120.706 E.03355
G1 X146.405 Y120.646 E.03918
G1 X147.297 Y120.779 E.02828
G1 X148.291 Y121.119 E.03294
G1 X149.215 Y121.656 E.03351
G1 X150.006 Y122.352 E.03304
G1 X150.641 Y123.18 E.03272
G1 X151.109 Y124.124 E.03304
G1 X151.388 Y125.155 E.03349
G1 X151.46 Y126.208 E.03309
G1 X151.317 Y127.293 E.03431
G1 X150.976 Y128.291 E.03307
G1 X150.439 Y129.215 E.03351
G1 X149.742 Y130.006 E.03306
G1 X148.915 Y130.641 E.03269
G1 X147.971 Y131.109 E.03304
G1 X146.939 Y131.388 E.03352
G1 X145.887 Y131.46 E.03306
G1 X144.827 Y131.323 E.03351
G1 X143.827 Y130.986 E.03309
G1 X142.88 Y130.439 E.03429
G1 X142.089 Y129.742 E.03306
G1 X141.454 Y128.914 E.03272
G1 X140.985 Y127.971 E.03302
G1 X140.706 Y126.939 E.03352
M73 P7 R7
G1 X140.635 Y125.887 E.03306
G1 X140.772 Y124.827 E.03351
G1 X141.108 Y123.827 E.03308
G1 X141.655 Y122.88 E.03429
G1 X142.165 Y122.301 E.02419
M204 S1000
G1 X142.426 Y122.555 F10800
M204 S800
G1 F1200
G1 X142.613 Y122.361 E.00845
G1 X143.801 Y121.54 E.04528
G1 X144.263 Y121.336 E.01584
G1 X145.214 Y121.079 E.03089
G1 X145.713 Y121.022 E.01575
G1 X146.391 Y121.023 E.02126
G1 X147.687 Y121.285 E.04146
G1 X148.99 Y121.959 E.046
G1 X149.384 Y122.275 E.01584
G1 X149.733 Y122.613 E.01523
G1 X150.555 Y123.8 E.04527
G1 X150.758 Y124.263 E.01585
G1 X151.072 Y125.696 E.046
G1 X151.083 Y126.202 E.01587
G1 X150.951 Y127.201 E.0316
G1 X150.81 Y127.687 E.01587
G1 X150.136 Y128.99 E.046
G1 X149.82 Y129.384 E.01584
G1 X149.481 Y129.733 E.01526
G1 X148.294 Y130.555 E.04527
G1 X147.832 Y130.758 E.01582
G1 X146.398 Y131.072 E.04603
G1 X145.893 Y131.083 E.01584
G1 X144.449 Y130.823 E.046
G1 X143.977 Y130.64 E.01587
G1 X143.105 Y130.136 E.03158
G1 X142.71 Y129.82 E.01586
G1 X141.776 Y128.719 E.04527
G1 X141.54 Y128.294 E.01524
G1 X141.336 Y127.832 E.01584
G1 X141.023 Y126.398 E.04602
G1 X141.012 Y125.893 E.01584
G1 X141.271 Y124.449 E.046
G1 X141.455 Y123.977 E.01588
G1 X141.958 Y123.105 E.03156
G1 X142.275 Y122.71 E.01588
G1 X142.384 Y122.598 E.0049
M204 S1000
G1 X142.678 Y122.856 F10800
M204 S800
G1 F1200
G1 X142.874 Y122.634 E.00929
G1 X143.572 Y122.099 E.02757
G1 X144.402 Y121.687 E.02905
G1 X145.271 Y121.452 E.02823
G1 X146.35 Y121.398 E.03387
G1 X147.111 Y121.51 E.02412
G1 X147.987 Y121.81 E.02903
G1 X148.765 Y122.262 E.02821
G1 X149.46 Y122.874 E.02904
G1 X149.996 Y123.572 E.02759
G1 X150.407 Y124.402 E.02904
G1 X150.643 Y125.271 E.02823
G1 X150.705 Y126.196 E.02907
G1 X150.585 Y127.109 E.02887
G1 X150.285 Y127.987 E.02909
G1 X149.833 Y128.765 E.02821
G1 X149.221 Y129.46 E.02904
G1 X148.523 Y129.996 E.02759
G1 X147.693 Y130.407 E.02904
G1 X146.824 Y130.643 E.02823
G1 X145.899 Y130.705 E.02907
G1 X145.006 Y130.59 E.02823
G1 X144.127 Y130.294 E.02908
G1 X143.33 Y129.833 E.02887
G1 X142.634 Y129.221 E.02906
G1 X142.099 Y128.523 E.02757
G1 X141.687 Y127.693 E.02905
G1 X141.452 Y126.824 E.02823
G1 X141.389 Y125.899 E.02907
G1 X141.505 Y125.006 E.02823
G1 X141.801 Y124.127 E.02908
G1 X142.261 Y123.33 E.02885
G1 X142.639 Y122.902 E.0179
M204 S1000
G1 X142.921 Y123.15 F10800
M204 S800
G1 F1200
G1 X143.134 Y122.907 E.01013
G1 X143.768 Y122.421 E.02505
G1 X144.541 Y122.038 E.02705
G1 X145.33 Y121.825 E.02562
G1 X146.311 Y121.774 E.0308
G1 X147.018 Y121.876 E.0224
G1 X147.834 Y122.154 E.02703
G1 X148.54 Y122.565 E.02561
G1 X149.187 Y123.134 E.02702
G1 X149.674 Y123.768 E.02507
G1 X150.057 Y124.541 E.02705
G1 X150.27 Y125.329 E.02559
G1 X150.328 Y126.19 E.02706
G1 X150.219 Y127.018 E.02619
G1 X149.94 Y127.834 E.02704
G1 X149.53 Y128.54 E.0256
G1 X148.961 Y129.187 E.02702
G1 X148.326 Y129.674 E.02509
G1 X147.554 Y130.057 E.02702
G1 X146.765 Y130.27 E.02562
G1 X145.905 Y130.328 E.02703
G1 X145.095 Y130.223 E.02561
G1 X144.278 Y129.948 E.02703
G1 X143.555 Y129.53 E.02619
G1 X142.907 Y128.96 E.02706
G1 X142.421 Y128.326 E.02505
G1 X142.038 Y127.554 E.02702
G1 X141.825 Y126.765 E.02562
G1 X141.767 Y125.905 E.02703
G1 X141.871 Y125.095 E.02561
G1 X142.147 Y124.278 E.02704
G1 X142.564 Y123.555 E.02617
G1 X142.881 Y123.195 E.01504
M204 S1000
G1 X143.163 Y123.443 F10800
M204 S800
G1 F1200
G1 X143.394 Y123.181 E.01095
G1 X143.966 Y122.742 E.02261
M73 P8 R7
G1 X144.68 Y122.389 E.02497
G1 X145.389 Y122.197 E.02303
G1 X146.272 Y122.149 E.02773
G1 X146.926 Y122.242 E.02071
G1 X147.68 Y122.499 E.02498
G1 X148.315 Y122.868 E.02303
G1 X148.914 Y123.394 E.02499
G1 X149.352 Y123.966 E.02259
G1 X149.706 Y124.68 E.02499
G1 X149.897 Y125.389 E.02302
G1 X149.951 Y126.184 E.02498
G1 X149.853 Y126.926 E.02347
G1 X149.596 Y127.68 E.02498
G1 X149.227 Y128.315 E.02303
G1 X148.701 Y128.914 E.02499
G1 X148.129 Y129.352 E.02259
G1 X147.415 Y129.706 E.02499
G1 X146.706 Y129.897 E.02302
G1 X145.911 Y129.951 E.02498
G1 X145.183 Y129.856 E.02302
G1 X144.428 Y129.601 E.02499
G1 X143.779 Y129.227 E.02349
G1 X143.181 Y128.701 E.02497
G1 X142.743 Y128.129 E.02259
G1 X142.389 Y127.415 E.02499
G1 X142.197 Y126.706 E.02303
G1 X142.144 Y125.911 E.02498
G1 X142.238 Y125.183 E.02302
G1 X142.493 Y124.428 E.02499
G1 X142.868 Y123.779 E.0235
G1 X143.124 Y123.488 E.01215
M204 S1000
G1 X143.406 Y123.736 F10800
M204 S800
G1 F1200
G1 X143.653 Y123.455 E.01173
G1 X144.163 Y123.064 E.02015
G1 X144.818 Y122.74 E.02291
