; generated by PrusaSlicer 2.4.2+x64 on 2022-07-27 at 16:53:10 UTC
;
;
;
;
; 
; external perimeters extrusion width = 0.45mm
; perimeters extrusion width = 0.45mm
; infill extrusion width = 0.45mm
; solid infill extrusion width = 0.45mm
; top infill extrusion width = 0.40mm
; first layer extrusion width = 0.42mm
M73 P0 R51
M201 X9000 Y9000 Z500 E10000 ; sets maximum accelerations, mm/sec^2
M203 X500 Y500 Z12 E120 ; sets maximum feedrates, mm / sec
M204 P2000 R1500 T2000 ; sets acceleration (P, T) and retract acceleration (R), mm/sec^2
M205 X10.00 Y10.00 Z0.20 E4.50 ; sets the jerk limits, mm/sec
M205 S0 T0 ; sets the minimum extruding and travel feed rate, mm/sec
M107
;TYPE:Custom
M83  ; extruder relative mode
M140 S85 ; set bed temp
M109 S160 ; Set extruder temp before bed level
M190 S85 ; wait for bed temp
G28 W ; home all without mesh bed level
G80 N7 ; mesh bed leveling
M109 S240 ; wait for extruder temp
M221 S100 ; Set flow to 100
G1 Y-3.0 F1000.0 ; go outside print area
G92 E0.0
G1 E8 ; Purge Bubble
G1 X60.0 E9.0 F1000.0 ; intro line
G1 X100.0 E12.5 F1000.0 ; intro line
G92 E0.0
G21 ; set units to millimeters
G90 ; use absolute coordinates
M83 ; use relative distances for extrusion
M900 K0.08 ; Filament gcode LA 1.5
M900 K45 ; Filament gcode LA 1.0
M107
;LAYER_CHANGE
M117 INDICATOR-Layer1
;Z:0.2
;HEIGHT:0.2
;BEFORE_LAYER_CHANGE
M117 DASHBOARD_LAYER_INDICATOR 1
G92 E0.0
;0.2
G1 E-1 F2100
G1 Z.2 F720
;AFTER_LAYER_CHANGE
;0.2
G1 Z.4
G1 X113.998 Y28.441 F6000
G1 Z.2 F720
G1 E1 F2100
M204 S800
;TYPE:Skirt/Brim
;WIDTH:0.42
G1 F1200
G1 X114.39 Y27.134 E.04278
G1 X115.435 Y26.257 E.04278
G1 X116.375 Y26.064 E.03008
G1 X133.625 Y26.064 E.54086
G1 X134.932 Y26.455 E.04278
G1 X135.808 Y27.501 E.04278
G1 X136.002 Y28.441 E.03008
G1 X136.002 Y174.559 E4.58143
G1 X135.61 Y175.866 E.04278
G1 X134.881 Y176.577 E.03195
G1 X123.631 Y183.577 E.41544
G1 X122.375 Y183.936 E.04095
G1 X116.375 Y183.936 E.18813
G1 X115.068 Y183.545 E.04278
G1 X114.192 Y182.499 E.04278
G1 X113.998 Y181.559 E.03008
G1 X113.998 Y28.501 E4.79903
M204 S1000
@Object Bed Arm.stl id:0 copy 0
;WIPE_START
G1 F4800
G1 X114.39 Y27.134 E-.59102
G1 X115.051 Y26.579 E-.35898
;WIPE_END
G1 E-.05 F2100
G1 Z.4 F720
G1 X123.285 Y35.369 F6000
G1 Z.2 F720
G1 E1 F2100
M204 S800
;TYPE:Perimeter
G1 F1200
G1 X123.556 Y35.098 E.01203
G1 X123.898 Y34.859 E.01306
G1 X124.275 Y34.683 E.01306
G1 X124.678 Y34.575 E.01306
G1 X125.066 Y34.541 E.01223
G1 X125.504 Y34.574 E.01378
G1 X125.91 Y34.683 E.01317
G1 X126.288 Y34.859 E.01306
G1 X126.629 Y35.098 E.01306
G1 X126.924 Y35.392 E.01306
G1 X127.163 Y35.734 E.01306
G1 X127.339 Y36.111 E.01306
G1 X127.446 Y36.514 E.01306
G1 X127.483 Y36.929 E.01306
G1 X127.446 Y37.344 E.01306
G1 X127.339 Y37.746 E.01306
G1 X127.174 Y38.1 E.01223
G1 X126.926 Y38.462 E.01378
G1 X126.629 Y38.759 E.01317
G1 X126.288 Y38.998 E.01306
G1 X125.91 Y39.175 E.01306
G1 X125.508 Y39.282 E.01306
G1 X125.093 Y39.319 E.01306
G1 X124.678 Y39.282 E.01306
G1 X124.275 Y39.175 E.01306
G1 X123.898 Y38.998 E.01306
G1 X123.556 Y38.759 E.01306
G1 X123.262 Y38.465 E.01306
G1 X123.023 Y38.124 E.01306
G1 X122.847 Y37.746 E.01306
G1 X122.739 Y37.344 E.01306
G1 X122.703 Y36.929 E.01306
G1 X122.739 Y36.514 E.01306
G1 X122.847 Y36.111 E.01306
G1 X123.023 Y35.734 E.01306
G1 X123.246 Y35.414 E.01222
M204 S1000
G1 X123.552 Y35.636 F6000
M204 S800
;TYPE:External perimeter
G1 F1200
G1 X123.8 Y35.388 E.01099
G1 X124.087 Y35.187 E.01099
G1 X124.405 Y35.038 E.01099
G1 X124.743 Y34.948 E.01099
G1 X125.068 Y34.919 E.01023
G1 X125.441 Y34.947 E.01171
G1 X125.781 Y35.038 E.01103
G1 X126.098 Y35.186 E.01099
G1 X126.386 Y35.388 E.01099
G1 X126.634 Y35.636 E.01099
G1 X126.835 Y35.923 E.01099
G1 X126.983 Y36.241 E.01099
G1 X127.074 Y36.579 E.01099
G1 X127.104 Y36.929 E.01099
G1 X127.074 Y37.278 E.01099
G1 X126.983 Y37.617 E.01099
G1 X126.845 Y37.912 E.01023
G1 X126.635 Y38.221 E.01171
G1 X126.386 Y38.47 E.01103
G1 X126.098 Y38.671 E.01099
G1 X125.781 Y38.819 E.01099
G1 X125.442 Y38.91 E.01099
G1 X125.093 Y38.94 E.01099
G1 X124.743 Y38.91 E.01099
G1 X124.405 Y38.819 E.01099
G1 X124.087 Y38.671 E.01099
G1 X123.8 Y38.47 E.01099
G1 X123.552 Y38.222 E.01099
G1 X123.351 Y37.934 E.01099
G1 X123.202 Y37.617 E.01099
G1 X123.112 Y37.278 E.01099
G1 X123.081 Y36.929 E.01099
G1 X123.112 Y36.579 E.01099
G1 X123.202 Y36.241 E.01099
G1 X123.351 Y35.923 E.01099
G1 X123.517 Y35.685 E.00911
M204 S1000
G1 X123.432 Y35.306 F6000
;WIPE_START
G1 F4800
G1 X123.8 Y35.388 E-.17035
G1 X124.087 Y35.187 E-.14573
G1 X124.405 Y35.038 E-.14574
G1 X124.743 Y34.948 E-.14573
G1 X125.068 Y34.919 E-.13563
G1 X125.441 Y34.947 E-.15519
G1 X125.561 Y34.979 E-.05163
;WIPE_END
G1 E-.05 F2100
G1 Z.4 F720
G1 X129.838 Y166.933 F6000
G1 Z.2 F720
G1 E1 F2100
M204 S800
;TYPE:Perimeter
G1 F1200
G1 X129.838 Y171.362 E.13886
G1 X132.838 Y171.362 E.09406
G1 X132.838 Y173.772 E.07558
G1 X128.412 Y173.772 E.13877
G1 X128.412 Y150.53 E.72875
G1 X128.376 Y150.048 E.01514
G1 X128.253 Y149.529 E.01671
G1 X128.076 Y149.078 E.01521
G1 X127.821 Y148.636 E.016
G1 X127.503 Y148.237 E.016
G1 X127.127 Y147.888 E.01607
G1 X126.685 Y147.591 E.01671
G1 X126.247 Y147.381 E.01521
G1 X125.76 Y147.23 E.016
G1 X125.255 Y147.154 E.016
G1 X124.745 Y147.154 E.016
G1 X124.24 Y147.23 E.016
G1 X123.753 Y147.381 E.016
G1 X123.293 Y147.602 E.016
G1 X122.871 Y147.89 E.016
G1 X122.497 Y148.237 E.016
G1 X122.179 Y148.636 E.016
G1 X121.924 Y149.078 E.016
G1 X121.737 Y149.553 E.016
G1 X121.624 Y150.05 E.016
G1 X121.588 Y150.53 E.01507
G1 X121.588 Y180.772 E.94823
G1 X117.162 Y180.772 E.13877
M73 P1 R51
G1 X117.162 Y171.724 E.28369
G1 X119.662 Y171.724 E.07839
G1 X119.662 Y166.57 E.16159
G1 X117.162 Y166.57 E.07839
G1 X117.162 Y29.228 E4.30628
G1 X132.838 Y29.228 E.49151
G1 X132.838 Y166.933 E4.31764
G1 X129.898 Y166.933 E.09218
M204 S1000
G1 X130.215 Y167.31 F6000
M204 S800
;TYPE:External perimeter
G1 F1200
G1 X130.215 Y170.985 E.11521
G1 X133.215 Y170.985 E.09406
G1 X133.215 Y174.149 E.09922
G1 X128.035 Y174.149 E.16242
G1 X128.035 Y150.544 E.74013
G1 X128.002 Y150.106 E.01377
G1 X127.893 Y149.642 E.01494
G1 X127.735 Y149.242 E.01349
G1 X127.509 Y148.849 E.01423
G1 X127.226 Y148.494 E.01423
G1 X126.892 Y148.185 E.01425
G1 X126.497 Y147.919 E.01494
G1 X126.109 Y147.733 E.01349
G1 X125.676 Y147.599 E.01423
G1 X125.227 Y147.531 E.01423
G1 X124.773 Y147.531 E.01423
G1 X124.324 Y147.599 E.01423
G1 X123.891 Y147.733 E.01423
G1 X123.482 Y147.93 E.01423
G1 X123.107 Y148.185 E.01423
G1 X122.774 Y148.494 E.01423
G1 X122.491 Y148.849 E.01423
G1 X122.265 Y149.242 E.01423
G1 X122.099 Y149.664 E.01423
G1 X121.998 Y150.107 E.01423
G1 X121.965 Y150.544 E.01375
G1 X121.965 Y181.149 E.95961
G1 X116.785 Y181.149 E.16242
G1 X116.785 Y171.347 E.30733
G1 X119.285 Y171.347 E.07839
G1 X119.285 Y166.948 E.13795
G1 X116.785 Y166.948 E.07839
G1 X116.785 Y28.851 E4.32992
G1 X133.215 Y28.851 E.51515
M73 P1 R50
G1 X133.215 Y167.31 E4.34129
G1 X130.275 Y167.31 E.09218
M204 S1000
M73 P2 R50
G1 X129.867 Y167.508 F6000
;WIPE_START
G1 F4800
G1 X130.238 Y169.595 E-.95
;WIPE_END
G1 E-.05 F2100
G1 Z.4 F720
G1 X131.96 Y29.341 F6000
G1 Z.2 F720
G1 E1 F2100
M204 S800
;TYPE:Solid infill
;WIDTH:0.421047
G1 F1200
G1 X132.555 Y29.936 E.02645
G1 X132.555 Y30.471 E.01681
G1 X131.595 Y29.511 E.04268
G1 X131.06 Y29.511 E.01681
G1 X132.555 Y31.005 E.06646
G1 X132.555 Y31.54 E.01681
G1 X130.526 Y29.511 E.09024
G1 X129.991 Y29.511 E.01681
G1 X132.555 Y32.075 E.11401
G1 X132.555 Y32.61 E.01681
G1 X129.456 Y29.511 E.13779
G1 X128.921 Y29.511 E.01681
G1 X132.555 Y33.144 E.16157
G1 X132.555 Y33.679 E.01681
G1 X128.387 Y29.511 E.18535
G1 X127.852 Y29.511 E.01681
G1 X132.555 Y34.214 E.20912
G1 X132.555 Y34.749 E.01681
G1 X127.317 Y29.511 E.2329
G1 X126.782 Y29.511 E.01681
G1 X132.555 Y35.283 E.25668
G1 X132.555 Y35.818 E.01681
G1 X126.248 Y29.511 E.28046
G1 X125.713 Y29.511 E.01681
G1 X132.555 Y36.353 E.30424
G1 X132.555 Y36.888 E.01681
G1 X125.178 Y29.511 E.32801
G1 X124.643 Y29.511 E.01681
G1 X132.555 Y37.422 E.35179
G1 X132.555 Y37.957 E.01681
G1 X124.109 Y29.511 E.37557
G1 X123.574 Y29.511 E.01681
G1 X132.555 Y38.492 E.39935
G1 X132.555 Y39.027 E.01681
G1 X123.039 Y29.511 E.42312
G1 X122.504 Y29.511 E.01681
G1 X132.555 Y39.561 E.4469
G1 X132.555 Y40.096 E.01681
G1 X121.97 Y29.511 E.47068
G1 X121.435 Y29.511 E.01681
G1 X132.555 Y40.631 E.49446
G1 X132.555 Y41.166 E.01681
G1 X127.679 Y36.29 E.2168
G1 X127.726 Y36.464 E.00568
G1 X127.765 Y36.91 E.01408
G1 X132.555 Y41.7 E.21299
G1 X132.555 Y42.235 E.01681
G1 X127.723 Y37.403 E.21485
G1 X127.61 Y37.825 E.01373
G1 X132.555 Y42.77 E.21987
G1 X132.555 Y43.305 E.01681
G1 X127.443 Y38.192 E.22733
G1 X127.232 Y38.516 E.01215
G1 X132.555 Y43.839 E.2367
G1 X132.555 Y44.374 E.01681
G1 X126.985 Y38.804 E.24769
G1 X126.811 Y38.977 E.0077
G1 X126.701 Y39.055 E.00425
G1 X132.555 Y44.909 E.26032
G1 X132.555 Y45.444 E.01681
G1 X126.379 Y39.268 E.27461
G1 X126.015 Y39.438 E.01265
G1 X132.555 Y45.978 E.29083
G1 X132.555 Y46.513 E.01681
G1 X125.594 Y39.552 E.30953
G1 X125.108 Y39.601 E.01535
G1 X132.555 Y47.048 E.33112
G1 X132.555 Y47.583 E.01681
G1 X124.26 Y39.288 E.36884
M204 S1000
;WIPE_START
G1 F4800
G1 X125.876 Y40.904 E-.95
;WIPE_END
G1 E-.05 F2100
G1 Z.4 F720
G1 X125.98 Y34.59 F6000
G1 Z.2 F720
G1 E1 F2100
M204 S800
G1 F1200
G1 X120.9 Y29.511 E.22586
G1 X120.365 Y29.511 E.01681
G1 X125.116 Y34.261 E.21122
G1 X124.618 Y34.298 E.01569
G1 X119.831 Y29.511 E.21286
G1 X119.296 Y29.511 E.01681
G1 X124.196 Y34.411 E.21789
G1 X123.829 Y34.579 E.01269
G1 X118.761 Y29.511 E.22534
G1 X118.226 Y29.511 E.01681
G1 X123.504 Y34.789 E.23469
G1 X123.374 Y34.88 E.00501
G1 X123.218 Y35.037 E.00695
G1 X117.692 Y29.511 E.2457
G1 X117.445 Y29.511 E.00776
G1 X117.445 Y29.799 E.00905
G1 X122.967 Y35.321 E.24553
G1 X122.753 Y35.642 E.01213
G1 X117.445 Y30.333 E.23604
G1 X117.445 Y30.868 E.01681
G1 X122.583 Y36.007 E.22848
G1 X122.469 Y36.427 E.0137
G1 X117.445 Y31.403 E.22341
G1 X117.445 Y31.938 E.01681
G1 X122.42 Y36.913 E.22122
G1 X122.459 Y37.393 E.01514
G1 X122.494 Y37.521 E.00418
G1 X117.445 Y32.472 E.2245
G1 X117.445 Y33.007 E.01681
G1 X132.555 Y48.117 E.67187
G1 X132.555 Y48.652 E.01681
G1 X117.445 Y33.542 E.67187
G1 X117.445 Y34.077 E.01681
G1 X132.555 Y49.187 E.67187
G1 X132.555 Y49.722 E.01681
M73 P3 R50
G1 X117.445 Y34.611 E.67187
G1 X117.445 Y35.146 E.01681
G1 X132.555 Y50.256 E.67187
G1 X132.555 Y50.791 E.01681
G1 X117.445 Y35.681 E.67187
G1 X117.445 Y36.216 E.01681
G1 X132.555 Y51.326 E.67187
G1 X132.555 Y51.861 E.01681
G1 X117.445 Y36.75 E.67187
G1 X117.445 Y37.285 E.01681
G1 X132.555 Y52.395 E.67187
G1 X132.555 Y52.93 E.01681
G1 X117.445 Y37.82 E.67187
G1 X117.445 Y38.355 E.01681
G1 X132.555 Y53.465 E.67187
G1 X132.555 Y54 E.01681
G1 X117.445 Y38.889 E.67187
G1 X117.445 Y39.424 E.01681
G1 X132.555 Y54.535 E.67187
G1 X132.555 Y55.069 E.01681
G1 X117.445 Y39.959 E.67187
G1 X117.445 Y40.494 E.01681
G1 X132.555 Y55.604 E.67187
G1 X132.555 Y56.139 E.01681
G1 X117.445 Y41.029 E.67187
G1 X117.445 Y41.563 E.01681
G1 X132.555 Y56.674 E.67187
G1 X132.555 Y57.208 E.01681
G1 X117.445 Y42.098 E.67187
G1 X117.445 Y42.633 E.01681
G1 X132.555 Y57.743 E.67187
G1 X132.555 Y58.278 E.01681
G1 X117.445 Y43.168 E.67187
G1 X117.445 Y43.702 E.01681
G1 X132.555 Y58.813 E.67187
G1 X132.555 Y59.347 E.01681
G1 X117.445 Y44.237 E.67187
G1 X117.445 Y44.772 E.01681
G1 X132.555 Y59.882 E.67187
G1 X132.555 Y60.417 E.01681
G1 X117.445 Y45.307 E.67187
G1 X117.445 Y45.841 E.01681
G1 X132.555 Y60.952 E.67187
G1 X132.555 Y61.486 E.01681
M73 P3 R49
G1 X117.445 Y46.376 E.67187
G1 X117.445 Y46.911 E.01681
G1 X132.555 Y62.021 E.67187
G1 X132.555 Y62.556 E.01681
G1 X117.445 Y47.446 E.67187
G1 X117.445 Y47.98 E.01681
G1 X132.555 Y63.091 E.67187
G1 X132.555 Y63.625 E.01681
G1 X117.445 Y48.515 E.67187
G1 X117.445 Y49.05 E.01681
G1 X132.555 Y64.16 E.67187
G1 X132.555 Y64.695 E.01681
M73 P4 R49
G1 X117.445 Y49.585 E.67187
G1 X117.445 Y50.119 E.01681
G1 X132.555 Y65.23 E.67187
G1 X132.555 Y65.764 E.01681
G1 X117.445 Y50.654 E.67187
G1 X117.445 Y51.189 E.01681
G1 X132.555 Y66.299 E.67187
G1 X132.555 Y66.834 E.01681
G1 X117.445 Y51.724 E.67187
G1 X117.445 Y52.258 E.01681
G1 X132.555 Y67.369 E.67187
G1 X132.555 Y67.903 E.01681
G1 X117.445 Y52.793 E.67187
G1 X117.445 Y53.328 E.01681
G1 X132.555 Y68.438 E.67187
G1 X132.555 Y68.973 E.01681
G1 X117.445 Y53.863 E.67187
G1 X117.445 Y54.397 E.01681
G1 X132.555 Y69.508 E.67187
G1 X132.555 Y70.042 E.01681
G1 X117.445 Y54.932 E.67187
G1 X117.445 Y55.467 E.01681
G1 X132.555 Y70.577 E.67187
G1 X132.555 Y71.112 E.01681
G1 X117.445 Y56.002 E.67187
G1 X117.445 Y56.536 E.01681
G1 X132.555 Y71.647 E.67187
G1 X132.555 Y72.181 E.01681
G1 X117.445 Y57.071 E.67187
G1 X117.445 Y57.606 E.01681
G1 X132.555 Y72.716 E.67187
G1 X132.555 Y73.251 E.01681
G1 X117.445 Y58.141 E.67187
G1 X117.445 Y58.675 E.01681
G1 X132.555 Y73.786 E.67187
G1 X132.555 Y74.32 E.01681
G1 X117.445 Y59.21 E.67187
G1 X117.445 Y59.745 E.01681
G1 X132.555 Y74.855 E.67187
G1 X132.555 Y75.39 E.01681
G1 X117.445 Y60.28 E.67187
G1 X117.445 Y60.814 E.01681
G1 X132.555 Y75.925 E.67187
G1 X132.555 Y76.459 E.01681
G1 X117.445 Y61.349 E.67187
G1 X117.445 Y61.884 E.01681
G1 X132.555 Y76.994 E.67187
G1 X132.555 Y77.529 E.01681
G1 X117.445 Y62.419 E.67187
G1 X117.445 Y62.953 E.01681
G1 X132.555 Y78.064 E.67187
G1 X132.555 Y78.598 E.01681
G1 X117.445 Y63.488 E.67187
G1 X117.445 Y64.023 E.01681
G1 X132.555 Y79.133 E.67187
G1 X132.555 Y79.668 E.01681
G1 X117.445 Y64.558 E.67187
G1 X117.445 Y65.092 E.01681
M73 P5 R49
G1 X132.555 Y80.203 E.67187
G1 X132.555 Y80.737 E.01681
G1 X117.445 Y65.627 E.67187
G1 X117.445 Y66.162 E.01681
G1 X132.555 Y81.272 E.67187
G1 X132.555 Y81.807 E.01681
G1 X117.445 Y66.697 E.67187
G1 X117.445 Y67.231 E.01681
G1 X132.555 Y82.342 E.67187
G1 X132.555 Y82.876 E.01681
G1 X117.445 Y67.766 E.67187
G1 X117.445 Y68.301 E.01681
G1 X132.555 Y83.411 E.67187
G1 X132.555 Y83.946 E.01681
G1 X117.445 Y68.836 E.67187
G1 X117.445 Y69.37 E.01681
G1 X132.555 Y84.481 E.67187
G1 X132.555 Y85.015 E.01681
G1 X117.445 Y69.905 E.67187
G1 X117.445 Y70.44 E.01681
G1 X132.555 Y85.55 E.67187
G1 X132.555 Y86.085 E.01681
G1 X117.445 Y70.975 E.67187
G1 X117.445 Y71.509 E.01681
G1 X132.555 Y86.62 E.67187
G1 X132.555 Y87.154 E.01681
G1 X117.445 Y72.044 E.67187
G1 X117.445 Y72.579 E.01681
G1 X132.555 Y87.689 E.67187
G1 X132.555 Y88.224 E.01681
G1 X117.445 Y73.114 E.67187
G1 X117.445 Y73.648 E.01681
G1 X132.555 Y88.759 E.67187
G1 X132.555 Y89.293 E.01681
G1 X117.445 Y74.183 E.67187
G1 X117.445 Y74.718 E.01681
G1 X132.555 Y89.828 E.67187
G1 X132.555 Y90.363 E.01681
M73 P5 R48
G1 X117.445 Y75.253 E.67187
G1 X117.445 Y75.787 E.01681
G1 X132.555 Y90.898 E.67187
G1 X132.555 Y91.432 E.01681
G1 X117.445 Y76.322 E.67187
G1 X117.445 Y76.857 E.01681
G1 X132.555 Y91.967 E.67187
G1 X132.555 Y92.502 E.01681
G1 X117.445 Y77.392 E.67187
G1 X117.445 Y77.926 E.01681
G1 X132.555 Y93.037 E.67187
G1 X132.555 Y93.571 E.01681
G1 X117.445 Y78.461 E.67187
G1 X117.445 Y78.996 E.01681
G1 X132.555 Y94.106 E.67187
G1 X132.555 Y94.641 E.01681
G1 X117.445 Y79.531 E.67187
G1 X117.445 Y80.065 E.01681
M73 P6 R48
G1 X132.555 Y95.176 E.67187
G1 X132.555 Y95.71 E.01681
G1 X117.445 Y80.6 E.67187
G1 X117.445 Y81.135 E.01681
G1 X132.555 Y96.245 E.67187
G1 X132.555 Y96.78 E.01681
G1 X117.445 Y81.67 E.67187
G1 X117.445 Y82.204 E.01681
G1 X132.555 Y97.315 E.67187
G1 X132.555 Y97.849 E.01681
G1 X117.445 Y82.739 E.67187
G1 X117.445 Y83.274 E.01681
G1 X132.555 Y98.384 E.67187
G1 X132.555 Y98.919 E.01681
G1 X117.445 Y83.809 E.67187
G1 X117.445 Y84.343 E.01681
G1 X132.555 Y99.454 E.67187
G1 X132.555 Y99.988 E.01681
G1 X117.445 Y84.878 E.67187
G1 X117.445 Y85.413 E.01681
G1 X132.555 Y100.523 E.67187
G1 X132.555 Y101.058 E.01681
G1 X117.445 Y85.948 E.67187
G1 X117.445 Y86.482 E.01681
G1 X132.555 Y101.593 E.67187
G1 X132.555 Y102.127 E.01681
G1 X117.445 Y87.017 E.67187
G1 X117.445 Y87.552 E.01681
G1 X132.555 Y102.662 E.67187
G1 X132.555 Y103.197 E.01681
G1 X117.445 Y88.087 E.67187
G1 X117.445 Y88.621 E.01681
G1 X132.555 Y103.732 E.67187
G1 X132.555 Y104.266 E.01681
G1 X117.445 Y89.156 E.67187
