; generated by PrusaSlicer 2.1.0+ on 2019-10-01 at 15:54:12 UTC

; 

; external perimeters extrusion width = 0.45mm
; perimeters extrusion width = 0.45mm
; infill extrusion width = 0.45mm
; solid infill extrusion width = 0.45mm
; top infill extrusion width = 0.40mm
; first layer extrusion width = 0.42mm

M73 P0 R51
M201 X9000 Y9000 Z500 E10000 ; sets maximum accelerations, mm/sec^2
M203 X500 Y500 Z12 E120 ; sets maximum feedrates, mm/sec
M204 P2000 R1500 T2000 ; sets acceleration (P, T) and retract acceleration (R), mm/sec^2
M205 X10.00 Y10.00 Z0.20 E2.50 ; sets the jerk limits, mm/sec
M205 S0 T0 ; sets the minimum extruding and travel feed rate, mm/sec
M107
M83  ; extruder relative mode
M140 S75 ; set bed temp
M109 S160 ; Set extruder temp before bed level
M190 S75 ; wait for bed temp

G28 W ; home all without mesh bed level
G80 N7 ; mesh bed leveling

M109 S240 ; wait for extruder temp

M221 S100 ; Set flow to 100

G1 Y-3.0 F1000.0 ; go outside print area
G92 E0.0
G1 E8 ; Purge Bubble
M73 P0 R51
G1 X60.0 E9.0 F1000.0 ; intro line
G1 X100.0 E12.5 F1000.0 ; intro line
G92 E0.0
G21 ; set units to millimeters
G90 ; use absolute coordinates
M83 ; use relative distances for extrusion
M900 K45; Filament gcode
;BEFORE_LAYER_CHANGE
G92 E0.0
;0.2


G1 E-0.80000 F2100.00000
G1 Z0.600 F10800.000
;AFTER_LAYER_CHANGE
;0.2
G1 X82.466 Y55.480
G1 Z0.200
G1 E0.80000 F2100.00000
M204 S1000
G1 F1200
G1 X82.893 Y54.066 E0.04262
G1 X83.320 Y53.220 E0.02732
G1 X83.850 Y52.451 E0.02696
G1 X84.486 Y51.753 E0.02723
G1 X85.202 Y51.154 E0.02693
G1 X85.995 Y50.655 E0.02703
G1 X86.845 Y50.269 E0.02693
G1 X87.739 Y50.000 E0.02693
G1 X88.660 Y49.854 E0.02690
G1 X131.757 Y49.826 E1.24317
G1 X133.339 Y50.009 E0.04592
G1 X134.183 Y50.265 E0.02546
G1 X135.007 Y50.636 E0.02605
G1 X164.264 Y66.793 E0.96409
G1 X165.275 Y67.524 E0.03600
G1 X166.137 Y68.421 E0.03588
G1 X166.830 Y69.467 E0.03619
G1 X167.316 Y70.600 E0.03557
G1 X167.556 Y71.562 E0.02861
G1 X167.661 Y72.740 E0.03410
G1 X167.661 Y153.240 E2.32209
G1 X167.541 Y154.520 E0.03710
G1 X167.114 Y155.934 E0.04262
G1 X166.687 Y156.781 E0.02736
G1 X166.153 Y157.554 E0.02710
G1 X165.514 Y158.254 E0.02735
G1 X164.764 Y158.875 E0.02808
G1 X163.967 Y159.369 E0.02705
G1 X162.916 Y159.818 E0.03296
G1 X161.982 Y160.059 E0.02784
G1 X161.035 Y160.167 E0.02748
G1 X89.270 Y160.174 E2.07013
G1 X88.001 Y160.054 E0.03678
G1 X86.586 Y159.628 E0.04262
G1 X85.731 Y159.195 E0.02766
G1 X84.964 Y158.664 E0.02690
G1 X84.266 Y158.027 E0.02727
G1 X83.643 Y157.274 E0.02818
G1 X83.055 Y156.290 E0.03306
G1 X82.698 Y155.416 E0.02724
G1 X82.458 Y154.476 E0.02798
G1 X82.352 Y153.524 E0.02763
G1 X82.346 Y56.753 E2.79145
G1 X82.461 Y55.540 E0.03516
G1 F8640
G1 X82.893 Y54.066 E-0.35473
G1 X83.320 Y53.220 E-0.21869
G1 X83.778 Y52.555 E-0.18658
G1 E-0.04000 F2100.00000
G1 Z0.800 F10800.000
G1 X114.992 Y102.896
G1 Z0.200
G1 E0.80000 F2100.00000
G1 F1200
G1 X115.419 Y102.651 E0.01420
G1 X115.884 Y102.489 E0.01420
G1 X116.383 Y102.417 E0.01456
G1 X116.875 Y102.441 E0.01421
G1 X117.366 Y102.561 E0.01456
G1 X117.810 Y102.765 E0.01410
G1 X118.082 Y102.947 E0.00944
G1 X118.330 Y103.161 E0.00944
G1 X118.653 Y103.544 E0.01446
G1 X118.893 Y103.974 E0.01421
G1 X119.051 Y104.453 E0.01456
G1 X119.113 Y104.941 E0.01420
G1 X119.082 Y105.433 E0.01420
G1 X118.956 Y105.921 E0.01456
G1 X118.744 Y106.366 E0.01421
G1 X118.445 Y106.772 E0.01456
G1 X118.082 Y107.105 E0.01420
G1 X117.664 Y107.365 E0.01420
G1 X117.196 Y107.543 E0.01446
G1 X116.875 Y107.609 E0.00945
G1 X116.549 Y107.636 E0.00945
G1 X116.049 Y107.597 E0.01446
G1 X115.574 Y107.466 E0.01421
G1 X115.122 Y107.241 E0.01456
G1 X114.731 Y106.943 E0.01420
G1 X114.403 Y106.576 E0.01420
G1 X114.144 Y106.143 E0.01456
G1 X113.976 Y105.680 E0.01421
G1 X113.898 Y105.185 E0.01446
G1 X113.899 Y104.857 E0.00944
G1 X113.940 Y104.533 E0.00944
G1 X114.077 Y104.063 E0.01410
G1 X114.307 Y103.614 E0.01456
G1 X114.611 Y103.227 E0.01421
G1 X114.947 Y102.936 E0.01283
G1 X114.955 Y102.498 F10800.000
G1 X114.700 Y102.651
G1 F1200
G1 X114.625 Y102.716 E0.00286
G1 X114.776 Y102.462 E0.00851
G1 X115.117 Y102.014 E0.01624
G1 X115.373 Y101.746 E0.01069
G1 X115.812 Y101.379 E0.01652
G1 X116.119 Y101.177 E0.01058
G1 X116.448 Y101.000 E0.01077
G1 X116.791 Y100.853 E0.01077
G1 X117.146 Y100.738 E0.01077
G1 X117.510 Y100.655 E0.01077
G1 X117.880 Y100.604 E0.01077
G1 X118.267 Y100.587 E0.01115
G1 X131.923 Y100.592 E0.39394
G1 X132.504 Y100.656 E0.01684
G1 X132.861 Y100.738 E0.01057
G1 X133.216 Y100.853 E0.01077
G1 X133.559 Y101.000 E0.01077
G1 X133.888 Y101.177 E0.01077
G1 X134.200 Y101.383 E0.01077
G1 X134.492 Y101.615 E0.01077
G1 X134.762 Y101.874 E0.01077
G1 X135.008 Y102.155 E0.01077
G1 X135.340 Y102.645 E0.01709
G1 X134.994 Y102.409 E0.01208
G1 X134.490 Y102.178 E0.01599
G1 X133.930 Y102.041 E0.01664
G1 X133.366 Y102.013 E0.01630
G1 X132.795 Y102.096 E0.01664
G1 X132.262 Y102.280 E0.01627
G1 X131.773 Y102.562 E0.01627
G1 X131.337 Y102.940 E0.01664
G1 X130.988 Y103.384 E0.01630
G1 X130.725 Y103.898 E0.01664
G1 X130.570 Y104.430 E0.01599
G1 X130.522 Y104.807 E0.01098
G1 X130.521 Y105.188 E0.01098
G1 X130.609 Y105.748 E0.01636
G1 X130.801 Y106.280 E0.01630
G1 X131.098 Y106.775 E0.01664
G1 X131.474 Y107.195 E0.01627
G1 X131.922 Y107.537 E0.01627
G1 X132.439 Y107.794 E0.01664
G1 X132.984 Y107.944 E0.01630
G1 X133.549 Y107.988 E0.01636
G1 X133.929 Y107.958 E0.01099
G1 X134.302 Y107.880 E0.01099
G1 X134.832 Y107.678 E0.01636
G1 X135.339 Y107.355 E0.01735
G1 X135.008 Y107.845 E0.01706
G1 X134.762 Y108.126 E0.01077
G1 X134.492 Y108.385 E0.01077
G1 X134.200 Y108.617 E0.01077
G1 X133.888 Y108.823 E0.01077
G1 X133.559 Y109.000 E0.01077
G1 X133.216 Y109.147 E0.01077
G1 X132.861 Y109.262 E0.01077
G1 X132.497 Y109.345 E0.01077
G1 X132.127 Y109.396 E0.01077
G1 X131.740 Y109.413 E0.01115
G1 X118.273 Y109.413 E0.38847
G1 X117.695 Y109.374 E0.01672
G1 X117.146 Y109.262 E0.01615
G1 X116.618 Y109.077 E0.01615
G1 X116.119 Y108.823 E0.01615
G1 X115.659 Y108.504 E0.01615
G1 X115.246 Y108.126 E0.01615
G1 X114.887 Y107.696 E0.01615
G1 X114.693 Y107.388 E0.01049
G1 X114.922 Y107.563 E0.00831
G1 X115.439 Y107.819 E0.01664
G1 X115.984 Y107.970 E0.01630
G1 X116.549 Y108.014 E0.01636
G1 X116.929 Y107.983 E0.01099
G1 X117.302 Y107.906 E0.01099
G1 X117.832 Y107.704 E0.01636
G1 X118.311 Y107.407 E0.01628
G1 X118.726 Y107.025 E0.01627
G1 X119.069 Y106.561 E0.01664
G1 X119.312 Y106.051 E0.01630
G1 X119.457 Y105.492 E0.01664
G1 X119.492 Y104.929 E0.01627
G1 X119.420 Y104.369 E0.01627
G1 X119.240 Y103.821 E0.01664
G1 X118.965 Y103.328 E0.01630
G1 X118.599 Y102.895 E0.01636
G1 X118.311 Y102.646 E0.01098
G1 X117.994 Y102.435 E0.01098
G1 X117.490 Y102.204 E0.01599
G1 X116.930 Y102.066 E0.01664
G1 X116.366 Y102.039 E0.01630
G1 X115.795 Y102.121 E0.01664
G1 X115.262 Y102.306 E0.01627
G1 X114.746 Y102.611 E0.01730
G1 F8640
G1 X114.625 Y102.716 E-0.03677
G1 X114.776 Y102.462 E-0.06812
G1 X115.117 Y102.014 E-0.12999
G1 X115.373 Y101.746 E-0.08559
G1 X115.812 Y101.379 E-0.13222
G1 X116.119 Y101.177 E-0.08471
G1 X116.448 Y101.000 E-0.08624
G1 X116.791 Y100.853 E-0.08624
G1 X116.997 Y100.786 E-0.05011
G1 E-0.04000 F2100.00000
G1 Z0.800 F10800.000
G1 X130.919 Y104.672
G1 Z0.200
G1 E0.80000 F2100.00000
G1 F1200
G1 X130.940 Y104.507 E0.00481
G1 X131.077 Y104.038 E0.01410
G1 X131.307 Y103.589 E0.01456
G1 X131.611 Y103.201 E0.01421
G1 X131.992 Y102.871 E0.01456
G1 X132.419 Y102.625 E0.01420
G1 X132.884 Y102.464 E0.01420
G1 X133.383 Y102.392 E0.01456
G1 X133.875 Y102.416 E0.01421
G1 X134.366 Y102.536 E0.01456
G1 X134.810 Y102.740 E0.01410
G1 X135.082 Y102.921 E0.00944
G1 X135.330 Y103.135 E0.00944
G1 X135.653 Y103.518 E0.01446
G1 X135.893 Y103.948 E0.01421
G1 X136.051 Y104.427 E0.01456
G1 X136.113 Y104.916 E0.01420
G1 X136.082 Y105.407 E0.01420
G1 X135.956 Y105.896 E0.01456
G1 X135.744 Y106.340 E0.01421
G1 X135.445 Y106.746 E0.01456
G1 X135.082 Y107.079 E0.01420
G1 X134.664 Y107.339 E0.01420
G1 X134.196 Y107.517 E0.01446
G1 X133.875 Y107.584 E0.00945
G1 X133.549 Y107.610 E0.00945
G1 X133.049 Y107.571 E0.01446
G1 X132.574 Y107.440 E0.01421
G1 X132.122 Y107.216 E0.01456
G1 X131.731 Y106.917 E0.01420
G1 X131.403 Y106.550 E0.01420
G1 X131.144 Y106.117 E0.01456
G1 X130.976 Y105.654 E0.01421
G1 X130.898 Y105.159 E0.01446
G1 X130.911 Y104.732 E0.01232
G1 X130.780 Y104.580 F10800.000
G1 F8640
G1 X130.940 Y104.507 E-0.05236
G1 X131.077 Y104.038 E-0.11285
G1 X131.307 Y103.589 E-0.11652
G1 X131.611 Y103.201 E-0.11373
G1 X131.992 Y102.871 E-0.11652
G1 X132.419 Y102.625 E-0.11366
G1 X132.884 Y102.464 E-0.11366
G1 X132.973 Y102.451 E-0.02070
G1 E-0.04000 F2100.00000
G1 Z0.800 F10800.000
G1 X131.944 Y100.215
G1 Z0.200
G1 E0.80000 F2100.00000
G1 F1200
G1 X132.567 Y100.284 E0.01806
G1 X132.961 Y100.374 E0.01168
G1 X133.349 Y100.500 E0.01175
G1 X133.723 Y100.660 E0.01175
G1 X134.082 Y100.853 E0.01175
G1 X134.422 Y101.077 E0.01175
G1 X134.740 Y101.331 E0.01175
G1 X135.035 Y101.613 E0.01175
G1 X135.303 Y101.919 E0.01175
G1 X135.542 Y102.249 E0.01175
G1 X135.751 Y102.599 E0.01175
G1 X135.928 Y102.966 E0.01175
G1 X136.071 Y103.347 E0.01175
G1 X136.179 Y103.740 E0.01175
G1 X136.252 Y104.138 E0.01168
G1 X136.293 Y104.756 E0.01787
G1 X136.289 Y105.453 E0.02009
G1 X136.252 Y105.859 E0.01177
G1 X136.179 Y106.260 E0.01175
G1 X136.071 Y106.653 E0.01175
G1 X135.928 Y107.034 E0.01175
G1 X135.751 Y107.401 E0.01175
G1 X135.542 Y107.751 E0.01175
G1 X135.303 Y108.081 E0.01175
G1 X135.035 Y108.387 E0.01175
G1 X134.740 Y108.669 E0.01175
G1 X134.422 Y108.923 E0.01175
G1 X134.082 Y109.147 E0.01175
G1 X133.723 Y109.340 E0.01175
G1 X133.349 Y109.500 E0.01175
G1 X132.961 Y109.626 E0.01175
G1 X132.564 Y109.717 E0.01175
G1 X132.160 Y109.772 E0.01175
G1 X131.749 Y109.790 E0.01189
G1 X118.261 Y109.790 E0.38908
G1 X117.644 Y109.748 E0.01782
G1 X117.046 Y109.626 E0.01762
G1 X116.469 Y109.424 E0.01762
G1 X115.925 Y109.147 E0.01762
G1 X115.423 Y108.799 E0.01762
G1 X114.972 Y108.387 E0.01762
G1 X114.581 Y107.918 E0.01762
G1 X114.256 Y107.401 E0.01762
G1 X114.003 Y106.845 E0.01762
G1 X113.830 Y106.268 E0.01738
G1 X113.755 Y105.859 E0.01199
G1 X113.718 Y105.453 E0.01177
G1 X113.714 Y104.754 E0.02016
G1 X113.732 Y104.345 E0.01180
G1 X113.826 Y103.748 E0.01745
G1 X113.936 Y103.347 E0.01199
G1 X114.079 Y102.966 E0.01175
G1 X114.256 Y102.599 E0.01175
G1 X114.464 Y102.251 E0.01168
G1 X114.830 Y101.769 E0.01745
G1 X115.115 Y101.470 E0.01192
G1 X115.587 Y101.076 E0.01775
G1 X115.925 Y100.853 E0.01168
G1 X116.284 Y100.660 E0.01175
G1 X116.658 Y100.500 E0.01175
G1 X117.046 Y100.374 E0.01175
G1 X117.443 Y100.283 E0.01175
G1 X117.847 Y100.228 E0.01175
G1 X118.258 Y100.210 E0.01189
G1 X131.884 Y100.215 E0.39306
G1 X132.118 Y100.575 F10800.000
G1 F8640
G1 X132.567 Y100.284 E-0.15835
G1 X132.961 Y100.374 E-0.09348
G1 X133.349 Y100.500 E-0.09406
G1 X133.723 Y100.660 E-0.09406
G1 X134.082 Y100.853 E-0.09406
G1 X134.422 Y101.077 E-0.09406
G1 X134.740 Y101.331 E-0.09406
G1 X134.859 Y101.445 E-0.03788
G1 E-0.04000 F2100.00000
G1 Z0.800 F10800.000
G1 X133.867 Y101.925
G1 Z0.200
G1 E0.80000 F2100.00000
G1 F1200
G1 X133.034 Y101.091 E0.03458
G1 X132.786 Y101.011 E0.00768
G1 X132.321 Y100.920 E0.01390
G1 X133.158 Y101.758 E0.03476
G1 X132.690 Y101.832 E0.01391
G1 X131.732 Y100.874 E0.03977
G1 X131.189 Y100.874 E0.01593
G1 X132.287 Y101.972 E0.04558
G1 X132.144 Y102.022 E0.00447
G1 X131.922 Y102.150 E0.00750
G1 X130.646 Y100.874 E0.05296
G1 X130.104 Y100.874 E0.01593
G1 X131.583 Y102.353 E0.06139
G1 X131.292 Y102.605 E0.01129
G1 X129.561 Y100.874 E0.07186
G1 X129.018 Y100.873 E0.01593
G1 X131.024 Y102.880 E0.08329
G1 X130.786 Y103.184 E0.01134
G1 X128.475 Y100.873 E0.09591
G1 X127.932 Y100.873 E0.01593
G1 X130.593 Y103.534 E0.11046
G1 X130.461 Y103.793 E0.00853
G1 X130.427 Y103.910 E0.00358
G1 X127.390 Y100.873 E0.12606
G1 X126.847 Y100.873 E0.01593
G1 X130.304 Y104.330 E0.14352
G1 X130.239 Y104.807 E0.01414
G1 X126.304 Y100.873 E0.16333
G1 X125.761 Y100.872 E0.01593
G1 X130.264 Y105.375 E0.18692
G1 X130.334 Y105.819 E0.01319
G1 X130.430 Y106.083 E0.00825
G1 X125.218 Y100.872 E0.21632
G1 X124.676 Y100.872 E0.01593
G1 X132.791 Y108.988 E0.33688
G1 X133.195 Y108.849 E0.01253
G1 X132.431 Y108.085 E0.03169
G1 X132.934 Y108.224 E0.01532
G1 X133.128 Y108.239 E0.00570
G1 X133.565 Y108.676 E0.01814
G1 X133.905 Y108.473 E0.01162
G1 X133.532 Y108.100 E0.01548
G1 X134.123 Y108.278 F10800.000
G1 F1200
G1 X134.610 Y107.997 E0.00650
G1 F8640
G1 X134.123 Y108.278 E-0.12975
G1 E-0.67025 F2100.00000
G1 Z0.800 F10800.000
G1 X135.457 Y107.208
G1 Z0.200
G1 E0.80000 F2100.00000
G1 F1200
G1 X135.652 Y106.945 E0.00477
G1 X135.729 Y106.809 E0.00227
G1 X135.902 Y106.478 E0.00238
G1 F8640
G1 X135.729 Y106.809 E-0.08628
G1 E-0.71372 F2100.00000
G1 Z0.800 F10800.000
G1 X135.905 Y103.537
G1 Z0.200
G1 E0.80000 F2100.00000
G1 F1200
G1 X135.844 Y103.391 E0.00091
G1 X135.721 Y103.181 E0.00140
G1 X135.460 Y102.791 E0.00724
G1 F8640
G1 X135.721 Y103.181 E-0.10844
G1 E-0.69156 F2100.00000
G1 Z0.800 F10800.000
G1 X132.492 Y109.231
G1 Z0.200
G1 E0.80000 F2100.00000
G1 F1200
G1 X124.133 Y100.872 E0.34697
G1 X123.590 Y100.872 E0.01593
G1 X131.844 Y109.125 E0.34261
G1 X131.306 Y109.130 E0.01578
G1 X123.047 Y100.871 E0.34282
G1 X122.504 Y100.871 E0.01593
G1 X130.763 Y109.130 E0.34283
G1 X130.221 Y109.130 E0.01593
G1 X121.962 Y100.871 E0.34283
G1 X121.419 Y100.871 E0.01593
G1 X129.678 Y109.130 E0.34284
G1 X129.135 Y109.130 E0.01593
G1 X120.876 Y100.871 E0.34285
G1 X120.333 Y100.871 E0.01593
G1 X128.593 Y109.130 E0.34286
G1 X128.050 Y109.130 E0.01593
G1 X119.790 Y100.870 E0.34286
G1 X119.247 Y100.870 E0.01593
G1 X127.507 Y109.130 E0.34287
G1 X126.965 Y109.130 E0.01593
G1 X118.705 Y100.870 E0.34288
G1 X118.167 Y100.875 E0.01579
G1 X126.422 Y109.130 E0.34269
G1 X125.880 Y109.130 E0.01593
G1 X117.668 Y100.919 E0.34086
G1 X117.218 Y101.012 E0.01348
G1 X125.337 Y109.130 E0.33700
G1 X124.794 Y109.130 E0.01593
G1 X119.563 Y103.899 E0.21714
G1 X119.697 Y104.307 E0.01260
G1 X119.737 Y104.615 E0.00913
G1 X124.252 Y109.130 E0.18741
G1 X123.709 Y109.130 E0.01593
G1 X119.759 Y105.180 E0.16395
G1 X119.737 Y105.537 E0.01048
G1 X119.703 Y105.667 E0.00396
G1 X123.166 Y109.130 E0.14375
G1 X122.624 Y109.130 E0.01593
G1 X119.592 Y106.098 E0.12585
G1 X119.424 Y106.473 E0.01205
G1 X122.081 Y109.130 E0.11029
G1 X121.539 Y109.130 E0.01593
G1 X119.229 Y106.820 E0.09587
G1 X118.998 Y107.133 E0.01139
G1 X120.996 Y109.130 E0.08292
G1 X120.453 Y109.130 E0.01593
G1 X118.729 Y107.406 E0.07156
G1 X118.440 Y107.660 E0.01129
G1 X119.911 Y109.130 E0.06104
G1 X119.368 Y109.130 E0.01593
G1 X118.105 Y107.867 E0.05242
G1 X117.958 Y107.959 E0.00509
G1 X117.738 Y108.042 E0.00691
G1 X118.825 Y109.130 E0.04515
G1 X118.283 Y109.130 E0.01593
G1 X117.339 Y108.187 E0.03916
G1 X116.881 Y108.271 E0.01368
G1 X117.695 Y109.085 E0.03380
G1 X117.222 Y108.988 E0.01419
G1 X116.966 Y108.899 E0.00794
G1 X116.165 Y108.097 E0.03327
G1 F8640
G1 X116.966 Y108.899 E-0.26176
G1 X117.222 Y108.988 E-0.06247
G1 X117.695 Y109.085 E-0.11162
G1 X116.881 Y108.271 E-0.26593
G1 X117.129 Y108.225 E-0.05821
G1 E-0.04000 F2100.00000
G1 Z0.800 F10800.000
G1 X114.675 Y107.149
G1 Z0.200
G1 E0.80000 F2100.00000
G1 F1200
G1 X114.488 Y107.146 E0.00286
G1 X114.319 Y106.888 E0.00473
G1 X114.235 Y106.758 E0.00193
G1 X114.214 Y106.721 E0.00038
G1 X114.127 Y106.526 E0.00159
G1 F8640
G1 X114.214 Y106.721 E-0.04920
G1 E-0.75080 F2100.00000
G1 Z0.800 F10800.000
G1 X114.082 Y103.559
G1 Z0.200
G1 E0.80000 F2100.00000
G1 F1200
G1 X114.172 Y103.400 E0.00186
G1 X114.261 Y103.241 E0.00241
G1 X114.350 Y103.082 E0.00296
G1 X114.501 Y102.858 E0.00482
G1 F8640
G1 X114.350 Y103.082 E-0.06232
G1 E-0.73768 F2100.00000
G1 Z0.800 F10800.000
G1 X115.366 Y102.038
G1 Z0.200
G1 E0.80000 F2100.00000
G1 F1200
G1 X115.541 Y101.939 E0.00264
G1 X115.716 Y101.840 E0.00318
G1 X115.734 Y101.831 E0.00033
G1 X115.890 Y101.917 E0.00294
G1 X115.982 Y101.403 F10800.000
G1 F1200
G1 X116.336 Y101.758 E0.01473
G1 X116.904 Y101.782 E0.01666
G1 X116.444 Y101.323 E0.01906
G1 X116.815 Y101.151 E0.01199
G1 X117.958 Y102.294 E0.04747
G1 F8640
G1 X116.815 Y101.151 E-0.37345
