; generated by PrusaSlicer 2.0.0+ on 2019-09-13 at 14:56:43

; 

; external perimeters extrusion width = 0.45mm
; perimeters extrusion width = 0.45mm
; infill extrusion width = 0.45mm
; solid infill extrusion width = 0.45mm
; top infill extrusion width = 0.40mm
; first layer extrusion width = 0.42mm

M73 P0 R11
M201 X9000 Y9000 Z500 E10000 ; sets maximum accelerations, mm/sec^2
M203 X500 Y500 Z12 E120 ; sets maximum feedrates, mm/sec
M204 P2000 R1500 T2000 ; sets acceleration (P, T) and retract acceleration (R), mm/sec^2
M205 X10.00 Y10.00 Z0.20 E2.50 ; sets the jerk limits, mm/sec
M205 S0 T0 ; sets the minimum extruding and travel feed rate, mm/sec
M107
M83  ; extruder relative mode
M140 S75 ; set bed temp
M109 S160 ; Set extruder temp before bed level
M190 S75 ; wait for bed temp

G28 W ; home all without mesh bed level
G80 N7 ; mesh bed leveling

M109 S240 ; wait for extruder temp

M221 S100 ; Set flow to 100

G1 Y-3.0 F1000.0 ; go outside print area
G92 E0.0
G1 E8 ; Purge Bubble
M73 P0 R11
G1 X60.0 E9.0 F1000.0 ; intro line
G1 X100.0 E12.5 F1000.0 ; intro line
G92 E0.0
M900 K45; Filament gcode
G21 ; set units to millimeters
G90 ; use absolute coordinates
M83 ; use relative distances for extrusion
;BEFORE_LAYER_CHANGE
G92 E0.0
;0.2


G1 E-0.80000 F2100.00000
G1 Z0.600 F10800.000
;AFTER_LAYER_CHANGE
;0.2
G1 X113.856 Y95.774
G1 Z0.200
G1 E0.80000 F2100.00000
M204 S1000
G1 F1200
G1 X114.858 Y94.684 E0.04270
G1 X115.969 Y93.698 E0.04287
G1 X117.128 Y92.862 E0.04120
G1 X118.140 Y92.263 E0.03392
G1 X119.479 Y91.628 E0.04275
G1 X120.830 Y91.147 E0.04137
G1 X122.268 Y90.793 E0.04270
G1 X123.734 Y90.589 E0.04270
G1 X125.161 Y90.534 E0.04120
G1 X126.337 Y90.595 E0.03397
G1 X127.808 Y90.808 E0.04287
G1 X129.199 Y91.156 E0.04137
G1 X130.592 Y91.657 E0.04270
G1 X131.931 Y92.302 E0.04287
G1 X133.154 Y93.051 E0.04137
G1 X134.333 Y93.947 E0.04270
G1 X135.205 Y94.746 E0.03414
G1 X136.163 Y95.798 E0.04104
G1 X137.048 Y96.992 E0.04287
G1 X137.804 Y98.265 E0.04270
G1 X138.412 Y99.577 E0.04170
G1 X138.910 Y101.025 E0.04420
G1 X139.235 Y102.422 E0.04137
G1 X139.398 Y103.594 E0.03414
G1 X139.467 Y105.073 E0.04270
G1 X139.388 Y106.511 E0.04154
G1 X139.158 Y107.973 E0.04270
G1 X138.778 Y109.410 E0.04287
G1 X138.274 Y110.753 E0.04137
G1 X137.616 Y112.079 E0.04270
G1 X137.002 Y113.077 E0.03380
G1 X136.144 Y114.226 E0.04137
G1 X135.134 Y115.324 E0.04304
G1 X134.031 Y116.302 E0.04253
G1 X132.867 Y117.141 E0.04137
G1 X131.581 Y117.883 E0.04282
G1 X130.510 Y118.376 E0.03402
G1 X129.164 Y118.855 E0.04120
G1 X127.715 Y119.210 E0.04304
G1 X126.249 Y119.413 E0.04270
G1 X124.770 Y119.465 E0.04270
G1 X123.275 Y119.364 E0.04320
G1 X121.862 Y119.122 E0.04137
G1 X120.430 Y118.726 E0.04284
G1 X119.339 Y118.313 E0.03366
G1 X118.043 Y117.685 E0.04154
G1 X116.783 Y116.907 E0.04270
G1 X115.605 Y116.001 E0.04287
G1 X114.566 Y115.021 E0.04120
G1 X113.787 Y114.141 E0.03392
G1 X112.911 Y112.945 E0.04276
G1 X112.183 Y111.710 E0.04137
G1 X111.564 Y110.365 E0.04270
G1 X111.085 Y108.958 E0.04287
G1 X110.763 Y107.566 E0.04120
G1 X110.602 Y106.402 E0.03392
G1 X110.533 Y104.927 E0.04259
G1 X110.612 Y103.489 E0.04154
G1 X110.842 Y102.027 E0.04270
G1 X111.222 Y100.590 E0.04287
G1 X111.724 Y99.253 E0.04120
G1 X112.235 Y98.194 E0.03392
G1 X112.998 Y96.923 E0.04275
G1 X113.820 Y95.822 E0.03964
G1 X114.122 Y96.048 F10800.000
G1 F1200
G1 X115.120 Y94.954 E0.04270
G1 X116.203 Y93.994 E0.04175
G1 X117.337 Y93.177 E0.04031
G1 X118.315 Y92.597 E0.03280
G1 X119.620 Y91.978 E0.04167
G1 X120.936 Y91.509 E0.04031
G1 X122.342 Y91.163 E0.04175
G1 X123.770 Y90.964 E0.04159
G1 X125.161 Y90.911 E0.04015
G1 X126.299 Y90.971 E0.03288
G1 X127.732 Y91.178 E0.04175
G1 X129.087 Y91.516 E0.04031
G1 X130.449 Y92.006 E0.04175
G1 X131.749 Y92.631 E0.04159
G1 X132.945 Y93.364 E0.04047
G1 X134.093 Y94.237 E0.04159
G1 X134.937 Y95.011 E0.03304
G1 X135.874 Y96.040 E0.04015
G1 X136.736 Y97.203 E0.04175
G1 X137.471 Y98.443 E0.04159
G1 X138.064 Y99.721 E0.04063
G1 X138.549 Y101.132 E0.04304
G1 X138.865 Y102.493 E0.04031
G1 X139.023 Y103.628 E0.03304
G1 X139.089 Y105.068 E0.04159
G1 X139.013 Y106.469 E0.04047
G1 X138.788 Y107.899 E0.04175
G1 X138.420 Y109.293 E0.04159
G1 X137.928 Y110.601 E0.04031
G1 X137.436 Y111.623 E0.03272
G1 X136.691 Y112.864 E0.04175
G1 X135.855 Y113.983 E0.04031
G1 X134.872 Y115.054 E0.04192
G1 X133.793 Y116.010 E0.04159
G1 X132.659 Y116.826 E0.04031
G1 X131.406 Y117.549 E0.04171
G1 X130.367 Y118.027 E0.03301
G1 X129.058 Y118.493 E0.04006
G1 X127.647 Y118.839 E0.04192
G1 X126.219 Y119.037 E0.04159
G1 X124.778 Y119.088 E0.04159
G1 X123.317 Y118.989 E0.04224
G1 X121.940 Y118.753 E0.04031
G1 X120.545 Y118.367 E0.04174
G1 X119.489 Y117.967 E0.03257
G1 X118.227 Y117.355 E0.04047
G1 X116.995 Y116.595 E0.04175
G1 X115.848 Y115.713 E0.04175
G1 X114.836 Y114.757 E0.04015
G1 X114.082 Y113.906 E0.03280
G1 X113.227 Y112.741 E0.04167
G1 X112.518 Y111.537 E0.04031
G1 X111.915 Y110.227 E0.04159
G1 X111.448 Y108.857 E0.04175
G1 X111.133 Y107.496 E0.04031
G1 X110.977 Y106.372 E0.03272
G1 X110.911 Y104.932 E0.04159
G1 X110.987 Y103.531 E0.04047
G1 X111.212 Y102.101 E0.04175
G1 X111.580 Y100.707 E0.04159
G1 X112.072 Y99.399 E0.04031
G1 X112.564 Y98.377 E0.03272
G1 X113.309 Y97.136 E0.04175
G1 X114.086 Y96.096 E0.03746
G1 F8640
G1 X115.120 Y94.954 E-0.35561
G1 X116.203 Y93.994 E-0.33423
G1 X116.450 Y93.816 E-0.07016
G1 E-0.04000 F2100.00000
G1 Z0.800 F10800.000
G1 X114.957 Y96.887
G1 Z0.200
G1 E0.80000 F2100.00000
G1 F1200
G1 X115.800 Y95.944 E0.03649
G1 X116.650 Y95.154 E0.03347
G1 X117.661 Y94.378 E0.03676
G1 X118.754 Y93.701 E0.03711
G1 X119.910 Y93.135 E0.03712
G1 X121.120 Y92.687 E0.03720
G1 X122.280 Y92.380 E0.03462
G1 X123.541 Y92.172 E0.03688
G1 X124.765 Y92.092 E0.03536
G1 X125.988 Y92.127 E0.03530
G1 X127.297 Y92.295 E0.03807
G1 X128.596 Y92.601 E0.03851
G1 X129.857 Y93.038 E0.03849
G1 X131.008 Y93.574 E0.03663
G1 X132.075 Y94.201 E0.03570
G1 X133.095 Y94.943 E0.03639
G1 X134.025 Y95.768 E0.03587
G1 X134.867 Y96.674 E0.03566
G1 X135.670 Y97.731 E0.03831
G1 X136.364 Y98.873 E0.03854
G1 X136.936 Y100.079 E0.03849
G1 X137.361 Y101.275 E0.03663
G1 X137.661 Y102.476 E0.03570
G1 X137.847 Y103.723 E0.03638
G1 X137.910 Y104.959 E0.03569
G1 X137.855 Y106.187 E0.03547
G1 X137.690 Y107.371 E0.03449
G1 X137.383 Y108.653 E0.03803
G1 X136.979 Y109.816 E0.03550
G1 X136.461 Y110.945 E0.03582
G1 X135.812 Y112.056 E0.03711
G1 X135.042 Y113.114 E0.03775
G1 X134.161 Y114.096 E0.03807
G1 X133.360 Y114.838 E0.03149
G1 X132.339 Y115.621 E0.03711
G1 X131.245 Y116.300 E0.03715
G1 X130.076 Y116.871 E0.03752
G1 X128.867 Y117.318 E0.03717
G1 X127.578 Y117.651 E0.03842
G1 X126.269 Y117.847 E0.03817
G1 X125.150 Y117.909 E0.03232
G1 X124.005 Y117.872 E0.03307
G1 X122.695 Y117.703 E0.03810
G1 X121.397 Y117.398 E0.03844
G1 X120.140 Y116.961 E0.03839
G1 X118.942 Y116.400 E0.03817
G1 X117.906 Y115.786 E0.03472
G1 X116.874 Y115.032 E0.03689
G1 X115.959 Y114.216 E0.03536
G1 X115.127 Y113.319 E0.03529
G1 X114.329 Y112.268 E0.03807
G1 X113.636 Y111.127 E0.03851
G1 X113.063 Y109.919 E0.03855
G1 X112.619 Y108.659 E0.03855
G1 X112.310 Y107.372 E0.03817
G1 X112.155 Y106.294 E0.03142
G1 X112.090 Y105.061 E0.03561
G1 X112.145 Y103.813 E0.03604
G1 X112.310 Y102.629 E0.03450
G1 X112.617 Y101.347 E0.03802
G1 X113.021 Y100.184 E0.03550
G1 X113.542 Y99.050 E0.03602
G1 X114.199 Y97.927 E0.03751
G1 X114.922 Y96.936 E0.03540
G1 X115.226 Y97.158 F10800.000
G1 F1200
G1 X116.075 Y96.202 E0.03687
G1 X116.900 Y95.436 E0.03246
G1 X117.883 Y94.683 E0.03572
G1 X118.945 Y94.026 E0.03602
G1 X120.067 Y93.478 E0.03604
G1 X121.242 Y93.044 E0.03613
G1 X122.350 Y92.750 E0.03307
G1 X123.593 Y92.546 E0.03635
G1 X124.780 Y92.469 E0.03430
G1 X125.967 Y92.504 E0.03425
G1 X127.239 Y92.668 E0.03699
G1 X128.500 Y92.965 E0.03739
G1 X129.724 Y93.391 E0.03737
G1 X130.840 Y93.912 E0.03554
G1 X131.875 Y94.521 E0.03465
G1 X132.866 Y95.242 E0.03533
G1 X133.768 Y96.044 E0.03482
G1 X134.584 Y96.923 E0.03460
G1 X135.364 Y97.951 E0.03722
G1 X136.037 Y99.060 E0.03742
G1 X136.591 Y100.231 E0.03737
G1 X137.002 Y101.393 E0.03554
G1 X137.293 Y102.558 E0.03465
G1 X137.473 Y103.770 E0.03533
G1 X137.533 Y104.969 E0.03463
G1 X137.479 Y106.161 E0.03444
G1 X137.321 Y107.293 E0.03295
G1 X137.024 Y108.539 E0.03695
G1 X136.626 Y109.683 E0.03496
G1 X136.122 Y110.778 E0.03477
G1 X135.491 Y111.857 E0.03604
G1 X134.743 Y112.884 E0.03665
G1 X133.886 Y113.838 E0.03699
G1 X133.110 Y114.555 E0.03049
G1 X132.118 Y115.316 E0.03608
G1 X131.055 Y115.974 E0.03606
G1 X129.919 Y116.528 E0.03643
G1 X128.746 Y116.961 E0.03608
G1 X127.493 Y117.283 E0.03731
G1 X126.222 Y117.473 E0.03707
G1 X125.138 Y117.532 E0.03132
G1 X124.026 Y117.496 E0.03209
G1 X122.753 Y117.330 E0.03704
G1 X121.494 Y117.033 E0.03732
G1 X120.274 Y116.608 E0.03727
G1 X119.110 Y116.063 E0.03706
G1 X118.121 Y115.477 E0.03316
G1 X117.104 Y114.733 E0.03636
G1 X116.217 Y113.941 E0.03430
G1 X115.410 Y113.070 E0.03425
G1 X114.636 Y112.048 E0.03699
G1 X113.963 Y110.940 E0.03739
G1 X113.409 Y109.767 E0.03742
G1 X112.978 Y108.543 E0.03743
G1 X112.679 Y107.293 E0.03707
G1 X112.529 Y106.249 E0.03042
G1 X112.467 Y105.051 E0.03461
G1 X112.521 Y103.839 E0.03499
G1 X112.679 Y102.707 E0.03296
G1 X112.976 Y101.462 E0.03695
G1 X113.374 Y100.317 E0.03496
G1 X113.881 Y99.216 E0.03496
G1 X114.520 Y98.126 E0.03643
G1 X115.191 Y97.206 E0.03285
G1 X115.495 Y97.429 F10800.000
G1 F1200
G1 X116.350 Y96.460 E0.03726
G1 X117.149 Y95.719 E0.03145
G1 X118.104 Y94.989 E0.03467
G1 X119.135 Y94.352 E0.03494
G1 X120.224 Y93.821 E0.03495
G1 X121.364 Y93.401 E0.03505
G1 X122.420 Y93.121 E0.03152
G1 X123.645 Y92.919 E0.03582
G1 X124.795 Y92.845 E0.03323
G1 X125.946 Y92.880 E0.03321
G1 X127.180 Y93.041 E0.03590
G1 X128.404 Y93.330 E0.03626
G1 X129.590 Y93.744 E0.03625
G1 X130.673 Y94.249 E0.03445
G1 X131.661 Y94.831 E0.03309
G1 X132.636 Y95.541 E0.03480
G1 X133.510 Y96.320 E0.03375
G1 X134.301 Y97.173 E0.03355
G1 X135.057 Y98.171 E0.03613
G1 X135.709 Y99.247 E0.03629
G1 X136.246 Y100.384 E0.03625
G1 X136.644 Y101.510 E0.03445
G1 X136.921 Y102.623 E0.03309
G1 X137.099 Y103.816 E0.03480
G1 X137.156 Y104.978 E0.03357
G1 X137.103 Y106.135 E0.03341
G1 X136.952 Y107.214 E0.03142
G1 X136.664 Y108.424 E0.03588
G1 X136.279 Y109.534 E0.03389
G1 X135.783 Y110.612 E0.03423
G1 X135.171 Y111.658 E0.03496
G1 X134.444 Y112.654 E0.03555
G1 X133.612 Y113.579 E0.03590
G1 X132.861 Y114.272 E0.02948
G1 X131.896 Y115.011 E0.03506
G1 X130.865 Y115.648 E0.03497
G1 X129.763 Y116.184 E0.03534
G1 X128.625 Y116.603 E0.03499
G1 X127.409 Y116.915 E0.03620
G1 X126.176 Y117.099 E0.03598
G1 X125.126 Y117.155 E0.03032
G1 X124.048 Y117.119 E0.03112
G1 X122.811 Y116.958 E0.03597
G1 X121.590 Y116.668 E0.03620
G1 X120.407 Y116.255 E0.03614
G1 X119.279 Y115.725 E0.03596
G1 X118.337 Y115.167 E0.03160
G1 X117.334 Y114.434 E0.03582
G1 X116.475 Y113.666 E0.03323
G1 X115.693 Y112.821 E0.03321
G1 X114.942 Y111.828 E0.03590
G1 X114.291 Y110.753 E0.03626
G1 X113.754 Y109.615 E0.03630
G1 X113.337 Y108.428 E0.03630
G1 X113.048 Y107.214 E0.03598
G1 X112.904 Y106.205 E0.02942
G1 X112.844 Y105.041 E0.03362
G1 X112.897 Y103.865 E0.03395
G1 X113.048 Y102.786 E0.03142
G1 X113.336 Y101.576 E0.03587
G1 X113.728 Y100.449 E0.03442
G1 X114.219 Y99.382 E0.03389
G1 X114.840 Y98.325 E0.03535
G1 X115.460 Y97.477 E0.03031
G1 X115.764 Y97.700 F10800.000
G1 F1200
G1 X115.853 Y97.578 E0.00437
G1 X116.625 Y96.719 E0.03330
G1 X117.399 Y96.002 E0.03044
G1 X118.325 Y95.294 E0.03363
G1 X119.325 Y94.678 E0.03386
G1 X120.380 Y94.164 E0.03387
G1 X121.486 Y93.758 E0.03398
G1 X122.491 Y93.492 E0.02998
G1 X123.679 Y93.295 E0.03476
G1 X124.793 Y93.223 E0.03219
G1 X125.925 Y93.257 E0.03268
G1 X127.122 Y93.413 E0.03481
G1 X128.307 Y93.695 E0.03514
G1 X129.457 Y94.097 E0.03513
G1 X130.505 Y94.587 E0.03337
G1 X131.446 Y95.142 E0.03153
G1 X132.407 Y95.841 E0.03427
G1 X133.253 Y96.595 E0.03268
G1 X134.018 Y97.422 E0.03250
G1 X134.750 Y98.391 E0.03503
G1 X135.381 Y99.434 E0.03517
G1 X135.900 Y100.535 E0.03513
G1 X136.285 Y101.627 E0.03337
G1 X136.550 Y102.687 E0.03153
G1 X136.724 Y103.862 E0.03426
G1 X136.779 Y104.987 E0.03251
G1 X136.727 Y106.109 E0.03238
G1 X136.584 Y107.136 E0.02991
G1 X136.305 Y108.310 E0.03480
G1 X135.926 Y109.402 E0.03335
G1 X135.445 Y110.446 E0.03317
G1 X134.850 Y111.459 E0.03388
G1 X134.146 Y112.423 E0.03445
G1 X133.338 Y113.320 E0.03481
G1 X132.612 Y113.989 E0.02848
G1 X131.675 Y114.706 E0.03404
G1 X130.675 Y115.322 E0.03388
G1 X129.607 Y115.841 E0.03425
G1 X128.504 Y116.246 E0.03389
G1 X127.325 Y116.547 E0.03509
G1 X126.129 Y116.725 E0.03488
G1 X125.115 Y116.778 E0.02931
G1 X124.070 Y116.743 E0.03015
G1 X122.870 Y116.585 E0.03491
G1 X121.687 Y116.304 E0.03508
G1 X120.541 Y115.903 E0.03502
G1 X119.448 Y115.388 E0.03486
G1 X118.551 Y114.857 E0.03005
G1 X117.578 Y114.147 E0.03476
G1 X116.746 Y113.403 E0.03219
G1 X115.977 Y112.572 E0.03268
G1 X115.249 Y111.609 E0.03481
G1 X114.619 Y110.566 E0.03514
G1 X114.099 Y109.463 E0.03517
G1 X113.696 Y108.312 E0.03517
G1 X113.416 Y107.136 E0.03488
G1 X113.278 Y106.160 E0.02843
G1 X113.221 Y105.031 E0.03262
G1 X113.273 Y103.891 E0.03291
G1 X113.416 Y102.864 E0.02990
G1 X113.695 Y101.691 E0.03479
G1 X114.074 Y100.599 E0.03334
G1 X114.558 Y99.549 E0.03335
G1 X115.160 Y98.525 E0.03427
G1 X115.729 Y97.748 E0.02776
G1 X116.152 Y97.808 F10800.000
G1 F1200
G1 X116.899 Y96.977 E0.03223
G1 X117.648 Y96.285 E0.02942
G1 X118.546 Y95.600 E0.03259
G1 X119.514 Y95.004 E0.03277
G1 X120.536 Y94.508 E0.03278
G1 X121.607 Y94.115 E0.03291
G1 X122.561 Y93.862 E0.02846
G1 X123.713 Y93.671 E0.03369
G1 X124.808 Y93.599 E0.03165
G1 X125.904 Y93.634 E0.03162
G1 X127.063 Y93.786 E0.03372
G1 X128.210 Y94.059 E0.03402
G1 X129.323 Y94.449 E0.03401
G1 X130.336 Y94.925 E0.03229
G1 X131.232 Y95.452 E0.02998
G1 X132.177 Y96.140 E0.03373
G1 X132.995 Y96.870 E0.03161
G1 X133.734 Y97.671 E0.03145
G1 X134.443 Y98.610 E0.03394
G1 X135.053 Y99.620 E0.03405
G1 X135.555 Y100.687 E0.03401
G1 X135.926 Y101.743 E0.03229
G1 X136.178 Y102.752 E0.02998
G1 X136.350 Y103.908 E0.03372
G1 X136.402 Y104.996 E0.03143
G1 X136.350 Y106.082 E0.03136
G1 X136.215 Y107.058 E0.02841
G1 X135.945 Y108.195 E0.03372
G1 X135.579 Y109.253 E0.03227
G1 X135.106 Y110.280 E0.03262
G1 X134.530 Y111.260 E0.03279
G1 X133.847 Y112.193 E0.03335
G1 X133.064 Y113.061 E0.03373
G1 X132.363 Y113.706 E0.02748
G1 X131.453 Y114.400 E0.03301
G1 X130.485 Y114.996 E0.03279
G1 X129.451 Y115.497 E0.03316
G1 X128.383 Y115.889 E0.03280
G1 X127.242 Y116.180 E0.03398
G1 X126.083 Y116.350 E0.03378
G1 X125.103 Y116.401 E0.02831
G1 X124.093 Y116.366 E0.02917
G1 X122.929 Y116.213 E0.03384
G1 X121.784 Y115.939 E0.03396
G1 X120.675 Y115.550 E0.03390
G1 X119.617 Y115.051 E0.03377
G1 X118.766 Y114.547 E0.02852
G1 X117.822 Y113.859 E0.03369
G1 X117.004 Y113.128 E0.03165
G1 X116.260 Y112.323 E0.03162
G1 X115.556 Y111.390 E0.03372
G1 X114.947 Y110.380 E0.03402
G1 X114.444 Y109.312 E0.03405
G1 X114.055 Y108.197 E0.03405
G1 X113.785 Y107.058 E0.03378
G1 X113.653 Y106.116 E0.02743
G1 X113.598 Y105.021 E0.03162
G1 X113.650 Y103.917 E0.03187
G1 X113.785 Y102.942 E0.02840
G1 X114.054 Y101.805 E0.03370
G1 X114.427 Y100.731 E0.03279
G1 X114.896 Y99.716 E0.03227
G1 X115.480 Y98.725 E0.03318
G1 X116.116 Y97.857 E0.03104
G1 X116.420 Y98.080 F10800.000
G1 F1200
G1 X117.173 Y97.236 E0.03262
G1 X117.897 Y96.568 E0.02841
G1 X118.767 Y95.906 E0.03154
G1 X119.703 Y95.331 E0.03169
G1 X120.692 Y94.851 E0.03169
G1 X121.729 Y94.472 E0.03185
G1 X122.632 Y94.233 E0.02696
G1 X123.747 Y94.046 E0.03261
G1 X124.823 Y93.976 E0.03111
G1 X125.882 Y94.010 E0.03056
G1 X127.004 Y94.159 E0.03263
G1 X128.113 Y94.424 E0.03290
G1 X129.189 Y94.802 E0.03289
G1 X130.168 Y95.262 E0.03122
G1 X131.018 Y95.762 E0.02844
G1 X131.933 Y96.428 E0.03265
G1 X132.724 Y97.133 E0.03055
G1 X133.451 Y97.920 E0.03091
G1 X134.136 Y98.829 E0.03284
G1 X134.725 Y99.806 E0.03292
G1 X135.209 Y100.838 E0.03289
G1 X135.567 Y101.860 E0.03122
G1 X135.806 Y102.816 E0.02844
G1 X135.974 Y103.936 E0.03265
G1 X136.025 Y104.988 E0.03037
G1 X135.974 Y106.056 E0.03085
G1 X135.845 Y106.980 E0.02691
G1 X135.586 Y108.081 E0.03264
