; generated by PrusaSlicer 2.0.0+ on 2019-09-19 at 12:40:31

; 

; external perimeters extrusion width = 0.60mm
; perimeters extrusion width = 0.43mm
; infill extrusion width = 0.45mm
; solid infill extrusion width = 0.70mm
; top infill extrusion width = 0.43mm
; first layer extrusion width = 0.42mm

M73 P0 R16
M201 X9000 Y9000 Z500 E10000 ; sets maximum accelerations, mm/sec^2
M203 X500 Y500 Z12 E120 ; sets maximum feedrates, mm/sec
M204 P2000 R1500 T2000 ; sets acceleration (P, T) and retract acceleration (R), mm/sec^2
M205 X10.00 Y10.00 Z0.20 E2.50 ; sets the jerk limits, mm/sec
M205 S0 T0 ; sets the minimum extruding and travel feed rate, mm/sec
M107
M83  ; extruder relative mode
M140 S75 ; set bed temp
M109 S160 ; Set extruder temp before bed level
M190 S75 ; wait for bed temp

G28 W ; home all without mesh bed level
G80 N7 ; mesh bed leveling

M109 S240 ; wait for extruder temp

M221 S100 ; Set flow to 100

G1 Y-3.0 F1000.0 ; go outside print area
G92 E0.0
G1 E8 ; Purge Bubble
M73 P0 R16
G1 X60.0 E9.0 F1000.0 ; intro line
G1 X100.0 E12.5 F1000.0 ; intro line
G92 E0.0
M900 K45; Filament gcode
G21 ; set units to millimeters
G90 ; use absolute coordinates
M83 ; use relative distances for extrusion
;BEFORE_LAYER_CHANGE
G92 E0.0
;0.2


G1 E-0.80000 F2100.00000
G1 Z0.600 F10800.000
;AFTER_LAYER_CHANGE
;0.2
G1 X113.466 Y95.702
G1 Z0.200
G1 E0.80000 F2100.00000
M204 S1000
G1 F1200
G1 X114.390 Y94.662 E0.04014
G1 X115.794 Y93.394 E0.05457
G1 X116.883 Y92.608 E0.03874
G1 X118.076 Y91.902 E0.03999
G1 X119.295 Y91.328 E0.03885
G1 X120.556 Y90.867 E0.03874
G1 X121.902 Y90.513 E0.04014
G1 X123.777 Y90.236 E0.05468
G1 X125.143 Y90.185 E0.03942
G1 X126.507 Y90.261 E0.03942
G1 X127.882 Y90.468 E0.04011
G1 X129.187 Y90.789 E0.03877
G1 X130.968 Y91.439 E0.05468
G1 X132.210 Y92.056 E0.03999
G1 X133.355 Y92.764 E0.03885
G1 X134.429 Y93.571 E0.03874
G1 X135.456 Y94.502 E0.03999
G1 X136.364 Y95.493 E0.03877
G1 X137.485 Y97.022 E0.05469
G1 X138.177 Y98.223 E0.03999
G1 X138.737 Y99.448 E0.03885
G1 X139.184 Y100.714 E0.03874
G1 X139.522 Y102.059 E0.03999
G1 X139.729 Y103.387 E0.03877
G1 X139.814 Y105.277 E0.05457
G1 X139.723 Y106.664 E0.04011
G1 X139.512 Y107.990 E0.03874
G1 X139.181 Y109.296 E0.03885
G1 X138.717 Y110.602 E0.03999
G1 X138.152 Y111.822 E0.03877
G1 X137.174 Y113.446 E0.05469
G1 X136.331 Y114.547 E0.03999
G1 X135.420 Y115.533 E0.03874
G1 X134.421 Y116.436 E0.03885
G1 X133.310 Y117.266 E0.03999
G1 X132.164 Y117.969 E0.03877
G1 X130.450 Y118.777 E0.05469
G1 X129.138 Y119.226 E0.03999
G1 X127.833 Y119.543 E0.03874
G1 X126.504 Y119.739 E0.03874
G1 X125.140 Y119.815 E0.03942
G1 X123.773 Y119.764 E0.03946
G1 X121.902 Y119.487 E0.05457
G1 X120.557 Y119.133 E0.04010
G1 X119.296 Y118.673 E0.03874
G1 X118.077 Y118.098 E0.03885
G1 X116.884 Y117.393 E0.03999
G1 X115.794 Y116.606 E0.03877
G1 X114.387 Y115.336 E0.05469
G1 X113.467 Y114.298 E0.03999
G1 X112.670 Y113.213 E0.03885
G1 X111.977 Y112.062 E0.03874
G1 X111.375 Y110.814 E0.03999
G1 X110.904 Y109.555 E0.03877
G1 X110.438 Y107.717 E0.05469
G1 X110.247 Y106.344 E0.03999
G1 X110.186 Y104.999 E0.03885
G1 X110.247 Y103.657 E0.03874
G1 X110.438 Y102.284 E0.03999
G1 X110.744 Y100.975 E0.03877
G1 X111.374 Y99.187 E0.05469
G1 X111.977 Y97.939 E0.03999
G1 X112.672 Y96.785 E0.03885
G1 X113.431 Y95.751 E0.03701
G1 X113.735 Y95.974 F10800.000
G1 F1200
G1 X114.655 Y94.930 E0.04015
G1 X116.034 Y93.685 E0.05359
G1 X117.095 Y92.919 E0.03774
G1 X118.257 Y92.234 E0.03890
G1 X119.440 Y91.676 E0.03775
G1 X120.669 Y91.227 E0.03775
G1 X121.974 Y90.883 E0.03891
G1 X123.815 Y90.611 E0.05369
G1 X125.145 Y90.562 E0.03838
G1 X126.469 Y90.636 E0.03827
G1 X127.803 Y90.836 E0.03890
G1 X129.074 Y91.148 E0.03775
G1 X130.822 Y91.787 E0.05369
G1 X132.030 Y92.388 E0.03890
G1 X133.143 Y93.076 E0.03775
G1 X134.189 Y93.862 E0.03775
G1 X135.185 Y94.765 E0.03880
G1 X136.070 Y95.729 E0.03775
G1 X137.171 Y97.231 E0.05369
G1 X137.842 Y98.396 E0.03880
G1 X138.387 Y99.586 E0.03775
G1 X138.823 Y100.824 E0.03785
G1 X139.151 Y102.128 E0.03880
G1 X139.353 Y103.421 E0.03775
G1 X139.437 Y105.277 E0.05359
G1 X139.349 Y106.623 E0.03890
G1 X139.143 Y107.915 E0.03775
G1 X138.821 Y109.183 E0.03775
G1 X138.370 Y110.454 E0.03890
G1 X137.821 Y111.642 E0.03775
G1 X136.860 Y113.236 E0.05369
G1 X136.040 Y114.307 E0.03890
G1 X135.155 Y115.266 E0.03764
G1 X134.181 Y116.145 E0.03785
G1 X133.104 Y116.951 E0.03880
G1 X131.988 Y117.635 E0.03775
G1 X130.305 Y118.429 E0.05369
G1 X129.032 Y118.865 E0.03880
G1 X127.760 Y119.173 E0.03775
G1 X126.466 Y119.364 E0.03775
G1 X125.141 Y119.438 E0.03827
G1 X123.815 Y119.389 E0.03827
G1 X121.970 Y119.116 E0.05381
G1 X120.669 Y118.773 E0.03880
G1 X119.440 Y118.325 E0.03775
G1 X118.257 Y117.766 E0.03775
G1 X117.095 Y117.081 E0.03890
G1 X116.034 Y116.315 E0.03775
G1 X114.653 Y115.068 E0.05369
G1 X113.760 Y114.061 E0.03880
G1 X112.986 Y113.006 E0.03775
G1 X112.311 Y111.886 E0.03775
G1 X111.724 Y110.671 E0.03890
G1 X111.265 Y109.446 E0.03775
G1 X110.807 Y107.641 E0.05369
G1 X110.622 Y106.305 E0.03890
G1 X110.563 Y104.998 E0.03775
G1 X110.622 Y103.691 E0.03775
G1 X110.807 Y102.359 E0.03880
G1 X111.105 Y101.084 E0.03775
G1 X111.724 Y99.329 E0.05369
G1 X112.311 Y98.115 E0.03890
G1 X112.986 Y96.994 E0.03775
G1 X113.699 Y96.022 E0.03477
G1 F8640
G1 X114.655 Y94.930 E-0.33517
G1 X116.021 Y93.697 E-0.42483
G1 E-0.04000 F2100.00000
G1 Z0.800 F10800.000
G1 X118.028 Y99.572
G1 Z0.200
G1 E0.80000 F2100.00000
G1 F1200
G1 X118.337 Y99.196 E0.01405
G1 X118.667 Y98.838 E0.01405
G1 X119.016 Y98.498 E0.01405
G1 X119.390 Y98.173 E0.01428
G1 X120.157 Y97.609 E0.02747
G1 X120.583 Y97.347 E0.01443
G1 X121.011 Y97.115 E0.01405
G1 X121.452 Y96.907 E0.01405
G1 X121.903 Y96.724 E0.01405
G1 X122.371 Y96.563 E0.01428
G1 X123.294 Y96.329 E0.02747
G1 X123.788 Y96.246 E0.01443
G1 X124.272 Y96.193 E0.01405
G1 X124.758 Y96.166 E0.01405
G1 X125.245 Y96.166 E0.01405
G1 X125.731 Y96.193 E0.01405
G1 X126.215 Y96.246 E0.01405
G1 X126.696 Y96.327 E0.01405
G1 X127.171 Y96.433 E0.01405
G1 X127.640 Y96.566 E0.01405
G1 X128.100 Y96.724 E0.01405
G1 X128.551 Y96.907 E0.01405
G1 X128.992 Y97.115 E0.01405
G1 X129.420 Y97.347 E0.01405
G1 X129.835 Y97.602 E0.01405
G1 X130.235 Y97.879 E0.01405
G1 X130.626 Y98.183 E0.01428
G1 X131.327 Y98.828 E0.02747
G1 X131.666 Y99.196 E0.01443
G1 X131.975 Y99.572 E0.01405
G1 X132.264 Y99.964 E0.01405
G1 X132.530 Y100.372 E0.01405
G1 X132.774 Y100.794 E0.01405
G1 X132.994 Y101.228 E0.01405
G1 X133.189 Y101.674 E0.01405
G1 X133.360 Y102.131 E0.01405
G1 X133.505 Y102.595 E0.01405
G1 X133.625 Y103.067 E0.01405
G1 X133.718 Y103.545 E0.01405
G1 X133.785 Y104.028 E0.01405
G1 X133.825 Y104.513 E0.01405
G1 X133.839 Y105.008 E0.01428
G1 X133.787 Y105.959 E0.02747
G1 X133.718 Y106.454 E0.01443
G1 X133.625 Y106.933 E0.01405
G1 X133.505 Y107.405 E0.01405
G1 X133.360 Y107.869 E0.01405
G1 X133.189 Y108.326 E0.01405
G1 X132.994 Y108.772 E0.01405
G1 X132.774 Y109.206 E0.01405
G1 X132.530 Y109.628 E0.01405
G1 X132.264 Y110.036 E0.01405
G1 X131.975 Y110.428 E0.01405
G1 X131.666 Y110.804 E0.01405
G1 X131.336 Y111.162 E0.01405
G1 X130.987 Y111.502 E0.01405
G1 X130.614 Y111.827 E0.01428
G1 X129.846 Y112.391 E0.02747
G1 X129.420 Y112.653 E0.01443
G1 X128.992 Y112.885 E0.01405
G1 X128.551 Y113.093 E0.01405
G1 X128.100 Y113.276 E0.01405
G1 X127.640 Y113.434 E0.01405
G1 X127.171 Y113.567 E0.01405
G1 X126.696 Y113.673 E0.01405
G1 X126.215 Y113.754 E0.01405
G1 X125.731 Y113.807 E0.01405
G1 X125.245 Y113.834 E0.01405
G1 X124.758 Y113.834 E0.01405
G1 X124.272 Y113.807 E0.01405
G1 X123.788 Y113.754 E0.01405
G1 X123.307 Y113.673 E0.01405
G1 X122.832 Y113.567 E0.01405
G1 X122.364 Y113.434 E0.01405
G1 X121.903 Y113.276 E0.01405
G1 X121.452 Y113.093 E0.01405
G1 X121.011 Y112.885 E0.01405
G1 X120.583 Y112.653 E0.01405
G1 X120.168 Y112.398 E0.01405
G1 X119.768 Y112.121 E0.01405
G1 X119.383 Y111.822 E0.01405
G1 X119.010 Y111.497 E0.01428
G1 X118.346 Y110.814 E0.02747
G1 X118.028 Y110.428 E0.01443
G1 X117.739 Y110.036 E0.01405
G1 X117.473 Y109.628 E0.01405
G1 X117.229 Y109.206 E0.01405
G1 X117.009 Y108.772 E0.01405
G1 X116.814 Y108.326 E0.01405
G1 X116.643 Y107.869 E0.01405
G1 X116.498 Y107.405 E0.01405
G1 X116.378 Y106.933 E0.01405
G1 X116.285 Y106.455 E0.01405
G1 X116.218 Y105.972 E0.01405
G1 X116.178 Y105.487 E0.01405
G1 X116.164 Y105.000 E0.01405
G1 X116.178 Y104.513 E0.01405
G1 X116.219 Y104.020 E0.01428
G1 X116.375 Y103.081 E0.02747
G1 X116.498 Y102.596 E0.01443
G1 X116.643 Y102.131 E0.01405
G1 X116.814 Y101.674 E0.01405
G1 X117.009 Y101.228 E0.01405
G1 X117.233 Y100.787 E0.01428
G1 X117.732 Y99.975 E0.02747
G1 X117.992 Y99.621 E0.01270
G1 X118.296 Y99.844 F10800.000
G1 F1200
G1 X118.622 Y99.444 E0.01488
G1 X118.938 Y99.101 E0.01345
G1 X119.272 Y98.776 E0.01345
G1 X119.625 Y98.468 E0.01353
G1 X120.368 Y97.922 E0.02657
G1 X120.771 Y97.673 E0.01368
G1 X121.182 Y97.451 E0.01345
G1 X121.603 Y97.252 E0.01345
G1 X122.035 Y97.077 E0.01345
G1 X122.479 Y96.925 E0.01353
G1 X123.372 Y96.698 E0.02657
G1 X123.839 Y96.620 E0.01368
G1 X124.303 Y96.569 E0.01345
G1 X124.768 Y96.543 E0.01345
G1 X125.235 Y96.543 E0.01345
G1 X125.700 Y96.569 E0.01345
G1 X126.164 Y96.620 E0.01345
G1 X126.623 Y96.697 E0.01345
G1 X127.078 Y96.799 E0.01345
G1 X127.527 Y96.926 E0.01345
G1 X127.968 Y97.077 E0.01345
G1 X128.400 Y97.252 E0.01345
G1 X128.822 Y97.451 E0.01345
G1 X129.232 Y97.673 E0.01345
G1 X129.629 Y97.918 E0.01345
G1 X130.012 Y98.183 E0.01345
G1 X130.382 Y98.471 E0.01353
G1 X131.060 Y99.095 E0.02657
G1 X131.381 Y99.444 E0.01368
G1 X131.678 Y99.804 E0.01345
G1 X131.954 Y100.179 E0.01345
G1 X132.209 Y100.570 E0.01345
G1 X132.442 Y100.973 E0.01345
G1 X132.652 Y101.389 E0.01345
G1 X132.840 Y101.816 E0.01345
G1 X133.003 Y102.253 E0.01345
G1 X133.142 Y102.698 E0.01345
G1 X133.257 Y103.150 E0.01345
G1 X133.346 Y103.608 E0.01345
G1 X133.410 Y104.069 E0.01345
G1 X133.449 Y104.534 E0.01345
G1 X133.462 Y105.003 E0.01353
G1 X133.411 Y105.923 E0.02657
G1 X133.346 Y106.392 E0.01368
G1 X133.257 Y106.850 E0.01345
G1 X133.142 Y107.302 E0.01345
G1 X133.003 Y107.747 E0.01345
G1 X132.840 Y108.184 E0.01345
G1 X132.652 Y108.611 E0.01345
G1 X132.442 Y109.027 E0.01345
G1 X132.209 Y109.430 E0.01345
G1 X131.954 Y109.821 E0.01345
G1 X131.678 Y110.196 E0.01345
G1 X131.381 Y110.556 E0.01345
G1 X131.066 Y110.899 E0.01345
G1 X130.731 Y111.224 E0.01345
G1 X130.378 Y111.532 E0.01353
G1 X129.636 Y112.078 E0.02657
G1 X129.232 Y112.327 E0.01368
G1 X128.822 Y112.549 E0.01345
G1 X128.400 Y112.748 E0.01345
G1 X127.968 Y112.923 E0.01345
G1 X127.527 Y113.074 E0.01345
G1 X127.078 Y113.201 E0.01345
G1 X126.623 Y113.303 E0.01345
G1 X126.164 Y113.380 E0.01345
G1 X125.700 Y113.431 E0.01345
G1 X125.235 Y113.457 E0.01345
G1 X124.768 Y113.457 E0.01345
G1 X124.303 Y113.431 E0.01345
G1 X123.840 Y113.380 E0.01345
G1 X123.380 Y113.303 E0.01345
G1 X122.925 Y113.201 E0.01345
G1 X122.476 Y113.074 E0.01345
G1 X122.035 Y112.923 E0.01345
G1 X121.603 Y112.748 E0.01345
G1 X121.182 Y112.549 E0.01345
G1 X120.772 Y112.327 E0.01345
G1 X120.374 Y112.082 E0.01345
G1 X119.991 Y111.817 E0.01345
G1 X119.623 Y111.530 E0.01345
G1 X119.270 Y111.222 E0.01353
G1 X118.627 Y110.562 E0.02657
G1 X118.325 Y110.196 E0.01368
G1 X118.049 Y109.821 E0.01345
G1 X117.794 Y109.430 E0.01345
G1 X117.561 Y109.027 E0.01345
G1 X117.351 Y108.611 E0.01345
G1 X117.163 Y108.184 E0.01345
G1 X117.000 Y107.747 E0.01345
G1 X116.861 Y107.302 E0.01345
G1 X116.746 Y106.850 E0.01345
G1 X116.657 Y106.392 E0.01345
G1 X116.593 Y105.931 E0.01345
G1 X116.554 Y105.466 E0.01345
G1 X116.541 Y105.000 E0.01345
G1 X116.554 Y104.534 E0.01345
G1 X116.593 Y104.066 E0.01353
G1 X116.745 Y103.158 E0.02657
G1 X116.861 Y102.698 E0.01368
G1 X117.000 Y102.253 E0.01345
G1 X117.163 Y101.816 E0.01345
G1 X117.351 Y101.389 E0.01345
G1 X117.562 Y100.971 E0.01353
G1 X118.045 Y100.186 E0.02657
G1 X118.261 Y99.892 E0.01052
G1 X118.141 Y99.475 F10800.000
G1 F8640
G1 X118.622 Y99.444 E-0.13292
G1 X118.938 Y99.101 E-0.10765
G1 X119.272 Y98.776 E-0.10765
G1 X119.625 Y98.468 E-0.10832
G1 X120.368 Y97.922 E-0.21269
G1 X120.702 Y97.716 E-0.09077
G1 E-0.04000 F2100.00000
G1 Z0.800 F10800.000
G1 X115.715 Y97.951
G1 Z0.200
G1 E0.80000 F2100.00000
G1 F1200
G1 X116.258 Y97.281 E0.02489
G1 X116.616 Y96.894 E0.01521
G1 X117.382 Y96.170 E0.03040
G1 X118.205 Y95.522 E0.03022
G1 X119.054 Y94.969 E0.02922
G1 X119.556 Y94.687 E0.01660
G1 X120.026 Y94.452 E0.01517
G1 X120.999 Y94.046 E0.03040
G1 X121.498 Y93.876 E0.01521
G1 X122.517 Y93.605 E0.03040
G1 X123.556 Y93.427 E0.03040
G1 X124.600 Y93.344 E0.03022
G1 X125.613 Y93.355 E0.02922
G1 X126.187 Y93.398 E0.01660
G1 X126.709 Y93.463 E0.01517
G1 X127.743 Y93.664 E0.03040
G1 X128.756 Y93.958 E0.03040
G1 X129.737 Y94.342 E0.03040
G1 X130.680 Y94.813 E0.03040
G1 X131.129 Y95.077 E0.01502
G1 X131.967 Y95.647 E0.02922
G1 X132.420 Y96.001 E0.01660
G1 X132.819 Y96.345 E0.01517
G1 X133.568 Y97.086 E0.03040
G1 X134.248 Y97.891 E0.03040
G1 X134.852 Y98.755 E0.03040
G1 X135.375 Y99.670 E0.03040
G1 X135.814 Y100.628 E0.03040
G1 X136.165 Y101.622 E0.03040
G1 X136.306 Y102.130 E0.01521
G1 X136.519 Y103.163 E0.03040
G1 X136.638 Y104.210 E0.03040
G1 X136.661 Y105.264 E0.03040
G1 X136.590 Y106.315 E0.03040
G1 X136.424 Y107.356 E0.03040
G1 X136.306 Y107.870 E0.01521
G1 X136.165 Y108.378 E0.01521
G1 X135.814 Y109.372 E0.03040
G1 X135.375 Y110.330 E0.03040
G1 X134.852 Y111.245 E0.03040
G1 X134.248 Y112.109 E0.03040
G1 X133.568 Y112.914 E0.03040
G1 X132.819 Y113.655 E0.03040
G1 X132.005 Y114.326 E0.03040
G1 X131.135 Y114.920 E0.03040
G1 X130.214 Y115.433 E0.03040
G1 X129.251 Y115.861 E0.03040
G1 X128.253 Y116.200 E0.03040
G1 X127.743 Y116.336 E0.01521
G1 X126.715 Y116.536 E0.03022
G1 X125.707 Y116.640 E0.02922
G1 X125.132 Y116.662 E0.01660
G1 X124.606 Y116.656 E0.01517
G1 X123.556 Y116.573 E0.03040
G1 X123.040 Y116.497 E0.01502
G1 X122.050 Y116.282 E0.02922
G1 X121.497 Y116.124 E0.01660
G1 X120.999 Y115.954 E0.01517
G1 X120.026 Y115.548 E0.03040
G1 X119.100 Y115.059 E0.03022
G1 X118.250 Y114.508 E0.02922
G1 X117.788 Y114.164 E0.01660
G1 X116.991 Y113.476 E0.03037
G1 X116.258 Y112.719 E0.03040
G1 X115.597 Y111.898 E0.03040
G1 X115.295 Y111.466 E0.01521
G1 X114.754 Y110.569 E0.03022
G1 X114.311 Y109.658 E0.02922
G1 X114.093 Y109.125 E0.01660
G1 X113.918 Y108.629 E0.01517
G1 X113.635 Y107.614 E0.03040
G1 X113.446 Y106.577 E0.03040
G1 X113.351 Y105.527 E0.03040
G1 X113.351 Y104.473 E0.03040
G1 X113.446 Y103.423 E0.03040
G1 X113.529 Y102.903 E0.01521
G1 X113.765 Y101.876 E0.03040
G1 X114.093 Y100.874 E0.03040
G1 X114.510 Y99.906 E0.03040
G1 X115.010 Y98.985 E0.03022
G1 X115.679 Y97.999 E0.03436
G1 X115.379 Y97.771 F10800.000
G1 F1200
G1 X115.976 Y97.032 E0.02740
G1 X116.345 Y96.632 E0.01570
G1 X117.136 Y95.885 E0.03139
G1 X117.989 Y95.213 E0.03132
G1 X118.859 Y94.646 E0.02994
G1 X119.379 Y94.354 E0.01722
G1 X119.865 Y94.111 E0.01569
G1 X120.869 Y93.691 E0.03139
G1 X121.907 Y93.364 E0.03139
G1 X122.970 Y93.133 E0.03139
G1 X123.509 Y93.053 E0.01570
G1 X124.591 Y92.967 E0.03132
G1 X125.629 Y92.978 E0.02994
G1 X126.224 Y93.022 E0.01722
G1 X126.764 Y93.090 E0.01569
G1 X127.832 Y93.297 E0.03139
G1 X128.877 Y93.601 E0.03139
G1 X129.890 Y93.997 E0.03139
G1 X130.864 Y94.484 E0.03139
G1 X131.331 Y94.758 E0.01563
G1 X132.189 Y95.342 E0.02994
G1 X132.660 Y95.709 E0.01722
G1 X133.071 Y96.065 E0.01569
G1 X133.845 Y96.830 E0.03139
G1 X134.547 Y97.662 E0.03139
G1 X135.170 Y98.553 E0.03139
G1 X135.711 Y99.498 E0.03139
G1 X136.164 Y100.487 E0.03139
G1 X136.526 Y101.513 E0.03139
G1 X136.671 Y102.037 E0.01570
G1 X136.891 Y103.103 E0.03139
G1 X137.014 Y104.184 E0.03139
G1 X137.038 Y105.272 E0.03139
G1 X136.965 Y106.358 E0.03139
G1 X136.891 Y106.897 E0.01570
G1 X136.671 Y107.963 E0.03139
G1 X136.526 Y108.487 E0.01570
G1 X136.164 Y109.513 E0.03139
G1 X135.711 Y110.502 E0.03139
G1 X135.170 Y111.447 E0.03139
G1 X134.547 Y112.338 E0.03139
G1 X133.845 Y113.170 E0.03139
G1 X133.071 Y113.935 E0.03139
G1 X132.232 Y114.627 E0.03139
G1 X131.333 Y115.241 E0.03139
G1 X130.383 Y115.771 E0.03139
G1 X129.388 Y116.212 E0.03139
G1 X128.358 Y116.563 E0.03139
G1 X127.832 Y116.703 E0.01570
G1 X126.766 Y116.910 E0.03132
