; generated by PrusaSlicer 2.0.0+ on 2019-09-17 at 10:42:34

; 

; external perimeters extrusion width = 0.45mm
; perimeters extrusion width = 0.45mm
; infill extrusion width = 0.45mm
; solid infill extrusion width = 0.45mm
; top infill extrusion width = 0.40mm
; first layer extrusion width = 0.42mm

M73 P0 R101
M201 X9000 Y9000 Z500 E10000 ; sets maximum accelerations, mm/sec^2
M203 X500 Y500 Z12 E120 ; sets maximum feedrates, mm/sec
M204 P2000 R1500 T2000 ; sets acceleration (P, T) and retract acceleration (R), mm/sec^2
M205 X10.00 Y10.00 Z0.20 E2.50 ; sets the jerk limits, mm/sec
M205 S0 T0 ; sets the minimum extruding and travel feed rate, mm/sec
M107
M83  ; extruder relative mode
M140 S75 ; set bed temp
M109 S160 ; Set extruder temp before bed level
M190 S75 ; wait for bed temp

G28 W ; home all without mesh bed level
G80 N7 ; mesh bed leveling

M109 S240 ; wait for extruder temp

M221 S100 ; Set flow to 100

G1 Y-3.0 F1000.0 ; go outside print area
G92 E0.0
G1 E8 ; Purge Bubble
M73 P0 R101
G1 X60.0 E9.0 F1000.0 ; intro line
G1 X100.0 E12.5 F1000.0 ; intro line
G92 E0.0
M900 K45; Filament gcode
G21 ; set units to millimeters
G90 ; use absolute coordinates
M83 ; use relative distances for extrusion
;BEFORE_LAYER_CHANGE
G92 E0.0
;0.2


G1 E-0.80000 F2100.00000
G1 Z0.600 F10800.000
;AFTER_LAYER_CHANGE
;0.2
G1 X88.681 Y47.970
G1 Z0.200
G1 E0.80000 F2100.00000
M204 S1000
G1 F1200
G1 X89.410 Y47.813 E0.02151
G1 X92.504 Y47.811 E0.08924
G1 X158.875 Y57.944 E1.93673
G1 X160.246 Y58.357 E0.04131
G1 X161.489 Y59.020 E0.04065
G1 X162.582 Y59.916 E0.04076
G1 X163.476 Y61.005 E0.04065
G1 X163.888 Y61.707 E0.02348
G1 X164.378 Y62.909 E0.03742
G1 X164.568 Y63.697 E0.02340
G1 X164.688 Y64.969 E0.03687
G1 X164.688 Y145.048 E2.30993
G1 X164.642 Y145.805 E0.02188
G1 X164.406 Y146.990 E0.03487
G1 X163.837 Y148.394 E0.04369
G1 X163.423 Y149.070 E0.02287
G1 X162.657 Y150.005 E0.03487
G1 X161.495 Y150.976 E0.04368
G1 X160.239 Y151.646 E0.04107
G1 X158.828 Y152.064 E0.04243
G1 X92.802 Y162.168 E1.92676
G1 X89.100 Y162.152 E0.10679
G1 X88.295 Y161.827 E0.02503
G1 X87.680 Y161.216 E0.02503
G1 X87.407 Y160.640 E0.01838
G1 X87.311 Y160.006 E0.01849
G1 X87.313 Y49.909 E3.17586
G1 X87.428 Y49.296 E0.01797
G1 X87.712 Y48.738 E0.01807
G1 X88.140 Y48.285 E0.01797
G1 X88.629 Y48.001 E0.01634
G1 F8640
G1 X89.410 Y47.813 E-0.18538
G1 X91.899 Y47.812 E-0.57462
G1 E-0.04000 F2100.00000
G1 Z0.800 F10800.000
G1 X97.681 Y143.189
G1 Z0.200
G1 E0.80000 F2100.00000
G1 F1200
G1 X97.994 Y143.161 E0.00908
G1 X98.318 Y143.188 E0.00939
G1 X98.629 Y143.272 E0.00928
G1 X98.920 Y143.407 E0.00925
G1 X99.182 Y143.591 E0.00925
G1 X99.409 Y143.818 E0.00925
G1 X99.593 Y144.080 E0.00925
G1 X99.726 Y144.366 E0.00908
G1 X99.811 Y144.679 E0.00939
G1 X99.839 Y145.000 E0.00928
G1 X99.811 Y145.319 E0.00925
G1 X99.728 Y145.629 E0.00925
G1 X99.593 Y145.920 E0.00925
G1 X99.409 Y146.182 E0.00925
G1 X99.182 Y146.409 E0.00925
G1 X98.920 Y146.593 E0.00925
G1 X98.629 Y146.728 E0.00925
G1 X98.319 Y146.811 E0.00925
G1 X98.000 Y146.839 E0.00925
G1 X97.681 Y146.811 E0.00925
G1 X97.371 Y146.728 E0.00925
G1 X97.080 Y146.593 E0.00925
G1 X96.818 Y146.409 E0.00925
G1 X96.591 Y146.182 E0.00925
G1 X96.407 Y145.920 E0.00925
G1 X96.274 Y145.634 E0.00908
G1 X96.189 Y145.321 E0.00939
G1 X96.161 Y145.000 E0.00928
G1 X96.189 Y144.681 E0.00925
G1 X96.272 Y144.371 E0.00925
G1 X96.407 Y144.080 E0.00925
G1 X96.591 Y143.818 E0.00925
G1 X96.818 Y143.591 E0.00925
G1 X97.080 Y143.407 E0.00925
G1 X97.371 Y143.272 E0.00925
G1 X97.623 Y143.204 E0.00752
G1 X97.720 Y143.568 F10800.000
G1 F1200
G1 X97.995 Y143.540 E0.00796
G1 X98.253 Y143.561 E0.00748
G1 X98.500 Y143.627 E0.00736
G1 X98.730 Y143.735 E0.00735
G1 X98.939 Y143.881 E0.00735
G1 X99.119 Y144.061 E0.00735
G1 X99.265 Y144.270 E0.00734
G1 X99.370 Y144.496 E0.00719
G1 X99.439 Y144.746 E0.00748
G1 X99.461 Y145.000 E0.00736
G1 X99.439 Y145.254 E0.00735
G1 X99.373 Y145.500 E0.00735
G1 X99.265 Y145.730 E0.00735
G1 X99.119 Y145.939 E0.00734
G1 X98.939 Y146.119 E0.00735
G1 X98.730 Y146.265 E0.00735
G1 X98.500 Y146.373 E0.00735
G1 X98.254 Y146.439 E0.00735
G1 X98.000 Y146.461 E0.00735
G1 X97.746 Y146.439 E0.00735
G1 X97.500 Y146.373 E0.00735
G1 X97.270 Y146.265 E0.00735
G1 X97.061 Y146.119 E0.00735
G1 X96.881 Y145.939 E0.00735
G1 X96.735 Y145.730 E0.00734
G1 X96.630 Y145.504 E0.00719
G1 X96.561 Y145.254 E0.00748
G1 X96.539 Y145.000 E0.00736
G1 X96.561 Y144.746 E0.00735
G1 X96.627 Y144.500 E0.00735
G1 X96.735 Y144.270 E0.00735
G1 X96.881 Y144.061 E0.00734
G1 X97.061 Y143.881 E0.00735
G1 X97.270 Y143.735 E0.00735
G1 X97.500 Y143.627 E0.00735
G1 X97.662 Y143.584 E0.00484
G1 X97.811 Y143.308 F10800.000
G1 F8640
G1 X97.995 Y143.540 E-0.07745
G1 X98.253 Y143.561 E-0.05990
G1 X98.500 Y143.627 E-0.05889
G1 X98.730 Y143.735 E-0.05880
G1 X98.939 Y143.881 E-0.05880
G1 X99.119 Y144.061 E-0.05880
G1 X99.265 Y144.270 E-0.05879
G1 X99.370 Y144.496 E-0.05759
G1 X99.439 Y144.746 E-0.05990
G1 X99.461 Y145.000 E-0.05889
G1 X99.439 Y145.254 E-0.05880
G1 X99.373 Y145.500 E-0.05880
G1 X99.309 Y145.636 E-0.03462
G1 E-0.04000 F2100.00000
G1 Z0.800 F10800.000
G1 X127.500 Y109.908
G1 Z0.200
G1 E0.80000 F2100.00000
G1 F1200
G1 X148.723 Y138.684 E1.03141
G1 X148.940 Y139.026 E0.01169
G1 X149.117 Y139.413 E0.01228
G1 X149.239 Y139.821 E0.01227
G1 X149.304 Y140.241 E0.01227
G1 X149.310 Y140.667 E0.01228
G1 X149.258 Y141.090 E0.01230
G1 X149.144 Y141.509 E0.01252
G1 X148.983 Y141.892 E0.01200
G1 X148.765 Y142.258 E0.01227
G1 X148.500 Y142.590 E0.01228
G1 X148.191 Y142.883 E0.01227
G1 X147.844 Y143.130 E0.01227
G1 X147.468 Y143.328 E0.01227
G1 X147.067 Y143.472 E0.01228
G1 X146.651 Y143.559 E0.01227
G1 X146.246 Y143.587 E0.01169
G1 X108.754 Y143.587 E1.08151
G1 X108.348 Y143.559 E0.01172
G1 X107.924 Y143.469 E0.01252
G1 X107.532 Y143.328 E0.01200
G1 X107.156 Y143.130 E0.01227
G1 X106.809 Y142.883 E0.01227
G1 X106.500 Y142.590 E0.01228
G1 X106.235 Y142.258 E0.01228
G1 X106.017 Y141.892 E0.01227
G1 X105.852 Y141.500 E0.01227
G1 X105.742 Y141.089 E0.01227
G1 X105.690 Y140.667 E0.01228
G1 X105.696 Y140.241 E0.01227
G1 X105.761 Y139.821 E0.01227
G1 X105.883 Y139.413 E0.01227
G1 X106.060 Y139.026 E0.01228
G1 X106.277 Y138.684 E0.01169
G1 X127.464 Y109.956 E1.02968
G1 X127.500 Y110.543 F10800.000
G1 F1200
G1 X148.411 Y138.897 E1.01628
G1 X148.608 Y139.206 E0.01056
G1 X148.763 Y139.546 E0.01077
G1 X148.870 Y139.904 E0.01077
G1 X148.927 Y140.273 E0.01077
G1 X148.933 Y140.646 E0.01077
G1 X148.887 Y141.017 E0.01078
G1 X148.787 Y141.386 E0.01102
G1 X148.645 Y141.722 E0.01051
G1 X148.455 Y142.043 E0.01077
G1 X148.221 Y142.335 E0.01077
G1 X147.950 Y142.591 E0.01077
G1 X147.646 Y142.809 E0.01077
G1 X147.316 Y142.982 E0.01077
G1 X146.964 Y143.108 E0.01077
G1 X146.599 Y143.185 E0.01077
G1 X146.233 Y143.210 E0.01056
G1 X108.767 Y143.210 E1.08076
G1 X108.401 Y143.185 E0.01057
G1 X108.027 Y143.105 E0.01102
G1 X107.684 Y142.982 E0.01051
G1 X107.354 Y142.809 E0.01077
G1 X107.050 Y142.591 E0.01077
G1 X106.779 Y142.335 E0.01077
G1 X106.545 Y142.043 E0.01077
G1 X106.355 Y141.722 E0.01077
G1 X106.210 Y141.378 E0.01077
G1 X106.113 Y141.017 E0.01077
G1 X106.067 Y140.646 E0.01077
G1 X106.073 Y140.273 E0.01077
G1 X106.130 Y139.904 E0.01077
G1 X106.237 Y139.546 E0.01077
G1 X106.392 Y139.206 E0.01077
G1 X106.589 Y138.897 E0.01056
G1 X127.464 Y110.591 E1.01455
G1 X127.797 Y110.275 F10800.000
G1 F8640
G1 X129.422 Y113.237 E-0.76000
G1 E-0.04000 F2100.00000
G1 Z0.800 F10800.000
G1 X155.818 Y143.591
G1 Z0.200
G1 E0.80000 F2100.00000
G1 F1200
G1 X156.080 Y143.407 E0.00925
G1 X156.371 Y143.272 E0.00925
G1 X156.681 Y143.189 E0.00925
G1 X156.994 Y143.161 E0.00908
G1 X157.318 Y143.188 E0.00939
G1 X157.629 Y143.272 E0.00928
G1 X157.920 Y143.407 E0.00925
G1 X158.182 Y143.591 E0.00925
G1 X158.409 Y143.818 E0.00925
G1 X158.593 Y144.080 E0.00925
G1 X158.728 Y144.371 E0.00925
G1 X158.811 Y144.681 E0.00925
G1 X158.839 Y145.000 E0.00925
G1 X158.811 Y145.319 E0.00925
G1 X158.728 Y145.629 E0.00925
G1 X158.593 Y145.920 E0.00925
G1 X158.409 Y146.182 E0.00925
G1 X158.182 Y146.409 E0.00925
G1 X157.920 Y146.593 E0.00925
G1 X157.629 Y146.728 E0.00925
G1 X157.319 Y146.811 E0.00925
G1 X157.000 Y146.839 E0.00925
G1 X156.681 Y146.811 E0.00925
G1 X156.371 Y146.728 E0.00925
G1 X156.080 Y146.593 E0.00925
G1 X155.818 Y146.409 E0.00925
G1 X155.591 Y146.182 E0.00925
G1 X155.407 Y145.920 E0.00925
G1 X155.272 Y145.629 E0.00925
G1 X155.189 Y145.319 E0.00925
G1 X155.161 Y145.000 E0.00925
G1 X155.189 Y144.681 E0.00925
G1 X155.272 Y144.371 E0.00925
G1 X155.407 Y144.080 E0.00925
G1 X155.591 Y143.818 E0.00925
G1 X155.775 Y143.633 E0.00752
G1 X156.042 Y143.900 F10800.000
G1 F1200
G1 X156.270 Y143.735 E0.00811
G1 X156.500 Y143.627 E0.00735
G1 X156.746 Y143.561 E0.00735
G1 X156.995 Y143.540 E0.00719
G1 X157.253 Y143.561 E0.00748
G1 X157.500 Y143.627 E0.00736
G1 X157.730 Y143.735 E0.00735
G1 X157.939 Y143.881 E0.00735
G1 X158.119 Y144.061 E0.00735
G1 X158.265 Y144.270 E0.00735
G1 X158.373 Y144.500 E0.00735
G1 X158.439 Y144.746 E0.00735
G1 X158.461 Y145.000 E0.00735
G1 X158.439 Y145.254 E0.00735
G1 X158.373 Y145.500 E0.00735
G1 X158.265 Y145.730 E0.00735
G1 X158.119 Y145.939 E0.00735
G1 X157.939 Y146.119 E0.00735
G1 X157.730 Y146.265 E0.00735
G1 X157.500 Y146.373 E0.00735
G1 X157.254 Y146.439 E0.00735
G1 X157.000 Y146.461 E0.00735
G1 X156.746 Y146.439 E0.00735
G1 X156.500 Y146.373 E0.00735
G1 X156.270 Y146.265 E0.00735
G1 X156.061 Y146.119 E0.00735
G1 X155.881 Y145.939 E0.00735
G1 X155.735 Y145.730 E0.00735
G1 X155.627 Y145.500 E0.00735
G1 X155.561 Y145.254 E0.00735
G1 X155.539 Y145.000 E0.00735
G1 X155.561 Y144.746 E0.00735
G1 X155.627 Y144.500 E0.00735
G1 X155.735 Y144.270 E0.00735
G1 X155.881 Y144.061 E0.00735
G1 X155.999 Y143.942 E0.00484
G1 X155.990 Y143.624 F10800.000
G1 F8640
G1 X156.270 Y143.735 E-0.07866
G1 X156.500 Y143.627 E-0.05880
G1 X156.746 Y143.561 E-0.05880
G1 X156.995 Y143.540 E-0.05759
G1 X157.253 Y143.561 E-0.05990
G1 X157.500 Y143.627 E-0.05889
G1 X157.730 Y143.735 E-0.05880
G1 X157.939 Y143.881 E-0.05880
G1 X158.119 Y144.061 E-0.05880
G1 X158.265 Y144.270 E-0.05880
G1 X158.373 Y144.500 E-0.05880
G1 X158.439 Y144.746 E-0.05880
G1 X158.452 Y144.896 E-0.03461
G1 E-0.04000 F2100.00000
G1 Z0.800 F10800.000
G1 X153.548 Y132.507
G1 Z0.200
G1 E0.80000 F2100.00000
G1 F1200
G1 X153.121 Y132.554 E0.01239
G1 X152.692 Y132.541 E0.01239
G1 X152.268 Y132.468 E0.01239
G1 X151.859 Y132.337 E0.01239
G1 X151.472 Y132.151 E0.01239
G1 X151.114 Y131.913 E0.01239
G1 X150.793 Y131.628 E0.01239
G1 X150.528 Y131.316 E0.01180
G1 X132.458 Y106.816 E0.87816
G1 X132.236 Y106.465 E0.01197
G1 X132.057 Y106.068 E0.01257
G1 X131.936 Y105.649 E0.01257
G1 X131.874 Y105.217 E0.01260
G1 X131.876 Y104.772 E0.01282
G1 X131.936 Y104.351 E0.01229
G1 X132.057 Y103.932 E0.01257
G1 X132.236 Y103.535 E0.01257
G1 X132.458 Y103.184 E0.01197
G1 X150.528 Y78.684 E0.87816
G1 X150.793 Y78.372 E0.01180
G1 X151.114 Y78.087 E0.01239
G1 X151.472 Y77.849 E0.01239
G1 X151.859 Y77.663 E0.01239
G1 X152.269 Y77.532 E0.01242
G1 X152.701 Y77.459 E0.01264
G1 X153.121 Y77.446 E0.01211
G1 X153.548 Y77.493 E0.01239
G1 X153.965 Y77.599 E0.01239
G1 X154.363 Y77.761 E0.01239
G1 X154.734 Y77.977 E0.01239
G1 X155.072 Y78.242 E0.01239
G1 X155.370 Y78.552 E0.01239
G1 X155.622 Y78.900 E0.01239
G1 X155.823 Y79.281 E0.01242
G1 X155.972 Y79.693 E0.01264
G1 X156.059 Y80.104 E0.01211
G1 X156.087 Y80.512 E0.01180
G1 X156.087 Y129.488 E1.41275
G1 X156.059 Y129.896 E0.01180
G1 X155.970 Y130.316 E0.01239
G1 X155.823 Y130.720 E0.01239
G1 X155.622 Y131.100 E0.01239
G1 X155.370 Y131.448 E0.01239
G1 X155.072 Y131.758 E0.01239
G1 X154.734 Y132.023 E0.01239
G1 X154.363 Y132.239 E0.01239
G1 X153.965 Y132.401 E0.01239
G1 X153.607 Y132.492 E0.01066
G1 X153.514 Y132.127 F10800.000
G1 F1200
G1 X153.106 Y132.176 E0.01184
G1 X152.729 Y132.164 E0.01088
G1 X152.358 Y132.101 E0.01088
G1 X151.999 Y131.986 E0.01088
G1 X151.659 Y131.823 E0.01088
G1 X151.345 Y131.614 E0.01088
G1 X151.063 Y131.363 E0.01088
G1 X150.823 Y131.082 E0.01067
G1 X132.770 Y106.603 E0.87739
G1 X132.569 Y106.286 E0.01082
G1 X132.412 Y105.937 E0.01103
G1 X132.305 Y105.570 E0.01103
G1 X132.251 Y105.191 E0.01104
G1 X132.253 Y104.800 E0.01128
G1 X132.305 Y104.430 E0.01077
G1 X132.412 Y104.063 E0.01103
G1 X132.569 Y103.714 E0.01103
G1 X132.770 Y103.397 E0.01082
G1 X150.823 Y78.918 E0.87739
G1 X151.063 Y78.637 E0.01067
G1 X151.345 Y78.386 E0.01088
G1 X151.659 Y78.177 E0.01088
G1 X151.999 Y78.014 E0.01088
G1 X152.358 Y77.899 E0.01089
G1 X152.739 Y77.835 E0.01113
G1 X153.106 Y77.824 E0.01062
G1 X153.481 Y77.865 E0.01088
G1 X153.847 Y77.958 E0.01088
G1 X154.196 Y78.100 E0.01088
G1 X154.522 Y78.290 E0.01088
G1 X154.818 Y78.523 E0.01088
G1 X155.080 Y78.794 E0.01088
G1 X155.301 Y79.100 E0.01088
G1 X155.478 Y79.433 E0.01089
G1 X155.608 Y79.796 E0.01113
G1 X155.684 Y80.156 E0.01062
G1 X155.710 Y80.525 E0.01067
G1 X155.710 Y129.475 E1.41200
G1 X155.684 Y129.844 E0.01067
G1 X155.606 Y130.213 E0.01088
G1 X155.477 Y130.567 E0.01088
G1 X155.301 Y130.900 E0.01088
G1 X155.080 Y131.206 E0.01088
G1 X154.818 Y131.477 E0.01088
G1 X154.522 Y131.710 E0.01088
G1 X154.196 Y131.900 E0.01088
G1 X153.847 Y132.042 E0.01088
G1 X153.572 Y132.112 E0.00817
G1 X153.382 Y132.504 F10800.000
G1 F8640
G1 X153.106 Y132.176 E-0.10854
G1 X152.729 Y132.164 E-0.08707
G1 X152.358 Y132.101 E-0.08707
G1 X151.999 Y131.986 E-0.08707
G1 X151.659 Y131.823 E-0.08707
G1 X151.345 Y131.614 E-0.08707
G1 X151.063 Y131.363 E-0.08707
G1 X150.823 Y131.082 E-0.08538
G1 X150.711 Y130.930 E-0.04368
G1 E-0.04000 F2100.00000
G1 Z0.800 F10800.000
G1 X157.000 Y66.839
G1 Z0.200
G1 E0.80000 F2100.00000
G1 F1200
G1 X156.681 Y66.811 E0.00925
G1 X156.371 Y66.728 E0.00925
G1 X156.080 Y66.593 E0.00925
G1 X155.818 Y66.409 E0.00925
G1 X155.591 Y66.182 E0.00925
G1 X155.407 Y65.920 E0.00925
G1 X155.272 Y65.629 E0.00925
G1 X155.189 Y65.319 E0.00925
G1 X155.161 Y65.000 E0.00925
G1 X155.189 Y64.681 E0.00925
G1 X155.272 Y64.371 E0.00925
G1 X155.407 Y64.080 E0.00925
G1 X155.591 Y63.818 E0.00925
G1 X155.818 Y63.591 E0.00925
G1 X156.080 Y63.407 E0.00925
G1 X156.371 Y63.272 E0.00925
G1 X156.681 Y63.189 E0.00925
G1 X156.994 Y63.161 E0.00908
G1 X157.318 Y63.188 E0.00939
G1 X157.629 Y63.272 E0.00928
G1 X157.920 Y63.407 E0.00925
G1 X158.182 Y63.591 E0.00925
G1 X158.409 Y63.818 E0.00925
G1 X158.593 Y64.080 E0.00925
G1 X158.728 Y64.371 E0.00925
G1 X158.811 Y64.681 E0.00925
G1 X158.839 Y65.000 E0.00925
G1 X158.811 Y65.319 E0.00925
G1 X158.728 Y65.629 E0.00925
G1 X158.593 Y65.920 E0.00925
G1 X158.409 Y66.182 E0.00925
G1 X158.182 Y66.409 E0.00925
G1 X157.920 Y66.593 E0.00925
G1 X157.634 Y66.726 E0.00908
G1 X157.321 Y66.811 E0.00939
G1 X157.060 Y66.834 E0.00755
G1 X157.027 Y66.458 F10800.000
G1 F1200
G1 X156.746 Y66.439 E0.00811
G1 X156.500 Y66.373 E0.00735
G1 X156.270 Y66.265 E0.00735
G1 X156.061 Y66.119 E0.00734
G1 X155.881 Y65.939 E0.00735
G1 X155.735 Y65.730 E0.00735
G1 X155.627 Y65.500 E0.00735
G1 X155.561 Y65.254 E0.00735
G1 X155.539 Y65.000 E0.00735
G1 X155.561 Y64.746 E0.00735
G1 X155.627 Y64.500 E0.00735
G1 X155.735 Y64.270 E0.00735
G1 X155.881 Y64.061 E0.00735
G1 X156.061 Y63.881 E0.00735
G1 X156.270 Y63.735 E0.00734
G1 X156.500 Y63.627 E0.00735
G1 X156.746 Y63.561 E0.00735
G1 X156.995 Y63.540 E0.00719
G1 X157.253 Y63.561 E0.00748
G1 X157.500 Y63.627 E0.00736
G1 X157.730 Y63.735 E0.00735
G1 X157.939 Y63.881 E0.00734
G1 X158.119 Y64.061 E0.00735
G1 X158.265 Y64.270 E0.00735
G1 X158.373 Y64.500 E0.00735
G1 X158.439 Y64.746 E0.00735
G1 X158.461 Y65.000 E0.00735
G1 X158.439 Y65.254 E0.00735
G1 X158.373 Y65.500 E0.00735
G1 X158.265 Y65.730 E0.00735
G1 X158.119 Y65.939 E0.00735
G1 X157.939 Y66.119 E0.00735
G1 X157.730 Y66.265 E0.00734
G1 X157.504 Y66.370 E0.00719
G1 X157.254 Y66.439 E0.00748
G1 X157.087 Y66.453 E0.00485
G1 X156.890 Y66.704 F10800.000
G1 F8640
G1 X156.746 Y66.439 E-0.07866
G1 X156.500 Y66.373 E-0.05880
G1 X156.270 Y66.265 E-0.05880
G1 X156.061 Y66.119 E-0.05879
G1 X155.881 Y65.939 E-0.05880
G1 X155.735 Y65.730 E-0.05880
G1 X155.627 Y65.500 E-0.05880
G1 X155.561 Y65.254 E-0.05880
G1 X155.539 Y65.000 E-0.05880
