; generated by PrusaSlicer 2.0.0+ on 2019-09-23 at 19:12:35

; 

; external perimeters extrusion width = 0.60mm
; perimeters extrusion width = 0.43mm
; infill extrusion width = 0.45mm
; solid infill extrusion width = 0.70mm
; top infill extrusion width = 0.43mm
; first layer extrusion width = 0.42mm

M73 P0 R172
M201 X9000 Y9000 Z500 E10000 ; sets maximum accelerations, mm/sec^2
M203 X500 Y500 Z12 E120 ; sets maximum feedrates, mm/sec
M204 P2000 R1500 T2000 ; sets acceleration (P, T) and retract acceleration (R), mm/sec^2
M205 X10.00 Y10.00 Z0.20 E2.50 ; sets the jerk limits, mm/sec
M205 S0 T0 ; sets the minimum extruding and travel feed rate, mm/sec
M107
M83  ; extruder relative mode
M140 S75 ; set bed temp
M109 S160 ; Set extruder temp before bed level
M190 S75 ; wait for bed temp

G28 W ; home all without mesh bed level
G80 N7 ; mesh bed leveling

M109 S240 ; wait for extruder temp

M221 S100 ; Set flow to 100

G1 Y-3.0 F1000.0 ; go outside print area
G92 E0.0
G1 E8 ; Purge Bubble
M73 P0 R172
G1 X60.0 E9.0 F1000.0 ; intro line
G1 X100.0 E12.5 F1000.0 ; intro line
G92 E0.0
M900 K45; Filament gcode
G21 ; set units to millimeters
G90 ; use absolute coordinates
M83 ; use relative distances for extrusion
;BEFORE_LAYER_CHANGE
G92 E0.0
;0.2


G1 E-0.80000 F2100.00000
G1 Z0.600 F10800.000
;AFTER_LAYER_CHANGE
;0.2
G1 X123.587 Y42.391
G1 Z0.200
G1 E0.80000 F2100.00000
M204 S1000
G1 F1200
G1 X124.369 Y42.247 E0.02296
G1 X124.852 Y42.301 E0.01399
G1 X125.310 Y42.460 E0.01399
G1 X134.971 Y47.302 E0.31173
G1 X175.564 Y73.531 E1.39411
G1 X176.125 Y74.065 E0.02234
G1 X176.463 Y74.758 E0.02223
G1 X176.547 Y75.353 E0.01734
G1 X176.547 Y85.371 E0.28900
G1 X176.478 Y85.899 E0.01535
G1 X156.139 Y153.936 E2.04840
G1 X155.876 Y154.428 E0.01609
G1 X155.501 Y154.835 E0.01598
G1 X155.032 Y155.137 E0.01609
G1 X154.505 Y155.310 E0.01598
G1 X84.488 Y167.721 E2.05119
G1 X77.584 Y167.753 E0.19916
G1 X76.841 Y167.611 E0.02182
G1 X76.239 Y167.264 E0.02005
G1 X75.777 Y166.750 E0.01995
G1 X72.459 Y161.007 E0.19130
G1 X72.244 Y160.469 E0.01671
G1 X72.178 Y159.948 E0.01514
G1 X72.178 Y150.421 E0.27483
G1 X72.321 Y149.660 E0.02234
G1 X117.397 Y48.482 E3.19512
G1 X117.796 Y47.912 E0.02005
G1 X122.907 Y42.805 E0.20843
G1 X123.535 Y42.422 E0.02123
G1 F8640
G1 X124.369 Y42.247 E-0.19679
G1 X124.852 Y42.301 E-0.11201
G1 X125.310 Y42.460 E-0.11201
G1 X126.623 Y43.118 E-0.33919
G1 E-0.04000 F2100.00000
G1 Z0.800 F10800.000
G1 X81.638 Y157.993
G1 Z0.200
G1 E0.80000 F2100.00000
G1 F1200
G1 X82.011 Y158.186 E0.01215
G1 X82.345 Y158.457 E0.01240
G1 X82.616 Y158.791 E0.01240
G1 X82.809 Y159.165 E0.01214
G1 X82.922 Y159.553 E0.01167
G1 X82.956 Y159.935 E0.01106
G1 X82.922 Y160.317 E0.01106
G1 X82.809 Y160.706 E0.01167
G1 X82.616 Y161.080 E0.01214
G1 X82.345 Y161.413 E0.01240
G1 X82.011 Y161.684 E0.01240
G1 X81.638 Y161.878 E0.01214
G1 X81.249 Y161.990 E0.01167
G1 X80.867 Y162.025 E0.01106
G1 X80.485 Y161.990 E0.01106
G1 X80.096 Y161.878 E0.01167
G1 X79.723 Y161.684 E0.01214
G1 X79.389 Y161.413 E0.01240
G1 X79.118 Y161.080 E0.01240
G1 X78.924 Y160.706 E0.01214
G1 X78.812 Y160.317 E0.01167
G1 X78.777 Y159.935 E0.01106
G1 X78.812 Y159.553 E0.01106
G1 X78.924 Y159.165 E0.01167
G1 X79.118 Y158.791 E0.01214
G1 X79.389 Y158.457 E0.01240
G1 X79.723 Y158.186 E0.01240
G1 X80.099 Y157.991 E0.01222
G1 X80.501 Y157.879 E0.01206
G1 X80.867 Y157.846 E0.01059
G1 X81.249 Y157.881 E0.01106
G1 X81.580 Y157.976 E0.00994
G1 X81.476 Y158.338 F10800.000
G1 F1200
G1 X81.804 Y158.503 E0.01058
G1 X82.077 Y158.725 E0.01016
G1 X82.299 Y158.999 E0.01016
G1 X82.457 Y159.305 E0.00995
G1 X82.549 Y159.623 E0.00956
G1 X82.578 Y159.935 E0.00904
G1 X82.549 Y160.247 E0.00904
G1 X82.457 Y160.566 E0.00956
G1 X82.299 Y160.872 E0.00995
G1 X82.077 Y161.145 E0.01016
G1 X81.803 Y161.367 E0.01016
G1 X81.497 Y161.526 E0.00995
G1 X81.179 Y161.618 E0.00956
G1 X80.867 Y161.646 E0.00903
G1 X80.555 Y161.618 E0.00903
G1 X80.237 Y161.526 E0.00956
G1 X79.930 Y161.367 E0.00995
G1 X79.657 Y161.145 E0.01016
G1 X79.435 Y160.872 E0.01016
G1 X79.276 Y160.566 E0.00995
G1 X79.185 Y160.247 E0.00956
G1 X79.156 Y159.935 E0.00904
G1 X79.185 Y159.623 E0.00904
G1 X79.276 Y159.305 E0.00956
G1 X79.435 Y158.999 E0.00995
G1 X79.657 Y158.725 E0.01016
G1 X79.930 Y158.503 E0.01016
G1 X80.237 Y158.344 E0.00998
G1 X80.570 Y158.252 E0.00995
G1 X80.867 Y158.225 E0.00861
G1 X81.179 Y158.253 E0.00903
G1 X81.418 Y158.322 E0.00718
G1 X81.762 Y158.109 F10800.000
G1 F8640
G1 X81.804 Y158.503 E-0.09837
G1 X82.077 Y158.725 E-0.08131
G1 X82.299 Y158.999 E-0.08134
G1 X82.457 Y159.305 E-0.07962
G1 X82.549 Y159.623 E-0.07650
G1 X82.578 Y159.935 E-0.07233
G1 X82.549 Y160.247 E-0.07233
G1 X82.457 Y160.566 E-0.07650
G1 X82.299 Y160.872 E-0.07962
G1 X82.184 Y161.013 E-0.04206
G1 E-0.04000 F2100.00000
G1 Z0.800 F10800.000
G1 X86.780 Y151.948
G1 Z0.200
G1 E0.80000 F2100.00000
G1 F1200
G1 X86.780 Y159.778 E0.22586
G1 X83.778 Y164.977 E0.17318
G1 X77.956 Y164.977 E0.16794
G1 X74.954 Y159.778 E0.17318
G1 X74.954 Y150.560 E0.26590
G1 X119.859 Y49.774 E3.18279
G1 X124.483 Y45.150 E0.18863
G1 X132.880 Y49.348 E0.27082
G1 X132.880 Y114.926 E1.89165
G1 X152.880 Y134.926 E0.81589
G1 X152.880 Y151.948 E0.49102
G1 X86.840 Y151.948 E1.90499
G1 X87.157 Y152.325 F10800.000
G1 F1200
G1 X87.157 Y159.879 E0.21789
G1 X83.996 Y165.355 E0.18238
G1 X77.738 Y165.355 E0.18050
G1 X74.577 Y159.879 E0.18238
G1 X74.577 Y150.480 E0.27112
G1 X119.543 Y49.556 E3.18712
G1 X124.408 Y44.691 E0.19848
G1 X133.257 Y49.115 E0.28538
G1 X133.257 Y114.770 E1.89387
G1 X153.257 Y134.770 E0.81589
G1 X153.257 Y152.325 E0.50640
G1 X87.217 Y152.325 E1.90499
M73 P0 R171
G1 X86.758 Y152.360 F10800.000
G1 F8640
G1 X87.191 Y155.617 E-0.76000
G1 E-0.04000 F2100.00000
G1 Z0.800 F10800.000
G1 X81.317 Y157.783
G1 Z0.200
G1 E0.80000 F2100.00000
G1 F1200
G1 X75.237 Y151.703 E0.24824
G1 X75.237 Y152.236 E0.01541
G1 X80.588 Y157.587 E0.21848
G1 X80.450 Y157.600 E0.00400
G1 X80.150 Y157.683 E0.00898
G1 X75.237 Y152.770 E0.20061
G1 X75.237 Y153.304 E0.01541
G1 X79.774 Y157.841 E0.18525
G1 X79.567 Y157.949 E0.00675
G1 X79.446 Y158.047 E0.00448
G1 X75.237 Y153.837 E0.17186
G1 X75.237 Y154.371 E0.01541
G1 X79.158 Y158.293 E0.16011
G1 X78.919 Y158.587 E0.01095
G1 X75.237 Y154.905 E0.15035
G1 X75.237 Y155.438 E0.01541
G1 X78.728 Y158.930 E0.14253
G1 X78.660 Y159.060 E0.00423
G1 X78.585 Y159.321 E0.00784
G1 X75.237 Y155.972 E0.13670
G1 X75.237 Y156.506 E0.01541
G1 X78.508 Y159.777 E0.13355
G1 X78.493 Y159.935 E0.00459
G1 X78.530 Y160.332 E0.01151
G1 X75.237 Y157.040 E0.13444
G1 X75.237 Y157.573 E0.01541
G1 X82.358 Y164.695 E0.29075
G1 X81.824 Y164.695 E0.01541
G1 X75.237 Y158.107 E0.26896
G1 X75.237 Y158.641 E0.01541
G1 X81.291 Y164.695 E0.24717
G1 X80.757 Y164.695 E0.01541
G1 X75.237 Y159.174 E0.22538
G1 X75.245 Y159.716 E0.01564
G1 X80.223 Y164.695 E0.20327
G1 X79.690 Y164.695 E0.01541
G1 X75.510 Y160.515 E0.17064
G1 F8640
G1 X77.838 Y162.843 E-0.76000
G1 E-0.04000 F2100.00000
G1 Z0.800 F10800.000
G1 X76.239 Y161.778
G1 Z0.200
G1 E0.80000 F2100.00000
G1 F1200
G1 X79.326 Y164.864 E0.12601
G1 X78.792 Y164.864 F10800.000
G1 F1200
G1 X76.968 Y163.041 E0.07445
G1 F8640
G1 X78.792 Y164.864 E-0.59550
G1 E-0.20450 F2100.00000
G1 Z0.800 F10800.000
G1 X80.232 Y162.035
G1 Z0.200
G1 E0.80000 F2100.00000
G1 F1200
G1 X82.892 Y164.695 E0.10859
G1 X83.426 Y164.695 E0.01541
G1 X81.025 Y162.294 E0.09800
G1 X81.301 Y162.269 E0.00800
G1 X81.482 Y162.217 E0.00542
G1 X83.741 Y164.476 E0.09223
G1 X83.936 Y164.138 E0.01128
G1 X81.873 Y162.075 E0.08424
G1 X82.215 Y161.883 E0.01132
G1 X84.132 Y163.800 E0.07824
G1 X84.327 Y163.461 E0.01128
G1 X82.510 Y161.644 E0.07420
G1 X82.756 Y161.356 E0.01093
G1 X84.522 Y163.123 E0.07213
G1 X84.718 Y162.784 E0.01128
G1 X82.961 Y161.028 E0.07171
G1 X83.073 Y160.811 E0.00705
G1 X83.119 Y160.652 E0.00477
G1 X84.913 Y162.446 E0.07323
G1 X85.108 Y162.108 E0.01128
G1 X83.215 Y160.214 E0.07730
G1 X83.240 Y159.935 E0.00809
G1 X83.217 Y159.683 E0.00731
G1 X85.304 Y161.769 E0.08518
G1 X85.499 Y161.431 E0.01128
G1 X75.237 Y151.169 E0.41898
G1 X75.237 Y150.635 E0.01541
G1 X85.694 Y161.093 E0.42696
G1 X85.890 Y160.754 E0.01128
G1 X75.397 Y150.261 E0.42840
G1 X75.561 Y149.892 E0.01167
G1 X86.085 Y160.416 E0.42966
G1 X86.280 Y160.078 E0.01128
G1 X75.726 Y149.523 E0.43092
G1 X75.890 Y149.154 E0.01167
G1 X86.476 Y159.739 E0.43218
G1 X86.497 Y159.702 E0.00123
G1 X86.497 Y159.227 E0.01373
G1 X76.055 Y148.785 E0.42633
G1 X76.219 Y148.415 E0.01167
G1 X86.497 Y158.693 E0.41962
G1 X86.497 Y158.159 E0.01541
G1 X76.384 Y148.046 E0.41290
G1 X76.548 Y147.677 E0.01167
G1 X86.497 Y157.626 E0.40619
G1 X86.497 Y157.092 E0.01541
G1 X76.713 Y147.308 E0.39947
G1 X76.877 Y146.939 E0.01167
G1 X86.497 Y156.558 E0.39275
G1 X86.497 Y156.025 E0.01541
G1 X77.042 Y146.569 E0.38604
G1 X77.206 Y146.200 E0.01167
G1 X86.497 Y155.491 E0.37932
G1 X86.497 Y154.957 E0.01541
G1 X77.371 Y145.831 E0.37261
G1 X77.535 Y145.462 E0.01167
G1 X86.497 Y154.424 E0.36589
G1 X86.497 Y153.890 E0.01541
G1 X77.700 Y145.092 E0.35917
G1 X77.864 Y144.723 E0.01167
G1 X86.497 Y153.356 E0.35246
G1 X86.497 Y152.822 E0.01541
G1 X78.029 Y144.354 E0.34574
G1 X78.193 Y143.985 E0.01167
G1 X86.497 Y152.289 E0.33903
G1 X86.497 Y151.755 E0.01541
G1 X78.358 Y143.616 E0.33231
G1 X78.522 Y143.246 E0.01167
G1 X86.941 Y151.666 E0.34373
G1 X87.475 Y151.666 E0.01541
G1 X78.687 Y142.877 E0.35881
G1 X78.851 Y142.508 E0.01167
G1 X88.009 Y151.666 E0.37388
G1 X88.542 Y151.666 E0.01541
G1 X79.016 Y142.139 E0.38895
G1 X79.180 Y141.770 E0.01167
G1 X89.076 Y151.666 E0.40403
G1 X89.610 Y151.666 E0.01541
G1 X79.345 Y141.400 E0.41910
G1 X79.509 Y141.031 E0.01167
G1 X90.144 Y151.666 E0.43417
G1 X90.677 Y151.666 E0.01541
G1 X79.674 Y140.662 E0.44925
G1 X79.838 Y140.293 E0.01167
G1 X91.211 Y151.666 E0.46432
G1 X91.745 Y151.666 E0.01541
G1 X80.003 Y139.924 E0.47940
G1 X80.167 Y139.554 E0.01167
G1 X92.278 Y151.666 E0.49447
G1 X92.812 Y151.666 E0.01541
G1 X80.332 Y139.185 E0.50954
G1 X80.496 Y138.816 E0.01167
G1 X93.346 Y151.666 E0.52462
G1 X93.880 Y151.666 E0.01541
G1 X80.661 Y138.447 E0.53969
G1 X80.825 Y138.078 E0.01167
G1 X94.413 Y151.666 E0.55477
G1 X94.947 Y151.666 E0.01541
G1 X80.990 Y137.708 E0.56984
G1 X81.154 Y137.339 E0.01167
G1 X95.481 Y151.666 E0.58491
G1 X96.014 Y151.666 E0.01541
G1 X81.319 Y136.970 E0.59999
G1 X81.483 Y136.601 E0.01167
G1 X96.548 Y151.666 E0.61506
G1 X97.082 Y151.666 E0.01541
G1 X81.648 Y136.232 E0.63013
G1 X81.812 Y135.862 E0.01167
G1 X97.615 Y151.666 E0.64521
G1 X98.149 Y151.666 E0.01541
G1 X81.977 Y135.493 E0.66028
G1 X82.141 Y135.124 E0.01167
G1 X98.683 Y151.666 E0.67536
G1 X99.217 Y151.666 E0.01541
G1 X82.306 Y134.755 E0.69043
G1 X82.470 Y134.385 E0.01167
G1 X99.750 Y151.666 E0.70550
G1 X100.284 Y151.666 E0.01541
G1 X82.635 Y134.016 E0.72058
G1 X82.799 Y133.647 E0.01167
G1 X100.818 Y151.666 E0.73565
G1 X101.351 Y151.666 E0.01541
G1 X82.964 Y133.278 E0.75072
G1 X83.128 Y132.909 E0.01167
G1 X101.885 Y151.666 E0.76580
G1 X102.419 Y151.666 E0.01541
G1 X83.293 Y132.539 E0.78087
G1 X83.457 Y132.170 E0.01167
G1 X102.953 Y151.666 E0.79595
G1 X103.486 Y151.666 E0.01541
G1 X83.622 Y131.801 E0.81102
G1 X83.786 Y131.432 E0.01167
G1 X104.020 Y151.666 E0.82609
G1 X104.554 Y151.666 E0.01541
G1 X83.951 Y131.063 E0.84117
M73 P1 R170
G1 X84.115 Y130.693 E0.01167
G1 X105.087 Y151.666 E0.85624
G1 X105.621 Y151.666 E0.01541
G1 X84.280 Y130.324 E0.87132
G1 X84.444 Y129.955 E0.01167
G1 X106.155 Y151.666 E0.88639
G1 X106.688 Y151.666 E0.01541
G1 X84.609 Y129.586 E0.90146
G1 X84.773 Y129.217 E0.01167
G1 X107.222 Y151.666 E0.91654
G1 X107.756 Y151.666 E0.01541
G1 X84.938 Y128.847 E0.93161
G1 X85.102 Y128.478 E0.01167
G1 X108.290 Y151.666 E0.94668
G1 X108.823 Y151.666 E0.01541
G1 X85.267 Y128.109 E0.96176
G1 X85.431 Y127.740 E0.01167
G1 X109.357 Y151.666 E0.97683
G1 X109.891 Y151.666 E0.01541
G1 X85.596 Y127.371 E0.99191
G1 X85.760 Y127.001 E0.01167
G1 X110.424 Y151.666 E1.00698
G1 X110.958 Y151.666 E0.01541
G1 X85.925 Y126.632 E1.02205
G1 X86.089 Y126.263 E0.01167
G1 X111.492 Y151.666 E1.03713
G1 X112.025 Y151.666 E0.01541
G1 X86.254 Y125.894 E1.05220
G1 X86.418 Y125.525 E0.01167
G1 X112.559 Y151.666 E1.06728
G1 X113.093 Y151.666 E0.01541
G1 X86.583 Y125.155 E1.08235
G1 X86.747 Y124.786 E0.01167
G1 X113.627 Y151.666 E1.09742
G1 X114.160 Y151.666 E0.01541
G1 X86.912 Y124.417 E1.11250
G1 X87.076 Y124.048 E0.01167
G1 X114.694 Y151.666 E1.12757
G1 X115.228 Y151.666 E0.01541
G1 X87.241 Y123.678 E1.14264
G1 X87.405 Y123.309 E0.01167
G1 X115.761 Y151.666 E1.15772
G1 X116.295 Y151.666 E0.01541
G1 X87.570 Y122.940 E1.17279
G1 X87.734 Y122.571 E0.01167
G1 X116.829 Y151.666 E1.18787
G1 X117.363 Y151.666 E0.01541
G1 X87.899 Y122.202 E1.20294
G1 X88.063 Y121.832 E0.01167
G1 X117.896 Y151.666 E1.21801
G1 X118.430 Y151.666 E0.01541
G1 X88.228 Y121.463 E1.23309
G1 X88.392 Y121.094 E0.01167
G1 X118.964 Y151.666 E1.24816
G1 X119.497 Y151.666 E0.01541
G1 X88.557 Y120.725 E1.26324
G1 X88.721 Y120.356 E0.01167
G1 X120.031 Y151.666 E1.27831
G1 X120.565 Y151.666 E0.01541
G1 X88.886 Y119.986 E1.29338
G1 X89.050 Y119.617 E0.01167
G1 X121.098 Y151.666 E1.30846
G1 X121.632 Y151.666 E0.01541
G1 X89.215 Y119.248 E1.32353
M73 P1 R169
G1 X89.379 Y118.879 E0.01167
G1 X122.166 Y151.666 E1.33860
G1 X122.700 Y151.666 E0.01541
G1 X89.544 Y118.510 E1.35368
G1 X89.708 Y118.140 E0.01167
G1 X123.233 Y151.666 E1.36875
G1 X123.767 Y151.666 E0.01541
G1 X89.873 Y117.771 E1.38383
G1 X90.037 Y117.402 E0.01167
G1 X124.301 Y151.666 E1.39890
G1 X124.834 Y151.666 E0.01541
G1 X90.202 Y117.033 E1.41397
G1 X90.366 Y116.664 E0.01167
G1 X125.368 Y151.666 E1.42905
G1 X125.902 Y151.666 E0.01541
G1 X90.531 Y116.294 E1.44412
G1 X90.695 Y115.925 E0.01167
G1 X126.436 Y151.666 E1.45919
G1 X126.969 Y151.666 E0.01541
G1 X90.860 Y115.556 E1.47427
G1 X91.024 Y115.187 E0.01167
G1 X127.503 Y151.666 E1.48934
G1 X128.037 Y151.666 E0.01541
G1 X91.189 Y114.817 E1.50442
G1 X91.353 Y114.448 E0.01167
G1 X128.570 Y151.666 E1.51949
G1 X129.104 Y151.666 E0.01541
G1 X91.518 Y114.079 E1.53456
G1 X91.682 Y113.710 E0.01167
G1 X129.638 Y151.666 E1.54964
G1 X130.171 Y151.666 E0.01541
G1 X91.847 Y113.341 E1.56471
G1 X92.011 Y112.971 E0.01167
G1 X130.705 Y151.666 E1.57979
G1 X131.239 Y151.666 E0.01541
G1 X92.176 Y112.602 E1.59486
G1 X92.340 Y112.233 E0.01167
G1 X131.773 Y151.666 E1.60993
G1 X132.306 Y151.666 E0.01541
G1 X92.505 Y111.864 E1.62501
G1 X92.669 Y111.495 E0.01167
G1 X132.840 Y151.666 E1.64008
G1 X133.374 Y151.666 E0.01541
G1 X92.834 Y111.125 E1.65515
G1 X92.998 Y110.756 E0.01167
G1 X133.907 Y151.666 E1.67023
M73 P2 R168
G1 X134.441 Y151.666 E0.01541
G1 X93.163 Y110.387 E1.68530
G1 X93.327 Y110.018 E0.01167
G1 X134.975 Y151.666 E1.70038
G1 X135.509 Y151.666 E0.01541
G1 X93.492 Y109.649 E1.71545
G1 X93.656 Y109.279 E0.01167
G1 X136.042 Y151.666 E1.73052
G1 X136.576 Y151.666 E0.01541
G1 X93.821 Y108.910 E1.74560
G1 X93.985 Y108.541 E0.01167
G1 X137.110 Y151.666 E1.76067
G1 X137.643 Y151.666 E0.01541
G1 X94.150 Y108.172 E1.77575
G1 X94.314 Y107.803 E0.01167
G1 X138.177 Y151.666 E1.79082
G1 X138.711 Y151.666 E0.01541
G1 X94.479 Y107.433 E1.80589
G1 X94.643 Y107.064 E0.01167
G1 X139.244 Y151.666 E1.82097
G1 X139.778 Y151.666 E0.01541
G1 X94.808 Y106.695 E1.83604
G1 X94.972 Y106.326 E0.01167
G1 X140.312 Y151.666 E1.85111
G1 X140.846 Y151.666 E0.01541
G1 X95.137 Y105.957 E1.86619
G1 X95.301 Y105.587 E0.01167
G1 X141.379 Y151.666 E1.88126
G1 X141.913 Y151.666 E0.01541
G1 X95.466 Y105.218 E1.89634
G1 X95.630 Y104.849 E0.01167
G1 X142.447 Y151.666 E1.91141
G1 X142.980 Y151.666 E0.01541
G1 X95.795 Y104.480 E1.92648
G1 X95.959 Y104.110 E0.01167
G1 X143.514 Y151.666 E1.94156
G1 X144.048 Y151.666 E0.01541
G1 X96.124 Y103.741 E1.95663
M73 P2 R167
G1 X96.288 Y103.372 E0.01167
G1 X144.582 Y151.666 E1.97171
G1 X145.115 Y151.666 E0.01541
G1 X96.453 Y103.003 E1.98678
G1 X96.617 Y102.634 E0.01167
G1 X145.649 Y151.666 E2.00185
G1 X146.183 Y151.666 E0.01541
G1 X96.782 Y102.264 E2.01693
G1 X96.946 Y101.895 E0.01167
G1 X146.716 Y151.666 E2.03200
G1 X147.250 Y151.666 E0.01541
G1 X97.111 Y101.526 E2.04707
G1 X97.275 Y101.157 E0.01167
G1 X147.784 Y151.666 E2.06215
