; generated by PrusaSlicer 2.2.0+ on 2020-04-13 at 22:42:51 UTC

; 

; external perimeters extrusion width = 0.45mm
; perimeters extrusion width = 0.45mm
; infill extrusion width = 0.45mm
; solid infill extrusion width = 0.45mm
; top infill extrusion width = 0.40mm
; first layer extrusion width = 0.42mm

M73 P0 R144
M201 X9000 Y9000 Z500 E10000 ; sets maximum accelerations, mm/sec^2
M203 X500 Y500 Z12 E120 ; sets maximum feedrates, mm/sec
M204 P2000 R1500 T2000 ; sets acceleration (P, T) and retract acceleration (R), mm/sec^2
M205 X10.00 Y10.00 Z0.20 E2.50 ; sets the jerk limits, mm/sec
M205 S0 T0 ; sets the minimum extruding and travel feed rate, mm/sec
M107
M83  ; extruder relative mode
M140 S75 ; set bed temp
M109 S160 ; Set extruder temp before bed level
M190 S75 ; wait for bed temp

G28 W ; home all without mesh bed level
G80 N7 ; mesh bed leveling

M109 S240 ; wait for extruder temp

M221 S100 ; Set flow to 100

G1 Y-3.0 F1000.0 ; go outside print area
G92 E0.0
G1 E8 ; Purge Bubble
M73 P0 R144
G1 X60.0 E9.0 F1000.0 ; intro line
G1 X100.0 E12.5 F1000.0 ; intro line
G92 E0.0
G21 ; set units to millimeters
G90 ; use absolute coordinates
M83 ; use relative distances for extrusion
M900 K45; Filament gcode
;BEFORE_LAYER_CHANGE
G92 E0.0
;0.2


G1 E-0.80000 F2100.00000
G1 Z0.600 F10800.000
;AFTER_LAYER_CHANGE
;0.2
G1 X108.738 Y73.863
G1 Z0.200
G1 E0.80000 F2100.00000
M204 S1000
G1 F1200.000
G1 X109.340 Y73.591 E0.01906
G1 X109.990 Y73.496 E0.01895
G1 X160.010 Y73.496 E1.44286
G1 X160.834 Y73.645 E0.02416
G1 X161.558 Y74.073 E0.02426
G1 X162.464 Y75.026 E0.03793
G1 X162.702 Y75.463 E0.01437
G1 X162.843 Y75.941 E0.01437
G1 X162.841 Y88.816 E0.37140
G1 X149.282 Y133.937 E1.35905
G1 X148.897 Y134.676 E0.02405
G1 X148.281 Y135.238 E0.02405
G1 X147.686 Y135.507 E0.01884
G1 X147.036 Y135.604 E0.01895
G1 X123.002 Y135.604 E0.69328
G1 X122.308 Y135.497 E0.02025
G1 X121.851 Y135.300 E0.01437
G1 X91.316 Y118.128 E1.01053
G1 X90.850 Y117.780 E0.01677
G1 X90.482 Y117.330 E0.01677
G1 X89.812 Y116.147 E0.03923
G1 X89.620 Y115.331 E0.02416
G1 X89.617 Y105.482 E0.28411
G1 X89.802 Y104.604 E0.02588
G1 X107.483 Y75.126 E0.99155
G1 X107.819 Y74.699 E0.01568
G1 X108.694 Y73.903 E0.03410
G1 F8640.000
G1 X109.340 Y73.591 E-0.16577
G1 X109.990 Y73.496 E-0.15167
G1 X111.907 Y73.496 E-0.44256
G1 E-0.04000 F2100.00000
G1 Z0.800 F10800.000
G1 X102.807 Y106.011
G1 Z0.200
G1 E0.80000 F2100.00000
G1 F1200.000
G1 X102.807 Y114.717 E0.25113
G1 X93.181 Y114.717 E0.27767
G1 X93.181 Y106.011 E0.25113
G1 X102.747 Y106.011 E0.27594
G1 X103.184 Y105.634 F10800.000
G1 F1200.000
G1 X103.184 Y115.094 E0.27288
G1 X92.804 Y115.094 E0.29942
G1 X92.804 Y105.634 E0.27288
G1 X103.124 Y105.634 E0.29769
G1 X103.075 Y106.019 F10800.000
G1 F8640.000
G1 X103.145 Y108.925 E-0.76000
G1 E-0.04000 F2100.00000
G1 Z0.800 F10800.000
G1 X93.294 Y113.825
G1 Z0.200
G1 E0.80000 F2100.00000
G1 F1200.000
G1 X93.903 Y114.434 E0.02533
G1 X94.447 Y114.434 E0.01601
G1 X93.464 Y113.451 E0.04092
G1 X93.464 Y112.907 E0.01601
G1 X94.991 Y114.434 E0.06356
G1 X95.535 Y114.434 E0.01601
G1 X93.464 Y112.363 E0.08621
G1 X93.464 Y111.819 E0.01601
G1 X96.079 Y114.434 E0.10885
G1 X96.623 Y114.434 E0.01601
G1 X93.464 Y111.275 E0.13150
G1 X93.464 Y110.730 E0.01601
G1 X97.167 Y114.434 E0.15414
G1 X97.711 Y114.434 E0.01601
G1 X93.464 Y110.186 E0.17679
G1 X93.464 Y109.642 E0.01601
G1 X98.256 Y114.434 E0.19943
G1 X98.800 Y114.434 E0.01601
G1 X93.464 Y109.098 E0.22208
G1 X93.464 Y108.554 E0.01601
G1 X99.344 Y114.434 E0.24472
G1 X99.888 Y114.434 E0.01601
G1 X93.464 Y108.010 E0.26737
G1 X93.464 Y107.466 E0.01601
G1 X100.432 Y114.434 E0.29001
G1 X100.976 Y114.434 E0.01601
G1 X93.464 Y106.922 E0.31266
G1 X93.464 Y106.378 E0.01601
G1 X101.520 Y114.434 E0.33530
G1 X102.064 Y114.434 E0.01601
G1 X93.924 Y106.294 E0.33881
G1 X94.468 Y106.294 E0.01601
G1 X102.524 Y114.350 E0.33531
G1 X102.524 Y113.806 E0.01601
G1 X95.012 Y106.294 E0.31266
G1 X95.556 Y106.294 E0.01601
G1 X102.524 Y113.262 E0.29002
G1 X102.524 Y112.718 E0.01601
G1 X96.100 Y106.294 E0.26737
G1 X96.644 Y106.294 E0.01601
G1 X102.524 Y112.174 E0.24473
G1 X102.524 Y111.629 E0.01601
G1 X97.188 Y106.294 E0.22208
G1 X97.732 Y106.294 E0.01601
G1 X102.524 Y111.085 E0.19944
G1 X102.524 Y110.541 E0.01601
G1 X98.276 Y106.294 E0.17679
G1 X98.821 Y106.294 E0.01601
G1 X102.524 Y109.997 E0.15415
G1 X102.524 Y109.453 E0.01601
G1 X99.365 Y106.294 E0.13150
G1 X99.909 Y106.294 E0.01601
G1 X102.524 Y108.909 E0.10886
G1 X102.524 Y108.365 E0.01601
G1 X100.453 Y106.294 E0.08621
G1 X100.997 Y106.294 E0.01601
G1 X102.524 Y107.821 E0.06357
G1 X102.524 Y107.277 E0.01601
G1 X101.541 Y106.294 E0.04092
G1 X102.085 Y106.294 E0.01601
G1 X102.694 Y106.902 E0.02534
G1 F8640.000
G1 X102.085 Y106.294 E-0.19880
G1 X101.541 Y106.294 E-0.12563
G1 X102.524 Y107.277 E-0.32106
G1 X102.524 Y107.773 E-0.11451
G1 E-0.04000 F2100.00000
G1 Z0.800 F10800.000
G1 X124.300 Y119.414
G1 Z0.200
G1 E0.80000 F2100.00000
G1 F1200.000
G1 X145.726 Y119.414 E0.61805
G1 X145.726 Y124.553 E0.14824
G1 X145.826 Y124.653 E0.00408
G1 X145.826 Y132.440 E0.22462
G1 X124.200 Y132.440 E0.62382
G1 X124.200 Y124.653 E0.22462
G1 X124.300 Y124.553 E0.00408
G1 X124.300 Y119.474 E0.14651
G1 X123.923 Y119.037 F10800.000
G1 F1200.000
G1 X146.103 Y119.037 E0.63980
G1 X146.103 Y124.397 E0.15461
G1 X146.203 Y124.497 E0.00408
G1 X146.203 Y132.817 E0.24000
G1 X123.823 Y132.817 E0.64557
G1 X123.823 Y124.497 E0.24000
G1 X123.923 Y124.397 E0.00408
G1 X123.923 Y119.097 E0.15288
G1 X124.269 Y119.239 F10800.000
G1 F8640.000
G1 X127.215 Y119.088 E-0.76000
G1 E-0.04000 F2100.00000
G1 Z0.800 F10800.000
G1 X145.613 Y120.290
G1 Z0.200
G1 E0.80000 F2100.00000
G1 F1200.000
G1 X145.020 Y119.697 E0.02425
G1 X144.486 Y119.697 E0.01542
G1 X145.444 Y120.654 E0.03913
G1 X145.444 Y121.188 E0.01542
G1 X143.952 Y119.697 E0.06094
G1 X143.418 Y119.697 E0.01542
G1 X145.444 Y121.722 E0.08275
G1 X145.444 Y122.256 E0.01542
G1 X142.884 Y119.697 E0.10457
G1 X142.350 Y119.697 E0.01542
G1 X145.444 Y122.790 E0.12638
G1 X145.444 Y123.324 E0.01542
G1 X141.816 Y119.697 E0.14819
G1 X141.282 Y119.697 E0.01542
G1 X145.444 Y123.858 E0.17000
G1 X145.444 Y124.392 E0.01542
G1 X140.748 Y119.697 E0.19182
G1 X140.214 Y119.697 E0.01542
G1 X145.544 Y125.026 E0.21771
G1 X145.544 Y125.560 E0.01542
G1 X139.680 Y119.697 E0.23953
G1 X139.146 Y119.697 E0.01542
G1 X145.544 Y126.094 E0.26134
G1 X145.544 Y126.628 E0.01542
G1 X138.612 Y119.697 E0.28315
G1 X138.078 Y119.697 E0.01542
G1 X145.544 Y127.162 E0.30496
G1 X145.544 Y127.696 E0.01542
G1 X137.544 Y119.697 E0.32677
G1 X137.010 Y119.697 E0.01542
G1 X145.544 Y128.230 E0.34859
G1 X145.544 Y128.764 E0.01542
G1 X136.476 Y119.697 E0.37040
G1 X135.942 Y119.697 E0.01542
G1 X145.544 Y129.298 E0.39221
G1 X145.544 Y129.832 E0.01542
G1 X135.408 Y119.697 E0.41402
G1 X134.874 Y119.697 E0.01542
G1 X145.544 Y130.366 E0.43584
G1 X145.544 Y130.900 E0.01542
G1 X134.340 Y119.697 E0.45765
G1 X133.806 Y119.697 E0.01542
G1 X145.544 Y131.434 E0.47946
G1 X145.544 Y131.968 E0.01542
G1 X133.272 Y119.697 E0.50127
G1 X132.738 Y119.697 E0.01542
G1 X145.198 Y132.157 E0.50898
G1 X144.664 Y132.157 E0.01542
G1 X132.204 Y119.697 E0.50898
G1 X131.670 Y119.697 E0.01542
G1 X144.130 Y132.157 E0.50898
G1 X143.596 Y132.157 E0.01542
G1 X131.136 Y119.697 E0.50898
G1 X130.602 Y119.697 E0.01542
G1 X143.062 Y132.157 E0.50898
G1 X142.528 Y132.157 E0.01542
G1 X130.068 Y119.697 E0.50898
G1 X129.534 Y119.697 E0.01542
G1 X141.994 Y132.157 E0.50898
G1 X141.460 Y132.157 E0.01542
G1 X129.000 Y119.697 E0.50898
M73 P0 R143
G1 X128.466 Y119.697 E0.01542
G1 X140.926 Y132.157 E0.50898
G1 X140.392 Y132.157 E0.01542
G1 X127.932 Y119.697 E0.50898
G1 X127.398 Y119.697 E0.01542
G1 X139.859 Y132.157 E0.50898
G1 X139.325 Y132.157 E0.01542
G1 X126.864 Y119.697 E0.50898
G1 X126.330 Y119.697 E0.01542
G1 X138.791 Y132.157 E0.50898
G1 X138.257 Y132.157 E0.01542
G1 X125.796 Y119.697 E0.50898
G1 X125.262 Y119.697 E0.01542
G1 X137.723 Y132.157 E0.50898
G1 X137.189 Y132.157 E0.01542
G1 X124.728 Y119.697 E0.50898
G1 X124.583 Y119.697 E0.00419
G1 X124.583 Y120.085 E0.01123
G1 X136.655 Y132.157 E0.49310
G1 X136.121 Y132.157 E0.01542
G1 X124.583 Y120.619 E0.47128
G1 X124.583 Y121.153 E0.01542
G1 X135.587 Y132.157 E0.44947
G1 X135.053 Y132.157 E0.01542
G1 X124.583 Y121.687 E0.42766
G1 X124.583 Y122.221 E0.01542
G1 X134.519 Y132.157 E0.40585
G1 X133.985 Y132.157 E0.01542
G1 X124.583 Y122.755 E0.38404
G1 X124.583 Y123.289 E0.01542
G1 X133.451 Y132.157 E0.36222
G1 X132.917 Y132.157 E0.01542
G1 X124.583 Y123.823 E0.34041
G1 X124.583 Y124.357 E0.01542
G1 X132.383 Y132.157 E0.31860
G1 X131.849 Y132.157 E0.01542
G1 X124.483 Y124.791 E0.30087
G1 X124.483 Y125.325 E0.01542
G1 X131.315 Y132.157 E0.27906
G1 X130.781 Y132.157 E0.01542
G1 X124.483 Y125.859 E0.25725
G1 X124.483 Y126.393 E0.01542
G1 X130.247 Y132.157 E0.23543
G1 X129.713 Y132.157 E0.01542
G1 X124.483 Y126.927 E0.21362
G1 X124.483 Y127.461 E0.01542
G1 X129.179 Y132.157 E0.19181
G1 X128.645 Y132.157 E0.01542
G1 X124.483 Y127.995 E0.17000
G1 X124.483 Y128.529 E0.01542
G1 X128.111 Y132.157 E0.14819
G1 X127.577 Y132.157 E0.01542
G1 X124.483 Y129.063 E0.12637
G1 X124.483 Y129.597 E0.01542
G1 X127.043 Y132.157 E0.10456
G1 X126.509 Y132.157 E0.01542
G1 X124.483 Y130.131 E0.08275
G1 X124.483 Y130.665 E0.01542
G1 X125.975 Y132.157 E0.06094
G1 X125.441 Y132.157 E0.01542
G1 X124.483 Y131.199 E0.03912
G1 X124.483 Y131.733 E0.01542
G1 X125.077 Y132.326 E0.02424
G1 F8640.000
G1 X124.483 Y131.733 E-0.19381
G1 X124.483 Y131.199 E-0.12330
G1 X125.441 Y132.157 E-0.31277
G1 X125.975 Y132.157 E-0.12330
G1 X125.954 Y132.136 E-0.00683
G1 E-0.04000 F2100.00000
G1 Z0.800 F10800.000
G1 X136.628 Y101.446
G1 Z0.200
G1 E0.80000 F2100.00000
G1 F1200.000
G1 X136.628 Y95.160 E0.18132
G1 X147.219 Y95.160 E0.30550
G1 X147.219 Y100.855 E0.16427
G1 X147.026 Y100.995 E0.00689
G1 X147.001 Y101.039 E0.00144
G1 X146.770 Y100.810 E0.00940
G1 X146.411 Y100.691 E0.01091
G1 X145.707 Y100.686 E0.02029
G1 X145.499 Y100.713 E0.00605
G1 X145.243 Y100.818 E0.00797
G1 X145.000 Y101.047 E0.00962
G1 X144.900 Y100.911 E0.00487
G1 X144.620 Y100.744 E0.00939
G1 X144.321 Y100.686 E0.00879
G1 X143.530 Y100.701 E0.02283
G1 X143.224 Y100.826 E0.00954
G1 X143.008 Y101.041 E0.00878
G1 X142.735 Y100.791 E0.01068
G1 X142.347 Y100.686 E0.01161
G1 X141.603 Y100.690 E0.02146
G1 X141.238 Y100.812 E0.01108
G1 X141.008 Y101.041 E0.00938
G1 X140.735 Y100.791 E0.01068
G1 X140.347 Y100.686 E0.01161
G1 X139.603 Y100.690 E0.02146
G1 X139.238 Y100.812 E0.01107
G1 X139.002 Y101.048 E0.00965
G1 X138.900 Y100.911 E0.00493
G1 X138.634 Y100.752 E0.00892
G1 X138.389 Y100.690 E0.00730
G1 X137.730 Y100.686 E0.01901
G1 X137.398 Y100.739 E0.00970
G1 X137.126 Y100.905 E0.00918
G1 X136.929 Y101.136 E0.00875
G1 X136.820 Y101.446 E0.00949
G1 X136.688 Y101.446 E0.00381
G1 F8640.000
G1 X136.657 Y98.155 E-0.76000
G1 E-0.04000 F2100.00000
G1 Z0.800 F10800.000
G1 X138.488 Y101.104
G1 Z0.200
G1 E0.80000 F2100.00000
G1 F1200.000
G1 X138.341 Y101.067 E0.00439
G1 X137.759 Y101.063 E0.01679
G1 X137.530 Y101.100 E0.00667
G1 X137.374 Y101.195 E0.00529
G1 X137.262 Y101.327 E0.00498
G1 X137.087 Y101.823 E0.01518
G1 X136.251 Y101.823 E0.02413
G1 X136.251 Y94.783 E0.20308
G1 X147.596 Y94.783 E0.32726
G1 X147.596 Y101.090 E0.18192
G1 X147.524 Y101.100 E0.00211
G1 X147.314 Y101.252 E0.00747
G1 X147.214 Y101.431 E0.00593
G1 X147.084 Y101.823 E0.01191
G1 X146.925 Y101.823 E0.00461
G1 X146.748 Y101.319 E0.01543
G1 X146.567 Y101.140 E0.00733
G1 X146.349 Y101.067 E0.00664
G1 X145.730 Y101.064 E0.01783
G1 X145.597 Y101.081 E0.00389
G1 X145.444 Y101.144 E0.00477
G1 X145.314 Y101.256 E0.00495
G1 X145.233 Y101.385 E0.00438
G1 X145.084 Y101.823 E0.01336
G1 X144.927 Y101.823 E0.00455
G1 X144.777 Y101.379 E0.01353
G1 X144.642 Y101.196 E0.00656
G1 X144.483 Y101.101 E0.00533
G1 X144.288 Y101.063 E0.00573
G1 X143.608 Y101.076 E0.01964
G1 X143.437 Y101.147 E0.00533
G1 X143.265 Y101.318 E0.00700
G1 X143.087 Y101.823 E0.01545
G1 X142.928 Y101.823 E0.00461
G1 X142.780 Y101.386 E0.01331
G1 X142.697 Y101.255 E0.00448
G1 X142.555 Y101.133 E0.00541
G1 X142.297 Y101.064 E0.00769
G1 X141.665 Y101.067 E0.01825
G1 X141.442 Y101.141 E0.00678
G1 X141.265 Y101.318 E0.00722
G1 X141.087 Y101.823 E0.01545
G1 X140.928 Y101.823 E0.00461
G1 X140.780 Y101.386 E0.01331
G1 X140.697 Y101.255 E0.00448
G1 X140.555 Y101.133 E0.00541
G1 X140.297 Y101.064 E0.00769
G1 X139.665 Y101.067 E0.01825
G1 X139.442 Y101.141 E0.00678
G1 X139.265 Y101.318 E0.00722
G1 X139.087 Y101.823 E0.01545
G1 X138.928 Y101.823 E0.00461
G1 X138.777 Y101.378 E0.01355
G1 X138.642 Y101.196 E0.00655
G1 X138.540 Y101.135 E0.00343
G1 X138.472 Y100.953 F10800.000
G1 F8640.000
G1 X138.341 Y101.067 E-0.04853
G1 X137.759 Y101.063 E-0.13442
G1 X137.530 Y101.100 E-0.05338
G1 X137.374 Y101.195 E-0.04238
G1 X137.262 Y101.327 E-0.03985
G1 X137.087 Y101.823 E-0.12155
G1 X136.251 Y101.823 E-0.19313
G1 X136.251 Y101.274 E-0.12677
G1 E-0.04000 F2100.00000
G1 Z0.800 F10800.000
G1 X147.106 Y96.055
G1 Z0.200
G1 E0.80000 F2100.00000
G1 F1200.000
G1 X146.494 Y95.443 E0.02555
G1 X145.948 Y95.443 E0.01613
G1 X146.936 Y96.431 E0.04127
G1 X146.936 Y96.977 E0.01613
G1 X145.402 Y95.443 E0.06408
G1 X144.856 Y95.443 E0.01613
G1 X146.936 Y97.523 E0.08689
G1 X146.936 Y98.069 E0.01613
G1 X144.310 Y95.443 E0.10970
G1 X143.764 Y95.443 E0.01613
G1 X146.936 Y98.615 E0.13251
G1 X146.936 Y99.162 E0.01613
G1 X143.218 Y95.443 E0.15532
G1 X142.672 Y95.443 E0.01613
G1 X146.936 Y99.708 E0.17813
G1 X146.936 Y100.254 E0.01613
G1 X142.126 Y95.443 E0.20094
G1 X141.580 Y95.443 E0.01613
G1 X146.588 Y100.451 E0.20920
G1 X146.457 Y100.408 E0.00407
G1 X145.996 Y100.405 E0.01363
G1 X141.034 Y95.443 E0.20727
G1 X140.488 Y95.443 E0.01613
G1 X145.476 Y100.431 E0.20836
G1 X145.081 Y100.583 E0.01248
G1 X139.942 Y95.443 E0.21469
G1 X139.396 Y95.443 E0.01613
G1 X144.357 Y100.404 E0.20723
G1 X143.819 Y100.412 E0.01589
G1 X138.849 Y95.443 E0.20757
G1 X138.303 Y95.443 E0.01613
G1 X143.335 Y100.475 E0.21019
G1 X143.064 Y100.586 E0.00866
G1 X143.000 Y100.650 E0.00268
G1 X142.875 Y100.536 E0.00499
G1 X142.841 Y100.527 E0.00104
G1 X137.757 Y95.443 E0.21236
G1 X137.211 Y95.443 E0.01613
G1 X142.173 Y100.404 E0.20723
G1 X141.629 Y100.407 E0.01604
G1 X136.911 Y95.689 E0.19710
G1 X136.911 Y96.235 E0.01613
G1 X141.202 Y100.526 E0.17925
G1 X141.086 Y100.565 E0.00362
G1 X141.000 Y100.650 E0.00359
G1 X140.875 Y100.536 E0.00499
G1 X140.589 Y100.459 E0.00876
G1 X136.911 Y96.781 E0.15364
G1 X136.911 Y97.327 E0.01613
G1 X139.989 Y100.405 E0.12859
G1 X139.556 Y100.408 E0.01280
G1 X139.473 Y100.435 E0.00257
G1 X136.911 Y97.873 E0.10704
G1 X136.911 Y98.419 E0.01613
G1 X139.071 Y100.579 E0.09024
G1 X139.005 Y100.645 E0.00274
G1 X138.744 Y100.488 E0.00901
G1 X138.425 Y100.408 E0.00971
G1 X138.353 Y100.407 E0.00211
G1 X136.911 Y98.965 E0.06025
G1 X136.911 Y99.511 E0.01613
G1 X137.803 Y100.404 E0.03729
G1 X137.708 Y100.403 E0.00281
G1 X137.319 Y100.465 E0.01164
G1 X136.911 Y100.057 E0.01706
G1 X136.911 Y100.603 E0.01613
G1 X137.097 Y100.789 E0.00778
G1 F8640.000
G1 X136.911 Y100.603 E-0.06085
G1 X136.911 Y100.057 E-0.12608
G1 X137.319 Y100.465 E-0.13335
G1 X137.708 Y100.403 E-0.09098
G1 X137.803 Y100.404 E-0.02199
G1 X136.911 Y99.511 E-0.29148
G1 X136.911 Y99.358 E-0.03527
G1 E-0.04000 F2100.00000
G1 Z0.800 F10800.000
G1 X133.384 Y101.446
G1 Z0.200
G1 E0.80000 F2100.00000
G1 F1200.000
G1 X133.200 Y101.446 E0.00529
G1 X133.062 Y101.111 E0.01047
G1 X132.882 Y100.901 E0.00797
G1 X132.634 Y100.752 E0.00833
G1 X132.389 Y100.690 E0.00730
G1 X131.730 Y100.686 E0.01901
G1 X131.398 Y100.739 E0.00970
G1 X131.126 Y100.905 E0.00918
G1 X131.009 Y101.042 E0.00521
G1 X130.735 Y100.791 E0.01071
G1 X130.348 Y100.687 E0.01156
G1 X129.728 Y100.686 E0.01789
G1 X129.398 Y100.739 E0.00965
G1 X129.126 Y100.905 E0.00918
G1 X129.009 Y101.042 E0.00521
G1 X128.735 Y100.791 E0.01071
G1 X128.348 Y100.687 E0.01156
G1 X127.728 Y100.686 E0.01789
G1 X127.398 Y100.739 E0.00965
G1 X127.126 Y100.904 E0.00918
G1 X127.009 Y101.042 E0.00521
G1 X126.735 Y100.791 E0.01071
G1 X126.348 Y100.687 E0.01156
G1 X125.728 Y100.686 E0.01789
