; generated by PrusaSlicer 2.2.0+ on 2020-05-02 at 22:26:32 UTC


;
;

;
;
; 

; external perimeters extrusion width = 0.55mm
; perimeters extrusion width = 0.55mm
; infill extrusion width = 0.55mm
; solid infill extrusion width = 0.55mm
; top infill extrusion width = 0.50mm
; first layer extrusion width = 0.42mm

M73 P0 R44
M201 X9000 Y9000 Z500 E10000 ; sets maximum accelerations, mm/sec^2
M203 X500 Y500 Z12 E120 ; sets maximum feedrates, mm/sec
M204 P2000 R1500 T2000 ; sets acceleration (P, T) and retract acceleration (R), mm/sec^2
M205 X10.00 Y10.00 Z0.20 E4.50 ; sets the jerk limits, mm/sec
M205 S0 T0 ; sets the minimum extruding and travel feed rate, mm/sec
M107
M83  ; extruder relative mode
M140 S85 ; set bed temp
M109 S160 ; Set extruder temp before bed level
M190 S85 ; wait for bed temp

G28 W ; home all without mesh bed level
G80 N7 ; mesh bed leveling

M109 S265 ; wait for extruder temp

M221 S100 ; Set flow to 100

G1 Y-3.0 F1000.0 ; go outside print area
G92 E0.0
G1 E8 ; Purge Bubble
M73 P0 R44
G1 X60.0 E9.0 F1000.0 ; intro line
G1 X100.0 E12.5 F1000.0 ; intro line
G92 E0.0
G21 ; set units to millimeters
G90 ; use absolute coordinates
M83 ; use relative distances for extrusion
M900 K37; Filament gcode
;BEFORE_LAYER_CHANGE
G92 E0.0
;0.2


G1 E-0.80000 F2100.00000
G1 Z0.600 F10800.000
;AFTER_LAYER_CHANGE
;0.2
@Object bottom_reinforcement.stl id:0 copy 1
G1 X66.770 Y145.709
G1 Z0.200
G1 E0.80000 F2100.00000
M204 S1000
G1 F3600.000
G1 X67.155 Y145.758 E0.01203
G1 X67.668 Y145.775 E0.01595
G1 X70.169 Y145.778 E0.07762
G1 X71.004 Y146.755 E0.03991
G1 X72.064 Y147.942 E0.04939
G1 X73.041 Y148.988 E0.04444
G1 X74.262 Y150.243 E0.05432
G1 X75.398 Y151.357 E0.04940
G1 X76.559 Y152.445 E0.04939
G1 X77.625 Y153.400 E0.04444
G1 X78.952 Y154.542 E0.05433
G1 X80.183 Y155.550 E0.04940
G1 X81.436 Y156.531 E0.04938
G1 X82.582 Y157.389 E0.04444
G1 X84.005 Y158.408 E0.05433
G1 X85.321 Y159.303 E0.04940
G1 X86.656 Y160.169 E0.04938
G1 X87.874 Y160.922 E0.04444
G1 X89.381 Y161.810 E0.05433
G1 X90.771 Y162.585 E0.04940
G1 X92.178 Y163.329 E0.04938
G1 X93.457 Y163.971 E0.04444
G1 X95.038 Y164.723 E0.05433
G1 X96.491 Y165.372 E0.04940
G1 X97.958 Y165.988 E0.04939
G1 X99.438 Y166.572 E0.04939
G1 X100.931 Y167.122 E0.04939
G1 X102.436 Y167.640 E0.04938
G1 X103.799 Y168.076 E0.04444
G1 X105.477 Y168.574 E0.05433
G1 X107.013 Y168.990 E0.04940
G1 X108.558 Y169.372 E0.04939
G1 X110.111 Y169.720 E0.04939
G1 X111.671 Y170.033 E0.04939
G1 X113.237 Y170.311 E0.04939
G1 X114.809 Y170.554 E0.04939
G1 X116.386 Y170.763 E0.04938
G1 X117.810 Y170.921 E0.04444
G1 X119.553 Y171.075 E0.05433
G1 X121.141 Y171.178 E0.04940
G1 X122.731 Y171.246 E0.04939
G1 X124.321 Y171.278 E0.04938
G1 X125.753 Y171.278 E0.04443
G1 X127.343 Y171.243 E0.04938
G1 X128.933 Y171.173 E0.04939
G1 X130.520 Y171.068 E0.04939
G1 X132.105 Y170.928 E0.04939
G1 X133.687 Y170.753 E0.04940
G1 X135.422 Y170.519 E0.05433
G1 X136.836 Y170.297 E0.04444
G1 X138.402 Y170.017 E0.04938
G1 X139.962 Y169.702 E0.04939
G1 X141.514 Y169.352 E0.04939
G1 X143.058 Y168.969 E0.04939
G1 X144.594 Y168.551 E0.04940
G1 X146.271 Y168.051 E0.05433
G1 X147.634 Y167.613 E0.04444
G1 X149.138 Y167.094 E0.04938
G1 X150.630 Y166.541 E0.04939
G1 X152.110 Y165.956 E0.04939
G1 X153.576 Y165.338 E0.04939
G1 X155.028 Y164.687 E0.04940
G1 X156.608 Y163.934 E0.05433
G1 X157.887 Y163.290 E0.04444
G1 X159.292 Y162.545 E0.04938
G1 X160.681 Y161.768 E0.04940
G1 X162.188 Y160.877 E0.05433
G1 X163.405 Y160.123 E0.04444
G1 X164.739 Y159.256 E0.04938
G1 X166.053 Y158.359 E0.04940
G1 X167.475 Y157.338 E0.05433
G1 X168.620 Y156.479 E0.04444
G1 X169.872 Y155.497 E0.04938
G1 X171.102 Y154.487 E0.04940
G1 X172.428 Y153.344 E0.05433
G1 X173.492 Y152.387 E0.04444
G1 X174.652 Y151.298 E0.04939
G1 X175.787 Y150.183 E0.04941
G1 X177.006 Y148.927 E0.05432
G1 X177.982 Y147.879 E0.04444
G1 X179.041 Y146.691 E0.04939
G1 X179.874 Y145.712 E0.03991
G1 X182.375 Y145.707 E0.07762
G1 X182.889 Y145.690 E0.01595
G1 X183.274 Y145.640 E0.01205
G1 X182.819 Y146.113 E0.02036
G1 X182.047 Y147.056 E0.03784
G1 X181.006 Y148.280 E0.04987
G1 X179.940 Y149.480 E0.04984
G1 X178.848 Y150.658 E0.04985
G1 X177.730 Y151.811 E0.04984
G1 X176.588 Y152.939 E0.04984
G1 X175.422 Y154.043 E0.04984
G1 X174.232 Y155.121 E0.04984
G1 X173.019 Y156.174 E0.04984
G1 X171.784 Y157.200 E0.04984
G1 X170.526 Y158.199 E0.04986
G1 X169.232 Y159.182 E0.05045
G1 X167.948 Y160.114 E0.04926
G1 X166.632 Y161.027 E0.04972
G1 X165.290 Y161.915 E0.04993
G1 X163.933 Y162.772 E0.04984
G1 X162.557 Y163.600 E0.04984
G1 X161.163 Y164.397 E0.04984
G1 X159.753 Y165.165 E0.04984
G1 X158.326 Y165.902 E0.04984
G1 X156.883 Y166.607 E0.04984
G1 X155.426 Y167.281 E0.04984
G1 X153.955 Y167.924 E0.04984
G1 X152.469 Y168.535 E0.04984
G1 X150.972 Y169.113 E0.04984
G1 X149.461 Y169.659 E0.04984
G1 X147.940 Y170.172 E0.04984
G1 X146.407 Y170.651 E0.04984
G1 X144.865 Y171.098 E0.04984
G1 X143.313 Y171.511 E0.04984
G1 X141.753 Y171.891 E0.04984
G1 X140.185 Y172.236 E0.04984
G1 X138.600 Y172.550 E0.05016
G1 X137.028 Y172.826 E0.04952
G1 X135.441 Y173.069 E0.04984
G1 X133.849 Y173.278 E0.04984
G1 X132.243 Y173.453 E0.05016
G1 X130.653 Y173.592 E0.04952
G1 X129.051 Y173.697 E0.04984
G1 X127.455 Y173.767 E0.04958
G1 X125.820 Y173.803 E0.05077
G1 X124.234 Y173.804 E0.04922
G1 X122.647 Y173.771 E0.04926
G1 X121.026 Y173.702 E0.05038
G1 X119.424 Y173.598 E0.04984
G1 X117.824 Y173.461 E0.04984
G1 X116.227 Y173.288 E0.04984
G1 X114.635 Y173.081 E0.04984
G1 X113.048 Y172.840 E0.04984
G1 X111.466 Y172.564 E0.04984
G1 X109.900 Y172.256 E0.04952
G1 X108.322 Y171.911 E0.05016
G1 X106.761 Y171.533 E0.04984
G1 X105.209 Y171.122 E0.04984
G1 X103.676 Y170.680 E0.04952
G1 X102.133 Y170.199 E0.05016
G1 X100.611 Y169.688 E0.04984
G1 X99.100 Y169.144 E0.04984
G1 X97.601 Y168.567 E0.04984
G1 X96.115 Y167.958 E0.04984
G1 X94.643 Y167.317 E0.04984
G1 X93.185 Y166.645 E0.04984
G1 X91.742 Y165.941 E0.04984
G1 X90.314 Y165.206 E0.04984
G1 X88.912 Y164.445 E0.04952
G1 X87.508 Y163.644 E0.05016
G1 X86.116 Y162.809 E0.05040
G1 X84.772 Y161.963 E0.04928
G1 X83.446 Y161.087 E0.04935
G1 X82.113 Y160.165 E0.05030
G1 X80.804 Y159.216 E0.05020
G1 X79.532 Y158.252 E0.04953
G1 X78.273 Y157.255 E0.04984
G1 X77.037 Y156.231 E0.04984
G1 X75.823 Y155.180 E0.04984
G1 X74.632 Y154.103 E0.04984
G1 X73.464 Y153.001 E0.04984
G1 X72.321 Y151.873 E0.04984
G1 X71.202 Y150.721 E0.04984
G1 X70.108 Y149.546 E0.04984
G1 X69.041 Y148.346 E0.04984
G1 X67.998 Y147.124 E0.04987
G1 X67.221 Y146.177 E0.03802
G1 X66.814 Y145.750 E0.01830
G1 F8640.000
G1 X67.155 Y145.758 E-0.07862
G1 X67.668 Y145.775 E-0.11867
G1 X70.105 Y145.778 E-0.56271
G1 E-0.04000 F2100.00000
G1 Z0.800 F10800.000
G1 X65.802 Y145.304
G1 Z0.200
G1 E0.80000 F2100.00000
G1 F3600.000
G1 X65.756 Y145.208 E0.00330
G1 X66.222 Y145.202 E0.01447
G1 X66.686 Y145.318 E0.01484
G1 X67.185 Y145.382 E0.01561
G1 X67.675 Y145.398 E0.01522
G1 X70.343 Y145.401 E0.08282
G1 X71.288 Y146.507 E0.04517
G1 X72.343 Y147.688 E0.04913
G1 X73.314 Y148.728 E0.04419
G1 X74.529 Y149.977 E0.05406
G1 X75.659 Y151.084 E0.04913
G1 X76.814 Y152.167 E0.04913
G1 X77.874 Y153.117 E0.04419
G1 X79.195 Y154.253 E0.05406
G1 X80.419 Y155.256 E0.04913
G1 X81.665 Y156.231 E0.04913
G1 X82.805 Y157.084 E0.04419
G1 X84.221 Y158.098 E0.05406
G1 X85.530 Y158.989 E0.04913
G1 X86.858 Y159.850 E0.04913
G1 X88.069 Y160.599 E0.04419
G1 X89.569 Y161.483 E0.05406
G1 X90.951 Y162.254 E0.04913
G1 X92.350 Y162.994 E0.04913
G1 X93.623 Y163.633 E0.04419
G1 X95.196 Y164.380 E0.05406
G1 X96.641 Y165.026 E0.04913
G1 X98.100 Y165.639 E0.04913
G1 X99.573 Y166.219 E0.04913
G1 X101.058 Y166.767 E0.04913
G1 X102.554 Y167.282 E0.04913
G1 X103.910 Y167.716 E0.04419
G1 X105.580 Y168.211 E0.05407
G1 X107.108 Y168.625 E0.04913
G1 X108.644 Y169.005 E0.04913
G1 X110.189 Y169.351 E0.04913
G1 X111.741 Y169.662 E0.04913
G1 X113.299 Y169.939 E0.04913
G1 X114.863 Y170.181 E0.04913
G1 X116.432 Y170.389 E0.04913
G1 X117.847 Y170.545 E0.04419
G1 X119.582 Y170.699 E0.05407
G1 X121.161 Y170.801 E0.04913
G1 X122.743 Y170.869 E0.04913
G1 X124.325 Y170.901 E0.04913
G1 X125.749 Y170.901 E0.04419
G1 X127.331 Y170.866 E0.04913
G1 X128.912 Y170.797 E0.04913
G1 X130.491 Y170.692 E0.04913
G1 X132.068 Y170.553 E0.04913
G1 X133.641 Y170.378 E0.04913
G1 X135.367 Y170.146 E0.05407
G1 X136.774 Y169.925 E0.04419
G1 X138.331 Y169.646 E0.04913
G1 X139.883 Y169.333 E0.04913
G1 X141.427 Y168.985 E0.04913
G1 X142.963 Y168.604 E0.04913
G1 X144.490 Y168.188 E0.04913
G1 X146.160 Y167.691 E0.05407
G1 X147.515 Y167.255 E0.04419
G1 X149.011 Y166.739 E0.04913
G1 X150.495 Y166.189 E0.04913
G1 X151.967 Y165.607 E0.04913
G1 X153.425 Y164.992 E0.04913
G1 X154.870 Y164.345 E0.04913
G1 X156.442 Y163.595 E0.05406
G1 X157.714 Y162.955 E0.04419
G1 X159.112 Y162.214 E0.04913
G1 X160.493 Y161.441 E0.04913
G1 X161.993 Y160.555 E0.05406
G1 X163.203 Y159.805 E0.04419
G1 X164.530 Y158.942 E0.04913
G1 X165.837 Y158.050 E0.04913
G1 X167.252 Y157.034 E0.05406
G1 X168.391 Y156.180 E0.04419
G1 X169.636 Y155.203 E0.04913
G1 X170.859 Y154.198 E0.04913
G1 X172.178 Y153.061 E0.05406
G1 X173.237 Y152.109 E0.04419
G1 X174.391 Y151.026 E0.04913
G1 X175.520 Y149.917 E0.04913
G1 X176.733 Y148.667 E0.05406
G1 X177.703 Y147.625 E0.04419
G1 X178.756 Y146.443 E0.04913
G1 X179.700 Y145.336 E0.04517
G1 X182.368 Y145.330 E0.08282
G1 X182.858 Y145.313 E0.01522
G1 X183.357 Y145.249 E0.01562
G1 X183.821 Y145.132 E0.01484
G1 X184.289 Y145.138 E0.01453
G1 X184.246 Y145.227 E0.00308
G1 X184.028 Y145.508 E0.01103
G1 X183.709 Y145.752 E0.01246
G1 X183.387 Y146.049 E0.01361
G1 X183.105 Y146.359 E0.01301
G1 X182.337 Y147.298 E0.03765
G1 X181.291 Y148.527 E0.05011
G1 X180.219 Y149.734 E0.05010
G1 X179.121 Y150.917 E0.05010
G1 X177.998 Y152.076 E0.05009
G1 X176.850 Y153.210 E0.05010
G1 X175.678 Y154.320 E0.05010
G1 X174.482 Y155.404 E0.05010
G1 X173.263 Y156.461 E0.05009
G1 X172.022 Y157.492 E0.05010
G1 X170.758 Y158.496 E0.05011
G1 X169.457 Y159.484 E0.05071
G1 X168.166 Y160.422 E0.04952
G1 X166.843 Y161.339 E0.04997
G1 X165.495 Y162.232 E0.05019
G1 X164.131 Y163.093 E0.05009
G1 X162.748 Y163.925 E0.05010
G1 X161.347 Y164.727 E0.05010
G1 X159.929 Y165.498 E0.05010
G1 X158.495 Y166.238 E0.05010
G1 X157.046 Y166.948 E0.05010
G1 X155.581 Y167.625 E0.05010
G1 X154.102 Y168.271 E0.05010
G1 X152.609 Y168.885 E0.05010
G1 X151.104 Y169.466 E0.05010
G1 X149.586 Y170.015 E0.05010
G1 X148.056 Y170.530 E0.05010
G1 X146.516 Y171.013 E0.05010
G1 X144.966 Y171.461 E0.05010
G1 X143.407 Y171.877 E0.05010
G1 X141.838 Y172.258 E0.05010
G1 X140.262 Y172.606 E0.05010
G1 X138.669 Y172.921 E0.05042
G1 X137.089 Y173.198 E0.04978
G1 X135.494 Y173.442 E0.05010
G1 X133.894 Y173.652 E0.05010
G1 X132.279 Y173.828 E0.05042
G1 X130.682 Y173.968 E0.04978
G1 X129.071 Y174.073 E0.05010
G1 X127.467 Y174.144 E0.04984
G1 X125.824 Y174.180 E0.05102
G1 X124.230 Y174.181 E0.04947
G1 X122.635 Y174.147 E0.04952
G1 X121.006 Y174.078 E0.05063
G1 X119.395 Y173.974 E0.05010
G1 X117.787 Y173.836 E0.05010
G1 X116.183 Y173.663 E0.05010
G1 X114.582 Y173.455 E0.05010
G1 X112.987 Y173.212 E0.05010
G1 X111.397 Y172.935 E0.05010
G1 X109.823 Y172.626 E0.04978
G1 X108.237 Y172.278 E0.05042
G1 X106.668 Y171.899 E0.05010
G1 X105.108 Y171.485 E0.05010
G1 X103.567 Y171.041 E0.04978
G1 X102.017 Y170.558 E0.05042
G1 X100.487 Y170.044 E0.05010
G1 X98.968 Y169.497 E0.05010
G1 X97.462 Y168.918 E0.05010
G1 X95.969 Y168.306 E0.05010
G1 X94.489 Y167.662 E0.05010
G1 X93.023 Y166.986 E0.05010
G1 X91.573 Y166.278 E0.05010
G1 X90.138 Y165.539 E0.05010
G1 X88.728 Y164.775 E0.04978
G1 X87.318 Y163.970 E0.05042
G1 X85.918 Y163.130 E0.05066
G1 X84.568 Y162.280 E0.04953
G1 X83.235 Y161.399 E0.04960
G1 X81.895 Y160.473 E0.05055
G1 X80.579 Y159.519 E0.05045
G1 X79.301 Y158.551 E0.04979
G1 X78.036 Y157.548 E0.05009
G1 X76.793 Y156.519 E0.05010
G1 X75.573 Y155.462 E0.05010
G1 X74.376 Y154.380 E0.05010
G1 X73.202 Y153.272 E0.05009
G1 X72.053 Y152.139 E0.05010
G1 X70.929 Y150.981 E0.05010
G1 X69.830 Y149.799 E0.05010
G1 X68.756 Y148.594 E0.05009
G1 X67.709 Y147.366 E0.05011
G1 X66.936 Y146.424 E0.03783
G1 X66.652 Y146.113 E0.01307
G1 X66.339 Y145.825 E0.01320
G1 X66.020 Y145.583 E0.01244
G1 X65.839 Y145.351 E0.00913
G1 X65.851 Y145.210 F10800.000
G1 X66.120 Y145.404
G1 F3600.000
G1 X66.625 Y145.574 E0.00344
G1 F8640.000
G1 X66.120 Y145.404 E-0.12315
G1 E-0.67685 F2100.00000
G1 Z0.800 F10800.000
G1 X69.163 Y148.325
G1 Z0.200
G1 E0.80000 F2100.00000
G1 F3600.000
G1 X73.655 Y152.803 E0.19760
G1 X74.818 Y153.901 E0.04983
G1 X76.005 Y154.974 E0.04984
G1 X77.215 Y156.021 E0.04984
G1 X78.257 Y156.884 E0.04217
G1 X67.701 Y146.328 E0.46505
G1 X67.468 Y146.044 E0.01145
G1 X67.959 Y146.051 E0.01530
G1 X80.703 Y158.794 E0.56142
G1 X82.634 Y160.191 E0.07425
G1 X68.495 Y146.051 E0.62291
G1 X69.030 Y146.052 E0.01669
G1 X84.298 Y161.320 E0.67264
G1 X85.795 Y162.282 E0.05542
G1 X69.566 Y146.052 E0.71498
G1 X70.042 Y146.053 E0.01483
G1 X70.797 Y146.936 E0.03620
G1 X71.861 Y148.128 E0.04975
G1 X72.842 Y149.178 E0.04478
G1 X74.067 Y150.437 E0.05471
G1 X75.208 Y151.555 E0.04978
G1 X76.373 Y152.647 E0.04975
G1 X77.443 Y153.607 E0.04478
G1 X78.920 Y154.871 E0.06055
G1 X87.168 Y163.119 E0.36337
G1 X88.448 Y163.864 E0.04611
G1 X81.526 Y156.942 E0.30493
G1 X82.420 Y157.611 E0.03477
G1 X83.512 Y158.393 E0.04186
G1 X89.654 Y164.535 E0.27058
G1 X90.802 Y165.148 E0.04054
G1 X85.220 Y159.565 E0.24593
G1 X86.724 Y160.535 E0.05574
G1 X91.903 Y165.713 E0.22816
G1 X92.948 Y166.223 E0.03621
G1 X88.098 Y161.374 E0.21365
G1 X89.390 Y162.130 E0.04664
G1 X93.959 Y166.699 E0.20126
G1 X94.756 Y167.066 E0.02734
G1 X94.943 Y167.148 E0.00636
G1 X90.600 Y162.805 E0.19131
G1 X91.739 Y163.409 E0.04015
G1 X95.891 Y167.560 E0.18289
G1 X96.812 Y167.946 E0.03111
G1 X92.830 Y163.965 E0.17540
G1 X93.876 Y164.475 E0.03624
G1 X97.718 Y168.317 E0.16925
G1 X98.587 Y168.652 E0.02903
G1 X94.896 Y164.960 E0.16264
G1 X95.864 Y165.393 E0.03305
G1 X99.447 Y168.976 E0.15785
G1 X100.283 Y169.277 E0.02769
G1 X96.811 Y165.805 E0.15299
G1 X97.734 Y166.192 E0.03119
G1 X101.104 Y169.563 E0.14849
G1 X101.910 Y169.834 E0.02648
G1 X98.623 Y166.546 E0.14484
G1 X99.500 Y166.888 E0.02932
G1 X102.699 Y170.087 E0.14093
G1 X103.476 Y170.329 E0.02537
G1 X100.348 Y167.201 E0.13783
G1 X101.182 Y167.500 E0.02761
G1 X104.237 Y170.555 E0.13460
G1 X104.989 Y170.772 E0.02438
G1 X101.998 Y167.780 E0.13180
G1 X102.797 Y168.045 E0.02623
G1 X105.727 Y170.974 E0.12906
G1 X106.455 Y171.167 E0.02347
G1 X103.584 Y168.297 E0.12646
G1 X104.349 Y168.527 E0.02489
G1 X107.172 Y171.349 E0.12436
G1 X107.878 Y171.520 E0.02263
G1 X105.110 Y168.752 E0.12195
G1 X105.854 Y168.961 E0.02408
G1 X108.578 Y171.685 E0.12000
G1 X109.264 Y171.835 E0.02185
G1 X106.589 Y169.160 E0.11785
G1 X107.311 Y169.347 E0.02324
G1 X109.949 Y171.985 E0.11623
G1 X110.615 Y172.117 E0.02116
G1 X108.022 Y169.523 E0.11426
G1 X108.726 Y169.692 E0.02255
G1 X111.281 Y172.247 E0.11260
G1 X111.936 Y172.367 E0.02072
G1 X109.415 Y169.846 E0.11105
G1 X110.103 Y169.999 E0.02196
G1 X112.584 Y172.480 E0.10929
G1 X113.228 Y172.589 E0.02036
G1 X110.773 Y170.133 E0.10819
G1 X111.442 Y170.268 E0.02127
G1 X113.860 Y172.685 E0.10649
G1 X114.491 Y172.781 E0.01989
G1 X112.098 Y170.388 E0.10541
G1 X112.749 Y170.504 E0.02059
G1 X115.110 Y172.865 E0.10404
G1 X115.726 Y172.945 E0.01932
G1 X113.394 Y170.614 E0.10271
G1 X114.027 Y170.712 E0.01996
G1 X116.339 Y173.023 E0.10183
G1 X116.939 Y173.088 E0.01880
G1 X114.661 Y170.810 E0.10036
G1 X115.280 Y170.894 E0.01948
G1 X117.539 Y173.153 E0.09950
G1 X118.132 Y173.211 E0.01856
G1 X115.897 Y170.976 E0.09846
G1 X116.510 Y171.054 E0.01924
G1 X118.717 Y173.261 E0.09726
G1 X119.303 Y173.312 E0.01831
G1 X117.112 Y171.120 E0.09655
G1 X117.713 Y171.187 E0.01886
G1 X119.878 Y173.352 E0.09538
G1 X120.450 Y173.389 E0.01786
G1 X118.302 Y171.241 E0.09464
G1 X118.889 Y171.292 E0.01836
G1 X121.022 Y173.426 E0.09397
G1 X121.582 Y173.450 E0.01744
G1 X119.476 Y171.344 E0.09275
G1 X120.050 Y171.383 E0.01791
G1 X122.141 Y173.474 E0.09210
G1 X122.699 Y173.496 E0.01740
G1 X120.623 Y171.420 E0.09147
G1 X121.193 Y171.456 E0.01782
