; generated by PrusaSlicer 2.2.0+ on 2020-04-22 at 18:33:52 UTC


;
;

;
;
; 

; external perimeters extrusion width = 0.55mm
; perimeters extrusion width = 0.55mm
; infill extrusion width = 0.55mm
; solid infill extrusion width = 0.55mm
; top infill extrusion width = 0.50mm
; first layer extrusion width = 0.42mm

M73 P0 R68
M201 X9000 Y9000 Z500 E10000 ; sets maximum accelerations, mm/sec^2
M203 X500 Y500 Z12 E120 ; sets maximum feedrates, mm/sec
M204 P2000 R1500 T2000 ; sets acceleration (P, T) and retract acceleration (R), mm/sec^2
M205 X10.00 Y10.00 Z0.20 E2.50 ; sets the jerk limits, mm/sec
M205 S0 T0 ; sets the minimum extruding and travel feed rate, mm/sec
M107
M83  ; extruder relative mode
M140 S75 ; set bed temp
M109 S160 ; Set extruder temp before bed level
M190 S75 ; wait for bed temp

G28 W ; home all without mesh bed level
G80 N7 ; mesh bed leveling

M109 S240 ; wait for extruder temp

M221 S100 ; Set flow to 100

G1 Y-3.0 F1000.0 ; go outside print area
G92 E0.0
G1 E8 ; Purge Bubble
M73 P0 R68
G1 X60.0 E9.0 F1000.0 ; intro line
G1 X100.0 E12.5 F1000.0 ; intro line
G92 E0.0
G21 ; set units to millimeters
G90 ; use absolute coordinates
M83 ; use relative distances for extrusion
M900 K45; Filament gcode
;BEFORE_LAYER_CHANGE
G92 E0.0
;0.2


G1 E-0.80000 F2100.00000
G1 Z0.600 F10800.000
;AFTER_LAYER_CHANGE
;0.2
@Object PrusaHeadBandRC3-x1.stl id:0 copy 0
G1 X40.279 Y82.165
G1 Z0.200
G1 E0.80000 F2100.00000
M204 S1000
G1 F3600.000
G1 X40.563 Y82.069 E0.00866
G1 X40.859 Y82.020 E0.00866
G1 X41.159 Y82.022 E0.00866
G1 X41.455 Y82.073 E0.00866
G1 X41.738 Y82.172 E0.00866
G1 X42.001 Y82.317 E0.00866
G1 X42.237 Y82.503 E0.00866
G1 X42.438 Y82.725 E0.00866
G1 X42.600 Y82.978 E0.00866
G1 X42.710 Y83.235 E0.00806
G1 X43.585 Y85.718 E0.07594
G1 X44.537 Y88.150 E0.07534
G1 X45.572 Y90.549 E0.07536
G1 X46.689 Y92.910 E0.07535
G1 X47.885 Y95.232 E0.07535
G1 X49.161 Y97.512 E0.07535
G1 X50.514 Y99.746 E0.07535
G1 X51.943 Y101.933 E0.07535
G1 X53.196 Y103.716 E0.06285
G1 X55.022 Y106.154 E0.08786
G1 X56.667 Y108.182 E0.07534
G1 X58.382 Y110.152 E0.07535
G1 X60.163 Y112.063 E0.07535
G1 X61.715 Y113.618 E0.06336
G1 X63.917 Y115.697 E0.08735
G1 X65.884 Y117.414 E0.07534
G1 X67.910 Y119.064 E0.07535
G1 X69.991 Y120.643 E0.07535
G1 X72.125 Y122.150 E0.07535
G1 X74.309 Y123.582 E0.07535
G1 X76.541 Y124.940 E0.07535
G1 X78.818 Y126.219 E0.07535
G1 X81.138 Y127.420 E0.07536
G1 X83.872 Y128.725 E0.08739
G1 X86.646 Y129.945 E0.08740
G1 X89.455 Y131.080 E0.08740
G1 X92.299 Y132.128 E0.08740
G1 X95.172 Y133.088 E0.08740
G1 X98.075 Y133.959 E0.08740
G1 X101.002 Y134.741 E0.08740
G1 X103.952 Y135.432 E0.08740
G1 X106.922 Y136.033 E0.08740
G1 X109.909 Y136.542 E0.08740
G1 X112.910 Y136.960 E0.08740
G1 X115.494 Y137.238 E0.07497
G1 X118.944 Y137.517 E0.09985
G1 X121.970 Y137.657 E0.08739
G1 X125.000 Y137.703 E0.08740
G1 X128.030 Y137.657 E0.08740
G1 X131.056 Y137.517 E0.08740
G1 X134.078 Y137.285 E0.08740
G1 X137.090 Y136.960 E0.08740
G1 X140.091 Y136.542 E0.08740
G1 X143.078 Y136.033 E0.08740
G1 X146.048 Y135.432 E0.08740
G1 X148.998 Y134.741 E0.08740
G1 X151.925 Y133.959 E0.08740
G1 X154.828 Y133.088 E0.08740
G1 X157.701 Y132.128 E0.08740
G1 X160.545 Y131.080 E0.08740
G1 X163.354 Y129.945 E0.08740
G1 X166.128 Y128.725 E0.08740
G1 X168.862 Y127.420 E0.08739
G1 X171.182 Y126.219 E0.07536
G1 X173.459 Y124.940 E0.07535
G1 X175.691 Y123.582 E0.07535
G1 X177.875 Y122.150 E0.07535
G1 X180.009 Y120.643 E0.07535
G1 X182.090 Y119.064 E0.07535
G1 X184.116 Y117.414 E0.07535
G1 X186.084 Y115.696 E0.07535
G1 X188.296 Y113.608 E0.08777
G1 X189.837 Y112.063 E0.06293
G1 X191.618 Y110.152 E0.07535
G1 X193.333 Y108.182 E0.07535
G1 X194.979 Y106.153 E0.07535
G1 X196.554 Y104.069 E0.07535
G1 X198.057 Y101.933 E0.07535
G1 X199.486 Y99.746 E0.07536
G1 X200.839 Y97.512 E0.07534
G1 X202.115 Y95.232 E0.07535
G1 X203.311 Y92.910 E0.07535
G1 X204.428 Y90.549 E0.07535
G1 X205.463 Y88.150 E0.07535
G1 X206.415 Y85.718 E0.07535
G1 X207.290 Y83.235 E0.07594
G1 X207.400 Y82.978 E0.00806
G1 X207.562 Y82.725 E0.00866
G1 X207.763 Y82.503 E0.00866
G1 X207.999 Y82.317 E0.00866
G1 X208.262 Y82.172 E0.00866
G1 X208.548 Y82.072 E0.00874
G1 X208.893 Y82.022 E0.01008
G1 X209.141 Y82.020 E0.00714
G1 X209.437 Y82.069 E0.00866
G1 X209.721 Y82.165 E0.00866
G1 X209.986 Y82.307 E0.00866
G1 X210.223 Y82.490 E0.00866
G1 X210.427 Y82.711 E0.00866
G1 X210.592 Y82.962 E0.00866
G1 X210.713 Y83.236 E0.00866
G1 X210.787 Y83.527 E0.00866
G1 X210.810 Y83.809 E0.00817
G1 X210.810 Y91.516 E0.22232
G1 X210.763 Y94.350 E0.08175
G1 X210.622 Y97.184 E0.08185
G1 X210.388 Y100.012 E0.08185
G1 X210.060 Y102.831 E0.08185
G1 X209.640 Y105.637 E0.08185
G1 X209.126 Y108.428 E0.08185
G1 X208.521 Y111.200 E0.08185
G1 X207.825 Y113.951 E0.08185
G1 X207.037 Y116.677 E0.08185
G1 X206.161 Y119.376 E0.08185
G1 X205.195 Y122.044 E0.08185
G1 X204.142 Y124.679 E0.08185
G1 X203.002 Y127.277 E0.08185
G1 X201.777 Y129.837 E0.08185
G1 X200.468 Y132.354 E0.08185
G1 X199.076 Y134.827 E0.08185
G1 X197.603 Y137.253 E0.08185
G1 X196.051 Y139.628 E0.08185
G1 X194.422 Y141.951 E0.08185
G1 X192.716 Y144.219 E0.08185
G1 X190.937 Y146.429 E0.08185
G1 X189.085 Y148.579 E0.08185
G1 X187.163 Y150.667 E0.08185
G1 X185.173 Y152.690 E0.08185
G1 X183.118 Y154.646 E0.08185
G1 X180.998 Y156.533 E0.08185
G1 X178.818 Y158.349 E0.08185
G1 X176.579 Y160.091 E0.08185
G1 X174.283 Y161.759 E0.08185
G1 X171.934 Y163.350 E0.08185
G1 X169.533 Y164.863 E0.08185
G1 X167.083 Y166.295 E0.08185
G1 X164.588 Y167.646 E0.08185
G1 X162.049 Y168.913 E0.08185
G1 X159.470 Y170.096 E0.08185
G1 X156.852 Y171.192 E0.08185
G1 X154.201 Y172.202 E0.08185
G1 X151.517 Y173.123 E0.08185
G1 X148.804 Y173.955 E0.08185
G1 X146.065 Y174.697 E0.08185
G1 X143.303 Y175.348 E0.08185
G1 X140.521 Y175.908 E0.08185
G1 X137.723 Y176.375 E0.08185
G1 X134.910 Y176.749 E0.08185
G1 X132.086 Y177.030 E0.08185
G1 X129.255 Y177.218 E0.08185
G1 X126.419 Y177.311 E0.08185
G1 X123.581 Y177.311 E0.08185
G1 X120.745 Y177.218 E0.08185
G1 X117.914 Y177.030 E0.08185
G1 X115.090 Y176.749 E0.08185
G1 X112.277 Y176.375 E0.08185
G1 X109.479 Y175.908 E0.08185
G1 X106.697 Y175.348 E0.08185
G1 X103.935 Y174.697 E0.08185
G1 X101.196 Y173.955 E0.08185
G1 X98.483 Y173.123 E0.08185
G1 X95.799 Y172.202 E0.08185
G1 X93.148 Y171.192 E0.08185
G1 X90.530 Y170.096 E0.08185
G1 X87.951 Y168.913 E0.08185
G1 X85.412 Y167.646 E0.08185
G1 X82.917 Y166.295 E0.08185
G1 X80.467 Y164.863 E0.08185
G1 X78.066 Y163.350 E0.08185
G1 X75.717 Y161.759 E0.08185
G1 X73.421 Y160.091 E0.08185
G1 X71.182 Y158.349 E0.08185
G1 X69.002 Y156.533 E0.08185
G1 X66.882 Y154.646 E0.08185
G1 X64.827 Y152.690 E0.08185
G1 X62.837 Y150.667 E0.08185
G1 X60.915 Y148.579 E0.08185
G1 X59.063 Y146.429 E0.08185
G1 X57.284 Y144.219 E0.08185
G1 X55.578 Y141.951 E0.08185
G1 X53.949 Y139.628 E0.08185
G1 X52.397 Y137.253 E0.08185
G1 X50.924 Y134.827 E0.08185
G1 X49.532 Y132.354 E0.08185
G1 X48.223 Y129.837 E0.08185
G1 X46.998 Y127.277 E0.08185
G1 X45.858 Y124.679 E0.08185
G1 X44.805 Y122.044 E0.08185
G1 X43.839 Y119.376 E0.08185
G1 X42.963 Y116.677 E0.08185
G1 X42.175 Y113.951 E0.08185
G1 X41.479 Y111.200 E0.08185
G1 X40.874 Y108.428 E0.08185
G1 X40.360 Y105.637 E0.08185
G1 X39.940 Y102.831 E0.08185
G1 X39.612 Y100.012 E0.08185
G1 X39.378 Y97.184 E0.08185
G1 X39.237 Y94.350 E0.08185
G1 X39.190 Y91.516 E0.08175
G1 X39.190 Y83.809 E0.22232
G1 X39.213 Y83.527 E0.00817
G1 X39.287 Y83.236 E0.00866
G1 X39.408 Y82.962 E0.00866
G1 X39.573 Y82.711 E0.00866
G1 X39.777 Y82.490 E0.00866
G1 X40.014 Y82.307 E0.00866
G1 X40.226 Y82.193 E0.00693
G1 X40.313 Y81.867 F10800.000
G1 F8640.000
G1 X40.563 Y82.069 E-0.08300
G1 X40.859 Y82.020 E-0.06930
G1 X41.159 Y82.022 E-0.06930
G1 X41.455 Y82.073 E-0.06930
G1 X41.738 Y82.172 E-0.06930
G1 X42.001 Y82.317 E-0.06930
G1 X42.237 Y82.503 E-0.06930
G1 X42.438 Y82.725 E-0.06930
G1 X42.600 Y82.978 E-0.06930
G1 X42.710 Y83.235 E-0.06455
G1 X42.794 Y83.472 E-0.05804
G1 E-0.04000 F2100.00000
G1 Z0.800 F10800.000
G1 X38.799 Y58.382
G1 Z0.200
G1 E0.80000 F2100.00000
G1 F3600.000
G1 X38.859 Y61.812 E0.09895
G1 X38.996 Y64.451 E0.07625
G1 X39.225 Y67.084 E0.07625
G1 X39.545 Y69.708 E0.07625
G1 X39.956 Y72.319 E0.07625
G1 X40.458 Y74.914 E0.07625
G1 X41.049 Y77.491 E0.07625
G1 X41.729 Y80.045 E0.07625
G1 X42.359 Y82.119 E0.06252
G1 X42.210 Y82.002 E0.00545
G1 X41.892 Y81.827 E0.01047
G1 X41.550 Y81.707 E0.01047
G1 X41.192 Y81.645 E0.01047
G1 X40.830 Y81.643 E0.01047
G1 X40.471 Y81.701 E0.01047
G1 X40.128 Y81.818 E0.01047
G1 X39.808 Y81.989 E0.01047
G1 X39.521 Y82.211 E0.01047
G1 X39.275 Y82.478 E0.01047
G1 X39.076 Y82.781 E0.01047
G1 X38.930 Y83.113 E0.01047
G1 X38.840 Y83.465 E0.01047
G1 X38.813 Y83.794 E0.00952
G1 X38.813 Y91.520 E0.22286
G1 X38.860 Y94.363 E0.08202
G1 X39.001 Y97.209 E0.08221
G1 X39.237 Y100.050 E0.08221
G1 X39.566 Y102.881 E0.08221
G1 X39.988 Y105.699 E0.08221
G1 X40.504 Y108.502 E0.08221
G1 X41.112 Y111.287 E0.08221
G1 X41.811 Y114.049 E0.08221
G1 X42.602 Y116.787 E0.08221
G1 X43.483 Y119.498 E0.08221
G1 X44.288 Y121.723 E0.06826
G1 X44.453 Y122.178 E0.01395
G1 X45.510 Y124.824 E0.08221
G1 X46.655 Y127.434 E0.08221
G1 X47.886 Y130.005 E0.08221
G1 X49.201 Y132.534 E0.08221
G1 X50.598 Y135.017 E0.08221
G1 X52.077 Y137.454 E0.08221
G1 X53.636 Y139.840 E0.08221
G1 X55.273 Y142.173 E0.08221
G1 X56.986 Y144.450 E0.08221
G1 X58.774 Y146.670 E0.08221
G1 X60.634 Y148.830 E0.08221
G1 X62.564 Y150.927 E0.08221
G1 X64.562 Y152.958 E0.08221
G1 X66.627 Y154.923 E0.08221
G1 X68.755 Y156.818 E0.08221
G1 X70.945 Y158.642 E0.08221
G1 X73.195 Y160.393 E0.08221
G1 X75.500 Y162.068 E0.08221
G1 X77.860 Y163.666 E0.08221
G1 X80.271 Y165.185 E0.08221
G1 X82.732 Y166.624 E0.08221
G1 X85.238 Y167.980 E0.08221
G1 X87.788 Y169.253 E0.08221
G1 X90.379 Y170.441 E0.08221
G1 X93.008 Y171.543 E0.08221
G1 X95.671 Y172.557 E0.08221
G1 X98.367 Y173.482 E0.08221
G1 X101.091 Y174.318 E0.08221
G1 X103.842 Y175.063 E0.08221
G1 X106.616 Y175.717 E0.08221
G1 X109.410 Y176.279 E0.08221
G1 X112.222 Y176.748 E0.08221
G1 X115.047 Y177.124 E0.08221
G1 X117.883 Y177.406 E0.08221
G1 X120.727 Y177.594 E0.08221
G1 X123.575 Y177.688 E0.08221
G1 X126.425 Y177.688 E0.08221
G1 X129.273 Y177.594 E0.08221
G1 X132.117 Y177.406 E0.08221
G1 X134.953 Y177.124 E0.08221
G1 X137.778 Y176.748 E0.08221
G1 X140.590 Y176.279 E0.08221
G1 X143.384 Y175.717 E0.08221
G1 X146.158 Y175.063 E0.08221
G1 X148.909 Y174.318 E0.08221
G1 X151.633 Y173.482 E0.08221
G1 X154.329 Y172.557 E0.08221
G1 X156.992 Y171.543 E0.08221
G1 X159.621 Y170.441 E0.08221
G1 X162.212 Y169.253 E0.08221
G1 X164.762 Y167.980 E0.08221
G1 X167.268 Y166.624 E0.08221
G1 X169.729 Y165.185 E0.08221
G1 X171.653 Y163.973 E0.06562
G1 X172.140 Y163.666 E0.01659
G1 X174.500 Y162.068 E0.08221
G1 X176.805 Y160.393 E0.08221
G1 X179.055 Y158.642 E0.08221
G1 X181.245 Y156.818 E0.08221
G1 X183.373 Y154.923 E0.08221
G1 X185.438 Y152.958 E0.08221
G1 X187.436 Y150.927 E0.08221
G1 X189.366 Y148.830 E0.08221
G1 X191.226 Y146.670 E0.08221
G1 X193.014 Y144.450 E0.08221
G1 X194.727 Y142.173 E0.08221
G1 X196.364 Y139.840 E0.08221
G1 X197.923 Y137.454 E0.08221
G1 X199.402 Y135.017 E0.08221
G1 X200.799 Y132.534 E0.08221
G1 X202.114 Y130.005 E0.08221
G1 X203.345 Y127.434 E0.08221
G1 X204.490 Y124.824 E0.08221
G1 X205.547 Y122.178 E0.08221
G1 X206.517 Y119.498 E0.08221
G1 X207.398 Y116.787 E0.08221
G1 X208.189 Y114.049 E0.08221
G1 X208.888 Y111.287 E0.08221
G1 X209.496 Y108.502 E0.08221
G1 X210.012 Y105.699 E0.08221
G1 X210.434 Y102.881 E0.08221
G1 X210.763 Y100.050 E0.08221
G1 X210.999 Y97.209 E0.08221
G1 X211.140 Y94.363 E0.08221
G1 X211.187 Y91.520 E0.08202
G1 X211.187 Y83.794 E0.22286
G1 X211.160 Y83.465 E0.00952
G1 X211.070 Y83.113 E0.01047
G1 X210.924 Y82.781 E0.01047
G1 X210.725 Y82.478 E0.01047
G1 X210.479 Y82.211 E0.01047
G1 X210.192 Y81.989 E0.01047
G1 X209.872 Y81.818 E0.01047
G1 X209.529 Y81.701 E0.01047
G1 X209.170 Y81.643 E0.01047
G1 X208.865 Y81.645 E0.00881
G1 X208.457 Y81.704 E0.01189
G1 X208.108 Y81.827 E0.01069
G1 X207.790 Y82.002 E0.01047
G1 X207.641 Y82.119 E0.00545
G1 X208.271 Y80.045 E0.06252
G1 X208.951 Y77.491 E0.07625
G1 X209.542 Y74.914 E0.07625
G1 X210.044 Y72.319 E0.07625
G1 X210.455 Y69.708 E0.07625
G1 X210.775 Y67.084 E0.07625
G1 X211.004 Y64.451 E0.07625
G1 X211.141 Y61.812 E0.07625
G1 X211.201 Y58.382 E0.09895
G1 X210.382 Y58.382 E0.02363
G1 X208.712 Y58.117 E0.04877
G1 X207.261 Y57.378 E0.04696
G1 X206.110 Y56.227 E0.04696
G1 X205.371 Y54.777 E0.04696
G1 X205.107 Y53.107 E0.04877
G1 X205.107 Y35.777 E0.49988
G1 X205.371 Y34.108 E0.04877
G1 X206.110 Y32.657 E0.04696
G1 X207.261 Y31.506 E0.04696
G1 X208.712 Y30.767 E0.04696
G1 X210.382 Y30.503 E0.04877
G1 X212.118 Y30.503 E0.05009
G1 X213.788 Y30.767 E0.04877
G1 X215.239 Y31.506 E0.04696
G1 X216.390 Y32.657 E0.04696
G1 X217.129 Y34.108 E0.04696
G1 X217.393 Y35.777 E0.04877
G1 X217.393 Y53.107 E0.49988
G1 X217.129 Y54.777 E0.04877
G1 X216.390 Y56.227 E0.04696
G1 X215.239 Y57.378 E0.04696
G1 X213.788 Y58.117 E0.04696
G1 X212.118 Y58.382 E0.04877
G1 X211.313 Y58.382 E0.02323
G1 X211.313 Y91.507 E0.95553
G1 X211.268 Y94.281 E0.08002
G1 X211.135 Y97.045 E0.07984
G1 X210.914 Y99.804 E0.07984
G1 X210.604 Y102.555 E0.07984
G1 X210.206 Y105.294 E0.07984
G1 X209.720 Y108.019 E0.07984
G1 X209.147 Y110.727 E0.07984
G1 X208.488 Y113.415 E0.07984
G1 X207.743 Y116.081 E0.07984
G1 X206.912 Y118.721 E0.07984
G1 X205.998 Y121.333 E0.07984
G1 X205.000 Y123.915 E0.07984
G1 X203.920 Y126.464 E0.07984
G1 X202.759 Y128.976 E0.07984
G1 X201.518 Y131.450 E0.07984
G1 X200.198 Y133.883 E0.07984
G1 X198.801 Y136.272 E0.07984
G1 X197.327 Y138.616 E0.07984
G1 X195.780 Y140.910 E0.07984
G1 X194.137 Y143.187 E0.08098
G1 X193.962 Y143.466 E0.00950
G1 X193.823 Y143.808 E0.01065
G1 X193.742 Y144.168 E0.01065
G1 X193.724 Y144.537 E0.01065
G1 X193.767 Y144.903 E0.01065
G1 X193.871 Y145.257 E0.01065
G1 X194.008 Y145.536 E0.00896
G1 X194.244 Y145.883 E0.01209
G1 X194.513 Y146.147 E0.01087
G1 X194.815 Y146.358 E0.01065
G1 X195.149 Y146.516 E0.01065
G1 X195.505 Y146.615 E0.01065
G1 X195.872 Y146.653 E0.01065
G1 X196.240 Y146.628 E0.01065
G1 X196.599 Y146.542 E0.01065
G1 X196.939 Y146.397 E0.01065
G1 X197.249 Y146.198 E0.01065
G1 X197.501 Y145.967 E0.00986
G1 X199.493 Y143.743 E0.08612
G1 X201.400 Y141.481 E0.08533
G1 X203.238 Y139.163 E0.08533
G1 X205.005 Y136.791 E0.08533
G1 X206.701 Y134.367 E0.08533
G1 X208.323 Y131.894 E0.08533
G1 X209.871 Y129.372 E0.08533
G1 X211.342 Y126.806 E0.08533
G1 X212.736 Y124.197 E0.08533
G1 X214.051 Y121.547 E0.08533
G1 X215.285 Y118.859 E0.08533
G1 X216.145 Y116.832 E0.06350
G1 X216.641 Y117.011 E0.01523
G1 X215.978 Y118.588 E0.04935
G1 X214.980 Y120.808 E0.07021
G1 X213.404 Y124.097 E0.10522
G1 X217.961 Y123.856 E0.13163
G1 X218.102 Y123.871 E0.00410
G1 X218.238 Y123.956 E0.00463
G1 X218.314 Y124.100 E0.00471
G1 X218.308 Y124.258 E0.00454
G1 X218.259 Y124.353 E0.00310
G1 X218.180 Y124.427 E0.00310
G1 X218.081 Y124.469 E0.00310
G1 X217.994 Y124.481 E0.00255
G1 X212.590 Y124.767 E0.15608
G1 X210.954 Y127.756 E0.09831
G1 X209.457 Y130.306 E0.08527
G1 X207.884 Y132.811 E0.08534
G1 X206.237 Y135.267 E0.08532
G1 X204.874 Y137.179 E0.06773
G1 X202.725 Y140.027 E0.10290
G1 X200.865 Y142.325 E0.08529
G1 X199.337 Y144.108 E0.06773
G1 X196.941 Y146.750 E0.10290
G1 X194.882 Y148.872 E0.08527
G1 X192.760 Y150.932 E0.08531
G1 X190.577 Y152.928 E0.08533
G1 X188.802 Y154.465 E0.06772
G1 X186.036 Y156.719 E0.10292
G1 X184.173 Y158.147 E0.06772
G1 X181.778 Y159.883 E0.08533
G1 X179.333 Y161.546 E0.08531
G1 X176.839 Y163.135 E0.08527
G1 X173.768 Y164.949 E0.10290
G1 X171.714 Y166.086 E0.06773
G1 X169.087 Y167.445 E0.08532
G1 X166.421 Y168.725 E0.08531
G1 X163.717 Y169.924 E0.08531
G1 X160.978 Y171.043 E0.08534
G1 X158.210 Y172.078 E0.08526
G1 X154.865 Y173.215 E0.10191
G1 X154.865 Y177.750 E0.13081
G1 X154.857 Y177.838 E0.00255
G1 X154.820 Y177.939 E0.00310
G1 X154.751 Y178.022 E0.00311
G1 X154.658 Y178.076 E0.00310
G1 X154.498 Y178.090 E0.00463
G1 X154.397 Y178.053 E0.00310
G1 X154.284 Y177.939 E0.00463
G1 X154.247 Y177.838 E0.00310
G1 X154.239 Y173.423 E0.12736
