; generated by Slic3r Prusa Edition 1.40.1+ on 2018-08-16 at 21:11:53

; 

; external perimeters extrusion width = 0.45mm
; perimeters extrusion width = 0.45mm
; infill extrusion width = 0.45mm
; solid infill extrusion width = 0.45mm
; top infill extrusion width = 0.45mm
; first layer extrusion width = 0.42mm

M107
M115 U3.1.0 ; tell printer latest fw version
M201 X9000 Y9000 Z500 E10000 ; sets maximum accelerations, mm/sec^2
M203 X500 Y500 Z12 E120 ; sets maximum feedrates, mm/sec
M204 S1500 T1500 ; sets acceleration (S) and retract acceleration (T)
M205 X10 Y10 Z0.2 E2.5 ; sets the jerk limits, mm/sec
M205 S0 T0 ; sets the minimum extruding and travel feed rate, mm/sec
M83  ; extruder relative mode
M104 S205 ; set extruder temp
M140 S60 ; set bed temp
M190 S60 ; wait for bed temp
M109 S205 ; wait for extruder temp
G28 W ; home all without mesh bed level
G80 ; mesh bed leveling
G1 Y-3.0 F1000.0 ; go outside print area
G92 E0.0
G1 X60.0 E9.0  F1000.0 ; intro line
G1 X100.0 E12.5  F1000.0 ; intro line
G92 E0.0
M900 K30; Filament gcode
G21 ; set units to millimeters
G90 ; use absolute coordinates
M83 ; use relative distances for extrusion
;BEFORE_LAYER_CHANGE
G92 E0.0
;0.2


G1 E-0.80000 F2100.00000
G1 Z0.600 F10800.000
;AFTER_LAYER_CHANGE
;0.2
G1 X94.207 Y84.936
G1 Z0.200
G1 E0.80000 F2100.00000
M204 S1000
G1 F1800
G1 X95.102 Y84.597 E0.02999
G1 X146.574 Y73.146 E1.65335
G1 X147.513 Y73.046 E0.02960
G1 X148.510 Y73.158 E0.03147
G1 X149.434 Y73.467 E0.03053
G1 X150.326 Y73.974 E0.03217
G1 X151.270 Y74.763 E0.03857
G1 X152.165 Y75.796 E0.04288
G1 X152.886 Y76.863 E0.04036
G1 X153.673 Y78.316 E0.05181
G1 X154.360 Y79.876 E0.05345
G1 X154.930 Y81.419 E0.05158
G1 X155.628 Y83.696 E0.07466
G1 X156.649 Y88.163 E0.14366
G1 X157.477 Y93.719 E0.17613
G1 X157.940 Y99.286 E0.17517
G1 X158.091 Y105.768 E0.20328
G1 X157.897 Y111.456 E0.17845
G1 X157.376 Y117.136 E0.17884
G1 X156.601 Y122.089 E0.15716
G1 X155.559 Y126.571 E0.14431
G1 X154.824 Y128.892 E0.07632
G1 X154.220 Y130.469 E0.05294
G1 X153.413 Y132.199 E0.05986
G1 X152.723 Y133.403 E0.04352
G1 X151.854 Y134.597 E0.04629
G1 X151.071 Y135.431 E0.03587
G1 X150.119 Y136.163 E0.03764
G1 X148.927 Y136.727 E0.04136
G1 X147.861 Y136.939 E0.03408
G1 X146.584 Y136.856 E0.04012
G1 X95.090 Y125.400 E1.65402
G1 X94.189 Y125.054 E0.03027
G1 X93.453 Y124.502 E0.02885
G1 X93.092 Y124.078 E0.01744
G1 X92.753 Y123.497 E0.02109
G1 X92.516 Y122.745 E0.02472
G1 X92.454 Y122.162 E0.01840
G1 X92.452 Y87.892 E1.07450
G1 X92.521 Y87.216 E0.02129
G1 X92.721 Y86.574 E0.02108
G1 X93.027 Y86.017 E0.01994
G1 X93.554 Y85.404 E0.02533
G1 X94.158 Y84.971 E0.02330
G1 F8640
G1 X95.102 Y84.597 E-0.23431
G1 X97.324 Y84.103 E-0.52569
G1 E-0.04000 F2100.00000
G1 Z0.800 F10800.000
G1 X142.002 Y90.883
G1 Z0.200
G1 E0.80000 F2100.00000
G1 F1800
G1 X142.332 Y88.361 E0.07977
G1 X142.672 Y86.278 E0.06616
G1 X142.999 Y84.632 E0.05262
G1 X143.390 Y83.005 E0.05247
G1 X143.619 Y82.202 E0.02620
G1 X143.874 Y81.411 E0.02604
G1 X144.160 Y80.635 E0.02592
G1 X144.386 Y80.107 E0.01801
G1 X144.636 Y79.598 E0.01779
G1 X144.916 Y79.112 E0.01757
G1 X145.229 Y78.660 E0.01726
G1 X145.458 Y78.383 E0.01126
G1 X145.827 Y78.025 E0.01612
G1 X146.106 Y77.815 E0.01094
G1 X146.397 Y77.644 E0.01060
G1 X146.704 Y77.512 E0.01049
G1 X147.027 Y77.421 E0.01052
G1 X147.492 Y77.371 E0.01464
G1 X147.833 Y77.392 E0.01071
G1 X148.287 Y77.499 E0.01462
G1 X148.587 Y77.622 E0.01017
G1 X148.997 Y77.865 E0.01496
G1 X149.257 Y78.072 E0.01041
G1 X149.606 Y78.422 E0.01549
G1 X149.832 Y78.701 E0.01126
G1 X150.148 Y79.167 E0.01767
G1 X150.342 Y79.502 E0.01213
G1 X150.684 Y80.199 E0.02433
G1 X151.115 Y81.292 E0.03684
G1 X151.362 Y82.040 E0.02469
G1 X151.582 Y82.797 E0.02475
G1 X151.964 Y84.330 E0.04952
G1 X152.135 Y85.126 E0.02552
G1 X152.437 Y86.727 E0.05108
G1 X152.734 Y88.609 E0.05975
G1 X153.013 Y90.768 E0.06825
G1 X153.244 Y92.992 E0.07012
G1 X153.432 Y95.279 E0.07195
G1 X153.602 Y98.080 E0.08799
G1 X153.725 Y101.404 E0.10427
G1 X153.769 Y104.736 E0.10448
G1 X153.737 Y108.068 E0.10449
G1 X153.626 Y111.396 E0.10440
G1 X153.490 Y113.889 E0.07830
G1 X153.303 Y116.380 E0.07833
G1 X153.057 Y118.865 E0.07829
G1 X152.741 Y121.340 E0.07820
G1 X152.343 Y123.803 E0.07823
G1 X152.015 Y125.439 E0.05233
G1 X151.623 Y127.056 E0.05218
G1 X151.394 Y127.855 E0.02605
G1 X151.138 Y128.641 E0.02593
G1 X150.743 Y129.671 E0.03460
G1 X150.506 Y130.185 E0.01773
G1 X150.243 Y130.676 E0.01745
G1 X149.948 Y131.140 E0.01723
G1 X149.615 Y131.568 E0.01701
G1 X149.242 Y131.942 E0.01656
G1 X149.035 Y132.107 E0.00832
G1 X148.705 Y132.316 E0.01223
G1 X148.356 Y132.476 E0.01205
G1 X147.936 Y132.592 E0.01366
G1 X147.566 Y132.630 E0.01166
G1 X147.196 Y132.609 E0.01163
G1 X146.832 Y132.530 E0.01166
G1 X146.482 Y132.397 E0.01174
G1 X146.150 Y132.214 E0.01187
G1 X145.839 Y131.985 E0.01212
G1 X145.424 Y131.578 E0.01821
G1 X145.228 Y131.339 E0.00969
G1 X144.883 Y130.836 E0.01914
G1 X144.579 Y130.290 E0.01959
G1 X144.309 Y129.718 E0.01983
G1 X144.070 Y129.133 E0.01980
G1 X143.856 Y128.539 E0.01980
G1 X143.400 Y127.028 E0.04948
G1 X142.972 Y125.240 E0.05764
G1 X142.545 Y122.995 E0.07166
G1 X142.288 Y121.338 E0.05257
G1 X142.010 Y119.176 E0.06834
G1 X141.786 Y117.009 E0.06831
G1 X141.681 Y115.813 E0.03767
G1 X141.511 Y113.420 E0.07521
G1 X141.387 Y111.023 E0.07526
G1 X141.281 Y107.421 E0.11299
G1 X141.261 Y104.870 E0.07997
G1 X141.314 Y101.049 E0.11983
G1 X141.408 Y98.503 E0.07988
G1 X141.550 Y95.960 E0.07987
G1 X141.745 Y93.418 E0.07992
G1 X141.996 Y90.943 E0.07800
G1 X141.681 Y90.645 F10800.000
G1 F8640
G1 X142.332 Y88.361 E-0.60128
G1 X142.443 Y87.682 E-0.15872
G1 E-0.04000 F2100.00000
G1 Z0.800 F10800.000
G1 X144.614 Y78.886
G1 Z0.200
G1 E0.80000 F2100.00000
G1 F1800
G1 X144.956 Y78.291 E0.02151
G1 X145.469 Y77.565 E0.02787
G1 X146.009 Y76.960 E0.02543
G1 X146.350 Y76.661 E0.01421
G1 X146.583 Y76.498 E0.00892
G1 X146.835 Y76.359 E0.00902
G1 X147.107 Y76.253 E0.00915
G1 X147.299 Y76.209 E0.00619
G1 X147.533 Y76.195 E0.00736
G1 X147.840 Y76.231 E0.00969
G1 X148.031 Y76.289 E0.00626
G1 X148.339 Y76.434 E0.01066
G1 X148.621 Y76.619 E0.01058
G1 X148.882 Y76.831 E0.01054
G1 X149.274 Y77.223 E0.01738
G1 X149.470 Y77.452 E0.00945
G1 X149.853 Y77.962 E0.02000
G1 X150.198 Y78.494 E0.01988
G1 X150.530 Y79.075 E0.02098
G1 X150.135 Y78.476 E0.02250
G1 X149.886 Y78.169 E0.01237
G1 X149.509 Y77.790 E0.01677
G1 X149.212 Y77.554 E0.01191
G1 X148.755 Y77.283 E0.01664
G1 X148.402 Y77.139 E0.01196
G1 X147.888 Y77.017 E0.01656
G1 X147.483 Y76.993 E0.01272
G1 X146.956 Y77.049 E0.01662
G1 X146.578 Y77.156 E0.01231
G1 X146.227 Y77.307 E0.01200
G1 X145.896 Y77.501 E0.01200
G1 X145.581 Y77.738 E0.01237
G1 X145.181 Y78.127 E0.01749
G1 X144.928 Y78.431 E0.01241
G1 X144.648 Y78.836 E0.01545
G1 F8640
G1 X144.956 Y78.291 E-0.14464
G1 X145.469 Y77.565 E-0.20521
G1 X146.009 Y76.960 E-0.18726
G1 X146.350 Y76.661 E-0.10468
G1 X146.583 Y76.498 E-0.06569
G1 X146.782 Y76.388 E-0.05253
G1 E-0.04000 F2100.00000
G1 Z0.800 F10800.000
G1 X151.137 Y80.320
G1 Z0.200
G1 E0.80000 F2100.00000
G1 F1800
G1 X151.706 Y81.728 E0.04762
G1 X151.949 Y82.415 E0.02283
G1 X152.396 Y83.822 E0.04629
G1 X152.871 Y85.575 E0.05697
G1 X153.350 Y87.680 E0.06768
G1 X153.750 Y89.801 E0.06767
G1 X154.082 Y91.936 E0.06774
G1 X154.355 Y94.080 E0.06778
G1 X154.571 Y96.231 E0.06776
G1 X154.737 Y98.383 E0.06768
G1 X154.896 Y101.620 E0.10163
G1 X154.949 Y104.374 E0.08636
G1 X154.929 Y107.133 E0.08649
G1 X154.835 Y109.891 E0.08655
G1 X154.664 Y112.646 E0.08653
G1 X154.414 Y115.389 E0.08638
G1 X154.170 Y117.433 E0.06454
G1 X153.871 Y119.470 E0.06454
G1 X153.514 Y121.501 E0.06464
G1 X153.091 Y123.528 E0.06494
G1 X152.732 Y124.992 E0.04726
G1 X152.535 Y125.712 E0.02342
G1 X152.095 Y127.156 E0.04733
G1 X151.854 Y127.862 E0.02339
G1 X151.459 Y128.917 E0.03532
G1 X151.212 Y129.502 E0.01992
G1 X151.494 Y128.767 E0.02468
G1 X151.755 Y127.965 E0.02644
G1 X151.988 Y127.153 E0.02650
G1 X152.383 Y125.521 E0.05266
G1 X152.714 Y123.870 E0.05279
G1 X153.115 Y121.393 E0.07865
G1 X153.432 Y118.908 E0.07857
G1 X153.679 Y116.413 E0.07860
G1 X153.866 Y113.914 E0.07859
G1 X154.003 Y111.412 E0.07855
G1 X154.114 Y108.076 E0.10467
G1 X154.146 Y104.735 E0.10477
G1 X154.102 Y101.394 E0.10475
G1 X153.978 Y98.062 E0.10455
G1 X153.808 Y95.252 E0.08826
G1 X153.620 Y92.957 E0.07221
G1 X153.388 Y90.724 E0.07039
G1 X153.107 Y88.556 E0.06856
G1 X152.809 Y86.662 E0.06010
G1 X152.505 Y85.051 E0.05141
G1 X152.331 Y84.245 E0.02586
G1 X151.946 Y82.699 E0.04995
G1 X151.722 Y81.928 E0.02519
G1 X151.470 Y81.163 E0.02524
G1 X151.159 Y80.376 E0.02654
G1 F8640
G1 X151.706 Y81.728 E-0.33680
G1 X151.949 Y82.415 E-0.16815
G1 X152.283 Y83.468 E-0.25505
G1 E-0.04000 F2100.00000
G1 Z0.800 F10800.000
G1 X143.755 Y80.644
G1 Z0.200
G1 E0.80000 F2100.00000
G1 F1800
G1 X143.517 Y81.288 E0.02151
G1 X143.258 Y82.092 E0.02650
G1 X143.026 Y82.910 E0.02665
G1 X142.631 Y84.552 E0.05295
G1 X142.301 Y86.211 E0.05305
G1 X141.959 Y88.306 E0.06655
G1 X141.628 Y90.840 E0.08013
G1 X141.369 Y93.385 E0.08020
G1 X141.174 Y95.935 E0.08018
G1 X141.031 Y98.486 E0.08011
G1 X140.937 Y101.039 E0.08013
G1 X140.884 Y104.869 E0.12009
G1 X140.904 Y107.428 E0.08023
G1 X141.010 Y111.038 E0.11324
G1 X141.135 Y113.443 E0.07551
G1 X141.306 Y115.842 E0.07542
G1 X141.410 Y117.045 E0.03786
G1 X141.636 Y119.220 E0.06855
G1 X141.915 Y121.391 E0.06864
G1 X142.174 Y123.059 E0.05292
G1 X142.603 Y125.320 E0.07215
G1 X143.036 Y127.127 E0.05827
G1 X143.498 Y128.658 E0.05014
G1 X143.727 Y129.289 E0.02107
G1 X143.268 Y128.119 E0.03941
G1 X142.863 Y126.924 E0.03956
G1 X142.655 Y126.248 E0.02220
G1 X142.271 Y124.868 E0.04489
G1 X142.054 Y123.997 E0.02815
G1 X141.662 Y122.234 E0.05664
G1 X141.326 Y120.464 E0.05649
G1 X140.909 Y117.785 E0.08500
G1 X140.569 Y114.927 E0.09025
G1 X140.327 Y112.192 E0.08607
G1 X139.138 Y111.463 E0.04376
G1 X137.753 Y110.689 E0.04974
G1 X136.333 Y109.988 E0.04966
G1 X135.601 Y109.662 E0.02510
G1 X134.495 Y109.218 E0.03736
G1 X133.096 Y108.739 E0.04637
G1 X132.050 Y108.442 E0.03410
G1 X130.994 Y108.195 E0.03402
G1 X129.926 Y108.001 E0.03402
G1 X128.849 Y107.863 E0.03404
G1 X127.771 Y107.785 E0.03391
G1 X127.220 Y107.767 E0.01727
G1 X126.140 Y107.778 E0.03387
G1 X125.165 Y107.839 E0.03062
G1 X124.301 Y107.935 E0.02726
G1 X123.443 Y108.071 E0.02724
G1 X122.590 Y108.246 E0.02731
G1 X121.428 Y108.549 E0.03763
G1 X120.686 Y108.782 E0.02439
G1 X119.604 Y109.179 E0.03614
G1 X118.885 Y109.480 E0.02446
G1 X117.843 Y109.973 E0.03612
G1 X116.824 Y110.518 E0.03625
G1 X116.060 Y110.970 E0.02783
G1 X115.214 Y111.512 E0.03150
G1 X113.994 Y112.377 E0.04691
G1 X113.199 Y112.994 E0.03155
G1 X111.971 Y114.031 E0.05039
G1 X110.791 Y115.128 E0.05051
G1 X109.660 Y116.275 E0.05051
G1 X108.576 Y117.461 E0.05039
G1 X107.803 Y118.353 E0.03700
G1 X107.686 Y118.564 E0.00756
G1 X107.629 Y118.821 E0.00827
G1 X107.634 Y122.045 E0.10108
G1 X107.615 Y122.104 E0.00193
G1 X107.554 Y122.119 E0.00196
G1 X95.896 Y122.119 E0.36555
G1 X95.829 Y122.099 E0.00220
G1 X95.817 Y121.194 E0.02837
G1 X95.828 Y121.143 E0.00162
G1 X95.878 Y121.132 E0.00161
G1 X106.650 Y121.135 E0.33773
G1 X106.650 Y88.865 E1.01180
G1 X95.870 Y88.869 E0.33799
G1 X95.829 Y88.849 E0.00145
G1 X95.816 Y88.795 E0.00173
G1 X95.828 Y87.895 E0.02821
G1 X95.894 Y87.882 E0.00211
G1 X107.554 Y87.881 E0.36561
G1 X107.615 Y87.897 E0.00196
G1 X107.634 Y87.955 E0.00193
G1 X107.629 Y91.179 E0.10108
G1 X107.686 Y91.437 E0.00827
G1 X107.803 Y91.647 E0.00755
G1 X108.575 Y92.540 E0.03700
G1 X109.659 Y93.727 E0.05040
G1 X110.791 Y94.873 E0.05051
G1 X111.970 Y95.970 E0.05051
G1 X113.200 Y97.009 E0.05047
G1 X114.394 Y97.919 E0.04708
G1 X115.632 Y98.763 E0.04699
G1 X116.488 Y99.290 E0.03151
G1 X117.497 Y99.851 E0.03620
G1 X118.191 Y100.201 E0.02436
G1 X119.242 Y100.675 E0.03614
G1 X119.964 Y100.962 E0.02438
G1 X121.053 Y101.339 E0.03613
G1 X121.800 Y101.558 E0.02441
G1 X123.014 Y101.848 E0.03912
G1 X123.871 Y102.004 E0.02733
G1 X124.732 Y102.119 E0.02724
G1 X125.599 Y102.196 E0.02728
G1 X126.682 Y102.237 E0.03397
G1 X127.763 Y102.217 E0.03390
G1 X128.312 Y102.185 E0.01727
G1 X129.389 Y102.076 E0.03392
G1 X130.461 Y101.910 E0.03403
G1 X131.524 Y101.689 E0.03402
G1 X132.574 Y101.417 E0.03402
G1 X133.613 Y101.096 E0.03408
G1 X134.868 Y100.640 E0.04186
G1 X135.968 Y100.179 E0.03740
G1 X137.044 Y99.674 E0.03729
G1 X137.756 Y99.310 E0.02507
G1 X139.139 Y98.538 E0.04963
G1 X140.328 Y97.807 E0.04378
G1 X140.527 Y95.492 E0.07287
G1 X140.799 Y93.052 E0.07695
G1 X141.142 Y90.632 E0.07666
G1 X141.415 Y89.032 E0.05087
G1 X141.906 Y86.635 E0.07674
G1 X142.293 Y85.048 E0.05122
G1 X142.746 Y83.451 E0.05203
G1 X143.271 Y81.871 E0.05222
G1 X143.732 Y80.700 E0.03946
G1 F8640
G1 X143.517 Y81.288 E-0.14456
G1 X143.258 Y82.092 E-0.19515
G1 X143.026 Y82.910 E-0.19622
G1 X142.799 Y83.853 E-0.22407
G1 E-0.04000 F2100.00000
G1 Z0.800 F10800.000
G1 X144.557 Y131.025
G1 Z0.200
G1 E0.80000 F2100.00000
G1 F1800
G1 X144.926 Y131.566 E0.02054
G1 X145.146 Y131.833 E0.01084
G1 X145.594 Y132.273 E0.01968
G1 X145.946 Y132.533 E0.01374
G1 X146.323 Y132.740 E0.01349
G1 X146.725 Y132.893 E0.01347
G1 X147.145 Y132.983 E0.01348
G1 X147.575 Y133.008 E0.01350
G1 X148.006 Y132.963 E0.01360
G1 X148.485 Y132.831 E0.01558
G1 X148.885 Y132.649 E0.01379
G1 X149.254 Y132.415 E0.01369
G1 X149.494 Y132.223 E0.00962
G1 X149.898 Y131.818 E0.01796
G1 X150.257 Y131.357 E0.01831
G1 X150.523 Y130.938 E0.01556
G1 X150.214 Y131.484 E0.01967
G1 X149.919 Y131.946 E0.01721
G1 X149.597 Y132.389 E0.01716
G1 X149.245 Y132.809 E0.01718
G1 X148.919 Y133.139 E0.01454
G1 X148.628 Y133.378 E0.01181
G1 X148.307 Y133.584 E0.01196
G1 X148.058 Y133.700 E0.00863
G1 X147.799 Y133.777 E0.00847
G1 X147.499 Y133.808 E0.00943
G1 X147.201 Y133.772 E0.00941
G1 X146.913 Y133.677 E0.00952
G1 X146.638 Y133.535 E0.00970
G1 X146.382 Y133.361 E0.00969
G1 X146.014 Y133.044 E0.01526
G1 X145.681 Y132.692 E0.01518
G1 X145.364 Y132.299 E0.01583
G1 X145.074 Y131.887 E0.01580
G1 X144.586 Y131.078 E0.02964
G1 F8640
G1 X144.926 Y131.566 E-0.13751
G1 X145.146 Y131.833 E-0.07985
G1 X145.594 Y132.273 E-0.14492
G1 X145.946 Y132.533 E-0.10115
G1 X146.323 Y132.740 E-0.09931
G1 X146.725 Y132.893 E-0.09920
G1 X147.140 Y132.982 E-0.09806
G1 E-0.04000 F2100.00000
G1 Z0.800 F10800.000
G1 X139.968 Y112.415
G1 Z0.200
G1 E0.80000 F2100.00000
G1 F1800
G1 X138.947 Y111.788 E0.03756
G1 X137.577 Y111.023 E0.04920
G1 X136.173 Y110.329 E0.04912
G1 X135.454 Y110.010 E0.02464
G1 X134.364 Y109.572 E0.03684
G1 X132.984 Y109.099 E0.04575
G1 X131.956 Y108.807 E0.03351
G1 X130.917 Y108.564 E0.03344
G1 X129.868 Y108.374 E0.03342
G1 X128.812 Y108.239 E0.03341
G1 X127.751 Y108.161 E0.03335
G1 X127.216 Y108.144 E0.01678
G1 X126.154 Y108.155 E0.03331
G1 X125.198 Y108.215 E0.03002
G1 X124.352 Y108.309 E0.02670
G1 X123.510 Y108.442 E0.02670
G1 X122.675 Y108.613 E0.02673
G1 X121.533 Y108.911 E0.03703
G1 X120.808 Y109.139 E0.02382
G1 X119.742 Y109.530 E0.03559
G1 X119.039 Y109.825 E0.02393
G1 X118.013 Y110.309 E0.03557
G1 X117.009 Y110.847 E0.03571
G1 X116.257 Y111.291 E0.02736
G1 X115.425 Y111.825 E0.03101
G1 X114.218 Y112.680 E0.04638
G1 X113.436 Y113.287 E0.03105
G1 X112.221 Y114.314 E0.04986
G1 X111.054 Y115.399 E0.04997
G1 X109.933 Y116.534 E0.05003
G1 X108.858 Y117.712 E0.05000
G1 X108.114 Y118.570 E0.03562
G1 X108.042 Y118.699 E0.00460
G1 X108.006 Y118.862 E0.00524
G1 X108.011 Y122.088 E0.10115
G1 X107.973 Y122.250 E0.00520
G1 X107.905 Y122.358 E0.00403
G1 X107.779 Y122.451 E0.00491
G1 X107.602 Y122.496 E0.00571
G1 X95.848 Y122.496 E0.36857
G1 X95.671 Y122.451 E0.00571
G1 X95.545 Y122.358 E0.00491
G1 X95.477 Y122.250 E0.00403
G1 X95.439 Y122.088 E0.00520
G1 X95.440 Y121.153 E0.02933
G1 X95.473 Y121.002 E0.00483
G1 X95.523 Y120.909 E0.00332
G1 X95.593 Y120.838 E0.00313
G1 X95.687 Y120.788 E0.00332
G1 X95.837 Y120.755 E0.00483
G1 X106.273 Y120.758 E0.32719
G1 X106.273 Y89.242 E0.98814
G1 X95.838 Y89.246 E0.32716
G1 X95.676 Y89.204 E0.00526
G1 X95.545 Y89.108 E0.00509
G1 X95.477 Y89.000 E0.00403
G1 X95.439 Y88.838 E0.00520
G1 X95.440 Y87.903 E0.02933
G1 X95.473 Y87.752 E0.00483
G1 X95.523 Y87.659 E0.00332
G1 X95.593 Y87.588 E0.00313
