; generated by PrusaSlicer 2.4.2+x64 on 2022-07-17 at 15:55:18 UTC
;
;
;
;
; 
; external perimeters extrusion width = 0.45mm
; perimeters extrusion width = 0.45mm
; infill extrusion width = 0.45mm
; solid infill extrusion width = 0.45mm
; top infill extrusion width = 0.40mm
; first layer extrusion width = 0.42mm
M73 P0 R64
M201 X9000 Y9000 Z500 E10000 ; sets maximum accelerations, mm/sec^2
M203 X500 Y500 Z12 E120 ; sets maximum feedrates, mm / sec
M204 P2000 R1500 T2000 ; sets acceleration (P, T) and retract acceleration (R), mm/sec^2
M205 X10.00 Y10.00 Z0.20 E4.50 ; sets the jerk limits, mm/sec
M205 S0 T0 ; sets the minimum extruding and travel feed rate, mm/sec
M107
;TYPE:Custom
M83  ; extruder relative mode
M140 S85 ; set bed temp
M109 S160 ; Set extruder temp before bed level
M190 S85 ; wait for bed temp
G28 W ; home all without mesh bed level
G80 N7 ; mesh bed leveling
M109 S240 ; wait for extruder temp
M221 S100 ; Set flow to 100
G1 Y-3.0 F1000.0 ; go outside print area
G92 E0.0
G1 E8 ; Purge Bubble
G1 X60.0 E9.0 F1000.0 ; intro line
G1 X100.0 E12.5 F1000.0 ; intro line
G92 E0.0
G21 ; set units to millimeters
G90 ; use absolute coordinates
M83 ; use relative distances for extrusion
M900 K0.08 ; Filament gcode LA 1.5
M900 K45 ; Filament gcode LA 1.0
M107
;LAYER_CHANGE
M117 INDICATOR-Layer1
;Z:0.2
;HEIGHT:0.2
;BEFORE_LAYER_CHANGE
M117 DASHBOARD_LAYER_INDICATOR 1
G92 E0.0
;0.2
G1 E-1 F2100
G1 Z.2 F720
;AFTER_LAYER_CHANGE
;0.2
G1 Z.4
G1 X76.935 Y57.613 F6000
G1 Z.2 F720
G1 E1 F2100
M204 S800
;TYPE:Skirt/Brim
;WIDTH:0.42
G1 F1200
G1 X77.98 Y56.737 E.04278
G1 X78.92 Y56.543 E.03008
G1 X171.08 Y56.543 E2.88961
G1 X172.387 Y56.935 E.04278
G1 X173.263 Y57.98 E.04278
G1 X173.457 Y58.92 E.03008
G1 X173.457 Y151.08 E2.88961
G1 X173.065 Y152.387 E.04278
G1 X172.02 Y153.263 E.04278
G1 X171.08 Y153.457 E.03008
G1 X78.92 Y153.457 E2.88961
G1 X77.613 Y153.065 E.04278
G1 X76.737 Y152.02 E.04278
G1 X76.543 Y151.08 E.03008
G1 X76.543 Y58.92 E2.88961
G1 X76.917 Y57.67 E.0409
M204 S1000
@Object foot.stl id:0 copy 3
;WIPE_START
G1 F4800
G1 X77.98 Y56.737 E-.58808
G1 X78.833 Y56.561 E-.36192
;WIPE_END
G1 E-.05 F2100
G1 Z.4 F720
G1 X150.301 Y130.267 F6000
G1 Z.2 F720
G1 E1 F2100
M204 S800
;TYPE:Perimeter
G1 F1200
G1 X150.687 Y129.929 E.01609
G1 X151.199 Y129.604 E.01901
G1 X151.711 Y129.382 E.01749
G1 X152.026 Y129.286 E.01034
G1 X152.335 Y129.219 E.00992
G1 X152.889 Y129.164 E.01745
G1 X153.476 Y129.196 E.01844
G1 X153.806 Y129.255 E.01051
G1 X154.355 Y129.419 E.01796
G1 X154.872 Y129.666 E.01796
G1 X155.154 Y129.844 E.01045
G1 X155.585 Y130.192 E.01737
G1 X155.818 Y130.43 E.01045
G1 X156.169 Y130.882 E.01796
G1 X156.455 Y131.4 E.01855
G1 X156.657 Y131.956 E.01855
G1 X156.768 Y132.518 E.01796
G1 X156.794 Y132.851 E.01045
G1 X156.771 Y133.423 E.01796
G1 X156.661 Y133.985 E.01796
G1 X156.565 Y134.285 E.00986
G1 X156.446 Y134.576 E.00986
G1 X156.169 Y135.078 E.01796
G1 X155.807 Y135.545 E.01855
G1 X155.39 Y135.938 E.01796
G1 X155.123 Y136.137 E.01045
G1 X154.643 Y136.414 E.01737
G1 X154.337 Y136.546 E.01045
G1 X153.788 Y136.711 E.01796
G1 X153.221 Y136.788 E.01796
G1 X152.887 Y136.795 E.01045
G1 X152.317 Y136.739 E.01796
G1 X151.744 Y136.592 E.01855
G1 X151.218 Y136.365 E.01796
G1 X150.93 Y136.198 E.01045
G1 X150.47 Y135.856 E.01796
G1 X150.056 Y135.434 E.01853
G1 X149.732 Y134.982 E.01743
G1 X149.563 Y134.678 E.01093
G1 X149.345 Y134.145 E.01803
G1 X149.213 Y133.588 E.01796
G1 X149.164 Y132.962 E.01969
G1 X149.207 Y132.407 E.01745
G1 X149.344 Y131.816 E.01902
G1 X149.569 Y131.267 E.01861
G1 X149.865 Y130.776 E.01796
G1 X150.257 Y130.308 E.01917
M204 S1000
G1 X150.549 Y130.55 F6000
M204 S800
G1 F1200
G1 X150.914 Y130.232 E.01518
G1 X151.376 Y129.938 E.01717
G1 X151.841 Y129.737 E.01589
G1 X152.394 Y129.592 E.01792
G1 X152.897 Y129.543 E.01586
G1 X153.433 Y129.572 E.01682
G1 X153.719 Y129.622 E.00911
G1 X154.219 Y129.772 E.01635
G1 X154.689 Y129.997 E.01635
G1 X154.934 Y130.151 E.00907
G1 X155.331 Y130.471 E.01599
G1 X155.534 Y130.678 E.00907
G1 X155.853 Y131.09 E.01635
G1 X156.111 Y131.557 E.01671
G1 X156.293 Y132.058 E.01671
G1 X156.394 Y132.57 E.01635
G1 X156.416 Y132.858 E.00907
G1 X156.396 Y133.379 E.01635
G1 X156.295 Y133.891 E.01635
G1 X156.21 Y134.156 E.00872
G1 X156.105 Y134.413 E.00872
G1 X155.853 Y134.87 E.01635
G1 X155.527 Y135.291 E.01671
G1 X155.147 Y135.649 E.01635
G1 X154.915 Y135.822 E.00907
G1 X154.473 Y136.077 E.01599
G1 X154.208 Y136.191 E.00907
G1 X153.708 Y136.341 E.01635
G1 X153.191 Y136.412 E.01635
G1 X152.902 Y136.417 E.00907
G1 X152.383 Y136.367 E.01635
G1 X151.867 Y136.234 E.01671
G1 X151.388 Y136.027 E.01635
G1 X151.137 Y135.883 E.00907
G1 X150.719 Y135.571 E.01635
G1 X150.346 Y135.191 E.0167
G1 X150.051 Y134.78 E.01585
G1 X149.903 Y134.514 E.00954
G1 X149.705 Y134.03 E.0164
G1 X149.585 Y133.523 E.01635
G1 X149.553 Y133.246 E.00872
G1 X149.542 Y132.969 E.0087
G1 X149.58 Y132.465 E.01586
G1 X149.705 Y131.931 E.01718
G1 X149.907 Y131.437 E.01675
G1 X150.176 Y130.99 E.01635
G1 X150.507 Y130.593 E.01621
M204 S1000
G1 X150.798 Y130.834 F6000
M204 S800
;TYPE:External perimeter
G1 F1200
G1 X151.14 Y130.534 E.01428
G1 X151.553 Y130.272 E.01533
G1 X151.971 Y130.091 E.01428
G1 X152.216 Y130.017 E.00803
G1 X152.452 Y129.965 E.00758
G1 X152.906 Y129.921 E.01428
G1 X153.39 Y129.947 E.0152
G1 X153.632 Y129.99 E.00771
G1 X154.082 Y130.125 E.01475
G1 X154.507 Y130.328 E.01475
G1 X154.714 Y130.458 E.0077
G1 X155.077 Y130.751 E.01462
G1 X155.249 Y130.926 E.0077
G1 X155.537 Y131.298 E.01475
G1 X155.766 Y131.713 E.01487
G1 X155.929 Y132.159 E.01487
G1 X156.019 Y132.621 E.01475
G1 X156.038 Y132.865 E.0077
G1 X156.02 Y133.335 E.01475
G1 X155.929 Y133.797 E.01475
G1 X155.856 Y134.027 E.00757
G1 X155.764 Y134.25 E.00757
G1 X155.537 Y134.662 E.01475
G1 X155.247 Y135.037 E.01487
G1 X154.905 Y135.36 E.01475
G1 X154.708 Y135.506 E.0077
G1 X154.304 Y135.739 E.01462
G1 X154.079 Y135.837 E.0077
G1 X153.628 Y135.971 E.01475
G1 X153.162 Y136.035 E.01475
G1 X152.917 Y136.04 E.0077
G1 X152.448 Y135.994 E.01475
G1 X151.989 Y135.876 E.01487
G1 X151.557 Y135.69 E.01475
G1 X151.345 Y135.567 E.0077
G1 X150.967 Y135.286 E.01475
G1 X150.635 Y134.948 E.01487
G1 X150.37 Y134.578 E.01427
G1 X150.243 Y134.35 E.00816
G1 X150.065 Y133.915 E.01476
G1 X149.957 Y133.457 E.01475
G1 X149.929 Y133.217 E.00757
G1 X149.92 Y132.976 E.00756
G1 X149.954 Y132.522 E.01428
G1 X150.065 Y132.046 E.01533
G1 X150.245 Y131.606 E.01489
G1 X150.488 Y131.204 E.01475
G1 X150.757 Y130.879 E.01324
M204 S1000
G1 X150.69 Y130.449 F6000
;WIPE_START
G1 F4800
G1 X151.14 Y130.534 E-.21403
G1 X151.553 Y130.272 E-.2032
G1 X151.971 Y130.091 E-.18935
G1 X152.216 Y130.017 E-.10644
G1 X152.452 Y129.965 E-.10049
G1 X152.779 Y129.933 E-.13649
;WIPE_END
G1 E-.05 F2100
G1 Z.4 F720
G1 X144.144 Y124.144 F6000
G1 Z.2 F720
G1 E1 F2100
M204 S800
;TYPE:Perimeter
G1 F1200
G1 X169.916 Y124.144 E.80805
G1 X169.916 Y127.404 E.10221
G1 X169.691 Y127.531 E.0081
G1 X169.128 Y127.913 E.02132
G1 X168.569 Y128.391 E.02307
G1 X168.096 Y128.897 E.02172
G1 X167.672 Y129.466 E.02226
G1 X167.311 Y130.085 E.02245
G1 X167.034 Y130.71 E.02142
G1 X166.911 Y131.062 E.0117
G1 X166.809 Y131.422 E.01172
G1 X166.677 Y132.092 E.02141
G1 X166.617 Y132.809 E.02256
G1 X166.636 Y133.491 E.02141
G1 X166.739 Y134.231 E.02342
G1 X166.909 Y134.893 E.02141
G1 X167.163 Y135.565 E.02255
G1 X167.475 Y136.174 E.02144
G1 X167.68 Y136.504 E.0122
G1 X168.096 Y137.063 E.02184
G1 X168.569 Y137.569 E.02172
G1 X169.128 Y138.047 E.02307
G1 X169.691 Y138.429 E.02132
G1 X169.916 Y138.556 E.0081
G1 X169.916 Y149.916 E.35618
G1 X158.556 Y149.916 E.35618
G1 X158.429 Y149.691 E.0081
G1 X158.047 Y149.128 E.02132
G1 X157.569 Y148.569 E.02307
G1 X157.063 Y148.096 E.02172
G1 X156.494 Y147.672 E.02226
G1 X155.875 Y147.311 E.02245
G1 X155.25 Y147.034 E.02142
G1 X154.898 Y146.911 E.0117
G1 X154.538 Y146.809 E.01172
G1 X153.868 Y146.677 E.02141
G1 X153.151 Y146.617 E.02256
G1 X152.469 Y146.636 E.02141
G1 X151.729 Y146.739 E.02342
G1 X151.067 Y146.909 E.02141
G1 X150.395 Y147.163 E.02255
G1 X149.786 Y147.475 E.02144
G1 X149.456 Y147.68 E.0122
G1 X148.897 Y148.096 E.02184
G1 X148.391 Y148.569 E.02172
G1 X147.913 Y149.128 E.02307
G1 X147.531 Y149.691 E.02132
G1 X147.404 Y149.916 E.0081
G1 X144.144 Y149.916 E.10221
G1 X144.144 Y124.204 E.80617
M204 S1000
G1 X143.767 Y123.767 F6000
M204 S800
G1 F1200
G1 X170.293 Y123.767 E.8317
G1 X170.293 Y127.634 E.12124
G1 X169.89 Y127.852 E.01437
G1 X169.353 Y128.216 E.02034
G1 X169.087 Y128.431 E.01073
G1 X168.834 Y128.66 E.0107
G1 X168.386 Y129.139 E.02057
G1 X167.987 Y129.675 E.02094
G1 X167.647 Y130.257 E.02113
G1 X167.385 Y130.848 E.02028
M73 P1 R64
G1 X167.271 Y131.176 E.01088
G1 X167.176 Y131.51 E.0109
G1 X167.051 Y132.144 E.02026
G1 X166.994 Y132.819 E.02124
G1 X167.012 Y133.465 E.02026
G1 X167.108 Y134.153 E.02177
G1 X167.269 Y134.779 E.02026
G1 X167.508 Y135.412 E.02124
G1 X167.803 Y135.988 E.02029
G1 X167.992 Y136.292 E.01121
G1 X168.386 Y136.821 E.02068
G1 X168.834 Y137.3 E.02057
G1 X169.353 Y137.744 E.02142
G1 X169.89 Y138.108 E.02034
G1 X170.293 Y138.326 E.01437
G1 X170.293 Y150.293 E.37521
G1 X158.326 Y150.293 E.37521
G1 X158.108 Y149.89 E.01437
G1 X157.744 Y149.353 E.02034
G1 X157.529 Y149.087 E.01073
G1 X157.3 Y148.834 E.0107
G1 X156.821 Y148.386 E.02057
G1 X156.285 Y147.987 E.02094
G1 X155.703 Y147.647 E.02113
G1 X155.112 Y147.385 E.02028
G1 X154.784 Y147.271 E.01088
G1 X154.45 Y147.176 E.0109
G1 X153.816 Y147.051 E.02026
G1 X153.141 Y146.994 E.02124
G1 X152.495 Y147.012 E.02026
G1 X151.807 Y147.108 E.02177
G1 X151.181 Y147.269 E.02026
G1 X150.548 Y147.508 E.02124
G1 X149.972 Y147.803 E.02029
G1 X149.668 Y147.992 E.01121
G1 X149.139 Y148.386 E.02069
G1 X148.66 Y148.834 E.02057
G1 X148.216 Y149.353 E.02142
G1 X147.852 Y149.89 E.02034
G1 X147.634 Y150.293 E.01437
G1 X143.767 Y150.293 E.12124
G1 X143.767 Y123.827 E.82982
M204 S1000
G1 X143.39 Y123.39 F6000
M204 S800
;TYPE:External perimeter
G1 F1200
G1 X170.67 Y123.39 E.85535
G1 X170.67 Y127.874 E.14058
G1 X170.089 Y128.172 E.0205
G1 X169.578 Y128.519 E.01935
G1 X169.332 Y128.718 E.00991
G1 X169.099 Y128.929 E.00988
G1 X168.676 Y129.381 E.01942
G1 X168.302 Y129.883 E.01962
G1 X167.983 Y130.429 E.01981
G1 X167.736 Y130.987 E.01913
G1 X167.631 Y131.289 E.01005
G1 X167.543 Y131.598 E.01007
G1 X167.425 Y132.196 E.01911
G1 X167.372 Y132.83 E.01993
G1 X167.389 Y133.439 E.01912
G1 X167.424 Y133.758 E.01006
G1 X167.478 Y134.074 E.01006
G1 X167.629 Y134.665 E.01912
G1 X167.853 Y135.259 E.01992
G1 X168.132 Y135.802 E.01914
G1 X168.304 Y136.079 E.01022
G1 X168.676 Y136.579 E.01953
G1 X169.099 Y137.031 E.01942
G1 X169.332 Y137.242 E.00988
G1 X169.578 Y137.441 E.00991
G1 X170.088 Y137.788 E.01935
G1 X170.67 Y138.086 E.0205
G1 X170.67 Y150.67 E.39455
G1 X158.086 Y150.67 E.39455
G1 X157.788 Y150.088 E.0205
G1 X157.441 Y149.578 E.01935
G1 X157.242 Y149.332 E.00991
G1 X157.031 Y149.099 E.00988
G1 X156.579 Y148.676 E.01942
G1 X156.077 Y148.302 E.01962
G1 X155.531 Y147.983 E.01981
G1 X154.973 Y147.736 E.01913
G1 X154.671 Y147.631 E.01005
G1 X154.362 Y147.543 E.01007
G1 X153.764 Y147.425 E.01911
G1 X153.13 Y147.372 E.01992
G1 X152.521 Y147.389 E.01912
G1 X152.202 Y147.424 E.01006
G1 X151.886 Y147.478 E.01006
G1 X151.295 Y147.629 E.01911
G1 X150.701 Y147.853 E.01992
G1 X150.158 Y148.132 E.01914
G1 X149.881 Y148.304 E.01022
G1 X149.381 Y148.676 E.01953
G1 X148.929 Y149.099 E.01942
G1 X148.718 Y149.332 E.00988
G1 X148.519 Y149.578 E.00991
G1 X148.172 Y150.089 E.01935
G1 X147.874 Y150.67 E.0205
G1 X143.39 Y150.67 E.14058
G1 X143.39 Y123.45 E.85346
M204 S1000
G1 X143.747 Y123.571 F6000
;WIPE_START
G1 F4800
G1 X145.676 Y123.445 E-.95
;WIPE_END
G1 E-.05 F2100
G1 Z.4 F720
G1 X169.803 Y125.028 F6000
G1 Z.2 F720
G1 E1 F2100
M204 S800
;TYPE:Solid infill
;WIDTH:0.423762
G1 F1200
G1 X169.202 Y124.427 E.0269
G1 X168.664 Y124.427 E.01706
G1 X169.633 Y125.396 E.04342
G1 X169.633 Y125.935 E.01706
G1 X168.125 Y124.427 E.06754
G1 X167.586 Y124.427 E.01706
G1 X169.633 Y126.474 E.09166
G1 X169.633 Y127.012 E.01706
G1 X167.048 Y124.427 E.11578
G1 X166.509 Y124.427 E.01706
G1 X169.441 Y127.359 E.13129
G1 X169.12 Y127.576 E.01228
G1 X165.971 Y124.427 E.14105
G1 X165.432 Y124.427 E.01706
G1 X168.814 Y127.809 E.15147
G1 X168.524 Y128.058 E.0121
G1 X164.893 Y124.427 E.16259
G1 X164.355 Y124.427 E.01706
G1 X168.248 Y128.32 E.17436
G1 X167.988 Y128.599 E.01207
G1 X163.816 Y124.427 E.18683
G1 X163.278 Y124.427 E.01706
M73 P1 R63
G1 X167.745 Y128.895 E.20008
G1 X167.515 Y129.203 E.01219
G1 X162.739 Y124.427 E.2139
G1 X162.2 Y124.427 E.01706
G1 X167.306 Y129.532 E.22864
G1 X167.107 Y129.872 E.01247
G1 X161.662 Y124.427 E.24387
G1 X161.123 Y124.427 E.01706
G1 X166.934 Y130.237 E.26022
G1 X166.769 Y130.611 E.01293
G1 X160.585 Y124.427 E.27695
G1 X160.046 Y124.427 E.01706
G1 X166.631 Y131.012 E.29492
G1 X166.518 Y131.437 E.01393
G1 X159.508 Y124.427 E.31394
G1 X158.969 Y124.427 E.01706
G1 X166.429 Y131.887 E.33409
G1 X166.37 Y132.367 E.0153
G1 X158.43 Y124.427 E.35557
G1 X157.892 Y124.427 E.01706
G1 X166.336 Y132.871 E.37815
G1 X166.351 Y133.425 E.01755
G1 X157.353 Y124.427 E.40296
G1 X156.815 Y124.427 E.01706
G1 X166.427 Y134.039 E.43048
G1 X166.461 Y134.286 E.00788
G1 X166.574 Y134.725 E.01435
G1 X156.276 Y124.427 E.46117
G1 X155.737 Y124.427 E.01706
G1 X167.204 Y135.894 E.51352
M204 S1000
;WIPE_START
G1 F4800
G1 X165.588 Y134.277 E-.95
;WIPE_END
G1 E-.05 F2100
G1 Z.4 F720
G1 X169.803 Y139.031 F6000
G1 Z.2 F720
G1 E1 F2100
M204 S800
G1 F1200
G1 X155.199 Y124.427 E.65403
G1 X154.66 Y124.427 E.01706
G1 X169.633 Y139.4 E.67055
G1 X169.633 Y139.938 E.01706
G1 X154.122 Y124.427 E.69467
G1 X153.583 Y124.427 E.01706
G1 X169.633 Y140.477 E.71879
G1 X169.633 Y141.016 E.01706
G1 X153.044 Y124.427 E.74291
G1 X152.506 Y124.427 E.01706
G1 X169.633 Y141.554 E.76703
G1 X169.633 Y142.093 E.01706
G1 X151.967 Y124.427 E.79115
G1 X151.429 Y124.427 E.01706
G1 X169.633 Y142.631 E.81527
G1 X169.633 Y143.17 E.01706
G1 X150.89 Y124.427 E.83939
G1 X150.351 Y124.427 E.01706
G1 X169.633 Y143.709 E.86351
G1 X169.633 Y144.247 E.01706
G1 X156.739 Y131.353 E.57746
G1 X156.406 Y130.727 E.02245
G1 X156.032 Y130.243 E.01936
G1 X155.775 Y129.982 E.0116
G1 X155.318 Y129.613 E.01859
G1 X155.009 Y129.418 E.0116
G1 X154.617 Y129.231 E.01376
G1 X149.813 Y124.427 E.21513
G1 X149.274 Y124.427 E.01706
G1 X153.817 Y128.969 E.20343
G1 X153.508 Y128.915 E.00991
G1 X153.207 Y128.899 E.00955
G1 X148.736 Y124.427 E.20026
G1 X148.197 Y124.427 E.01706
G1 X152.672 Y128.902 E.2004
G1 X152.192 Y128.961 E.0153
G1 X147.658 Y124.427 E.20304
G1 X147.12 Y124.427 E.01706
G1 X151.763 Y129.07 E.20795
G1 X151.374 Y129.22 E.0132
G1 X146.581 Y124.427 E.21464
G1 X146.043 Y124.427 E.01706
G1 X151.007 Y129.391 E.2223
G1 X150.677 Y129.6 E.01236
G1 X145.504 Y124.427 E.23167
G1 X144.966 Y124.427 E.01706
G1 X150.37 Y129.831 E.24202
G1 X150.082 Y130.082 E.01209
G1 X144.427 Y124.427 E.25327
G1 X144.427 Y124.966 E.01706
G1 X149.834 Y130.373 E.24216
G1 X149.596 Y130.674 E.01214
M73 P2 R63
G1 X144.427 Y125.504 E.23151
G1 X144.427 Y126.043 E.01706
G1 X149.394 Y131.01 E.22243
G1 X149.315 Y131.14 E.00481
G1 X149.22 Y131.374 E.00802
G1 X144.427 Y126.581 E.21463
G1 X144.427 Y127.12 E.01706
G1 X149.067 Y131.76 E.2078
G1 X148.965 Y132.197 E.0142
G1 X144.427 Y127.659 E.20324
G1 X144.427 Y128.197 E.01706
G1 X148.903 Y132.673 E.20044
G1 X148.881 Y132.962 E.00919
G1 X148.9 Y133.209 E.00783
G1 X144.427 Y128.736 E.20031
G1 X144.427 Y129.274 E.01706
G1 X149.207 Y134.055 E.21408
M204 S1000
;WIPE_START
G1 F4800
G1 X147.591 Y132.438 E-.95
;WIPE_END
G1 E-.05 F2100
G1 Z.4 F720
G1 X156.763 Y131.916 F6000
G1 Z.2 F720
G1 E1 F2100
M204 S800
G1 F1200
G1 X169.633 Y144.786 E.57637
G1 X169.633 Y145.324 E.01706
G1 X157.07 Y132.762 E.56261
G1 X157.06 Y133.289 E.01672
G1 X169.633 Y145.863 E.56309
G1 X169.633 Y146.402 E.01706
G1 X156.993 Y133.762 E.56607
G1 X156.934 Y134.061 E.00967
G1 X156.886 Y134.193 E.00445
G1 X169.633 Y146.94 E.57085
G1 X169.633 Y147.479 E.01706
G1 X156.743 Y134.588 E.57729
G1 X156.704 Y134.693 E.00355
G1 X156.564 Y134.948 E.00921
G1 X169.633 Y148.017 E.5853
