; generated by PrusaSlicer 2.9.4 on 2026-03-25 at 12:13:21 UTC


;
;

;
;
; 

; external perimeters extrusion width = 0.45mm
; perimeters extrusion width = 0.45mm
; infill extrusion width = 0.45mm
; solid infill extrusion width = 0.45mm
; top infill extrusion width = 0.40mm
; first layer extrusion width = 0.42mm

M73 P0 R39
M201 X9000 Y9000 Z500 E10000 ; sets maximum accelerations, mm/sec^2
M203 X500 Y500 Z12 E120 ; sets maximum feedrates, mm / sec
M204 S2000 T1500 ; sets acceleration (S) and retract acceleration (R), mm/sec^2
M205 X10.00 Y10.00 Z0.20 E4.50 ; sets the jerk limits, mm/sec
M205 S0 T0 ; sets the minimum extruding and travel feed rate, mm/sec

; printing object Prusa Bed Mount id:0 copy 0
; stop printing object Prusa Bed Mount id:0 copy 0

;TYPE:Custom
M83  ; extruder relative mode
M140 S85 ; set bed temp
M109 S160 ; Set extruder temp before bed level
M190 S85 ; wait for bed temp

G28 W ; home all without mesh bed level
G80 N7 ; mesh bed leveling

M109 S240 ; wait for extruder temp

M221 S100 ; Set flow to 100

G1 Y-3.0 F1000.0 ; go outside print area
G92 E0.0
G1 E8 ; Purge Bubble
G1 X60.0 E9.0 F1000.0 ; intro line
G1 X100.0 E12.5 F1000.0 ; intro line
G92 E0.0
G21 ; set units to millimeters
G90 ; use absolute coordinates
M83 ; use relative distances for extrusion

M900 K0.08 ; Filament gcode LA 1.5
M900 K45 ; Filament gcode LA 1.0




M107
;LAYER_CHANGE
;Z:0.2
;HEIGHT:0.2
G1 E-1 F2100
G1 Z.4 F720
G1 X108.739 Y97.124 F6000
G1 Z.2 F720
G1 E1 F2100
M204 S800
;TYPE:Skirt/Brim
;WIDTH:0.42
G1 F1200
G1 X109.472 Y96.39 E.03252
G1 X111.002 Y95.884 E.05053
G1 X138.998 Y95.884 E.87779
G1 X140.526 Y96.389 E.05046
G1 X141.26 Y97.122 E.03252
G1 X141.766 Y98.652 E.05053
G1 X141.766 Y102.05 E.10654
G1 X141.374 Y103.413 E.04447
G1 X140.721 Y104.117 E.03011
G1 X127.809 Y113.617 E.50262
G1 X126.288 Y114.116 E.05019
G1 X112.474 Y114.116 E.43313
G1 X110.946 Y113.611 E.05046
G1 X110.212 Y112.878 E.03252
G1 X109.736 Y111.736 E.03879
G1 X108.234 Y101.734 E.31712
G1 X108.234 Y98.652 E.09663
G1 X108.72 Y97.181 E.04857
M204 S1000
G1 X109.042 Y97.349 F6000
M204 S800
G1 F1200
G1 X109.697 Y96.693 E.02907
G1 X111.002 Y96.261 E.0431
G1 X138.998 Y96.261 E.87779
G1 X140.302 Y96.692 E.04306
G1 X140.957 Y97.347 E.02904
G1 X141.389 Y98.652 E.0431
G1 X141.389 Y102.05 E.10654
G1 X140.998 Y103.298 E.04101
G1 X140.497 Y103.813 E.02253
G1 X127.585 Y113.313 E.50262
G1 X126.288 Y113.739 E.0428
G1 X112.474 Y113.739 E.43313
G1 X111.171 Y113.308 E.04303
G1 X110.515 Y112.653 E.02907
G1 X110.109 Y111.679 E.03309
G1 X108.611 Y101.734 E.31534
G1 X108.611 Y98.652 E.09663
G1 X109.023 Y97.406 E.04115
M204 S1000
;WIPE_START
G1 F4800
G1 X109.042 Y97.349 E-.02497
G1 X109.697 Y96.693 E-.38529
G1 X111.002 Y96.261 E-.57134
G1 X111.046 Y96.261 E-.0184
;WIPE_END
G1 Z.4 F720
; printing object Prusa Bed Mount id:0 copy 0
G1 X111.987 Y99.637 F6000
G1 Z.2 F720
G1 E1 F2100
M204 S800
;TYPE:Perimeter
;WIDTH:0.419999
G1 F1200
G1 X138.013 Y99.637 E.81603
G1 X138.013 Y100.863 E.03844
G1 X130.379 Y100.863 E.23936
G1 X130.06 Y101.029 E.01128
G1 X128.187 Y102.902 E.08305
G1 X127.966 Y103.171 E.01092
G1 X127.913 Y103.41 E.00768
G1 X127.913 Y108.247 E.15166
G1 X125.797 Y110.363 E.09383
G1 X113.459 Y110.363 E.38685
G1 X113.459 Y108.037 E.07293
G1 X123.451 Y108.037 E.31329
G1 X124.051 Y107.903 E.01928
G1 X124.544 Y107.609 E.018
G1 X125.065 Y107.099 E.02286
G1 X125.28 Y106.833 E.01072
G1 X125.467 Y106.472 E.01275
G1 X125.587 Y105.842 E.02011
G1 X125.58 Y103.525 E.07265
G1 X125.483 Y103.061 E.01486
G1 X125.241 Y102.618 E.01583
G1 X124.57 Y101.918 E.0304
G1 X124.065 Y101.602 E.01868
G1 X123.523 Y101.47 E.01749
G1 X111.987 Y101.463 E.3617
G1 X111.987 Y99.697 E.05537
M204 S1000
G1 X111.61 Y99.26 F6000
M204 S800
;TYPE:External perimeter
G1 F1200
G1 X138.39 Y99.26 E.83967
G1 X138.39 Y101.24 E.06208
G1 X130.46 Y101.24 E.24864
G1 X130.327 Y101.295 E.00451
G1 X128.345 Y103.276 E.08786
M73 P1 R39
G1 X128.29 Y103.41 E.00454
G1 X128.29 Y108.403 E.15655
G1 X125.953 Y110.74 E.10363
G1 X113.082 Y110.74 E.40356
G1 X113.082 Y107.686 E.09576
G1 X113.212 Y107.66 E.00416
G1 X123.392 Y107.66 E.31919
G1 X123.813 Y107.592 E.01337
G1 X124.28 Y107.34 E.01664
G1 X124.801 Y106.829 E.02288
G1 X124.985 Y106.599 E.00924
G1 X125.127 Y106.311 E.01007
G1 X125.21 Y105.842 E.01493
G1 X125.203 Y103.526 E.07262
G1 X125.135 Y103.211 E.0101
G1 X124.966 Y102.875 E.01179
G1 X124.383 Y102.253 E.02673
G1 X124.018 Y101.992 E.01407
G1 X123.523 Y101.847 E.01617
G1 X111.61 Y101.84 E.37352
G1 X111.61 Y99.32 E.07901
M204 S1000
;WIPE_START
G1 F4800
G1 X111.61 Y99.26 E-.02494
G1 X113.956 Y99.26 E-.97506
;WIPE_END
G1 Z.4 F720
G1 X137.862 Y100.552 F6000
G1 Z.2 F720
G1 E1 F2100
M204 S800
;TYPE:Solid infill
;WIDTH:0.420969
G1 F1200
G1 X137.268 Y99.958 E.02641
G1 X136.733 Y99.958 E.01682
G1 X137.318 Y100.542 E.02598
G1 X136.783 Y100.542 E.01682
G1 X136.198 Y99.958 E.02598
G1 X135.664 Y99.958 E.01679
G1 X136.249 Y100.542 E.02598
G1 X135.714 Y100.542 E.01682
G1 X135.129 Y99.958 E.02598
G1 X134.594 Y99.958 E.01682
G1 X135.179 Y100.542 E.02598
G1 X134.645 Y100.542 E.01679
G1 X134.06 Y99.958 E.02598
G1 X133.525 Y99.958 E.01682
G1 X134.11 Y100.542 E.02598
G1 X133.575 Y100.542 E.01682
G1 X132.991 Y99.958 E.02596
G1 X132.456 Y99.958 E.01682
G1 X133.041 Y100.542 E.02598
G1 X132.506 Y100.542 E.01682
G1 X131.921 Y99.958 E.02598
G1 X131.387 Y99.958 E.01679
G1 X131.971 Y100.542 E.02596
G1 X131.437 Y100.542 E.01679
G1 X130.852 Y99.958 E.02598
G1 X130.317 Y99.958 E.01682
G1 X130.902 Y100.542 E.02598
G1 X130.374 Y100.549 E.0166
G1 X129.783 Y99.958 E.02627
G1 X129.248 Y99.958 E.01682
G1 X129.999 Y100.709 E.03339
G1 X129.848 Y100.788 E.00536
G1 X129.696 Y100.94 E.00676
G1 X128.713 Y99.958 E.04368
G1 X128.179 Y99.958 E.01679
G1 X129.428 Y101.207 E.05553
G1 X129.161 Y101.474 E.01187
G1 X127.644 Y99.958 E.06742
G1 X127.11 Y99.958 E.01679
G1 X128.894 Y101.742 E.07931
G1 X128.626 Y102.009 E.01189
G1 X126.575 Y99.958 E.09118
G1 X126.04 Y99.958 E.01682
G1 X128.359 Y102.276 E.10307
G1 X128.092 Y102.544 E.01189
G1 X125.506 Y99.958 E.11496
G1 X124.971 Y99.958 E.01682
G1 X127.828 Y102.814 E.12699
G1 X127.675 Y103.032 E.00837
G1 X127.637 Y103.158 E.00414
G1 X124.436 Y99.958 E.14228
G1 X123.902 Y99.958 E.01679
G1 X127.593 Y103.649 E.16409
G1 X127.593 Y104.183 E.01679
G1 X123.367 Y99.958 E.18785
G1 X122.832 Y99.958 E.01682
G1 X124.18 Y101.305 E.0599
G1 X124.411 Y101.415 E.00804
G1 X124.884 Y101.768 E.01855
G1 X125.575 Y102.526 E.03224
G1 X125.744 Y102.87 E.01205
G1 X127.593 Y104.718 E.08218
G1 X127.593 Y105.253 E.01682
G1 X125.899 Y103.559 E.07531
G1 X125.901 Y104.096 E.01688
G1 X127.593 Y105.787 E.0752
G1 X127.593 Y106.322 E.01682
G1 X125.903 Y104.632 E.07513
G1 X125.905 Y105.169 E.01688
G1 X127.593 Y106.856 E.07502
G1 X127.593 Y107.391 E.01682
G1 X125.907 Y105.706 E.07493
G1 X125.908 Y105.851 E.00456
G1 X125.858 Y106.191 E.0108
G1 X127.593 Y107.926 E.07713
G1 X127.593 Y108.114 E.00591
G1 X127.419 Y108.287 E.00771
G1 X125.752 Y106.62 E.07411
G1 X125.567 Y106.97 E.01244
G1 X127.152 Y108.554 E.07044
G1 X126.885 Y108.822 E.01189
G1 X125.336 Y107.273 E.06886
G1 X125.07 Y107.542 E.01189
G1 X126.617 Y109.089 E.06877
G1 X126.35 Y109.356 E.01187
G1 X124.8 Y107.807 E.06888
G1 X124.58 Y107.979 E.00878
G1 X124.488 Y108.029 E.00329
G1 X126.083 Y109.624 E.07091
G1 X125.815 Y109.891 E.01189
G1 X124.135 Y108.21 E.07471
G1 X123.942 Y108.278 E.00643
G1 X123.703 Y108.313 E.00759
G1 X125.432 Y110.042 E.07686
G1 X124.898 Y110.042 E.01679
G1 X123.213 Y108.358 E.07489
G1 X122.678 Y108.358 E.01682
G1 X124.363 Y110.042 E.07489
G1 X123.828 Y110.042 E.01682
G1 X122.143 Y108.358 E.07489
G1 X121.609 Y108.358 E.01679
G1 X123.294 Y110.042 E.07489
G1 X122.759 Y110.042 E.01682
G1 X121.074 Y108.358 E.07489
G1 X120.54 Y108.358 E.01679
G1 X122.224 Y110.042 E.07486
G1 X121.69 Y110.042 E.01679
G1 X120.005 Y108.358 E.07489
G1 X119.47 Y108.358 E.01682
G1 X121.155 Y110.042 E.07489
G1 X120.62 Y110.042 E.01682
G1 X118.936 Y108.358 E.07486
G1 X118.401 Y108.358 E.01682
G1 X120.086 Y110.042 E.07489
G1 X119.551 Y110.042 E.01682
G1 X117.866 Y108.358 E.07489
G1 X117.332 Y108.358 E.01679
G1 X119.016 Y110.042 E.07486
G1 X118.482 Y110.042 E.01679
G1 X116.797 Y108.358 E.07489
G1 X116.262 Y108.358 E.01682
G1 X117.947 Y110.042 E.07489
G1 X117.413 Y110.042 E.01679
G1 X115.728 Y108.358 E.07489
G1 X115.193 Y108.358 E.01682
G1 X116.878 Y110.042 E.07489
G1 X116.343 Y110.042 E.01682
G1 X114.658 Y108.358 E.07489
G1 X114.124 Y108.358 E.01679
G1 X115.809 Y110.042 E.07489
G1 X115.274 Y110.042 E.01682
G1 X113.78 Y108.548 E.06642
G1 X113.78 Y109.083 E.01682
G1 X114.739 Y110.042 E.04263
G1 X114.205 Y110.042 E.01679
G1 X113.61 Y109.448 E.02643
M204 S1000
;WIPE_START
G1 F4800
G1 X114.205 Y110.042 E-.34944
G1 X114.739 Y110.042 E-.22194
G1 X114.01 Y109.313 E-.42862
;WIPE_END
G1 Z.4 F720
G1 X122.128 Y99.788 F6000
G1 Z.2 F720
G1 E1 F2100
M204 S800
G1 F1200
G1 X123.49 Y101.15 E.06055
G1 X122.955 Y101.149 E.01682
G1 X121.763 Y99.958 E.05297
G1 X121.228 Y99.958 E.01682
G1 X122.42 Y101.149 E.05297
G1 X121.885 Y101.149 E.01682
G1 X120.694 Y99.958 E.05295
G1 X120.159 Y99.958 E.01682
G1 X121.35 Y101.148 E.05292
G1 X120.815 Y101.148 E.01682
G1 X119.625 Y99.958 E.0529
G1 X119.09 Y99.958 E.01682
G1 X120.28 Y101.148 E.0529
G1 X119.745 Y101.147 E.01682
G1 X118.555 Y99.958 E.05288
G1 X118.021 Y99.958 E.01679
G1 X119.21 Y101.147 E.05286
G1 X118.675 Y101.147 E.01682
G1 X117.486 Y99.958 E.05286
G1 X116.951 Y99.958 E.01682
G1 X118.14 Y101.146 E.05284
G1 X117.605 Y101.146 E.01682
G1 X116.417 Y99.958 E.05281
G1 X115.882 Y99.958 E.01682
G1 X117.07 Y101.146 E.05281
G1 X116.535 Y101.145 E.01682
G1 X115.347 Y99.958 E.05279
G1 X114.813 Y99.958 E.01679
G1 X116 Y101.145 E.05277
G1 X115.465 Y101.145 E.01682
G1 X114.278 Y99.958 E.05277
G1 X113.743 Y99.958 E.01682
G1 X114.93 Y101.144 E.05275
G1 X114.395 Y101.144 E.01682
G1 X113.209 Y99.958 E.05272
G1 X112.674 Y99.958 E.01682
G1 X113.86 Y101.144 E.05272
G1 X113.325 Y101.143 E.01682
G1 X112.307 Y100.125 E.04526
G1 X112.307 Y100.66 E.01682
G1 X112.96 Y101.313 E.02903
M204 S1000
;LAYER_CHANGE
;Z:0.4
;HEIGHT:0.2
;BEFORE_LAYER_CHANGE
G92 E0.0
;0.4


;WIPE_START
G1 F4800
G1 X112.307 Y100.66 E-.38382
G1 X112.307 Y100.125 E-.22236
G1 X112.977 Y100.795 E-.39382
;WIPE_END
G1 Z.4 F720
;AFTER_LAYER_CHANGE
;0.4
M140 S90 ; set bed temperature
; stop printing object Prusa Bed Mount id:0 copy 0
G1 Z.6
G1 X108.234 Y101.313 F6000
G1 Z.4 F720
G1 E1 F2100
;TYPE:Skirt/Brim
;WIDTH:0.42
G1 F2889
G1 X108.234 Y98.652 E.08343
G1 X108.739 Y97.124 E.05046
G1 X109.472 Y96.39 E.03252
G1 X111.002 Y95.884 E.05053
G1 X138.998 Y95.884 E.87779
G1 X140.526 Y96.389 E.05046
M73 P1 R38
G1 X141.26 Y97.122 E.03252
G1 X141.766 Y98.652 E.05053
G1 X141.766 Y102.05 E.10654
G1 X141.374 Y103.413 E.04447
G1 X140.721 Y104.117 E.03011
G1 X127.809 Y113.617 E.50262
G1 X126.288 Y114.116 E.05019
G1 X112.474 Y114.116 E.43313
G1 X110.946 Y113.611 E.05046
G1 X110.212 Y112.878 E.03252
G1 X109.736 Y111.736 E.03879
G1 X108.234 Y101.734 E.31712
G1 X108.234 Y101.373 E.01132
G1 X108.611 Y101.373 F6000
G1 F2889
G1 X108.611 Y98.652 E.08532
G1 X109.042 Y97.349 E.04303
G1 X109.697 Y96.693 E.02907
G1 X111.002 Y96.261 E.0431
G1 X138.998 Y96.261 E.87779
G1 X140.302 Y96.692 E.04306
G1 X140.957 Y97.347 E.02904
G1 X141.389 Y98.652 E.0431
G1 X141.389 Y102.05 E.10654
G1 X140.998 Y103.298 E.04101
G1 X140.497 Y103.813 E.02253
G1 X127.585 Y113.313 E.50262
G1 X126.288 Y113.739 E.0428
G1 X112.474 Y113.739 E.43313
G1 X111.171 Y113.308 E.04303
G1 X110.515 Y112.653 E.02907
G1 X110.109 Y111.679 E.03309
G1 X108.611 Y101.734 E.31534
G1 X108.611 Y101.433 E.00944
;WIPE_START
G1 F4800
G1 X108.611 Y101.373 E-.02494
G1 X108.611 Y99.027 E-.97506
;WIPE_END
G1 Z.6 F720
; printing object Prusa Bed Mount id:0 copy 0
G1 X111.654 Y101.618 F6000
G1 Z.4 F720
G1 E1 F2100
M204 S800
;TYPE:Perimeter
;WIDTH:0.449999
G1 F2889
G1 X111.632 Y101.618 E.00074
G1 X111.632 Y99.282 E.07907
G1 X138.368 Y99.282 E.90498
G1 X138.368 Y101.218 E.06553
G1 X130.626 Y101.218 E.26206
G1 X130.383 Y101.268 E.0084
G1 X130.194 Y101.397 E.00775
G1 X128.447 Y103.144 E.08363
G1 X128.306 Y103.365 E.00887
G1 X128.268 Y103.575 E.00722
G1 X128.268 Y108.394 E.16312
G1 X125.944 Y110.718 E.11125
G1 X113.104 Y110.718 E.43462
G1 X113.104 Y107.903 E.09528
G1 X113.236 Y107.882 E.00452
G1 X123.388 Y107.882 E.34363
G1 X123.976 Y107.769 E.02027
G1 X124.348 Y107.558 E.01448
G1 X125.137 Y106.763 E.03791
G1 X125.369 Y106.27 E.01844
G1 X125.432 Y105.836 E.01484
G1 X125.426 Y103.459 E.08046
G1 X125.278 Y102.995 E.01649
G1 X124.955 Y102.511 E.0197
G1 X124.459 Y102.027 E.02346
G1 X123.99 Y101.739 E.01863
G1 X123.502 Y101.624 E.01697
G1 X111.714 Y101.618 E.39901
M204 S1000
G1 X111.631 Y102.004 F6000
M204 S800
;TYPE:External perimeter
G1 F2400
G1 X111.457 Y101.979 E.00595
G1 X111.225 Y101.839 E.00917
G1 X111.225 Y98.875 E.10033
G1 X138.775 Y98.875 E.93253
G1 X138.775 Y101.625 E.09308
G1 X130.626 Y101.625 E.27583
G1 X130.482 Y101.685 E.00528
G1 X128.735 Y103.432 E.08363
G1 X128.675 Y103.572 E.00516
G1 X128.675 Y108.562 E.16891
G1 X126.112 Y111.125 E.12269
M73 P2 R38
G1 X112.697 Y111.125 E.45408
G1 X112.697 Y107.655 E.11746
G1 X112.898 Y107.54 E.00784
G1 X113.204 Y107.475 E.01059
G1 X123.388 Y107.475 E.34472
G1 X123.748 Y107.418 E.01234
G1 X124.067 Y107.264 E.01199
G1 X124.741 Y106.618 E.0316
G1 X124.946 Y106.261 E.01393
G1 X125.025 Y105.838 E.01457
G1 X125.019 Y103.581 E.0764
G1 X124.949 Y103.24 E.01178
G1 X124.667 Y102.799 E.01772
G1 X124.251 Y102.383 E.01991
G1 X123.94 Y102.16 E.01295
G1 X123.502 Y102.031 E.01546
G1 X111.778 Y102.025 E.39684
G1 X111.691 Y102.013 E.00297
M204 S1000
;WIPE_START
G1 F4800
G1 X111.631 Y102.004 E-.02522
G1 X111.457 Y101.979 E-.07306
G1 X111.225 Y101.839 E-.11262
G1 X111.225 Y99.94 E-.7891
;WIPE_END
G1 Z.6 F720
G1 X123.498 Y100.871 F6000
G1 Z.4 F720
G1 E1 F2100
M204 S2000
;TYPE:Solid infill
G1 F2889
G1 X112.385 Y100.865 E.37616
G1 X112.385 Y100.035 E.02809
G1 X126.707 Y100.035 E.48478
G1 X125.125 Y101.618 E.07575
G1 X125.007 Y101.507 E.00548
G1 X124.47 Y101.14 E.02202
G1 X123.924 Y100.939 E.01969
G1 X123.699 Y100.903 E.00771
G1 X123.699 Y101.308 E.01371
G1 X123.783 Y101.321 E.00288
G1 X124.329 Y101.522 E.01969
G1 X124.764 Y101.834 E.01812
G1 X125.12 Y102.198 E.01723
G1 X127.69 Y99.628 E.12302
G1 X111.978 Y99.628 E.53183
G1 X111.978 Y101.272 E.05565
G1 X123.498 Y101.278 E.38994
M204 S1000
G1 X123.859 Y100.473 F6000
M204 S2000
;WIDTH:0.514774
G1 F2889
G1 X124.085 Y100.475 E.00887
;WIDTH:0.516728
G1 X125.644 Y100.476 E.06142
G1 X125.095 Y101.024 E.03056
G1 X124.622 Y100.727 E.022
G1 X124.052 Y100.537 E.02367
;WIDTH:0.513334
G1 X123.859 Y100.473 E.00795
;WIDTH:0.512184
G1 X123.499 Y100.453 E.01407
;WIDTH:0.471828
G1 X112.8 Y100.45 E.38157
M204 S1000
;WIPE_START
G1 F4800
G1 X115.206 Y100.451 E-1
;WIPE_END
G1 Z.6 F720
G1 X123.18 Y108.228 F6000
G1 Z.4 F720
G1 E1 F2100
M204 S2000
;WIDTH:0.449999
G1 F2889
G1 X113.45 Y108.228 E.32935
G1 X113.45 Y110.372 E.07257
G1 X121.696 Y110.372 E.27912
G1 X121.696 Y110.228 E.00487
G1 X123.767 Y108.157 E.09914
G1 X123.383 Y108.228 E.01322
G1 X122.713 Y108.635 E.02654
G1 X121.383 Y109.965 E.06367
G1 X113.857 Y109.965 E.25475
G1 X113.857 Y108.635 E.04502
G1 X122.51 Y108.635 E.29289
M204 S1000
;WIPE_START
G1 F4800
G1 X120.104 Y108.635 E-1
;WIPE_END
G1 Z.6 F720
G1 X121.108 Y109.069 F6000
G1 Z.4 F720
G1 E1 F2100
M204 S2000
;WIDTH:0.504205
G1 F2889
G1 X121.665 Y109.069 E.02136
G1 X121.204 Y109.531 E.02503
G1 X114.292 Y109.531 E.26512
G1 X114.292 Y109.069 E.01772
G1 X120.904 Y109.069 E.25361
M204 S1000
;WIPE_START
G1 F4800
G1 X118.498 Y109.069 E-1
;WIPE_END
G1 Z.6 F720
G1 X125.381 Y102.513 F6000
G1 Z.4 F720
G1 E1 F2100
M204 S2000
;WIDTH:0.449999
G1 F2889
G1 X128.266 Y99.628 E.1381
G1 X128.842 Y99.628 E.0195
G1 X125.599 Y102.871 E.15524
G1 X125.735 Y103.311 E.01559
G1 X129.417 Y99.628 E.17628
G1 X129.993 Y99.628 E.0195
G1 X125.702 Y103.92 E.20543
;WIDTH:0.41646
G1 X125.636 Y103.988 E.00294
;WIDTH:0.38292
G1 X125.565 Y103.969 E.00208
G1 X125.584 Y104.04 E.00208
G1 X125.625 Y104.029 E.0012
;WIDTH:0.449999
G1 X125.771 Y104.426 E.01432
G1 X130.569 Y99.628 E.22968
G1 X131.144 Y99.628 E.01946
