; generated by PrusaSlicer 2.2.0+ on 2020-04-23 at 00:40:45 UTC


;
;

;
;
; 

; external perimeters extrusion width = 0.45mm
; perimeters extrusion width = 0.45mm
; infill extrusion width = 0.45mm
; solid infill extrusion width = 0.45mm
; top infill extrusion width = 0.40mm
; support material extrusion width = 0.35mm
; first layer extrusion width = 0.42mm

M73 P0 R42
M201 X9000 Y9000 Z500 E10000 ; sets maximum accelerations, mm/sec^2
M203 X500 Y500 Z12 E120 ; sets maximum feedrates, mm/sec
M204 P2000 R1500 T2000 ; sets acceleration (P, T) and retract acceleration (R), mm/sec^2
M205 X10.00 Y10.00 Z0.20 E2.50 ; sets the jerk limits, mm/sec
M205 S0 T0 ; sets the minimum extruding and travel feed rate, mm/sec
M107
M83  ; extruder relative mode
M140 S75 ; set bed temp
M109 S160 ; Set extruder temp before bed level
M190 S75 ; wait for bed temp

G28 W ; home all without mesh bed level
G80 N7 ; mesh bed leveling

M109 S240 ; wait for extruder temp

M221 S100 ; Set flow to 100

G1 Y-3.0 F1000.0 ; go outside print area
G92 E0.0
G1 E8 ; Purge Bubble
M73 P0 R42
G1 X60.0 E9.0 F1000.0 ; intro line
G1 X100.0 E12.5 F1000.0 ; intro line
G92 E0.0
G21 ; set units to millimeters
G90 ; use absolute coordinates
M83 ; use relative distances for extrusion
M900 K45; Filament gcode
;BEFORE_LAYER_CHANGE
G92 E0.0
;0.2


G1 E-0.80000 F2100.00000
G1 Z0.600 F10800.000
;AFTER_LAYER_CHANGE
;0.2
G1 X87.523 Y103.246
G1 Z0.200
G1 E0.80000 F2100.00000
M204 S1000
G1 F1200.000
G1 X97.591 Y100.159 E0.30377
G1 X159.606 Y84.357 E1.84606
G1 X160.195 Y84.284 E0.01710
G1 X160.834 Y84.373 E0.01862
G1 X161.426 Y84.631 E0.01862
G1 X161.927 Y85.038 E0.01862
G1 X162.299 Y85.565 E0.01862
G1 X162.491 Y86.066 E0.01546
G1 X163.724 Y91.084 E0.14904
G1 X163.726 Y123.426 E0.93296
G1 X163.624 Y124.033 E0.01775
G1 X163.369 Y124.593 E0.01775
G1 X162.977 Y125.072 E0.01786
G1 X162.477 Y125.432 E0.01775
G1 X161.936 Y125.643 E0.01677
G1 X161.359 Y125.716 E0.01677
G1 X89.604 Y125.715 E2.06984
G1 X88.654 Y125.566 E0.02773
G1 X87.825 Y125.178 E0.02641
G1 X87.195 Y124.657 E0.02357
G1 X86.670 Y123.927 E0.02595
G1 X86.400 Y123.249 E0.02107
G1 X86.273 Y122.387 E0.02511
G1 X86.275 Y105.240 E0.49464
G1 X86.380 Y104.634 E0.01775
G1 X86.635 Y104.078 E0.01764
G1 X87.023 Y103.605 E0.01764
G1 X87.474 Y103.281 E0.01602
@Object SonoffBasicProgrammingClip.STL id:0 copy 0
G1 F8640.000
G1 X90.619 Y102.311 E-0.76000
G1 E-0.04000 F2100.00000
G1 Z0.800 F10800.000
G1 X147.625 Y111.094
G1 Z0.200
G1 E0.80000 F2100.00000
G1 F1200.000
G1 X147.625 Y118.925 E0.22591
G1 X148.379 Y118.925 E0.02175
G1 X148.379 Y111.263 E0.22101
G1 X149.133 Y111.263 E0.02175
G1 X149.133 Y118.925 E0.22101
G1 X149.887 Y118.925 E0.02175
G1 X149.887 Y111.263 E0.22101
G1 X150.641 Y111.263 E0.02175
G1 X150.641 Y118.925 E0.22101
G1 X151.396 Y118.925 E0.02175
G1 X151.396 Y111.263 E0.22101
G1 X152.150 Y111.263 E0.02175
G1 X152.150 Y118.925 E0.22101
G1 X152.904 Y118.925 E0.02175
G1 X152.904 Y111.263 E0.22101
G1 X153.658 Y111.263 E0.02175
G1 X153.658 Y118.925 E0.22101
G1 X154.412 Y118.925 E0.02175
G1 X154.412 Y111.263 E0.22101
G1 X155.166 Y111.263 E0.02175
G1 X155.166 Y118.925 E0.22101
G1 X155.921 Y118.925 E0.02175
G1 X155.921 Y111.263 E0.22101
G1 X156.675 Y111.263 E0.02175
G1 X156.675 Y118.925 E0.22101
G1 X157.429 Y118.925 E0.02175
G1 X157.429 Y111.263 E0.22101
G1 X158.183 Y111.263 E0.02175
G1 X158.183 Y118.925 E0.22101
G1 X158.937 Y118.925 E0.02175
G1 X158.937 Y111.263 E0.22101
G1 X159.691 Y111.263 E0.02175
G1 X159.691 Y119.095 E0.22591
G1 F8640.000
G1 X159.691 Y115.804 E-0.76000
G1 E-0.04000 F2100.00000
G1 Z0.800 F10800.000
G1 X159.691 Y101.213
G1 Z0.200
G1 E0.80000 F2100.00000
G1 F1200.000
G1 X159.691 Y92.065 E0.26389
G1 X158.937 Y92.257 E0.02245
G1 X158.937 Y101.044 E0.25345
G1 X158.183 Y101.044 E0.02175
G1 X158.183 Y92.449 E0.24791
G1 X157.429 Y92.642 E0.02245
G1 X157.429 Y101.044 E0.24236
G1 X156.675 Y101.044 E0.02175
G1 X156.675 Y92.834 E0.23682
G1 X155.921 Y93.026 E0.02245
G1 X155.921 Y101.044 E0.23128
G1 X155.166 Y101.044 E0.02175
G1 X155.166 Y93.218 E0.22573
G1 X154.412 Y93.410 E0.02245
G1 X154.412 Y101.044 E0.22019
G1 X153.658 Y101.044 E0.02175
G1 X153.658 Y93.602 E0.21465
G1 X152.904 Y93.795 E0.02245
G1 X152.904 Y101.044 E0.20910
G1 X152.150 Y101.044 E0.02175
G1 X152.150 Y93.987 E0.20356
G1 X151.396 Y94.179 E0.02245
G1 X151.396 Y101.044 E0.19802
G1 X150.641 Y101.044 E0.02175
G1 X150.641 Y94.371 E0.19247
G1 X149.887 Y94.563 E0.02245
G1 X149.887 Y101.044 E0.18693
G1 X149.133 Y101.044 E0.02175
G1 X149.133 Y94.756 E0.18139
G1 X148.379 Y94.948 E0.02245
G1 X148.379 Y101.044 E0.17584
G1 X147.625 Y101.044 E0.02175
G1 X147.625 Y94.965 E0.17535
G1 F8640.000
G1 X147.625 Y98.256 E-0.76000
G1 E-0.04000 F2100.00000
G1 Z0.800 F10800.000
G1 X118.729 Y116.126
G1 Z0.200
G1 E0.80000 F2100.00000
G1 F1200.000
G1 X118.721 Y114.321 E0.05205
G1 X118.692 Y113.791 E0.01533
G1 X118.616 Y113.094 E0.02023
G1 X119.175 Y113.121 E0.01615
G1 X120.147 Y113.124 E0.02803
G1 X120.153 Y119.145 E0.17366
G1 X120.196 Y119.413 E0.00785
G1 X120.355 Y119.724 E0.01008
G1 X120.710 Y120.027 E0.01345
G1 X121.111 Y120.126 E0.01191
G1 X128.681 Y120.126 E0.21837
G1 X129.555 Y120.057 E0.02531
G1 X130.439 Y119.845 E0.02621
G1 X131.278 Y119.497 E0.02621
G1 X132.053 Y119.023 E0.02621
G1 X132.744 Y118.433 E0.02621
G1 X133.334 Y117.742 E0.02621
G1 X133.808 Y116.967 E0.02621
G1 X134.156 Y116.128 E0.02621
G1 X134.368 Y115.244 E0.02621
G1 X134.437 Y114.370 E0.02531
G1 X134.437 Y104.675 E0.27964
G1 X134.360 Y103.754 E0.02666
G1 X134.125 Y102.827 E0.02761
G1 X133.741 Y101.950 E0.02761
G1 X133.217 Y101.149 E0.02761
G1 X132.568 Y100.446 E0.02761
G1 X131.813 Y99.858 E0.02761
G1 X130.970 Y99.404 E0.02761
G1 X130.065 Y99.094 E0.02761
G1 X129.121 Y98.937 E0.02761
G1 X128.164 Y98.939 E0.02761
G1 X127.252 Y99.092 E0.02666
G1 X91.403 Y108.227 E1.06716
G1 X91.403 Y109.552 E0.03821
G1 X89.437 Y109.552 E0.05671
G1 X89.437 Y106.126 E0.09882
G1 X92.369 Y106.126 E0.08458
G1 X98.460 Y103.203 E0.19488
G1 X159.621 Y87.618 E1.82064
G1 X160.393 Y90.647 E0.09017
G1 X139.489 Y95.974 E0.62226
G1 X138.617 Y96.275 E0.02661
G1 X137.778 Y96.730 E0.02755
G1 X137.024 Y97.318 E0.02755
G1 X136.378 Y98.021 E0.02755
G1 X135.856 Y98.821 E0.02755
G1 X135.473 Y99.696 E0.02755
G1 X135.239 Y100.622 E0.02755
G1 X135.163 Y101.541 E0.02661
G1 X135.163 Y114.370 E0.37005
G1 X135.232 Y115.244 E0.02531
G1 X135.444 Y116.128 E0.02621
G1 X135.791 Y116.967 E0.02621
G1 X136.266 Y117.742 E0.02621
G1 X136.856 Y118.433 E0.02621
G1 X137.547 Y119.023 E0.02621
G1 X138.321 Y119.497 E0.02621
G1 X139.161 Y119.845 E0.02621
G1 X140.044 Y120.057 E0.02621
G1 X140.919 Y120.126 E0.02531
G1 X160.563 Y120.126 E0.56666
G1 X160.563 Y122.552 E0.06998
G1 X89.681 Y122.552 E2.04467
G1 X89.557 Y122.521 E0.00368
G1 X89.505 Y122.484 E0.00185
G1 X89.440 Y122.349 E0.00433
G1 X89.437 Y116.126 E0.17950
G1 X91.403 Y116.126 E0.05671
G1 X91.403 Y118.370 E0.06473
G1 X91.422 Y118.619 E0.00721
G1 X91.488 Y118.892 E0.00810
G1 X91.595 Y119.151 E0.00810
G1 X91.742 Y119.391 E0.00810
G1 X91.924 Y119.604 E0.00810
G1 X92.138 Y119.787 E0.00810
G1 X92.377 Y119.933 E0.00810
G1 X92.637 Y120.041 E0.00810
G1 X92.910 Y120.106 E0.00810
G1 X93.159 Y120.126 E0.00721
G1 X115.853 Y120.121 E0.65464
G1 X116.164 Y120.020 E0.00943
G1 X116.429 Y119.828 E0.00943
G1 X116.621 Y119.563 E0.00943
G1 X116.722 Y119.253 E0.00940
G1 X116.731 Y116.126 E0.09021
G1 X118.669 Y116.126 E0.05591
G1 X118.351 Y115.749 F10800.000
G1 F1200.000
G1 X118.344 Y114.333 E0.04085
G1 X118.316 Y113.822 E0.01476
G1 X118.229 Y113.027 E0.02305
G1 X117.583 Y113.027 E0.01864
G1 X117.343 Y112.985 E0.00703
G1 X117.344 Y112.698 E0.00829
G1 X117.700 Y112.651 E0.01038
G1 X118.175 Y112.665 E0.01370
G1 X118.673 Y112.721 E0.01446
G1 X119.185 Y112.744 E0.01476
G1 X120.524 Y112.748 E0.03863
G1 X120.530 Y119.114 E0.18362
G1 X120.559 Y119.294 E0.00527
G1 X120.657 Y119.486 E0.00622
G1 X120.887 Y119.682 E0.00871
G1 X121.156 Y119.749 E0.00801
G1 X128.666 Y119.749 E0.21662
G1 X129.496 Y119.683 E0.02403
G1 X130.322 Y119.485 E0.02449
G1 X131.106 Y119.160 E0.02449
G1 X131.830 Y118.717 E0.02449
G1 X132.476 Y118.165 E0.02449
G1 X133.028 Y117.519 E0.02449
G1 X133.471 Y116.795 E0.02449
G1 X133.796 Y116.011 E0.02449
G1 X133.994 Y115.185 E0.02449
G1 X134.060 Y114.355 E0.02403
G1 X134.060 Y104.691 E0.27876
G1 X133.987 Y103.817 E0.02531
G1 X133.767 Y102.950 E0.02580
G1 X133.408 Y102.131 E0.02580
G1 X132.918 Y101.382 E0.02580
G1 X132.312 Y100.724 E0.02580
G1 X131.606 Y100.175 E0.02580
G1 X130.819 Y99.750 E0.02580
G1 X129.972 Y99.461 E0.02580
G1 X129.090 Y99.315 E0.02580
G1 X128.196 Y99.316 E0.02580
G1 X127.330 Y99.461 E0.02531
G1 X91.780 Y108.520 E1.05826
G1 X91.780 Y109.929 E0.04063
G1 X89.060 Y109.929 E0.07846
G1 X89.060 Y105.749 E0.12058
G1 X92.283 Y105.749 E0.09298
G1 X98.330 Y102.847 E0.19349
G1 X159.894 Y87.160 E1.83260
M73 P2 R41
G1 X160.852 Y90.920 E0.11192
G1 X139.597 Y96.336 E0.63269
G1 X138.770 Y96.621 E0.02526
G1 X137.985 Y97.047 E0.02575
G1 X137.281 Y97.596 E0.02575
G1 X136.677 Y98.253 E0.02575
G1 X136.189 Y99.001 E0.02575
G1 X135.831 Y99.819 E0.02575
G1 X135.612 Y100.684 E0.02575
G1 X135.540 Y101.557 E0.02526
G1 X135.540 Y114.355 E0.36917
G1 X135.605 Y115.185 E0.02403
G1 X135.803 Y116.011 E0.02449
G1 X136.128 Y116.795 E0.02449
G1 X136.572 Y117.519 E0.02449
G1 X137.123 Y118.165 E0.02449
G1 X137.769 Y118.717 E0.02449
G1 X138.493 Y119.160 E0.02449
G1 X139.278 Y119.485 E0.02449
G1 X140.103 Y119.683 E0.02449
G1 X140.934 Y119.749 E0.02403
G1 X160.940 Y119.749 E0.57711
G1 X160.940 Y122.929 E0.09173
G1 X89.666 Y122.929 E2.05598
G1 X89.566 Y122.921 E0.00289
G1 X89.383 Y122.862 E0.00554
G1 X89.235 Y122.754 E0.00530
G1 X89.127 Y122.605 E0.00530
G1 X89.068 Y122.423 E0.00554
G1 X89.060 Y115.749 E0.19251
G1 X91.780 Y115.749 E0.07846
G1 X91.780 Y118.355 E0.07518
G1 X91.796 Y118.560 E0.00592
G1 X91.848 Y118.775 E0.00639
G1 X91.932 Y118.980 E0.00639
G1 X92.048 Y119.168 E0.00639
G1 X92.192 Y119.337 E0.00639
G1 X92.360 Y119.481 E0.00639
G1 X92.549 Y119.596 E0.00639
G1 X92.754 Y119.681 E0.00639
G1 X92.969 Y119.733 E0.00639
G1 X93.174 Y119.749 E0.00592
G1 X115.793 Y119.744 E0.65249
G1 X115.991 Y119.680 E0.00599
G1 X116.159 Y119.558 E0.00599
G1 X116.281 Y119.390 E0.00599
G1 X116.345 Y119.193 E0.00598
G1 X116.355 Y115.749 E0.09935
G1 X118.291 Y115.749 E0.05583
G1 X118.726 Y115.611 F10800.000
G1 F8640.000
G1 X118.344 Y114.333 E-0.32724
G1 X118.316 Y113.822 E-0.11816
G1 X118.229 Y113.027 E-0.18449
G1 X117.666 Y113.027 E-0.13010
G1 E-0.04000 F2100.00000
G1 Z0.800 F10800.000
G1 X119.612 Y113.236
G1 Z0.200
G1 E0.80000 F2100.00000
G1 F1200.000
G1 X119.865 Y113.489 E0.01033
G1 X119.865 Y114.023 E0.01541
G1 X119.247 Y113.404 E0.02524
G1 X118.933 Y113.393 E0.00905
G1 X118.962 Y113.653 E0.00756
G1 X119.866 Y114.557 E0.03689
G1 X119.866 Y115.091 E0.01541
G1 X118.999 Y114.224 E0.03538
G1 X119.006 Y114.764 E0.01559
G1 X119.867 Y115.625 E0.03511
G1 X119.867 Y116.159 E0.01541
G1 X119.009 Y115.300 E0.03504
G1 X119.011 Y115.836 E0.01546
G1 X119.868 Y116.692 E0.03496
G1 X119.868 Y117.226 E0.01541
G1 X119.013 Y116.372 E0.03488
G1 X119.013 Y116.409 E0.00107
G1 X118.517 Y116.409 E0.01433
G1 X119.869 Y117.760 E0.05516
G1 X119.869 Y118.294 E0.01541
G1 X117.984 Y116.409 E0.07694
G1 X117.450 Y116.409 E0.01539
G1 X119.870 Y118.828 E0.09873
G1 X119.870 Y119.168 E0.00979
G1 X119.908 Y119.400 E0.00679
G1 X117.013 Y116.505 E0.11814
G1 X117.011 Y117.037 E0.01535
G1 X122.244 Y122.269 E0.21352
G1 X122.777 Y122.269 E0.01539
G1 X120.864 Y120.356 E0.07804
G1 X121.076 Y120.409 E0.00629
G1 X121.450 Y120.409 E0.01079
G1 X123.310 Y122.269 E0.07591
G1 X123.844 Y122.269 E0.01539
G1 X121.984 Y120.409 E0.07591
G1 X122.517 Y120.409 E0.01539
G1 X124.377 Y122.269 E0.07591
G1 X124.911 Y122.269 E0.01539
G1 X123.050 Y120.409 E0.07591
G1 X123.584 Y120.409 E0.01539
G1 X125.444 Y122.269 E0.07591
G1 X125.978 Y122.269 E0.01539
G1 X124.117 Y120.409 E0.07591
G1 X124.651 Y120.409 E0.01539
G1 X126.511 Y122.269 E0.07591
G1 X127.044 Y122.269 E0.01539
G1 X125.184 Y120.409 E0.07591
G1 X125.718 Y120.409 E0.01539
G1 X127.578 Y122.269 E0.07591
G1 X128.111 Y122.269 E0.01539
G1 X126.251 Y120.409 E0.07591
G1 X126.784 Y120.409 E0.01539
G1 X128.645 Y122.269 E0.07591
G1 X129.178 Y122.269 E0.01539
G1 X127.318 Y120.409 E0.07591
G1 X127.851 Y120.409 E0.01539
G1 X129.712 Y122.269 E0.07591
G1 X130.245 Y122.269 E0.01539
G1 X128.385 Y120.409 E0.07591
G1 X128.902 Y120.392 E0.01492
G1 X130.778 Y122.269 E0.07659
G1 X131.312 Y122.269 E0.01539
G1 X129.396 Y120.353 E0.07817
G1 X129.600 Y120.337 E0.00589
G1 X129.853 Y120.276 E0.00751
G1 X131.845 Y122.269 E0.08131
G1 X132.379 Y122.269 E0.01539
G1 X130.283 Y120.173 E0.08552
G1 X130.526 Y120.115 E0.00722
G1 X130.690 Y120.047 E0.00511
G1 X132.912 Y122.269 E0.09067
G1 X133.446 Y122.269 E0.01539
G1 X131.067 Y119.891 E0.09705
G1 X131.440 Y119.730 E0.01171
G1 X133.979 Y122.269 E0.10361
G1 X134.512 Y122.269 E0.01539
G1 X131.771 Y119.527 E0.11188
G1 X132.101 Y119.324 E0.01119
G1 X135.046 Y122.269 E0.12016
G1 X135.579 Y122.269 E0.01539
G1 X132.404 Y119.094 E0.12956
G1 X132.692 Y118.848 E0.01092
G1 X136.113 Y122.269 E0.13958
G1 X136.646 Y122.269 E0.01539
G1 X132.975 Y118.597 E0.14982
G1 X133.220 Y118.310 E0.01092
G1 X137.180 Y122.269 E0.16156
G1 X137.713 Y122.269 E0.01539
G1 X133.466 Y118.022 E0.17330
G1 X133.563 Y117.909 E0.00431
G1 X133.686 Y117.708 E0.00678
G1 X138.247 Y122.269 E0.18611
G1 X138.780 Y122.269 E0.01539
G1 X133.888 Y117.377 E0.19961
G1 X134.084 Y117.040 E0.01126
G1 X139.313 Y122.269 E0.21338
G1 X139.847 Y122.269 E0.01539
G1 X134.240 Y116.663 E0.22878
G1 X134.397 Y116.285 E0.01178
G1 X140.380 Y122.269 E0.24417
G1 X140.914 Y122.269 E0.01539
G1 X138.538 Y119.893 E0.09695
G1 X139.073 Y120.115 E0.01672
G1 X139.362 Y120.184 E0.00859
G1 X141.447 Y122.269 E0.08507
G1 X141.981 Y122.269 E0.01539
G1 X140.053 Y120.341 E0.07866
G1 X140.632 Y120.387 E0.01676
G1 X142.514 Y122.269 E0.07680
G1 X143.047 Y122.269 E0.01539
G1 X141.187 Y120.409 E0.07591
G1 X141.721 Y120.409 E0.01539
G1 X143.581 Y122.269 E0.07591
G1 X144.114 Y122.269 E0.01539
G1 X142.254 Y120.409 E0.07591
G1 X142.787 Y120.409 E0.01539
G1 X144.648 Y122.269 E0.07591
G1 X145.181 Y122.269 E0.01539
G1 X143.321 Y120.409 E0.07591
G1 X143.854 Y120.409 E0.01539
G1 X145.715 Y122.269 E0.07591
G1 X146.248 Y122.269 E0.01539
G1 X144.388 Y120.409 E0.07591
G1 X144.921 Y120.409 E0.01539
G1 X146.781 Y122.269 E0.07591
G1 X147.315 Y122.269 E0.01539
G1 X145.455 Y120.409 E0.07591
G1 X145.988 Y120.409 E0.01539
G1 X147.848 Y122.269 E0.07591
G1 X148.382 Y122.269 E0.01539
G1 X146.521 Y120.409 E0.07591
G1 X147.055 Y120.409 E0.01539
G1 X148.915 Y122.269 E0.07591
G1 X149.449 Y122.269 E0.01539
G1 X147.588 Y120.409 E0.07591
G1 X148.122 Y120.409 E0.01539
G1 X149.982 Y122.269 E0.07591
G1 X150.515 Y122.269 E0.01539
G1 X148.655 Y120.409 E0.07591
G1 X149.189 Y120.409 E0.01539
G1 X151.049 Y122.269 E0.07591
G1 X151.582 Y122.269 E0.01539
G1 X149.722 Y120.409 E0.07591
G1 X150.255 Y120.409 E0.01539
G1 X152.116 Y122.269 E0.07591
G1 X152.649 Y122.269 E0.01539
G1 X150.789 Y120.409 E0.07591
G1 X151.322 Y120.409 E0.01539
G1 X153.183 Y122.269 E0.07591
G1 X153.716 Y122.269 E0.01539
G1 X151.856 Y120.409 E0.07591
G1 X152.389 Y120.409 E0.01539
G1 X154.249 Y122.269 E0.07591
G1 X154.783 Y122.269 E0.01539
G1 X152.923 Y120.409 E0.07591
G1 X153.456 Y120.409 E0.01539
G1 X155.316 Y122.269 E0.07591
G1 X155.850 Y122.269 E0.01539
G1 X153.990 Y120.409 E0.07591
G1 X154.523 Y120.409 E0.01539
G1 X156.383 Y122.269 E0.07591
G1 X156.917 Y122.269 E0.01539
G1 X155.056 Y120.409 E0.07591
G1 X155.590 Y120.409 E0.01539
G1 X157.450 Y122.269 E0.07591
G1 X157.984 Y122.269 E0.01539
G1 X156.123 Y120.409 E0.07591
G1 X156.657 Y120.409 E0.01539
G1 X158.517 Y122.269 E0.07591
G1 X159.050 Y122.269 E0.01539
G1 X157.190 Y120.409 E0.07591
G1 X157.724 Y120.409 E0.01539
G1 X159.584 Y122.269 E0.07591
G1 X160.117 Y122.269 E0.01539
G1 X158.257 Y120.409 E0.07591
G1 X158.790 Y120.409 E0.01539
G1 X160.280 Y121.899 E0.06080
G1 X160.280 Y121.365 E0.01539
G1 X159.324 Y120.409 E0.03903
G1 X159.857 Y120.409 E0.01539
G1 X160.450 Y121.002 E0.02419
G1 F8640.000
G1 X159.857 Y120.409 E-0.19359
G1 X159.324 Y120.409 E-0.12317
