; generated by PrusaSlicer 2.3.1+win64 on 2021-04-24 at 22:25:11 UTC


;
;

;
;
; 

; external perimeters extrusion width = 0.45mm
; perimeters extrusion width = 0.45mm
; infill extrusion width = 0.45mm
; solid infill extrusion width = 0.45mm
; top infill extrusion width = 0.40mm
; first layer extrusion width = 0.42mm

M73 P0 R65
M201 X9000 Y9000 Z500 E10000 ; sets maximum accelerations, mm/sec^2
M203 X500 Y500 Z12 E120 ; sets maximum feedrates, mm/sec
M204 P2000 R1500 T2000 ; sets acceleration (P, T) and retract acceleration (R), mm/sec^2
M205 X10.00 Y10.00 Z0.20 E2.50 ; sets the jerk limits, mm/sec
M205 S0 T0 ; sets the minimum extruding and travel feed rate, mm/sec
M107
;TYPE:Custom
M83  ; extruder relative mode
M140 S85 ; set bed temp
M109 S160 ; Set extruder temp before bed level
M190 S85 ; wait for bed temp

G28 W ; home all without mesh bed level
G80 N7 ; mesh bed leveling

M109 S240 ; wait for extruder temp

M221 S100 ; Set flow to 100

G1 Y-3.0 F1000.0 ; go outside print area
G92 E0.0
G1 E8 ; Purge Bubble
G1 X60.0 E9.0 F1000.0 ; intro line
G1 X100.0 E12.5 F1000.0 ; intro line
G92 E0.0
G21 ; set units to millimeters
G90 ; use absolute coordinates
M83 ; use relative distances for extrusion
M900 K0.08 ; Filament gcode LA 1.5
M900 K45 ; Filament gcode LA 1.0
;LAYER_CHANGE
;Z:0.2
;HEIGHT:0.2
;BEFORE_LAYER_CHANGE
M117 INDICATOR-Layer1
G92 E0.0
;0.2


G1 E-1.40000 F2100.000
G1 Z0.200 F10800.000
;AFTER_LAYER_CHANGE
;0.2
G1 Z0.400
G1 X70.703 Y81.258
G1 Z0.200
G1 E1.40000 F2100.000
M204 S1000
;TYPE:Skirt
;WIDTH:0.42
G1 F1200.000
G1 X71.381 Y80.955 E0.02331
G1 X71.998 Y80.873 E0.01951
G1 X180.988 Y80.827 E3.41729
G1 X181.886 Y81.005 E0.02872
G1 X182.651 Y81.509 E0.02872
G1 X183.168 Y82.266 E0.02872
G1 X183.361 Y83.161 E0.02872
G1 X183.295 Y110.384 E0.85355
M73 P0 R64
G1 X183.136 Y111.106 E0.02319
G1 X182.764 Y111.741 E0.02308
G1 X182.216 Y112.232 E0.02308
G1 X181.540 Y112.533 E0.02319
G1 X180.923 Y112.615 E0.01951
G1 X71.966 Y112.627 E3.41629
G1 X71.212 Y112.493 E0.02402
G1 X70.539 Y112.125 E0.02402
G1 X70.019 Y111.563 E0.02402
G1 X69.705 Y110.869 E0.02390
G1 X69.623 Y110.255 E0.01941
G1 X69.627 Y83.117 E0.85090
G1 X69.783 Y82.394 E0.02319
G1 X70.153 Y81.753 E0.02319
G1 X70.658 Y81.298 E0.02131
@Object Draw_stop.stl id:0 copy 2
;WIPE_START
G1 F8640.000
G1 X71.381 Y80.955 E-0.18491
G1 X71.998 Y80.873 E-0.14365
G1 X76.335 Y80.871 E-1.00145
;WIPE_END
G1 E-0.07000 F2100.000
G1 Z0.400 F10800.000
G1 X166.921 Y88.044
G1 Z0.200
G1 E1.40000 F2100.000
;TYPE:Perimeter
G1 F1200.000
G1 X167.063 Y87.497 E0.01770
G1 X167.312 Y86.990 E0.01770
G1 X167.657 Y86.544 E0.01770
G1 X168.086 Y86.176 E0.01770
G1 X168.579 Y85.902 E0.01770
G1 X169.117 Y85.733 E0.01769
G1 X169.647 Y85.678 E0.01670
G1 X169.975 Y85.693 E0.01028
G1 X170.515 Y85.804 E0.01729
G1 X171.034 Y86.027 E0.01770
G1 X171.497 Y86.349 E0.01770
G1 X171.886 Y86.758 E0.01770
G1 X172.185 Y87.237 E0.01770
G1 X172.381 Y87.767 E0.01770
G1 X172.466 Y88.325 E0.01770
G1 X172.438 Y88.889 E0.01770
G1 X172.296 Y89.435 E0.01770
G1 X172.048 Y89.942 E0.01770
G1 X171.702 Y90.389 E0.01770
G1 X171.274 Y90.757 E0.01770
G1 X170.780 Y91.031 E0.01770
G1 X170.241 Y91.200 E0.01770
G1 X169.680 Y91.257 E0.01770
G1 X169.118 Y91.200 E0.01770
G1 X168.579 Y91.031 E0.01770
G1 X168.086 Y90.757 E0.01769
G1 X167.681 Y90.411 E0.01670
G1 X167.466 Y90.163 E0.01028
G1 X167.174 Y89.695 E0.01729
G1 X166.978 Y89.166 E0.01770
G1 X166.893 Y88.608 E0.01770
G1 X166.918 Y88.104 E0.01582
G1 X167.295 Y88.123 F10800.000
;TYPE:External perimeter
G1 F1200.000
G1 X167.418 Y87.629 E0.01596
G1 X167.633 Y87.191 E0.01530
G1 X167.932 Y86.805 E0.01530
G1 X168.302 Y86.487 E0.01530
G1 X168.729 Y86.250 E0.01530
G1 X169.194 Y86.104 E0.01529
G1 X169.658 Y86.056 E0.01463
G1 X169.928 Y86.068 E0.00847
G1 X170.402 Y86.166 E0.01515
G1 X170.850 Y86.358 E0.01530
G1 X171.250 Y86.637 E0.01530
G1 X171.586 Y86.990 E0.01530
G1 X171.845 Y87.404 E0.01530
G1 X172.014 Y87.862 E0.01530
G1 X172.088 Y88.344 E0.01530
G1 X172.063 Y88.831 E0.01530
G1 X171.941 Y89.304 E0.01530
G1 X171.726 Y89.742 E0.01530
G1 X171.427 Y90.128 E0.01530
G1 X171.057 Y90.445 E0.01530
G1 X170.631 Y90.682 E0.01530
G1 X170.165 Y90.828 E0.01530
G1 X169.680 Y90.878 E0.01530
G1 X169.194 Y90.828 E0.01530
G1 X168.729 Y90.682 E0.01530
G1 X168.302 Y90.446 E0.01529
G1 X167.948 Y90.142 E0.01463
G1 X167.770 Y89.938 E0.00847
G1 X167.515 Y89.528 E0.01515
G1 X167.345 Y89.071 E0.01530
G1 X167.271 Y88.588 E0.01530
G1 X167.292 Y88.183 E0.01274
G1 X166.981 Y87.875 F10800.000
;WIPE_START
G1 F8640.000
G1 X167.418 Y87.629 E-0.13118
G1 X167.633 Y87.191 E-0.11266
G1 X167.932 Y86.805 E-0.11266
G1 X168.302 Y86.487 E-0.11266
G1 X168.729 Y86.250 E-0.11266
G1 X169.194 Y86.104 E-0.11262
G1 X169.658 Y86.056 E-0.10775
G1 X169.928 Y86.068 E-0.06239
G1 X170.402 Y86.166 E-0.11157
G1 X170.850 Y86.358 E-0.11266
G1 X171.250 Y86.637 E-0.11266
G1 X171.586 Y86.990 E-0.11266
G1 X171.623 Y87.049 E-0.01588
;WIPE_END
G1 E-0.07000 F2100.000
G1 Z0.400 F10800.000
G1 X145.201 Y88.400
G1 Z0.200
G1 E1.40000 F2100.000
;TYPE:Perimeter
G1 F1200.000
G1 X145.172 Y88.964 E0.01770
G1 X145.031 Y89.511 E0.01770
G1 X144.782 Y90.018 E0.01770
G1 X144.436 Y90.464 E0.01770
G1 X144.008 Y90.832 E0.01770
G1 X143.514 Y91.106 E0.01770
G1 X142.976 Y91.275 E0.01770
G1 X142.429 Y91.331 E0.01723
G1 X142.117 Y91.315 E0.00979
G1 X141.579 Y91.204 E0.01723
G1 X141.060 Y90.982 E0.01770
G1 X140.596 Y90.659 E0.01770
G1 X140.207 Y90.250 E0.01770
G1 X139.909 Y89.771 E0.01770
G1 X139.713 Y89.241 E0.01770
G1 X139.627 Y88.683 E0.01770
G1 X139.656 Y88.119 E0.01770
G1 X139.797 Y87.573 E0.01770
G1 X140.046 Y87.066 E0.01770
G1 X140.391 Y86.619 E0.01770
G1 X140.820 Y86.252 E0.01770
G1 X141.313 Y85.978 E0.01770
G1 X141.852 Y85.809 E0.01769
G1 X142.381 Y85.754 E0.01670
G1 X142.709 Y85.768 E0.01028
G1 X143.249 Y85.879 E0.01729
G1 X143.768 Y86.102 E0.01770
G1 X144.231 Y86.425 E0.01770
G1 X144.620 Y86.834 E0.01770
G1 X144.919 Y87.313 E0.01770
G1 X145.115 Y87.842 E0.01770
G1 X145.192 Y88.341 E0.01582
G1 X144.819 Y88.398 F10800.000
;TYPE:External perimeter
G1 F1200.000
G1 X144.797 Y88.907 E0.01596
G1 X144.675 Y89.379 E0.01530
G1 X144.460 Y89.817 E0.01530
G1 X144.162 Y90.203 E0.01530
G1 X143.791 Y90.521 E0.01530
G1 X143.365 Y90.758 E0.01530
G1 X142.899 Y90.904 E0.01530
G1 X142.419 Y90.953 E0.01513
G1 X142.165 Y90.940 E0.00799
G1 X141.692 Y90.843 E0.01513
G1 X141.244 Y90.650 E0.01530
G1 X140.843 Y90.371 E0.01530
G1 X140.507 Y90.018 E0.01530
G1 X140.249 Y89.604 E0.01530
G1 X140.080 Y89.146 E0.01530
G1 X140.006 Y88.664 E0.01530
G1 X140.030 Y88.177 E0.01530
G1 X140.153 Y87.704 E0.01530
G1 X140.368 Y87.266 E0.01530
G1 X140.666 Y86.880 E0.01530
G1 X141.036 Y86.563 E0.01530
G1 X141.463 Y86.326 E0.01530
G1 X141.928 Y86.180 E0.01529
G1 X142.392 Y86.132 E0.01463
G1 X142.662 Y86.144 E0.00847
G1 X143.136 Y86.241 E0.01515
G1 X143.584 Y86.433 E0.01530
G1 X143.985 Y86.712 E0.01530
G1 X144.321 Y87.066 E0.01530
G1 X144.579 Y87.480 E0.01530
G1 X144.748 Y87.937 E0.01530
G1 X144.810 Y88.339 E0.01274
G1 X145.176 Y88.578 F10800.000
;WIPE_START
G1 F8640.000
G1 X144.797 Y88.907 E-0.13118
G1 X144.675 Y89.379 E-0.11266
G1 X144.460 Y89.817 E-0.11266
G1 X144.162 Y90.203 E-0.11266
G1 X143.791 Y90.521 E-0.11266
G1 X143.365 Y90.758 E-0.11266
G1 X142.899 Y90.904 E-0.11266
G1 X142.419 Y90.953 E-0.11142
G1 X142.165 Y90.940 E-0.05885
G1 X141.692 Y90.843 E-0.11142
G1 X141.244 Y90.650 E-0.11266
G1 X140.843 Y90.371 E-0.11266
G1 X140.796 Y90.322 E-0.01587
;WIPE_END
G1 E-0.07000 F2100.000
G1 Z0.400 F10800.000
G1 X131.771 Y83.991
G1 Z0.200
G1 E1.40000 F2100.000
;TYPE:Perimeter
G1 F1200.000
G1 X180.197 Y83.991 E1.51836
G1 X180.197 Y92.917 E0.27986
G1 X131.771 Y92.917 E1.51836
G1 X131.771 Y84.051 E0.27798
G1 X131.394 Y83.614 F10800.000
;TYPE:External perimeter
G1 F1200.000
G1 X180.574 Y83.614 E1.54200
G1 X180.574 Y93.294 E0.30351
G1 X131.394 Y93.294 E1.54200
G1 X131.394 Y83.674 E0.30163
M73 P1 R64
G1 X131.793 Y83.640 F10800.000
;WIPE_START
G1 F8640.000
G1 X137.154 Y83.667 E-1.33000
;WIPE_END
G1 E-0.07000 F2100.000
G1 Z0.400 F10800.000
G1 X131.884 Y92.035
G1 Z0.200
G1 E1.40000 F2100.000
;TYPE:Solid infill
;WIDTH:0.422987
G1 F1200.000
G1 X132.483 Y92.634 E0.02676
G1 X133.021 Y92.634 E0.01699
G1 X132.054 Y91.668 E0.04320
G1 X132.054 Y91.130 E0.01699
G1 X133.558 Y92.634 E0.06723
G1 X134.096 Y92.634 E0.01699
G1 X132.054 Y90.593 E0.09125
G1 X132.054 Y90.055 E0.01699
G1 X134.633 Y92.634 E0.11527
G1 X135.171 Y92.634 E0.01699
G1 X132.054 Y89.518 E0.13929
G1 X132.054 Y88.980 E0.01699
G1 X135.708 Y92.634 E0.16331
G1 X136.246 Y92.634 E0.01699
G1 X132.054 Y88.443 E0.18734
G1 X132.054 Y87.905 E0.01699
G1 X136.783 Y92.634 E0.21136
G1 X137.321 Y92.634 E0.01699
G1 X132.054 Y87.368 E0.23538
G1 X132.054 Y86.830 E0.01699
G1 X137.858 Y92.634 E0.25940
G1 X138.396 Y92.634 E0.01699
G1 X132.054 Y86.293 E0.28343
G1 X132.054 Y85.755 E0.01699
G1 X138.933 Y92.634 E0.30745
G1 X139.470 Y92.634 E0.01699
G1 X132.054 Y85.218 E0.33147
G1 X132.054 Y84.680 E0.01699
G1 X140.008 Y92.634 E0.35549
G1 X140.545 Y92.634 E0.01699
G1 X132.185 Y84.274 E0.37364
G1 X132.723 Y84.274 E0.01699
G1 X141.083 Y92.634 E0.37364
G1 X141.620 Y92.634 E0.01699
G1 X133.260 Y84.274 E0.37364
G1 X133.798 Y84.274 E0.01699
G1 X142.328 Y92.804 E0.38123
;WIPE_START
G1 F8640.000
G1 X138.255 Y88.731 E-1.33000
;WIPE_END
G1 E-0.07000 F2100.000
G1 Z0.400 F10800.000
G1 X141.690 Y84.104
G1 Z0.200
G1 E1.40000 F2100.000
G1 F1200.000
G1 X143.158 Y85.572 E0.06560
G1 X142.744 Y85.487 E0.01337
G1 X142.526 Y85.477 E0.00690
G1 X141.323 Y84.274 E0.05378
G1 X140.785 Y84.274 E0.01699
G1 X142.018 Y85.507 E0.05512
G1 X141.794 Y85.530 E0.00712
G1 X141.573 Y85.600 E0.00732
G1 X140.248 Y84.274 E0.05925
G1 X139.710 Y84.274 E0.01699
G1 X141.170 Y85.734 E0.06524
G1 X140.824 Y85.926 E0.01249
G1 X139.173 Y84.274 E0.07382
G1 X138.635 Y84.274 E0.01699
G1 X140.508 Y86.147 E0.08370
G1 X140.219 Y86.395 E0.01205
G1 X138.098 Y84.274 E0.09479
G1 X137.560 Y84.274 E0.01699
G1 X139.978 Y86.692 E0.10805
G1 X139.805 Y86.915 E0.00894
G1 X139.758 Y87.010 E0.00332
G1 X137.023 Y84.274 E0.12227
G1 X136.485 Y84.274 E0.01699
G1 X139.582 Y87.370 E0.13838
G1 X139.531 Y87.474 E0.00365
G1 X139.452 Y87.778 E0.00993
G1 X135.948 Y84.274 E0.15661
G1 X135.410 Y84.274 E0.01699
G1 X139.367 Y88.231 E0.17684
G1 X139.352 Y88.753 E0.01651
G1 X134.873 Y84.274 E0.20018
G1 X134.335 Y84.274 E0.01699
G1 X139.475 Y89.414 E0.22971
G1 X139.653 Y89.896 E0.01625
G1 X139.983 Y90.424 E0.01966
G1 X140.411 Y90.875 E0.01966
G1 X140.922 Y91.230 E0.01966
G1 X141.548 Y91.487 E0.02138
G1 X142.695 Y92.634 E0.05129
G1 X143.233 Y92.634 E0.01699
G1 X142.201 Y91.602 E0.04612
G1 X142.436 Y91.614 E0.00743
G1 X142.721 Y91.585 E0.00907
G1 X143.770 Y92.634 E0.04688
G1 X144.308 Y92.634 E0.01699
G1 X143.181 Y91.507 E0.05038
G1 X143.590 Y91.379 E0.01355
G1 X144.845 Y92.634 E0.05611
G1 X145.383 Y92.634 E0.01699
G1 X143.941 Y91.193 E0.06443
G1 X144.170 Y91.065 E0.00828
G1 X144.268 Y90.982 E0.00406
G1 X145.920 Y92.634 E0.07386
G1 X146.458 Y92.634 E0.01699
G1 X144.557 Y90.733 E0.08496
G1 X144.642 Y90.660 E0.00355
G1 X144.808 Y90.447 E0.00854
G1 X146.995 Y92.634 E0.09778
G1 X147.533 Y92.634 E0.01699
G1 X145.038 Y90.139 E0.11153
G1 X145.214 Y89.778 E0.01269
G1 X148.070 Y92.634 E0.12764
G1 X148.608 Y92.634 E0.01699
G1 X145.356 Y89.382 E0.14534
G1 X145.456 Y88.945 E0.01418
G1 X149.145 Y92.634 E0.16488
G1 X149.683 Y92.634 E0.01699
G1 X145.482 Y88.433 E0.18774
G1 X145.396 Y87.810 E0.01988
G1 X150.220 Y92.634 E0.21560
G1 X150.758 Y92.634 E0.01699
G1 X142.398 Y84.274 E0.37364
G1 X142.935 Y84.274 E0.01699
G1 X151.295 Y92.634 E0.37364
G1 X151.833 Y92.634 E0.01699
G1 X143.473 Y84.274 E0.37364
G1 X144.010 Y84.274 E0.01699
G1 X152.370 Y92.634 E0.37364
G1 X152.908 Y92.634 E0.01699
G1 X144.548 Y84.274 E0.37364
G1 X145.085 Y84.274 E0.01699
G1 X153.445 Y92.634 E0.37364
G1 X153.983 Y92.634 E0.01699
G1 X145.623 Y84.274 E0.37364
G1 X146.160 Y84.274 E0.01699
G1 X154.520 Y92.634 E0.37364
G1 X155.058 Y92.634 E0.01699
G1 X146.698 Y84.274 E0.37364
G1 X147.235 Y84.274 E0.01699
G1 X155.595 Y92.634 E0.37364
G1 X156.133 Y92.634 E0.01699
G1 X147.773 Y84.274 E0.37364
G1 X148.310 Y84.274 E0.01699
G1 X156.670 Y92.634 E0.37364
G1 X157.208 Y92.634 E0.01699
G1 X148.848 Y84.274 E0.37364
G1 X149.385 Y84.274 E0.01699
G1 X157.745 Y92.634 E0.37364
G1 X158.283 Y92.634 E0.01699
G1 X149.923 Y84.274 E0.37364
G1 X150.460 Y84.274 E0.01699
G1 X158.820 Y92.634 E0.37364
G1 X159.358 Y92.634 E0.01699
G1 X150.998 Y84.274 E0.37364
G1 X151.535 Y84.274 E0.01699
G1 X159.895 Y92.634 E0.37364
G1 X160.433 Y92.634 E0.01699
G1 X152.073 Y84.274 E0.37364
G1 X152.610 Y84.274 E0.01699
G1 X160.970 Y92.634 E0.37364
G1 X161.508 Y92.634 E0.01699
G1 X153.148 Y84.274 E0.37364
G1 X153.685 Y84.274 E0.01699
G1 X162.045 Y92.634 E0.37364
G1 X162.583 Y92.634 E0.01699
G1 X154.223 Y84.274 E0.37364
G1 X154.760 Y84.274 E0.01699
G1 X163.120 Y92.634 E0.37364
G1 X163.658 Y92.634 E0.01699
G1 X155.298 Y84.274 E0.37364
G1 X155.835 Y84.274 E0.01699
G1 X164.195 Y92.634 E0.37364
G1 X164.733 Y92.634 E0.01699
G1 X156.373 Y84.274 E0.37364
G1 X156.910 Y84.274 E0.01699
G1 X165.270 Y92.634 E0.37364
G1 X165.808 Y92.634 E0.01699
G1 X157.448 Y84.274 E0.37364
G1 X157.985 Y84.274 E0.01699
G1 X166.345 Y92.634 E0.37364
G1 X166.883 Y92.634 E0.01699
G1 X158.523 Y84.274 E0.37364
G1 X159.060 Y84.274 E0.01699
G1 X167.420 Y92.634 E0.37364
G1 X167.958 Y92.634 E0.01699
G1 X159.598 Y84.274 E0.37364
M73 P1 R63
G1 X160.135 Y84.274 E0.01699
G1 X168.495 Y92.634 E0.37364
G1 X169.033 Y92.634 E0.01699
G1 X160.673 Y84.274 E0.37364
G1 X161.210 Y84.274 E0.01699
G1 X169.740 Y92.804 E0.38123
;WIPE_START
G1 F8640.000
G1 X165.667 Y88.731 E-1.33000
;WIPE_END
G1 E-0.07000 F2100.000
G1 Z0.400 F10800.000
G1 X168.642 Y91.169
G1 Z0.200
G1 E1.40000 F2100.000
G1 F1200.000
G1 X170.108 Y92.634 E0.06549
G1 X170.645 Y92.634 E0.01699
G1 X169.537 Y91.526 E0.04951
G1 X169.680 Y91.541 E0.00452
G1 X170.052 Y91.503 E0.01182
G1 X171.183 Y92.634 E0.05055
G1 X171.720 Y92.634 E0.01699
G1 X170.501 Y91.415 E0.05451
G1 X170.907 Y91.283 E0.01349
G1 X172.258 Y92.634 E0.06037
G1 X172.795 Y92.634 E0.01699
G1 X171.253 Y91.092 E0.06894
G1 X171.436 Y90.990 E0.00663
G1 X171.572 Y90.873 E0.00565
G1 X173.333 Y92.634 E0.07870
G1 X173.870 Y92.634 E0.01699
G1 X171.861 Y90.625 E0.08980
G1 X172.104 Y90.331 E0.01206
G1 X174.408 Y92.634 E0.10294
G1 X174.945 Y92.634 E0.01699
G1 X172.327 Y90.016 E0.11703
M73 P2 R63
G1 X172.504 Y89.655 E0.01269
G1 X175.483 Y92.634 E0.13315
G1 X176.020 Y92.634 E0.01699
G1 X172.636 Y89.250 E0.15123
G1 X172.719 Y88.932 E0.01040
G1 X172.725 Y88.802 E0.00411
G1 X176.558 Y92.634 E0.17128
G1 X177.095 Y92.634 E0.01699
G1 X172.746 Y88.285 E0.19436
G1 X172.634 Y87.635 E0.02085
G1 X177.802 Y92.804 E0.23100
;WIPE_START
G1 F8640.000
G1 X173.729 Y88.731 E-1.33000
;WIPE_END
G1 E-0.07000 F2100.000
G1 Z0.400 F10800.000
G1 X180.084 Y84.873
G1 Z0.200
G1 E1.40000 F2100.000
G1 F1200.000
G1 X179.485 Y84.274 E0.02677
G1 X178.947 Y84.274 E0.01699
G1 X179.914 Y85.241 E0.04321
G1 X179.914 Y85.778 E0.01699
G1 X178.410 Y84.274 E0.06723
G1 X177.872 Y84.274 E0.01699
G1 X179.914 Y86.316 E0.09125
G1 X179.914 Y86.853 E0.01699
G1 X177.335 Y84.274 E0.11527
G1 X176.797 Y84.274 E0.01699
G1 X179.914 Y87.391 E0.13930
G1 X179.914 Y87.928 E0.01699
G1 X176.260 Y84.274 E0.16332
G1 X175.722 Y84.274 E0.01699
G1 X179.914 Y88.466 E0.18734
G1 X179.914 Y89.003 E0.01699
G1 X175.185 Y84.274 E0.21136
G1 X174.647 Y84.274 E0.01699
G1 X179.914 Y89.541 E0.23538
G1 X179.914 Y90.078 E0.01699
G1 X174.110 Y84.274 E0.25941
G1 X173.572 Y84.274 E0.01699
G1 X179.914 Y90.616 E0.28343
G1 X179.914 Y91.153 E0.01699
G1 X173.035 Y84.274 E0.30745
G1 X172.497 Y84.274 E0.01699
G1 X179.914 Y91.691 E0.33147
G1 X179.914 Y92.228 E0.01699
G1 X171.960 Y84.274 E0.35550
G1 X171.422 Y84.274 E0.01699
G1 X179.783 Y92.634 E0.37364
G1 X179.245 Y92.634 E0.01699
G1 X170.885 Y84.274 E0.37364
G1 X170.347 Y84.274 E0.01699
G1 X178.708 Y92.634 E0.37364
G1 X178.170 Y92.634 E0.01699
G1 X169.810 Y84.274 E0.37364
G1 X169.272 Y84.274 E0.01699
G1 X170.513 Y85.515 E0.05546
G1 X170.010 Y85.411 E0.01625
G1 X169.866 Y85.405 E0.00455
G1 X168.735 Y84.274 E0.05055
G1 X168.197 Y84.274 E0.01699
