; generated by PrusaSlicer 2.2.0+ on 2020-05-04 at 16:03:19 UTC


;
;

;
;
; 

; external perimeters extrusion width = 0.45mm
; perimeters extrusion width = 0.45mm
; infill extrusion width = 0.45mm
; solid infill extrusion width = 0.45mm
; top infill extrusion width = 0.40mm
; first layer extrusion width = 0.42mm

M73 P0 R84
M201 X9000 Y9000 Z500 E10000 ; sets maximum accelerations, mm/sec^2
M203 X500 Y500 Z12 E120 ; sets maximum feedrates, mm/sec
M204 P2000 R1500 T2000 ; sets acceleration (P, T) and retract acceleration (R), mm/sec^2
M205 X10.00 Y10.00 Z0.20 E4.50 ; sets the jerk limits, mm/sec
M205 S0 T0 ; sets the minimum extruding and travel feed rate, mm/sec
M107
M83  ; extruder relative mode
M140 S100 ; set bed temp
M109 S160 ; Set extruder temp before bed level
M190 S100 ; wait for bed temp

G28 W ; home all without mesh bed level
G80 N7 ; mesh bed leveling

M109 S270 ; wait for extruder temp

M221 S100 ; Set flow to 100

G1 Y-3.0 F1000.0 ; go outside print area
G92 E0.0
G1 E8 ; Purge Bubble
M73 P0 R84
G1 X60.0 E9.0 F1000.0 ; intro line
G1 X100.0 E12.5 F1000.0 ; intro line
G92 E0.0
G21 ; set units to millimeters
G90 ; use absolute coordinates
M83 ; use relative distances for extrusion
M900 K30 ; Filament gcode
;BEFORE_LAYER_CHANGE
G92 E0.0
;0.2


G1 E-0.80000 F2100.00000
G1 Z0.600 F10800.000
;AFTER_LAYER_CHANGE
;0.2
G1 X83.065 Y73.712
G1 Z0.200
G1 E0.80000 F2100.00000
M204 S1000
G1 F1200.000
G1 X83.947 Y73.521 E0.02829
G1 X161.450 Y71.758 E2.43071
G1 X166.504 Y71.757 E0.15847
G1 X166.996 Y71.810 E0.01550
G1 X167.469 Y71.964 E0.01562
G1 X167.901 Y72.213 E0.01562
G1 X168.268 Y72.544 E0.01550
G1 X204.961 Y114.517 E1.74800
G1 X205.204 Y115.082 E0.01929
G1 X205.294 Y115.691 E0.01929
G1 X205.293 Y133.077 E0.54513
G1 X205.196 Y133.658 E0.01846
G1 X204.960 Y134.197 E0.01846
G1 X204.599 Y134.662 E0.01846
G1 X204.134 Y135.024 E0.01846
G1 X203.551 Y135.273 E0.01989
G1 X202.922 Y135.359 E0.01989
G1 X56.613 Y135.351 E4.58743
G1 X56.101 Y135.254 E0.01633
G1 X55.626 Y135.049 E0.01621
G1 X55.204 Y134.744 E0.01633
G1 X54.861 Y134.358 E0.01621
G1 X47.614 Y122.667 E0.43127
G1 X47.423 Y121.798 E0.02790
G1 X47.423 Y115.659 E0.19247
G1 X47.549 Y114.965 E0.02213
G1 X47.874 Y114.338 E0.02213
G1 X82.205 Y74.340 E1.65272
G1 X82.599 Y73.977 E0.01680
G1 X83.013 Y73.742 E0.01492
@Object Mount.stl id:1 copy 0
G1 F8640.000
G1 X83.947 Y73.521 E-0.22161
G1 X86.278 Y73.468 E-0.53839
G1 E-0.04000 F2100.00000
G1 Z0.800 F10800.000
G1 X84.788 Y76.669
G1 Z0.200
G1 E0.80000 F2100.00000
G1 F1200.000
G1 X161.008 Y75.184 E2.39030
G1 X162.288 Y75.184 E0.04012
G1 X162.288 Y74.964 E0.00691
G1 X165.714 Y74.964 E0.10741
G1 X165.714 Y93.809 E0.59090
G1 X162.288 Y93.809 E0.10741
G1 X162.288 Y93.610 E0.00626
G1 X161.008 Y93.610 E0.04012
G1 X84.788 Y92.125 E2.39030
G1 X84.788 Y76.729 E0.48274
G1 F8640.000
G1 X88.078 Y76.662 E-0.76000
G1 E-0.04000 F2100.00000
G1 Z0.800 F10800.000
G1 X161.911 Y74.807
G1 Z0.200
G1 E0.80000 F2100.00000
G1 F1200.000
G1 X161.911 Y74.586 E0.00691
G1 X166.091 Y74.586 E0.13106
G1 X166.091 Y94.186 E0.61454
G1 X161.911 Y94.186 E0.13106
G1 X161.911 Y93.987 E0.00626
G1 X161.005 Y93.987 E0.02841
G1 X84.411 Y92.495 E2.40201
G1 X84.411 Y76.299 E0.50781
G1 X161.005 Y74.807 E2.40201
G1 X161.851 Y74.807 E0.02653
G1 X162.131 Y74.806 F10800.000
G1 F8640.000
G1 X161.911 Y74.586 E-0.05277
G1 X164.974 Y74.586 E-0.70723
G1 E-0.04000 F2100.00000
G1 Z0.800 F10800.000
G1 X84.901 Y91.250
G1 Z0.200
G1 E0.80000 F2100.00000
G1 F1200.000
G1 X85.507 Y91.856 E0.02690
G1 X86.051 Y91.867 E0.01710
G1 X85.070 Y90.886 E0.04354
G1 X85.070 Y90.352 E0.01676
G1 X86.596 Y91.877 E0.06772
G1 X87.140 Y91.888 E0.01710
G1 X85.070 Y89.818 E0.09189
G1 X85.070 Y89.284 E0.01676
G1 X87.685 Y91.899 E0.11607
G1 X88.229 Y91.909 E0.01710
G1 X85.070 Y88.750 E0.14025
G1 X85.070 Y88.216 E0.01676
G1 X88.774 Y91.920 E0.16443
G1 X89.318 Y91.931 E0.01710
G1 X85.070 Y87.682 E0.18860
G1 X85.070 Y87.149 E0.01676
G1 X89.863 Y91.941 E0.21278
G1 X90.408 Y91.952 E0.01710
G1 X85.070 Y86.615 E0.23696
G1 X85.070 Y86.081 E0.01676
G1 X90.952 Y91.962 E0.26113
G1 X91.497 Y91.973 E0.01710
G1 X85.070 Y85.547 E0.28531
G1 X85.070 Y85.013 E0.01676
G1 X92.041 Y91.984 E0.30949
G1 X92.586 Y91.994 E0.01710
G1 X85.070 Y84.479 E0.33366
G1 X85.070 Y83.945 E0.01676
G1 X93.130 Y92.005 E0.35784
G1 X93.675 Y92.015 E0.01710
G1 X85.070 Y83.411 E0.38202
G1 X85.070 Y82.877 E0.01676
G1 X94.219 Y92.026 E0.40619
G1 X94.764 Y92.037 E0.01710
G1 X85.070 Y82.343 E0.43037
G1 X85.070 Y81.809 E0.01676
G1 X95.309 Y92.047 E0.45455
G1 X95.853 Y92.058 E0.01710
G1 X85.070 Y81.275 E0.47873
G1 X85.070 Y80.741 E0.01676
G1 X96.398 Y92.068 E0.50290
G1 X96.942 Y92.079 E0.01710
G1 X85.070 Y80.207 E0.52708
G1 X85.070 Y79.673 E0.01676
G1 X97.487 Y92.090 E0.55126
G1 X98.031 Y92.100 E0.01710
G1 X85.070 Y79.139 E0.57543
M73 P1 R83
G1 X85.070 Y78.605 E0.01676
G1 X98.576 Y92.111 E0.59961
G1 X99.120 Y92.121 E0.01710
G1 X85.070 Y78.071 E0.62379
G1 X85.070 Y77.538 E0.01676
G1 X99.665 Y92.132 E0.64796
G1 X100.210 Y92.143 E0.01710
G1 X85.070 Y77.004 E0.67214
G1 X85.070 Y76.946 E0.00180
G1 X85.538 Y76.937 E0.01468
G1 X100.754 Y92.153 E0.67556
G1 X101.299 Y92.164 E0.01710
G1 X86.062 Y76.927 E0.67649
G1 X86.585 Y76.917 E0.01645
G1 X101.843 Y92.174 E0.67741
G1 X102.388 Y92.185 E0.01710
G1 X87.109 Y76.907 E0.67833
G1 X87.633 Y76.896 E0.01645
G1 X102.932 Y92.196 E0.67926
G1 X103.477 Y92.206 E0.01710
G1 X88.157 Y76.886 E0.68018
G1 X88.680 Y76.876 E0.01645
G1 X104.021 Y92.217 E0.68111
G1 X104.566 Y92.228 E0.01710
G1 X89.204 Y76.866 E0.68203
G1 X89.728 Y76.856 E0.01645
G1 X105.111 Y92.238 E0.68295
G1 X105.655 Y92.249 E0.01710
G1 X90.252 Y76.845 E0.68388
G1 X90.775 Y76.835 E0.01645
G1 X106.200 Y92.259 E0.68480
G1 X106.744 Y92.270 E0.01710
G1 X91.299 Y76.825 E0.68573
G1 X91.823 Y76.815 E0.01645
G1 X107.289 Y92.281 E0.68665
G1 X107.833 Y92.291 E0.01710
G1 X92.347 Y76.804 E0.68757
G1 X92.870 Y76.794 E0.01645
G1 X108.378 Y92.302 E0.68850
G1 X108.922 Y92.312 E0.01710
G1 X93.394 Y76.784 E0.68942
G1 X93.918 Y76.774 E0.01645
G1 X109.467 Y92.323 E0.69035
G1 X110.012 Y92.334 E0.01710
G1 X94.442 Y76.764 E0.69127
G1 X94.965 Y76.753 E0.01645
G1 X110.556 Y92.344 E0.69219
G1 X111.101 Y92.355 E0.01710
G1 X95.489 Y76.743 E0.69312
G1 X96.013 Y76.733 E0.01645
G1 X111.645 Y92.365 E0.69404
G1 X112.190 Y92.376 E0.01710
G1 X96.537 Y76.723 E0.69497
G1 X97.060 Y76.713 E0.01645
G1 X112.734 Y92.387 E0.69589
G1 X113.279 Y92.397 E0.01710
G1 X97.584 Y76.702 E0.69681
G1 X98.108 Y76.692 E0.01645
G1 X113.823 Y92.408 E0.69774
G1 X114.368 Y92.418 E0.01710
G1 X98.632 Y76.682 E0.69866
G1 X99.155 Y76.672 E0.01645
G1 X114.912 Y92.429 E0.69958
G1 X115.457 Y92.440 E0.01710
G1 X99.679 Y76.662 E0.70051
G1 X100.203 Y76.651 E0.01645
G1 X116.002 Y92.450 E0.70143
G1 X116.546 Y92.461 E0.01710
G1 X100.726 Y76.641 E0.70236
G1 X101.250 Y76.631 E0.01645
G1 X117.091 Y92.472 E0.70328
G1 X117.635 Y92.482 E0.01710
G1 X101.774 Y76.621 E0.70420
G1 X102.298 Y76.611 E0.01645
G1 X118.180 Y92.493 E0.70513
G1 X118.724 Y92.503 E0.01710
G1 X102.821 Y76.600 E0.70605
G1 X103.345 Y76.590 E0.01645
G1 X119.269 Y92.514 E0.70698
G1 X119.813 Y92.525 E0.01710
G1 X103.869 Y76.580 E0.70790
G1 X104.393 Y76.570 E0.01645
G1 X120.358 Y92.535 E0.70882
G1 X120.903 Y92.546 E0.01710
G1 X104.916 Y76.560 E0.70975
G1 X105.440 Y76.549 E0.01645
G1 X121.447 Y92.556 E0.71067
G1 X121.992 Y92.567 E0.01710
G1 X105.964 Y76.539 E0.71160
G1 X106.488 Y76.529 E0.01645
G1 X122.536 Y92.578 E0.71252
G1 X123.081 Y92.588 E0.01710
G1 X107.011 Y76.519 E0.71344
G1 X107.535 Y76.509 E0.01645
G1 X123.625 Y92.599 E0.71437
G1 X124.170 Y92.609 E0.01710
G1 X108.059 Y76.498 E0.71529
G1 X108.583 Y76.488 E0.01645
G1 X124.714 Y92.620 E0.71622
G1 X125.259 Y92.631 E0.01710
G1 X109.106 Y76.478 E0.71714
G1 X109.630 Y76.468 E0.01645
G1 X125.804 Y92.641 E0.71806
G1 X126.348 Y92.652 E0.01710
G1 X110.154 Y76.458 E0.71899
G1 X110.678 Y76.447 E0.01645
G1 X126.893 Y92.662 E0.71991
M73 P2 R82
G1 X127.437 Y92.673 E0.01710
G1 X111.201 Y76.437 E0.72084
G1 X111.725 Y76.427 E0.01645
G1 X127.982 Y92.684 E0.72176
G1 X128.526 Y92.694 E0.01710
G1 X112.249 Y76.417 E0.72268
G1 X112.773 Y76.407 E0.01645
G1 X129.071 Y92.705 E0.72361
G1 X129.615 Y92.716 E0.01710
G1 X113.296 Y76.396 E0.72453
G1 X113.820 Y76.386 E0.01645
G1 X130.160 Y92.726 E0.72546
G1 X130.705 Y92.737 E0.01710
G1 X114.344 Y76.376 E0.72638
G1 X114.868 Y76.366 E0.01645
G1 X131.249 Y92.747 E0.72730
G1 X131.794 Y92.758 E0.01710
G1 X115.391 Y76.356 E0.72823
G1 X115.915 Y76.345 E0.01645
G1 X132.338 Y92.769 E0.72915
G1 X132.883 Y92.779 E0.01710
G1 X116.439 Y76.335 E0.73008
G1 X116.962 Y76.325 E0.01645
G1 X133.427 Y92.790 E0.73100
G1 X133.972 Y92.800 E0.01710
G1 X117.486 Y76.315 E0.73192
G1 X118.010 Y76.305 E0.01645
G1 X134.516 Y92.811 E0.73285
G1 X135.061 Y92.822 E0.01710
G1 X118.534 Y76.294 E0.73377
G1 X119.057 Y76.284 E0.01645
G1 X135.605 Y92.832 E0.73470
G1 X136.150 Y92.843 E0.01710
G1 X119.581 Y76.274 E0.73562
G1 X120.105 Y76.264 E0.01645
G1 X136.695 Y92.853 E0.73654
G1 X137.239 Y92.864 E0.01710
G1 X120.629 Y76.254 E0.73747
G1 X121.152 Y76.243 E0.01645
G1 X137.784 Y92.875 E0.73839
G1 X138.328 Y92.885 E0.01710
G1 X121.676 Y76.233 E0.73932
G1 X122.200 Y76.223 E0.01645
G1 X138.873 Y92.896 E0.74024
G1 X139.417 Y92.906 E0.01710
G1 X122.724 Y76.213 E0.74116
G1 X123.247 Y76.203 E0.01645
G1 X139.962 Y92.917 E0.74209
G1 X140.506 Y92.928 E0.01710
G1 X123.771 Y76.192 E0.74301
G1 X124.295 Y76.182 E0.01645
G1 X141.051 Y92.938 E0.74393
G1 X141.596 Y92.949 E0.01710
G1 X124.819 Y76.172 E0.74486
G1 X125.342 Y76.162 E0.01645
G1 X142.140 Y92.959 E0.74578
G1 X142.685 Y92.970 E0.01710
G1 X125.866 Y76.152 E0.74671
G1 X126.390 Y76.141 E0.01645
G1 X143.229 Y92.981 E0.74763
G1 X143.774 Y92.991 E0.01710
G1 X126.914 Y76.131 E0.74855
G1 X127.437 Y76.121 E0.01645
G1 X144.318 Y93.002 E0.74948
G1 X144.863 Y93.013 E0.01710
G1 X127.961 Y76.111 E0.75040
G1 X128.485 Y76.100 E0.01645
G1 X145.407 Y93.023 E0.75133
G1 X145.952 Y93.034 E0.01710
G1 X129.009 Y76.090 E0.75225
G1 X129.532 Y76.080 E0.01645
G1 X146.497 Y93.044 E0.75317
G1 X147.041 Y93.055 E0.01710
G1 X130.056 Y76.070 E0.75410
G1 X130.580 Y76.060 E0.01645
G1 X147.586 Y93.066 E0.75502
G1 X148.130 Y93.076 E0.01710
G1 X131.104 Y76.049 E0.75595
G1 X131.627 Y76.039 E0.01645
G1 X148.675 Y93.087 E0.75687
G1 X149.219 Y93.097 E0.01710
G1 X132.151 Y76.029 E0.75779
G1 X132.675 Y76.019 E0.01645
G1 X149.764 Y93.108 E0.75872
G1 X150.308 Y93.119 E0.01710
G1 X133.198 Y76.009 E0.75964
G1 X133.722 Y75.998 E0.01645
G1 X150.853 Y93.129 E0.76057
G1 X151.398 Y93.140 E0.01710
G1 X134.246 Y75.988 E0.76149
G1 X134.770 Y75.978 E0.01645
G1 X151.942 Y93.150 E0.76241
G1 X152.487 Y93.161 E0.01710
G1 X135.293 Y75.968 E0.76334
G1 X135.817 Y75.958 E0.01645
G1 X153.031 Y93.172 E0.76426
G1 X153.576 Y93.182 E0.01710
G1 X136.341 Y75.947 E0.76519
G1 X136.865 Y75.937 E0.01645
G1 X154.120 Y93.193 E0.76611
M73 P3 R81
G1 X154.665 Y93.203 E0.01710
G1 X137.388 Y75.927 E0.76703
G1 X137.912 Y75.917 E0.01645
G1 X155.209 Y93.214 E0.76796
G1 X155.754 Y93.225 E0.01710
G1 X138.436 Y75.907 E0.76888
G1 X138.960 Y75.896 E0.01645
G1 X156.299 Y93.235 E0.76981
G1 X156.843 Y93.246 E0.01710
G1 X139.483 Y75.886 E0.77073
G1 X140.007 Y75.876 E0.01645
G1 X157.388 Y93.257 E0.77165
G1 X157.932 Y93.267 E0.01710
G1 X140.531 Y75.866 E0.77258
G1 X141.055 Y75.856 E0.01645
G1 X158.477 Y93.278 E0.77350
G1 X159.021 Y93.288 E0.01710
G1 X141.578 Y75.845 E0.77443
G1 X142.102 Y75.835 E0.01645
G1 X159.566 Y93.299 E0.77535
G1 X160.110 Y93.310 E0.01710
G1 X142.626 Y75.825 E0.77627
G1 X143.150 Y75.815 E0.01645
G1 X160.655 Y93.320 E0.77720
G1 X161.196 Y93.327 E0.01698
G1 X143.673 Y75.805 E0.77796
G1 X144.197 Y75.794 E0.01645
G1 X161.730 Y93.327 E0.77841
G1 X162.264 Y93.327 E0.01676
G1 X144.721 Y75.784 E0.77886
G1 X145.245 Y75.774 E0.01645
G1 X162.997 Y93.527 E0.78817
G1 X163.531 Y93.527 E0.01676
G1 X145.768 Y75.764 E0.78863
G1 X146.292 Y75.754 E0.01645
G1 X164.065 Y93.527 E0.78908
G1 X164.599 Y93.527 E0.01676
G1 X146.816 Y75.743 E0.78953
G1 X147.340 Y75.733 E0.01645
G1 X165.133 Y93.527 E0.78999
G1 X165.431 Y93.527 E0.00935
G1 X165.431 Y93.290 E0.00741
G1 X147.863 Y75.723 E0.77995
G1 X148.387 Y75.713 E0.01645
G1 X165.431 Y92.757 E0.75670
G1 X165.431 Y92.223 E0.01676
G1 X148.911 Y75.703 E0.73345
G1 X149.434 Y75.692 E0.01645
G1 X165.431 Y91.689 E0.71020
G1 X165.431 Y91.155 E0.01676
G1 X149.958 Y75.682 E0.68694
G1 X150.482 Y75.672 E0.01645
G1 X165.431 Y90.621 E0.66369
G1 X165.431 Y90.087 E0.01676
G1 X151.006 Y75.662 E0.64044
G1 X151.529 Y75.652 E0.01645
G1 X165.431 Y89.553 E0.61718
G1 X165.431 Y89.019 E0.01676
G1 X152.053 Y75.641 E0.59393
G1 X152.577 Y75.631 E0.01645
G1 X165.431 Y88.485 E0.57068
G1 X165.431 Y87.951 E0.01676
G1 X153.101 Y75.621 E0.54743
G1 X153.624 Y75.611 E0.01645
G1 X165.431 Y87.417 E0.52417
G1 X165.431 Y86.883 E0.01676
G1 X154.148 Y75.601 E0.50092
G1 X154.672 Y75.590 E0.01645
G1 X165.431 Y86.349 E0.47767
G1 X165.431 Y85.815 E0.01676
G1 X155.196 Y75.580 E0.45441
G1 X155.719 Y75.570 E0.01645
G1 X165.431 Y85.281 E0.43116
G1 X165.431 Y84.747 E0.01676
G1 X156.243 Y75.560 E0.40791
G1 X156.767 Y75.550 E0.01645
G1 X165.431 Y84.213 E0.38465
G1 X165.431 Y83.679 E0.01676
G1 X157.291 Y75.539 E0.36140
G1 X157.814 Y75.529 E0.01645
G1 X165.431 Y83.146 E0.33815
G1 X165.431 Y82.612 E0.01676
G1 X158.338 Y75.519 E0.31490
G1 X158.862 Y75.509 E0.01645
G1 X165.431 Y82.078 E0.29164
G1 X165.431 Y81.544 E0.01676
G1 X159.386 Y75.499 E0.26839
G1 X159.909 Y75.488 E0.01645
G1 X165.431 Y81.010 E0.24514
G1 X165.431 Y80.476 E0.01676
G1 X160.433 Y75.478 E0.22188
G1 X160.957 Y75.468 E0.01645
G1 X165.431 Y79.942 E0.19863
G1 X165.431 Y79.408 E0.01676
G1 X161.490 Y75.467 E0.17497
G1 X162.024 Y75.467 E0.01676
G1 X165.431 Y78.874 E0.15127
G1 X165.431 Y78.340 E0.01676
G1 X162.558 Y75.467 E0.12756
G1 X162.570 Y75.467 E0.00040
G1 X162.570 Y75.246 E0.00692
G1 X162.871 Y75.246 E0.00944
G1 X165.431 Y77.806 E0.11364
G1 X165.431 Y77.272 E0.01676
G1 X163.405 Y75.246 E0.08994
G1 X163.939 Y75.246 E0.01676
G1 X165.431 Y76.738 E0.06623
G1 X165.431 Y76.204 E0.01676
G1 X164.473 Y75.246 E0.04253
G1 X165.007 Y75.246 E0.01676
G1 X165.600 Y75.840 E0.02635
; stop printing object Mount.stl id:1 copy 0
@Object Bed Arm.stl id:0 copy 0
G1 F8640.000
G1 X165.007 Y75.246 E-0.19384
G1 X164.473 Y75.246 E-0.12329
G1 X165.431 Y76.204 E-0.31278
G1 X165.431 Y76.738 E-0.12329
G1 X165.410 Y76.717 E-0.00680
G1 E-0.04000 F2100.00000
G1 Z0.800 F10800.000
G1 X193.235 Y122.379
G1 Z0.200
G1 E0.80000 F2100.00000
G1 F1200.000
G1 X193.612 Y122.203 E0.01306
G1 X194.015 Y122.096 E0.01306
G1 X194.403 Y122.062 E0.01223
G1 X194.841 Y122.095 E0.01378
G1 X195.247 Y122.203 E0.01317
G1 X195.625 Y122.379 E0.01306
G1 X195.966 Y122.618 E0.01306
G1 X196.261 Y122.913 E0.01306
G1 X196.500 Y123.254 E0.01306
G1 X196.676 Y123.632 E0.01306
G1 X196.784 Y124.034 E0.01306
G1 X196.820 Y124.449 E0.01306
G1 X196.784 Y124.864 E0.01306
G1 X196.676 Y125.267 E0.01306
G1 X196.500 Y125.644 E0.01306
G1 X196.261 Y125.986 E0.01306
G1 X195.966 Y126.280 E0.01306
G1 X195.625 Y126.519 E0.01306
G1 X195.247 Y126.695 E0.01306
G1 X194.845 Y126.803 E0.01306
G1 X194.430 Y126.839 E0.01306
G1 X194.015 Y126.803 E0.01306
G1 X193.612 Y126.695 E0.01306
G1 X193.235 Y126.519 E0.01306
G1 X192.893 Y126.280 E0.01306
G1 X192.599 Y125.986 E0.01306
G1 X192.360 Y125.644 E0.01306
G1 X192.184 Y125.267 E0.01306
G1 X192.076 Y124.864 E0.01306
G1 X192.040 Y124.449 E0.01306
G1 X192.076 Y124.034 E0.01306
G1 X192.184 Y123.632 E0.01306
G1 X192.360 Y123.254 E0.01306
G1 X192.599 Y122.913 E0.01306
G1 X192.893 Y122.618 E0.01306
G1 X193.186 Y122.414 E0.01118
G1 X193.402 Y122.723 F10800.000
G1 F1200.000
G1 X193.742 Y122.559 E0.01183
G1 X194.080 Y122.468 E0.01099
G1 X194.405 Y122.440 E0.01023
G1 X194.778 Y122.468 E0.01171
G1 X195.118 Y122.559 E0.01103
G1 X195.436 Y122.707 E0.01099
G1 X195.723 Y122.908 E0.01099
G1 X195.971 Y123.156 E0.01099
G1 X196.172 Y123.444 E0.01099
G1 X196.320 Y123.761 E0.01099
G1 X196.411 Y124.100 E0.01099
G1 X196.441 Y124.449 E0.01099
G1 X196.411 Y124.799 E0.01099
G1 X196.320 Y125.137 E0.01099
G1 X196.172 Y125.455 E0.01099
G1 X195.971 Y125.742 E0.01099
G1 X195.723 Y125.990 E0.01099
