; generated by Slic3r 1.34.1-prusa3d on 2017-08-07 at 21:54:59

; external perimeters extrusion width = 0.45mm
; perimeters extrusion width = 0.45mm
; infill extrusion width = 0.45mm
; solid infill extrusion width = 0.45mm
; top infill extrusion width = 0.40mm

M107
M115 U3.0.12 ; tell printer latest fw version
M83  ; extruder relative mode
M104 S215 ; set extruder temp
M140 S55 ; set bed temp
M190 S55 ; wait for bed temp
M109 S215 ; wait for extruder temp
G28 W ; home all without mesh bed level
G80 ; mesh bed leveling
G1 Y-3.0 F1000.0 ; go outside pritn area
G1 X60.0 E9.0  F1000.0 ; intro line
G1 X100.0 E12.5  F1000.0 ; intro line
G21 ; set units to millimeters
G90 ; use absolute coordinates
M83 ; use relative distances for extrusion
G1 E-0.80000 F2100.00000
G1 Z0.200 F7200.000
G1 X94.047 Y67.742 F7200.000
G1 E0.80000 F2100.00000
M204 S1000
G1 F2100
G1 X94.386 Y67.084 E0.02319
G1 X94.757 Y66.683 E0.01716
G1 X95.211 Y66.377 E0.01716
G1 X95.723 Y66.183 E0.01716
G1 X96.265 Y66.111 E0.01716
G1 X153.699 Y66.110 E1.80080
G1 X154.594 Y66.287 E0.02860
G1 X155.357 Y66.788 E0.02860
G1 X155.875 Y67.539 E0.02860
G1 X156.072 Y68.429 E0.02860
G1 X156.073 Y144.699 E2.39138
G1 X155.954 Y145.429 E0.02319
G1 X155.614 Y146.091 E0.02331
G1 X155.240 Y146.495 E0.01728
G1 X154.782 Y146.802 E0.01728
G1 X154.266 Y146.995 E0.01728
G1 X153.716 Y147.064 E0.01740
G1 X96.285 Y147.065 E1.80068
G1 X95.559 Y146.945 E0.02308
G1 X94.901 Y146.606 E0.02319
G1 X94.495 Y146.229 E0.01740
G1 X94.189 Y145.771 E0.01728
G1 X93.996 Y145.254 E0.01728
G1 X93.927 Y144.704 E0.01740
G1 X93.927 Y68.472 E2.39019
G1 X94.038 Y67.801 E0.02131
G1 F5760
G1 X94.386 Y67.084 E-0.27606
G1 F5760
G1 X94.757 Y66.683 E-0.18955
G1 F5760
G1 X95.211 Y66.377 E-0.18955
G1 F5760
G1 X95.494 Y66.269 E-0.10483
G1 E-0.04000 F2100.00000
G1 X98.892 Y119.335 F7200.000
G1 E0.80000 F2100.00000
G1 F1680
G1 X151.108 Y119.335 E1.63717
G1 X151.108 Y142.100 E0.71375
G1 X98.892 Y142.100 E1.63717
G1 X98.892 Y119.395 E0.71187
G1 X99.270 Y119.713 F7200.000
G1 F1260
G1 X150.731 Y119.713 E1.61352
G1 X150.731 Y141.722 E0.69011
G1 X99.270 Y141.722 E1.61352
G1 X99.270 Y119.773 E0.68823
G1 X99.118 Y119.342 F7200.000
G1 F5760
G1 X101.464 Y119.770 E-0.76000
G1 E-0.04000 F2100.00000
G1 X105.549 Y112.714 F7200.000
G1 E0.80000 F2100.00000
G1 F1680
G1 X119.709 Y75.268 E1.25521
G1 X128.700 Y75.268 E0.28193
G1 X142.703 Y112.714 E1.25348
G1 X133.156 Y112.714 E0.29935
G1 X130.413 Y104.636 E0.26746
G1 X117.685 Y104.636 E0.39906
G1 X114.840 Y112.714 E0.26850
G1 X105.609 Y112.714 E0.28945
G1 X106.094 Y112.336 F7200.000
G1 F1260
G1 X119.969 Y75.645 E1.22993
G1 X128.439 Y75.645 E0.26556
G1 X142.160 Y112.336 E1.22823
G1 X133.426 Y112.336 E0.27384
G1 X130.683 Y104.259 E0.26746
G1 X117.418 Y104.259 E0.41590
G1 X114.573 Y112.336 E0.26850
G1 X106.154 Y112.336 E0.26397
G1 X105.695 Y112.323 F7200.000
G1 F5760
G1 X106.928 Y110.283 E-0.76000
G1 E-0.04000 F2100.00000
G1 X134.699 Y85.324 F7200.000
G1 E0.80000 F2100.00000
G1 F1680
G1 X134.753 Y84.205 E0.03512
G1 X134.815 Y83.783 E0.01338
G1 X134.986 Y83.181 E0.01961
G1 X135.273 Y82.583 E0.02080
G1 X135.473 Y82.272 E0.01158
G1 X135.690 Y81.990 E0.01117
G1 X135.961 Y81.693 E0.01261
G1 X136.258 Y81.411 E0.01284
G1 X136.680 Y81.069 E0.01704
G1 X137.789 Y80.278 E0.04269
G1 X138.564 Y79.763 E0.02919
G1 X138.949 Y79.452 E0.01551
G1 X139.106 Y79.288 E0.00713
G1 X139.291 Y79.027 E0.01002
G1 X139.336 Y78.933 E0.00326
G1 X139.395 Y78.680 E0.00816
G1 X139.396 Y78.482 E0.00621
G1 X139.370 Y78.317 E0.00525
G1 X139.291 Y78.120 E0.00665
G1 X139.204 Y78.008 E0.00444
G1 X139.045 Y77.894 E0.00614
G1 X138.843 Y77.825 E0.00670
G1 X138.659 Y77.808 E0.00578
G1 X138.468 Y77.828 E0.00603
G1 X138.400 Y77.850 E0.00223
G1 X138.239 Y77.951 E0.00596
G1 X138.108 Y78.102 E0.00628
G1 X138.017 Y78.265 E0.00585
G1 X137.932 Y78.495 E0.00769
G1 X137.865 Y78.827 E0.01061
G1 X137.793 Y79.850 E0.03216
G1 X134.930 Y79.850 E0.08977
G1 X134.932 Y78.880 E0.03043
G1 X134.963 Y78.486 E0.01239
G1 X135.031 Y78.073 E0.01312
G1 X135.136 Y77.669 E0.01307
G1 X135.308 Y77.209 E0.01541
G1 X135.475 Y76.878 E0.01163
G1 X135.653 Y76.594 E0.01051
G1 X135.854 Y76.328 E0.01046
G1 X136.071 Y76.091 E0.01007
G1 X136.503 Y75.732 E0.01762
G1 X136.780 Y75.560 E0.01021
G1 X137.096 Y75.401 E0.01109
G1 X137.547 Y75.239 E0.01504
G1 X137.911 Y75.154 E0.01172
G1 X138.287 Y75.102 E0.01188
G1 X138.679 Y75.084 E0.01230
G1 X139.074 Y75.094 E0.01241
G1 X139.408 Y75.132 E0.01054
G1 X139.764 Y75.204 E0.01136
G1 X140.277 Y75.370 E0.01690
G1 X140.730 Y75.588 E0.01578
G1 X141.006 Y75.763 E0.01024
G1 X141.264 Y75.962 E0.01023
G1 X141.590 Y76.283 E0.01433
G1 X141.927 Y76.750 E0.01806
G1 X142.081 Y77.040 E0.01031
G1 X142.259 Y77.517 E0.01596
G1 X142.365 Y78.107 E0.01877
G1 X142.380 Y78.457 E0.01101
G1 X142.340 Y79.046 E0.01850
G1 X142.205 Y79.616 E0.01835
G1 X141.980 Y80.116 E0.01719
G1 X141.648 Y80.617 E0.01885
G1 X141.427 Y80.872 E0.01060
G1 X140.935 Y81.327 E0.02099
G1 X140.537 Y81.622 E0.01555
G1 X139.320 Y82.440 E0.04597
G1 X139.369 Y82.600 E0.00525
G1 X142.430 Y82.600 E0.09599
G1 X142.430 Y85.324 E0.08540
G1 X134.759 Y85.324 E0.24051
G1 X135.095 Y84.947 F7200.000
G1 F1260
G1 X135.128 Y84.241 E0.02214
G1 X135.184 Y83.862 E0.01202
G1 X135.340 Y83.316 E0.01782
G1 X135.603 Y82.767 E0.01908
G1 X135.781 Y82.490 E0.01033
G1 X135.979 Y82.233 E0.01017
G1 X136.231 Y81.957 E0.01171
G1 X136.507 Y81.694 E0.01195
G1 X136.909 Y81.369 E0.01620
G1 X138.003 Y80.589 E0.04213
G1 X138.788 Y80.067 E0.02954
G1 X139.205 Y79.730 E0.01682
G1 X139.392 Y79.535 E0.00850
G1 X139.621 Y79.211 E0.01241
G1 X139.694 Y79.059 E0.00530
G1 X139.771 Y78.724 E0.01078
G1 X139.773 Y78.454 E0.00847
G1 X139.736 Y78.216 E0.00754
G1 X139.621 Y77.929 E0.00970
G1 X139.467 Y77.733 E0.00781
G1 X139.220 Y77.555 E0.00956
G1 X138.922 Y77.453 E0.00987
G1 X138.657 Y77.429 E0.00835
G1 X138.389 Y77.457 E0.00842
G1 X138.240 Y77.506 E0.00492
G1 X138.011 Y77.649 E0.00848
G1 X137.940 Y77.713 E0.00301
G1 X137.795 Y77.889 E0.00714
G1 X137.674 Y78.107 E0.00783
G1 X137.568 Y78.392 E0.00951
G1 X137.490 Y78.776 E0.01230
G1 X137.441 Y79.473 E0.02191
G1 X135.308 Y79.473 E0.06690
G1 X135.309 Y78.895 E0.01813
G1 X135.338 Y78.531 E0.01144
G1 X135.400 Y78.151 E0.01208
G1 X135.496 Y77.783 E0.01190
G1 X135.654 Y77.361 E0.01415
G1 X135.804 Y77.063 E0.01045
G1 X135.963 Y76.808 E0.00944
G1 X136.144 Y76.569 E0.00938
G1 X136.331 Y76.365 E0.00870
G1 X136.724 Y76.039 E0.01601
G1 X136.964 Y75.889 E0.00886
G1 X137.245 Y75.749 E0.00984
G1 X137.654 Y75.601 E0.01365
G1 X137.980 Y75.525 E0.01048
G1 X138.321 Y75.478 E0.01080
G1 X138.683 Y75.461 E0.01135
G1 X139.048 Y75.470 E0.01146
G1 X139.349 Y75.505 E0.00950
G1 X139.668 Y75.570 E0.01021
G1 X140.136 Y75.720 E0.01542
G1 X140.547 Y75.918 E0.01428
G1 X140.789 Y76.072 E0.00901
G1 X141.016 Y76.247 E0.00897
G1 X141.303 Y76.529 E0.01262
G1 X141.606 Y76.950 E0.01625
G1 X141.736 Y77.195 E0.00873
G1 X141.894 Y77.617 E0.01412
G1 X141.989 Y78.148 E0.01691
G1 X142.002 Y78.453 E0.00956
G1 X141.966 Y78.990 E0.01687
G1 X141.847 Y79.494 E0.01624
G1 X141.649 Y79.933 E0.01510
G1 X141.348 Y80.388 E0.01712
G1 X141.156 Y80.609 E0.00918
G1 X140.694 Y81.036 E0.01970
G1 X140.319 Y81.314 E0.01464
G1 X138.961 Y82.226 E0.05129
G1 X138.534 Y82.550 E0.01681
G1 X138.045 Y82.977 E0.02035
G1 X142.053 Y82.977 E0.12566
G1 X142.053 Y84.947 E0.06175
G1 X135.155 Y84.947 E0.21628
G1 X134.695 Y84.971 F7200.000
G1 F5760
G1 X135.128 Y84.241 E-0.24444
G1 F5760
G1 X135.184 Y83.862 E-0.13277
G1 F5760
G1 X135.340 Y83.316 E-0.19685
G1 F5760
G1 X135.572 Y82.832 E-0.18594
G1 E-0.04000 F2100.00000
G1 X153.108 Y69.075 F7200.000
G1 E0.80000 F2100.00000
G1 F1680
G1 X153.108 Y144.100 E2.35238
G1 X96.892 Y144.100 E1.76264
G1 X96.892 Y69.075 E2.35238
G1 X153.048 Y69.075 E1.76076
G1 X153.486 Y68.697 F7200.000
G1 F1260
G1 X153.486 Y144.478 E2.37603
G1 X96.514 Y144.478 E1.78629
G1 X96.514 Y68.697 E2.37603
G1 X153.426 Y68.697 E1.78440
G1 X153.400 Y69.088 F7200.000
G1 F5760
G1 X153.427 Y70.892 E-0.76000
G1 E-0.04000 F2100.00000
G1 X124.198 Y86.662 F7200.000
G1 E0.80000 F2100.00000
G1 F840
G1 X127.928 Y97.519 E0.35994
G1 X120.184 Y97.519 E0.24281
G1 X124.038 Y86.661 E0.36125
G1 X124.138 Y86.661 E0.00316
G1 F5760
G1 X124.862 Y88.733 E-0.76000
G1 E-0.04000 F2100.00000
G1 X124.204 Y85.518 F7200.000
G1 E0.80000 F2100.00000
G1 F840
G1 X128.456 Y97.896 E0.41035
G1 X119.650 Y97.896 E0.27612
G1 X124.044 Y85.517 E0.41185
G1 X124.144 Y85.518 E0.00316
G1 X124.245 Y85.916 F7200.000
G1 F5760
G1 X124.866 Y87.590 E-0.76000
G1 E-0.04000 F2100.00000
G1 X124.600 Y88.179 F7200.000
G1 E0.80000 F2100.00000
G1 F1680
G1 X124.009 Y87.588 E0.02714
G1 X123.864 Y87.995 E0.01404
G1 X124.616 Y88.747 E0.03450
G1 X124.905 Y89.588 E0.02887
G1 X123.720 Y88.403 E0.05441
G1 X123.575 Y88.810 E0.01404
G1 X125.194 Y90.429 E0.07432
G1 X125.483 Y91.270 E0.02887
G1 X123.430 Y89.218 E0.09423
G1 X123.286 Y89.625 E0.01404
G1 X125.771 Y92.111 E0.11413
G1 X126.060 Y92.952 E0.02887
G1 X123.141 Y90.033 E0.13404
G1 X122.996 Y90.440 E0.01404
G1 X126.349 Y93.793 E0.15395
G1 X126.638 Y94.634 E0.02887
G1 X122.852 Y90.848 E0.17386
G1 X122.707 Y91.255 E0.01404
G1 X126.927 Y95.476 E0.19376
G1 X127.216 Y96.317 E0.02887
G1 X122.562 Y91.663 E0.21367
G1 X122.418 Y92.070 E0.01404
G1 X127.505 Y97.158 E0.23358
G1 X127.532 Y97.236 E0.00268
G1 X127.031 Y97.236 E0.01626
G1 X122.273 Y92.478 E0.21845
G1 X122.128 Y92.886 E0.01404
G1 X126.479 Y97.236 E0.19974
G1 X125.926 Y97.236 E0.01793
G1 X121.984 Y93.293 E0.18103
G1 X121.839 Y93.701 E0.01404
G1 X125.374 Y97.236 E0.16232
G1 X124.822 Y97.236 E0.01793
G1 X121.694 Y94.108 E0.14361
G1 X121.550 Y94.516 E0.01404
G1 X124.270 Y97.236 E0.12489
G1 X123.718 Y97.236 E0.01793
G1 X121.405 Y94.923 E0.10618
G1 X121.260 Y95.331 E0.01404
G1 X123.166 Y97.236 E0.08747
G1 X122.613 Y97.236 E0.01793
G1 X121.116 Y95.738 E0.06876
G1 X120.971 Y96.146 E0.01404
G1 X122.061 Y97.236 E0.05005
G1 X121.509 Y97.236 E0.01793
G1 X120.826 Y96.553 E0.03134
G1 X120.682 Y96.961 E0.01404
G1 X121.127 Y97.405 E0.02042
G1 F5760
G1 X120.682 Y96.961 E-0.21785
G1 F5760
G1 X120.826 Y96.553 E-0.14978
G1 F5760
G1 X121.509 Y97.236 E-0.33434
G1 F5760
G1 X121.677 Y97.236 E-0.05803
G1 E-0.04000 F2100.00000
G1 X137.143 Y80.244 F7200.000
G1 E0.80000 F2100.00000
G1 F1680
G1 X137.749 Y80.056 E0.00262
G1 X137.941 Y79.358 F7200.000
G1 F1680
G1 X138.229 Y79.646 E0.01320
G1 X138.547 Y79.413 E0.01275
G1 X138.136 Y79.002 E0.01883
G1 X138.145 Y78.865 E0.00444
G1 X138.219 Y78.535 E0.01096
G1 X138.836 Y79.152 E0.02826
G1 X138.975 Y78.994 E0.00680
G1 X139.068 Y78.833 E0.00603
G1 X138.415 Y78.180 E0.02989
G1 X138.425 Y78.168 E0.00050
G1 X138.527 Y78.106 E0.00385
G1 X138.661 Y78.092 E0.00437
G1 X138.783 Y78.103 E0.00397
G1 X138.914 Y78.148 E0.00447
G1 X139.283 Y78.497 E0.01644
G1 F5760
G1 X138.914 Y78.148 E-0.17592
G1 F5760
G1 X138.783 Y78.103 E-0.04778
G1 F5760
G1 X138.661 Y78.092 E-0.04249
G1 F5760
G1 X138.527 Y78.106 E-0.04677
G1 F5760
G1 X138.425 Y78.168 E-0.04124
G1 F5760
G1 X138.415 Y78.180 E-0.00539
G1 F5760
G1 X139.068 Y78.833 E-0.31978
G1 F5760
G1 X138.975 Y78.994 E-0.06451
G1 F5760
G1 X138.944 Y79.029 E-0.01612
G1 E-0.04000 F2100.00000
G1 X137.022 Y80.686 F7200.000
G1 E0.80000 F2100.00000
G1 F1680
G1 X136.470 Y80.133 E0.02455
G1 X135.935 Y80.133 E0.01678
G1 X136.589 Y80.786 E0.02903
G1 X136.290 Y81.021 E0.01195
G1 X135.232 Y79.963 E0.04699
G1 F5760
G1 X136.290 Y81.021 E-0.51826
G1 F5760
G1 X136.589 Y80.786 E-0.13177
G1 F5760
G1 X136.365 Y80.562 E-0.10997
G1 E-0.04000 F2100.00000
G1 X140.035 Y82.096 F7200.000
G1 E0.80000 F2100.00000
G1 F1680
G1 X140.257 Y82.317 E0.00985
G1 X140.791 Y82.317 E0.01678
G1 X140.477 Y82.003 E0.01395
G1 X140.792 Y81.785 E0.01206
G1 X141.325 Y82.317 E0.02365
G1 X141.859 Y82.317 E0.01678
G1 X141.099 Y81.557 E0.03375
G1 X141.378 Y81.302 E0.01187
G1 X152.826 Y92.750 E0.50843
G1 X152.826 Y92.216 E0.01678
G1 X141.653 Y81.043 E0.49622
G1 X141.897 Y80.753 E0.01190
G1 X152.826 Y91.682 E0.48537
G1 X152.826 Y91.147 E0.01678
G1 X142.110 Y80.432 E0.47593
G1 X142.229 Y80.253 E0.00675
G1 X142.302 Y80.090 E0.00561
G1 X152.826 Y90.613 E0.46740
G1 X152.826 Y90.079 E0.01678
G1 X142.468 Y79.721 E0.46004
G1 X142.572 Y79.292 E0.01388
G1 X152.826 Y89.545 E0.45539
G1 X152.826 Y89.011 E0.01678
G1 X142.638 Y78.824 E0.45246
G1 X142.657 Y78.308 E0.01622
G1 X152.826 Y88.477 E0.45165
G1 X152.826 Y87.943 E0.01678
G1 X142.578 Y77.695 E0.45513
G1 X142.533 Y77.442 E0.00807
G1 X142.337 Y76.920 E0.01752
G1 X152.995 Y87.578 E0.47339
G1 F5760
G1 X151.444 Y86.026 E-0.76000
G1 E-0.04000 F2100.00000
G1 X152.995 Y93.454 F7200.000
G1 E0.80000 F2100.00000
G1 F1680
G1 X142.713 Y83.171 E0.45670
G1 X142.713 Y83.705 E0.01678
G1 X152.826 Y93.818 E0.44916
G1 X152.826 Y94.352 E0.01678
G1 X142.713 Y84.239 E0.44916
G1 X142.713 Y84.773 E0.01678
G1 X152.826 Y94.886 E0.44916
G1 X152.826 Y95.421 E0.01678
G1 X142.713 Y85.308 E0.44916
G1 X142.713 Y85.607 E0.00939
G1 X142.477 Y85.607 E0.00739
G1 X152.826 Y95.955 E0.45961
G1 X152.826 Y96.489 E0.01678
G1 X141.943 Y85.607 E0.48333
G1 X141.409 Y85.607 E0.01678
G1 X152.826 Y97.023 E0.50706
G1 X152.826 Y97.557 E0.01678
G1 X140.875 Y85.607 E0.53078
G1 X140.341 Y85.607 E0.01678
G1 X152.826 Y98.091 E0.55450
G1 X152.826 Y98.625 E0.01678
G1 X139.807 Y85.607 E0.57823
G1 X139.273 Y85.607 E0.01678
G1 X152.826 Y99.160 E0.60195
G1 X152.826 Y99.694 E0.01678
G1 X138.738 Y85.607 E0.62567
G1 X138.204 Y85.607 E0.01678
G1 X152.826 Y100.228 E0.64940
G1 X152.826 Y100.762 E0.01678
G1 X137.670 Y85.607 E0.67312
G1 X137.136 Y85.607 E0.01678
G1 X152.826 Y101.296 E0.69685
G1 X152.826 Y101.830 E0.01678
G1 X136.602 Y85.607 E0.72057
G1 X136.068 Y85.607 E0.01678
G1 X152.826 Y102.364 E0.74429
G1 X152.826 Y102.899 E0.01678
G1 X135.534 Y85.607 E0.76802
G1 X134.999 Y85.607 E0.01678
G1 X152.826 Y103.433 E0.79174
G1 X152.826 Y103.967 E0.01678
G1 X131.914 Y83.056 E0.92876
G1 X132.234 Y83.909 E0.02861
G1 X152.826 Y104.501 E0.91459
G1 X152.826 Y105.035 E0.01678
G1 X132.553 Y84.762 E0.90041
G1 X132.872 Y85.615 E0.02861
G1 X152.826 Y105.569 E0.88624
G1 X152.826 Y106.103 E0.01678
G1 X133.191 Y86.469 E0.87207
G1 X133.510 Y87.322 E0.02861
G1 X152.826 Y106.638 E0.85790
G1 X152.826 Y107.172 E0.01678
G1 X133.829 Y88.175 E0.84373
G1 X134.148 Y89.028 E0.02861
G1 X152.826 Y107.706 E0.82956
G1 X152.826 Y108.240 E0.01678
G1 X134.467 Y89.881 E0.81539
G1 X134.786 Y90.735 E0.02861
G1 X152.826 Y108.774 E0.80122
G1 X152.826 Y109.308 E0.01678
G1 X135.105 Y91.588 E0.78705
G1 X135.424 Y92.441 E0.02861
G1 X152.826 Y109.842 E0.77288
G1 X152.826 Y110.377 E0.01678
G1 X135.743 Y93.294 E0.75871
G1 X136.062 Y94.147 E0.02861
G1 X152.826 Y110.911 E0.74454
G1 X152.826 Y111.445 E0.01678
G1 X136.381 Y95.001 E0.73037
G1 X136.700 Y95.854 E0.02861
G1 X152.826 Y111.979 E0.71620
G1 X152.826 Y112.513 E0.01678
G1 X137.019 Y96.707 E0.70203
G1 X137.338 Y97.560 E0.02861
G1 X152.826 Y113.047 E0.68786
G1 X152.826 Y113.582 E0.01678
G1 X137.657 Y98.413 E0.67369
G1 X137.977 Y99.267 E0.02861
G1 X152.826 Y114.116 E0.65951
G1 X152.826 Y114.650 E0.01678
G1 X138.296 Y100.120 E0.64534
G1 X138.615 Y100.973 E0.02861
G1 X152.826 Y115.184 E0.63117
G1 X152.826 Y115.718 E0.01678
G1 X138.934 Y101.826 E0.61700
G1 X139.253 Y102.679 E0.02861
G1 X152.826 Y116.252 E0.60283
G1 X152.826 Y116.786 E0.01678
G1 X139.572 Y103.533 E0.58866
G1 X139.891 Y104.386 E0.02861
G1 X152.826 Y117.321 E0.57449
G1 X152.826 Y117.855 E0.01678
G1 X140.210 Y105.239 E0.56032
G1 X140.529 Y106.092 E0.02861
G1 X152.826 Y118.389 E0.54615
G1 X152.826 Y118.923 E0.01678
G1 X140.848 Y106.945 E0.53198
G1 X141.167 Y107.799 E0.02861
G1 X152.826 Y119.457 E0.51781
G1 X152.826 Y119.991 E0.01678
G1 X141.486 Y108.652 E0.50364
G1 X141.805 Y109.505 E0.02861
G1 X152.826 Y120.525 E0.48947
G1 X152.826 Y121.060 E0.01678
G1 X151.390 Y119.624 E0.06375
G1 X151.390 Y120.158 E0.01678
G1 X152.826 Y121.594 E0.06375
G1 X152.826 Y122.128 E0.01678
G1 X151.390 Y120.693 E0.06375
G1 X151.390 Y121.227 E0.01678
G1 X152.826 Y122.662 E0.06375
G1 X152.826 Y123.196 E0.01678
G1 X151.390 Y121.761 E0.06375
G1 X151.390 Y122.295 E0.01678
G1 X152.826 Y123.730 E0.06375
G1 X152.826 Y124.264 E0.01678
G1 X151.390 Y122.829 E0.06375
G1 X151.390 Y123.363 E0.01678
