; generated by Slic3r 1.34.1-prusa3d on 2017-08-07 at 21:56:04

; external perimeters extrusion width = 0.45mm
; perimeters extrusion width = 0.45mm
; infill extrusion width = 0.45mm
; solid infill extrusion width = 0.45mm
; top infill extrusion width = 0.40mm

M107
M115 U3.0.12 ; tell printer latest fw version
M83  ; extruder relative mode
M104 S215 ; set extruder temp
M140 S55 ; set bed temp
M190 S55 ; wait for bed temp
M109 S215 ; wait for extruder temp
G28 W ; home all without mesh bed level
G80 ; mesh bed leveling
G1 Y-3.0 F1000.0 ; go outside pritn area
G1 X60.0 E9.0  F1000.0 ; intro line
G1 X100.0 E12.5  F1000.0 ; intro line
G21 ; set units to millimeters
G90 ; use absolute coordinates
M83 ; use relative distances for extrusion
G1 E-0.80000 F2100.00000
G1 Z0.200 F7200.000
G1 X95.939 Y67.782 F7200.000
G1 E0.80000 F2100.00000
M204 S1000
G1 F2100
G1 X96.245 Y67.150 E0.02201
G1 X96.617 Y66.723 E0.01775
G1 X97.076 Y66.398 E0.01763
G1 X97.602 Y66.189 E0.01775
G1 X98.163 Y66.111 E0.01775
G1 X151.794 Y66.110 E1.68158
G1 X152.689 Y66.287 E0.02860
G1 X153.452 Y66.788 E0.02860
G1 X153.970 Y67.539 E0.02860
G1 X154.167 Y68.429 E0.02860
G1 X154.168 Y144.699 E2.39138
G1 X154.061 Y145.393 E0.02201
G1 X153.755 Y146.025 E0.02201
G1 X153.381 Y146.454 E0.01787
G1 X152.914 Y146.782 E0.01787
G1 X152.383 Y146.989 E0.01787
G1 X151.814 Y147.064 E0.01799
G1 X98.190 Y147.065 E1.68134
G1 X97.497 Y146.955 E0.02201
G1 X96.869 Y146.650 E0.02190
G1 X96.440 Y146.275 E0.01787
G1 X96.113 Y145.808 E0.01787
G1 X95.907 Y145.277 E0.01787
G1 X95.833 Y144.708 E0.01799
G1 X95.832 Y68.476 E2.39019
G1 X95.930 Y67.841 E0.02013
G1 F5760
G1 X96.245 Y67.150 E-0.26312
G1 F5760
G1 X96.617 Y66.723 E-0.19610
G1 F5760
G1 X97.076 Y66.398 E-0.19479
G1 F5760
G1 X97.360 Y66.285 E-0.10599
G1 E-0.04000 F2100.00000
G1 X100.797 Y119.335 F7200.000
G1 E0.80000 F2100.00000
G1 F1680
G1 X149.203 Y119.335 E1.51771
G1 X149.203 Y142.100 E0.71375
G1 X100.797 Y142.100 E1.51771
G1 X100.797 Y119.395 E0.71187
G1 X101.175 Y119.713 F7200.000
G1 F1260
G1 X148.825 Y119.713 E1.49406
G1 X148.825 Y141.722 E0.69011
G1 X101.175 Y141.722 E1.49406
G1 X101.175 Y119.773 E0.68823
G1 X101.026 Y119.341 F7200.000
G1 F5760
G1 X103.369 Y119.770 E-0.76000
G1 E-0.04000 F2100.00000
G1 X105.549 Y112.714 F7200.000
G1 E0.80000 F2100.00000
G1 F1680
G1 X119.709 Y75.268 E1.25521
G1 X128.700 Y75.268 E0.28193
G1 X142.703 Y112.714 E1.25348
G1 X133.156 Y112.714 E0.29935
G1 X130.413 Y104.636 E0.26746
G1 X117.685 Y104.636 E0.39906
G1 X114.840 Y112.714 E0.26850
G1 X105.609 Y112.714 E0.28945
G1 X106.094 Y112.336 F7200.000
G1 F1260
G1 X119.969 Y75.645 E1.22993
G1 X128.439 Y75.645 E0.26556
G1 X142.160 Y112.336 E1.22823
G1 X133.426 Y112.336 E0.27384
G1 X130.683 Y104.259 E0.26746
G1 X117.418 Y104.259 E0.41590
G1 X114.573 Y112.336 E0.26850
G1 X106.154 Y112.336 E0.26397
G1 X105.695 Y112.323 F7200.000
G1 F5760
G1 X106.928 Y110.283 E-0.76000
G1 E-0.04000 F2100.00000
G1 X134.672 Y81.089 F7200.000
G1 E0.80000 F2100.00000
G1 F840
G1 X137.357 Y81.089 E0.08417
G1 X137.357 Y79.329 E0.05517
G1 X134.859 Y79.329 E0.07831
G1 X134.936 Y78.326 E0.03155
G1 X134.991 Y77.971 E0.01126
G1 X135.081 Y77.604 E0.01185
G1 X135.195 Y77.271 E0.01105
G1 X135.394 Y76.847 E0.01469
G1 X135.565 Y76.567 E0.01026
G1 X135.938 Y76.112 E0.01846
G1 X136.271 Y75.817 E0.01395
G1 X136.539 Y75.630 E0.01024
G1 X137.094 Y75.348 E0.01952
G1 X137.462 Y75.225 E0.01216
G1 X137.808 Y75.146 E0.01114
G1 X138.167 Y75.098 E0.01134
G1 X138.515 Y75.083 E0.01093
G1 X139.008 Y75.104 E0.01546
G1 X139.408 Y75.166 E0.01270
G1 X139.811 Y75.267 E0.01303
G1 X140.368 Y75.483 E0.01874
G1 X140.678 Y75.652 E0.01106
G1 X141.123 Y75.975 E0.01725
G1 X141.470 Y76.324 E0.01542
G1 X141.792 Y76.780 E0.01749
G1 X141.957 Y77.124 E0.01197
G1 X142.037 Y77.360 E0.00781
G1 X142.127 Y77.845 E0.01547
G1 X142.128 Y78.401 E0.01744
G1 X142.086 Y78.700 E0.00948
G1 X141.956 Y79.157 E0.01489
G1 X141.734 Y79.598 E0.01548
G1 X141.490 Y79.895 E0.01204
G1 X141.616 Y79.988 E0.00493
G1 X141.929 Y80.325 E0.01442
G1 X142.177 Y80.716 E0.01450
G1 X142.359 Y81.174 E0.01547
G1 X142.455 Y81.688 E0.01638
G1 X142.469 Y81.994 E0.00963
G1 X142.450 Y82.376 E0.01198
G1 X142.405 Y82.689 E0.00991
G1 X142.331 Y83.001 E0.01006
G1 X142.137 Y83.497 E0.01669
G1 X141.873 Y83.940 E0.01617
G1 X141.667 Y84.205 E0.01051
G1 X141.256 Y84.603 E0.01795
G1 X140.953 Y84.823 E0.01176
G1 X140.661 Y84.995 E0.01062
G1 X140.352 Y85.142 E0.01071
G1 X139.997 Y85.273 E0.01187
G1 X139.450 Y85.410 E0.01770
G1 X139.016 Y85.470 E0.01372
G1 X138.581 Y85.489 E0.01366
G1 X138.153 Y85.473 E0.01343
G1 X137.770 Y85.428 E0.01209
G1 X137.373 Y85.347 E0.01268
G1 X137.011 Y85.238 E0.01186
G1 X136.504 Y85.017 E0.01735
G1 X136.206 Y84.840 E0.01085
G1 X135.761 Y84.485 E0.01787
G1 X135.417 Y84.099 E0.01621
G1 X135.245 Y83.847 E0.00956
G1 X135.087 Y83.564 E0.01016
G1 X134.951 Y83.259 E0.01049
G1 X134.826 Y82.879 E0.01253
G1 X134.751 Y82.532 E0.01114
G1 X134.703 Y82.140 E0.01236
G1 X134.674 Y81.149 E0.03110
G1 X135.061 Y81.466 F7200.000
G1 F1260
G1 X137.185 Y81.466 E0.06662
G1 X137.219 Y81.883 E0.01313
G1 X137.308 Y82.296 E0.01325
G1 X137.366 Y82.455 E0.00529
G1 X137.492 Y82.686 E0.00826
G1 X137.691 Y82.916 E0.00952
G1 X137.862 Y83.043 E0.00669
G1 X138.055 Y83.137 E0.00674
G1 X138.251 Y83.191 E0.00638
G1 X138.558 Y83.218 E0.00965
G1 X138.701 Y83.212 E0.00450
G1 X139.061 Y83.130 E0.01155
G1 X139.260 Y83.032 E0.00697
G1 X139.442 Y82.897 E0.00711
G1 X139.567 Y82.763 E0.00573
G1 X139.663 Y82.614 E0.00557
G1 X139.765 Y82.316 E0.00988
G1 X139.791 Y82.026 E0.00913
G1 X139.769 Y81.736 E0.00911
G1 X139.717 Y81.539 E0.00640
G1 X139.662 Y81.423 E0.00402
G1 X139.566 Y81.299 E0.00492
G1 X139.444 Y81.187 E0.00520
G1 X139.307 Y81.103 E0.00505
G1 X138.987 Y80.991 E0.01061
G1 X138.618 Y80.939 E0.01167
G1 X137.734 Y80.915 E0.02775
G1 X137.734 Y79.222 E0.05309
G1 X138.246 Y79.243 E0.01606
G1 X138.547 Y79.231 E0.00944
G1 X138.817 Y79.191 E0.00859
G1 X139.094 Y79.103 E0.00910
G1 X139.303 Y78.988 E0.00748
G1 X139.427 Y78.881 E0.00515
G1 X139.550 Y78.714 E0.00648
G1 X139.591 Y78.609 E0.00354
G1 X139.620 Y78.448 E0.00513
G1 X139.622 Y78.239 E0.00656
G1 X139.597 Y78.070 E0.00534
G1 X139.514 Y77.850 E0.00740
G1 X139.381 Y77.677 E0.00684
G1 X139.112 Y77.487 E0.01031
G1 X138.813 Y77.387 E0.00988
G1 X138.460 Y77.370 E0.01109
G1 X138.146 Y77.429 E0.01000
G1 X137.980 Y77.501 E0.00567
G1 X137.775 Y77.659 E0.00813
G1 X137.622 Y77.865 E0.00804
G1 X137.518 Y78.082 E0.00753
G1 X137.477 Y78.210 E0.00423
G1 X137.422 Y78.548 E0.01074
G1 X137.412 Y78.952 E0.01267
G1 X135.266 Y78.952 E0.06729
G1 X135.311 Y78.370 E0.01832
G1 X135.361 Y78.045 E0.01029
G1 X135.443 Y77.710 E0.01081
G1 X135.545 Y77.412 E0.00988
G1 X135.727 Y77.026 E0.01340
G1 X135.873 Y76.786 E0.00880
G1 X136.211 Y76.374 E0.01671
G1 X136.505 Y76.113 E0.01231
G1 X136.733 Y75.954 E0.00873
G1 X137.240 Y75.697 E0.01783
G1 X137.564 Y75.588 E0.01071
G1 X137.875 Y75.518 E0.01000
G1 X138.200 Y75.474 E0.01027
G1 X138.515 Y75.461 E0.00990
G1 X138.971 Y75.480 E0.01430
G1 X139.333 Y75.536 E0.01150
G1 X139.697 Y75.627 E0.01175
G1 X140.209 Y75.826 E0.01723
G1 X140.476 Y75.972 E0.00954
G1 X140.877 Y76.263 E0.01554
G1 X141.180 Y76.568 E0.01348
G1 X141.466 Y76.972 E0.01551
G1 X141.607 Y77.266 E0.01025
G1 X141.671 Y77.455 E0.00624
G1 X141.750 Y77.880 E0.01355
G1 X141.751 Y78.375 E0.01553
G1 X141.716 Y78.623 E0.00783
G1 X141.603 Y79.020 E0.01294
G1 X141.417 Y79.391 E0.01304
G1 X141.139 Y79.728 E0.01368
G1 X140.863 Y79.940 E0.01092
G1 X141.077 Y80.057 E0.00766
G1 X141.363 Y80.270 E0.01118
G1 X141.629 Y80.557 E0.01225
G1 X141.839 Y80.888 E0.01231
G1 X141.995 Y81.279 E0.01321
G1 X142.079 Y81.731 E0.01440
G1 X142.091 Y81.994 E0.00825
G1 X142.074 Y82.340 E0.01087
G1 X142.035 Y82.618 E0.00881
G1 X141.970 Y82.888 E0.00870
G1 X141.797 Y83.331 E0.01490
G1 X141.561 Y83.727 E0.01446
G1 X141.386 Y83.952 E0.00895
G1 X141.013 Y84.314 E0.01628
G1 X140.746 Y84.508 E0.01036
G1 X140.484 Y84.662 E0.00952
G1 X140.206 Y84.794 E0.00965
G1 X139.886 Y84.912 E0.01071
G1 X139.378 Y85.040 E0.01642
G1 X138.982 Y85.094 E0.01253
G1 X138.580 Y85.112 E0.01263
G1 X138.182 Y85.097 E0.01247
G1 X137.830 Y85.055 E0.01112
G1 X137.466 Y84.981 E0.01165
G1 X137.141 Y84.883 E0.01062
G1 X136.676 Y84.681 E0.01591
G1 X136.421 Y84.529 E0.00930
G1 X136.021 Y84.210 E0.01605
G1 X135.715 Y83.866 E0.01445
G1 X135.565 Y83.648 E0.00828
G1 X135.424 Y83.395 E0.00908
G1 X135.303 Y83.123 E0.00935
G1 X135.191 Y82.780 E0.01131
G1 X135.123 Y82.469 E0.00999
G1 X135.080 Y82.112 E0.01127
G1 X135.062 Y81.526 E0.01838
G1 X135.052 Y81.066 F7200.000
G1 F5760
G1 X137.185 Y81.466 E-0.73559
G1 F5760
G1 X137.191 Y81.536 E-0.02441
G1 E-0.04000 F2100.00000
G1 X151.203 Y69.075 F7200.000
G1 E0.80000 F2100.00000
G1 F1680
G1 X151.203 Y144.100 E2.35238
G1 X98.797 Y144.100 E1.64318
G1 X98.797 Y69.075 E2.35238
G1 X151.143 Y69.075 E1.64130
G1 F5760
G1 X151.145 Y71.269 E-0.76000
G1 E-0.04000 F2100.00000
G1 X139.288 Y81.555 F7200.000
G1 E0.80000 F2100.00000
G1 F840
G1 X139.362 Y81.669 E0.00425
G1 X139.398 Y81.807 E0.00446
G1 X139.413 Y82.016 E0.00659
G1 X139.392 Y82.255 E0.00752
G1 X139.326 Y82.440 E0.00617
G1 X139.268 Y82.531 E0.00336
G1 X139.062 Y82.709 E0.00854
G1 X138.925 Y82.777 E0.00479
G1 X138.760 Y82.823 E0.00539
G1 X138.566 Y82.840 E0.00610
G1 X138.318 Y82.819 E0.00780
G1 X138.190 Y82.783 E0.00419
G1 X138.059 Y82.719 E0.00456
G1 X137.948 Y82.637 E0.00432
G1 X137.804 Y82.471 E0.00692
G1 X137.671 Y82.191 E0.00972
G1 X137.592 Y81.828 E0.01162
G1 X137.549 Y81.287 E0.01702
G1 X138.587 Y81.316 E0.03254
G1 X138.898 Y81.359 E0.00984
G1 X139.143 Y81.445 E0.00815
G1 X139.244 Y81.515 E0.00383
G1 F5760
G1 X139.362 Y81.669 E-0.06726
G1 F5760
G1 X139.398 Y81.807 E-0.04922
G1 F5760
G1 X139.413 Y82.016 E-0.07278
G1 F5760
G1 X139.392 Y82.255 E-0.08306
G1 F5760
G1 X139.326 Y82.440 E-0.06815
G1 F5760
G1 X139.268 Y82.531 E-0.03710
G1 F5760
G1 X139.062 Y82.709 E-0.09438
G1 F5760
G1 X138.925 Y82.777 E-0.05293
G1 F5760
G1 X138.760 Y82.823 E-0.05954
G1 F5760
G1 X138.566 Y82.840 E-0.06735
G1 F5760
G1 X138.318 Y82.819 E-0.08612
G1 F5760
G1 X138.257 Y82.802 E-0.02211
G1 E-0.04000 F2100.00000
G1 X137.792 Y78.847 F7200.000
G1 E0.80000 F2100.00000
G1 F840
G1 X137.798 Y78.583 E0.00826
G1 X137.869 Y78.221 E0.01157
G1 X137.946 Y78.061 E0.00557
G1 X138.064 Y77.903 E0.00617
G1 X138.166 Y77.832 E0.00391
G1 X138.258 Y77.792 E0.00314
G1 X138.486 Y77.749 E0.00727
G1 X138.751 Y77.762 E0.00834
G1 X138.924 Y77.816 E0.00567
G1 X139.117 Y77.952 E0.00741
G1 X139.181 Y78.035 E0.00330
G1 X139.230 Y78.166 E0.00437
G1 X139.244 Y78.412 E0.00774
G1 X139.224 Y78.520 E0.00344
G1 X139.086 Y78.677 E0.00653
G1 X138.851 Y78.791 E0.00821
G1 X138.511 Y78.855 E0.01083
G1 X138.246 Y78.866 E0.00832
G1 X137.852 Y78.849 E0.01237
G1 F5760
G1 X137.798 Y78.583 E-0.09399
G1 F5760
G1 X137.869 Y78.221 E-0.12779
G1 F5760
G1 X137.946 Y78.061 E-0.06152
G1 F5760
G1 X138.064 Y77.903 E-0.06811
G1 F5760
G1 X138.166 Y77.832 E-0.04321
G1 F5760
G1 X138.258 Y77.792 E-0.03471
G1 F5760
G1 X138.486 Y77.749 E-0.08034
G1 F5760
G1 X138.751 Y77.762 E-0.09209
G1 F5760
G1 X138.924 Y77.816 E-0.06259
G1 F5760
G1 X139.117 Y77.952 E-0.08181
G1 F5760
G1 X139.141 Y77.984 E-0.01386
G1 E-0.04000 F2100.00000
G1 X151.581 Y68.697 F7200.000
G1 E0.80000 F2100.00000
G1 F1260
G1 X151.581 Y144.478 E2.37603
G1 X98.419 Y144.478 E1.66683
G1 X98.419 Y68.697 E2.37603
G1 X151.520 Y68.697 E1.66494
G1 X151.499 Y69.089 F7200.000
G1 F5760
G1 X151.522 Y70.892 E-0.76000
G1 E-0.04000 F2100.00000
G1 X124.198 Y86.662 F7200.000
G1 E0.80000 F2100.00000
G1 F840
G1 X127.928 Y97.519 E0.35994
G1 X120.184 Y97.519 E0.24281
G1 X124.038 Y86.661 E0.36125
G1 X124.138 Y86.661 E0.00316
G1 F5760
G1 X124.862 Y88.733 E-0.76000
G1 E-0.04000 F2100.00000
G1 X124.204 Y85.518 F7200.000
G1 E0.80000 F2100.00000
G1 F840
G1 X128.456 Y97.896 E0.41035
G1 X119.650 Y97.896 E0.27612
G1 X124.044 Y85.517 E0.41185
G1 X124.144 Y85.518 E0.00316
G1 X124.245 Y85.916 F7200.000
G1 F5760
G1 X124.866 Y87.590 E-0.76000
G1 E-0.04000 F2100.00000
G1 X124.600 Y88.179 F7200.000
G1 E0.80000 F2100.00000
G1 F1680
G1 X124.009 Y87.588 E0.02714
G1 X123.864 Y87.995 E0.01404
G1 X124.616 Y88.747 E0.03450
G1 X124.905 Y89.588 E0.02887
G1 X123.720 Y88.403 E0.05441
G1 X123.575 Y88.810 E0.01404
G1 X125.194 Y90.429 E0.07432
G1 X125.483 Y91.270 E0.02887
G1 X123.430 Y89.218 E0.09423
G1 X123.286 Y89.625 E0.01404
G1 X125.771 Y92.111 E0.11413
G1 X126.060 Y92.952 E0.02887
G1 X123.141 Y90.033 E0.13404
G1 X122.996 Y90.440 E0.01404
G1 X126.349 Y93.793 E0.15395
G1 X126.638 Y94.634 E0.02887
G1 X122.852 Y90.848 E0.17386
G1 X122.707 Y91.255 E0.01404
G1 X126.927 Y95.476 E0.19376
G1 X127.216 Y96.317 E0.02887
G1 X122.562 Y91.663 E0.21367
G1 X122.418 Y92.070 E0.01404
G1 X127.505 Y97.158 E0.23358
G1 X127.532 Y97.236 E0.00268
G1 X127.031 Y97.236 E0.01626
G1 X122.273 Y92.478 E0.21845
G1 X122.128 Y92.886 E0.01404
G1 X126.479 Y97.236 E0.19974
G1 X125.926 Y97.236 E0.01793
G1 X121.984 Y93.293 E0.18103
G1 X121.839 Y93.701 E0.01404
G1 X125.374 Y97.236 E0.16232
G1 X124.822 Y97.236 E0.01793
G1 X121.694 Y94.108 E0.14361
G1 X121.550 Y94.516 E0.01404
G1 X124.270 Y97.236 E0.12489
G1 X123.718 Y97.236 E0.01793
G1 X121.405 Y94.923 E0.10618
G1 X121.260 Y95.331 E0.01404
G1 X123.166 Y97.236 E0.08747
G1 X122.613 Y97.236 E0.01793
G1 X121.116 Y95.738 E0.06876
G1 X120.971 Y96.146 E0.01404
G1 X122.061 Y97.236 E0.05005
G1 X121.509 Y97.236 E0.01793
G1 X120.826 Y96.553 E0.03134
G1 X120.682 Y96.961 E0.01404
G1 X121.127 Y97.405 E0.02042
G1 F5760
G1 X120.682 Y96.961 E-0.21785
G1 F5760
G1 X120.826 Y96.553 E-0.14978
G1 F5760
G1 X121.509 Y97.236 E-0.33434
G1 F5760
G1 X121.677 Y97.236 E-0.05803
G1 E-0.04000 F2100.00000
G1 X137.765 Y82.051 F7200.000
G1 E0.80000 F2100.00000
G1 F1680
G1 X138.145 Y82.431 E0.01700
G1 X138.291 Y82.518 E0.00536
G1 X138.566 Y82.556 E0.00880
G1 X138.777 Y82.525 E0.00675
G1 X137.858 Y81.606 E0.04108
G1 X137.856 Y81.579 E0.00088
G1 X138.383 Y81.593 E0.01668
G1 X139.207 Y82.417 E0.03685
G1 F5760
G1 X138.383 Y81.593 E-0.40346
G1 F5760
G1 X137.856 Y81.579 E-0.18258
G1 F5760
G1 X137.858 Y81.606 E-0.00968
G1 F5760
G1 X138.194 Y81.942 E-0.16428
G1 E-0.04000 F2100.00000
G1 X138.773 Y78.693 F7200.000
G1 E0.80000 F2100.00000
G1 F1680
G1 X138.232 Y78.151 E0.02849
G1 X138.255 Y78.119 E0.00147
G1 X138.357 Y78.061 E0.00436
G1 X138.505 Y78.033 E0.00561
G1 X138.701 Y78.042 E0.00730
G1 X138.781 Y78.068 E0.00312
G1 X139.128 Y78.415 E0.01825
G1 F5760
G1 X138.781 Y78.068 E-0.16992
G1 F5760
G1 X138.701 Y78.042 E-0.02910
G1 F5760
G1 X138.505 Y78.033 E-0.06799
G1 F5760
G1 X138.357 Y78.061 E-0.05220
G1 F5760
G1 X138.255 Y78.119 E-0.04058
G1 F5760
G1 X138.232 Y78.151 E-0.01367
G1 F5760
G1 X138.773 Y78.693 E-0.26531
G1 E-0.16124 F2100.00000
G1 X137.244 Y80.127 F7200.000
G1 E0.80000 F2100.00000
G1 F1680
G1 X136.729 Y79.612 E0.02287
G1 X136.195 Y79.612 E0.01676
G1 X137.074 Y80.491 E0.03903
G1 X137.074 Y80.806 E0.00987
G1 X136.855 Y80.806 E0.00688
G1 X135.661 Y79.612 E0.05300
G1 X135.127 Y79.612 E0.01676
G1 X136.321 Y80.806 E0.05300
G1 X135.787 Y80.806 E0.01676
G1 X124.338 Y69.357 E0.50820
G1 X123.805 Y69.357 E0.01676
G1 X135.253 Y80.806 E0.50820
G1 X134.719 Y80.806 E0.01676
G1 X123.271 Y69.357 E0.50820
G1 X122.737 Y69.357 E0.01676
G1 X128.365 Y74.985 E0.24983
G1 X128.001 Y75.155 F7200.000
G1 F1680
G1 X122.203 Y69.357 E0.25736
G1 X121.669 Y69.357 E0.01676
G1 X127.297 Y74.985 E0.24983
G1 X126.763 Y74.985 E0.01676
G1 X121.135 Y69.357 E0.24983
G1 X120.601 Y69.357 E0.01676
G1 X126.229 Y74.985 E0.24983
G1 X125.696 Y74.985 E0.01676
G1 X120.068 Y69.357 E0.24983
G1 X119.534 Y69.357 E0.01676
G1 X125.162 Y74.985 E0.24983
G1 X124.628 Y74.985 E0.01676
G1 X119.000 Y69.357 E0.24983
G1 X118.466 Y69.357 E0.01676
G1 X124.094 Y74.985 E0.24983
G1 X123.560 Y74.985 E0.01676
G1 X117.932 Y69.357 E0.24983
G1 X117.398 Y69.357 E0.01676
G1 X123.026 Y74.985 E0.24983
G1 X122.493 Y74.985 E0.01676
G1 X116.864 Y69.357 E0.24983
G1 X116.331 Y69.357 E0.01676
G1 X121.959 Y74.985 E0.24983
G1 X121.425 Y74.985 E0.01676
G1 X115.797 Y69.357 E0.24983
G1 X115.263 Y69.357 E0.01676
G1 X120.891 Y74.985 E0.24983
G1 X120.357 Y74.985 E0.01676
G1 X114.729 Y69.357 E0.24983
G1 X114.195 Y69.357 E0.01676
