; generated by Slic3r 1.34.1-prusa3d on 2017-08-07 at 21:51:36

; external perimeters extrusion width = 0.45mm
; perimeters extrusion width = 0.45mm
; infill extrusion width = 0.45mm
; solid infill extrusion width = 0.45mm
; top infill extrusion width = 0.40mm

M107
M115 U3.0.12 ; tell printer latest fw version
M83  ; extruder relative mode
M104 S215 ; set extruder temp
M140 S55 ; set bed temp
M190 S55 ; wait for bed temp
M109 S215 ; wait for extruder temp
G28 W ; home all without mesh bed level
G80 ; mesh bed leveling
G1 Y-3.0 F1000.0 ; go outside pritn area
G1 X60.0 E9.0  F1000.0 ; intro line
G1 X100.0 E12.5  F1000.0 ; intro line
G21 ; set units to millimeters
G90 ; use absolute coordinates
M83 ; use relative distances for extrusion
G1 E-0.80000 F2100.00000
G1 Z0.200 F7200.000
G1 X101.609 Y57.172 F7200.000
G1 E0.80000 F2100.00000
M204 S1000
G1 F2100
G1 X102.774 Y57.768 E0.04103
G1 X103.757 Y58.624 E0.04085
G1 X169.039 Y135.262 E3.15654
G1 X169.431 Y135.888 E0.02315
G1 X169.735 Y136.567 E0.02333
G1 X169.941 Y137.276 E0.02315
G1 X170.049 Y138.006 E0.02315
G1 X170.051 Y148.323 E0.32348
G1 X169.842 Y149.476 E0.03675
G1 X169.388 Y150.557 E0.03675
G1 X168.714 Y151.509 E0.03657
G1 X167.846 Y152.297 E0.03675
G1 X167.144 Y152.728 E0.02584
G1 X166.384 Y153.048 E0.02584
G1 X165.585 Y153.247 E0.02584
G1 X164.758 Y153.322 E0.02602
G1 X88.413 Y153.322 E2.39375
G1 X87.177 Y153.160 E0.03907
G1 X86.012 Y152.719 E0.03907
G1 X84.980 Y152.021 E0.03907
G1 X84.136 Y151.104 E0.03907
G1 X83.636 Y150.264 E0.03067
G1 X83.295 Y149.341 E0.03085
G1 X80.086 Y136.511 E0.41466
G1 X79.942 Y135.503 E0.03192
G1 X79.936 Y84.140 E1.61045
G1 X80.021 Y80.137 E0.12555
G1 X80.534 Y75.016 E0.16134
G1 X81.339 Y70.973 E0.12928
G1 X82.354 Y67.782 E0.10498
G1 X83.065 Y66.143 E0.05603
G1 X84.004 Y64.448 E0.06074
G1 X84.867 Y63.218 E0.04712
G1 X86.069 Y61.875 E0.05650
G1 X87.808 Y60.374 E0.07204
G1 X89.385 Y59.278 E0.06021
G1 X91.055 Y58.352 E0.05987
G1 X92.458 Y57.747 E0.04790
G1 X94.138 Y57.200 E0.05540
G1 X95.568 Y56.890 E0.04588
G1 X97.165 Y56.703 E0.05042
G1 X98.442 Y56.677 E0.04004
G1 X100.051 Y56.807 E0.05063
G1 X101.551 Y57.158 E0.04829
G1 F5760
G1 X102.774 Y57.768 E-0.47345
G1 F5760
G1 X103.398 Y58.312 E-0.28655
G1 E-0.04000 F2100.00000
G1 X83.930 Y93.063 F7200.000
G1 E0.80000 F2100.00000
G1 F2100
G1 X84.151 Y92.842 E0.00979
G1 X84.151 Y88.749 E0.12835
G1 X83.930 Y88.528 E0.00979
G1 X83.491 Y88.528 E0.01378
G1 X80.940 Y85.926 E0.11425
G1 X81.053 Y80.312 E0.17603
G1 X81.577 Y75.079 E0.16492
G1 X82.381 Y71.099 E0.12730
G1 X83.205 Y68.467 E0.08647
G1 X84.034 Y66.529 E0.06609
G1 X84.812 Y65.120 E0.05048
G1 X85.544 Y64.045 E0.04076
G1 X86.129 Y63.322 E0.02919
G1 X86.852 Y62.561 E0.03289
G1 X88.574 Y61.098 E0.07086
G1 X90.126 Y60.043 E0.05884
G1 X91.660 Y59.215 E0.05466
G1 X92.951 Y58.668 E0.04394
G1 X94.374 Y58.213 E0.04686
G1 X95.718 Y57.919 E0.04315
G1 X97.189 Y57.744 E0.04643
G1 X98.499 Y57.718 E0.04110
G1 X99.675 Y57.807 E0.03698
G1 X100.543 Y57.950 E0.02759
G1 X102.218 Y58.342 E0.05392
G1 X104.096 Y60.710 E0.09474
G1 X104.096 Y67.304 E0.20675
G1 X101.281 Y69.882 E0.11967
G1 X99.084 Y69.690 E0.06915
G1 X98.577 Y69.690 E0.01590
G1 X97.976 Y69.750 E0.01895
G1 X97.425 Y69.866 E0.01764
G1 X97.016 Y69.998 E0.01347
G1 X96.592 Y70.188 E0.01457
G1 X96.328 Y70.340 E0.00956
G1 X96.052 Y70.538 E0.01064
G1 X95.787 Y70.776 E0.01118
G1 X95.512 Y71.083 E0.01292
G1 X95.270 Y71.425 E0.01312
G1 X95.184 Y71.580 E0.00557
G1 X95.094 Y71.794 E0.00729
G1 X94.923 Y72.373 E0.01892
G1 X94.798 Y73.056 E0.02178
G1 X94.696 Y74.194 E0.03581
G1 X94.713 Y76.216 E0.06342
G1 X95.047 Y79.364 E0.09924
G1 X95.568 Y82.163 E0.08929
G1 X95.867 Y83.416 E0.04038
G1 X105.050 Y120.117 E1.18622
G1 X105.110 Y120.216 E0.00361
G1 X128.162 Y140.386 E0.96039
G1 X128.290 Y140.434 E0.00430
G1 X140.956 Y140.434 E0.39712
G1 X141.039 Y140.415 E0.00270
G1 X160.858 Y130.739 E0.69149
G1 X163.597 Y131.197 E0.08707
G1 X168.364 Y135.964 E0.21137
G1 X169.024 Y137.558 E0.05409
G1 X169.024 Y149.742 E0.38201
G1 X166.484 Y152.282 E0.11264
G1 X86.691 Y152.282 E2.50183
G1 X84.151 Y149.742 E0.11264
G1 X84.151 Y140.298 E0.29610
G1 X84.094 Y140.159 E0.00470
G1 X81.636 Y137.702 E0.10897
G1 X80.976 Y136.108 E0.05409
G1 X80.976 Y125.220 E0.34138
G1 X81.208 Y124.238 E0.03164
G1 X84.131 Y118.388 E0.20506
G1 X84.151 Y118.302 E0.00275
G1 X84.151 Y107.424 E0.34108
G1 X80.487 Y96.694 E0.35552
G1 X83.081 Y93.063 E0.13991
G1 X83.870 Y93.063 E0.02473
G1 X84.307 Y93.440 F7200.000
G1 F2100
G1 X84.528 Y93.219 E0.00979
G1 X84.528 Y88.372 E0.15199
G1 X84.307 Y88.151 E0.00979
G1 X83.649 Y88.151 E0.02064
G1 X81.320 Y85.775 E0.10431
G1 X81.430 Y80.327 E0.17083
G1 X81.949 Y75.143 E0.16336
G1 X82.744 Y71.202 E0.12606
G1 X83.562 Y68.589 E0.08585
G1 X84.369 Y66.703 E0.06431
G1 X85.137 Y65.310 E0.04988
G1 X85.849 Y64.266 E0.03964
G1 X86.408 Y63.576 E0.02783
G1 X87.118 Y62.828 E0.03233
G1 X88.795 Y61.403 E0.06902
G1 X90.315 Y60.369 E0.05764
G1 X91.816 Y59.558 E0.05347
G1 X93.089 Y59.019 E0.04336
G1 X94.478 Y58.576 E0.04571
G1 X95.788 Y58.289 E0.04204
G1 X97.221 Y58.119 E0.04527
G1 X98.495 Y58.095 E0.03993
G1 X99.636 Y58.182 E0.03589
G1 X100.463 Y58.319 E0.02629
G1 X102.004 Y58.679 E0.04962
G1 X103.718 Y60.841 E0.08650
G1 X103.718 Y67.138 E0.19743
G1 X101.149 Y69.492 E0.10926
G1 X99.101 Y69.313 E0.06445
G1 X98.559 Y69.313 E0.01700
G1 X97.919 Y69.377 E0.02018
G1 X97.329 Y69.501 E0.01890
G1 X96.881 Y69.646 E0.01474
G1 X96.420 Y69.851 E0.01584
G1 X96.122 Y70.023 E0.01078
G1 X95.815 Y70.244 E0.01186
G1 X95.519 Y70.509 E0.01246
G1 X95.217 Y70.848 E0.01424
G1 X94.950 Y71.224 E0.01446
G1 X94.844 Y71.415 E0.00686
G1 X94.738 Y71.667 E0.00857
G1 X94.556 Y72.285 E0.02019
G1 X94.424 Y73.005 E0.02296
G1 X94.319 Y74.179 E0.03694
G1 X94.336 Y76.238 E0.06457
G1 X94.674 Y79.418 E0.10027
G1 X95.199 Y82.242 E0.09005
G1 X95.501 Y83.506 E0.04074
G1 X104.713 Y120.323 E1.18998
G1 X104.773 Y120.422 E0.00361
G1 X128.020 Y140.763 E0.96853
G1 X128.148 Y140.811 E0.00430
G1 X141.043 Y140.811 E0.40430
G1 X141.127 Y140.792 E0.00270
G1 X160.915 Y131.131 E0.69043
G1 X163.416 Y131.549 E0.07950
G1 X168.044 Y136.178 E0.20523
G1 X168.647 Y137.633 E0.04939
G1 X168.647 Y149.585 E0.37476
G1 X166.328 Y151.905 E0.10284
G1 X86.847 Y151.905 E2.49204
G1 X84.528 Y149.585 E0.10284
G1 X84.528 Y140.142 E0.29610
G1 X84.471 Y140.003 E0.00470
G1 X81.956 Y137.488 E0.11151
G1 X81.353 Y136.033 E0.04939
G1 X81.353 Y125.264 E0.33765
G1 X81.565 Y124.367 E0.02889
G1 X84.508 Y118.477 E0.20647
G1 X84.528 Y118.391 E0.00275
G1 X84.528 Y107.361 E0.34584
G1 X80.907 Y96.755 E0.35140
G1 X83.275 Y93.440 E0.12774
G1 X84.247 Y93.440 E0.03047
G1 X84.684 Y93.817 F7200.000
G1 F2100
G1 X84.905 Y93.596 E0.00979
G1 X84.905 Y87.995 E0.17564
G1 X84.684 Y87.774 E0.00979
G1 X83.807 Y87.774 E0.02749
G1 X81.701 Y85.624 E0.09438
G1 X81.807 Y80.342 E0.16563
G1 X82.320 Y75.208 E0.16180
G1 X83.107 Y71.305 E0.12482
G1 X83.919 Y68.711 E0.08524
G1 X84.704 Y66.877 E0.06254
G1 X85.463 Y65.501 E0.04928
G1 X86.155 Y64.486 E0.03851
G1 X86.686 Y63.830 E0.02647
G1 X87.384 Y63.095 E0.03177
G1 X89.017 Y61.708 E0.06718
G1 X90.505 Y60.695 E0.05644
G1 X91.971 Y59.902 E0.05227
G1 X93.227 Y59.370 E0.04277
G1 X94.582 Y58.939 E0.04457
G1 X95.857 Y58.660 E0.04092
G1 X97.254 Y58.495 E0.04411
G1 X98.490 Y58.472 E0.03876
G1 X99.596 Y58.557 E0.03480
G1 X100.383 Y58.687 E0.02500
G1 X101.790 Y59.017 E0.04532
G1 X103.341 Y60.972 E0.07826
G1 X103.341 Y66.972 E0.18811
G1 X101.017 Y69.102 E0.09886
G1 X99.118 Y68.936 E0.05975
G1 X98.541 Y68.936 E0.01810
G1 X97.862 Y69.004 E0.02140
G1 X97.232 Y69.136 E0.02016
G1 X96.747 Y69.293 E0.01601
G1 X96.248 Y69.515 E0.01712
G1 X95.917 Y69.707 E0.01200
G1 X95.578 Y69.950 E0.01308
G1 X95.251 Y70.243 E0.01374
G1 X94.921 Y70.613 E0.01555
G1 X94.630 Y71.024 E0.01579
G1 X94.504 Y71.251 E0.00816
G1 X94.382 Y71.540 E0.00984
G1 X94.189 Y72.197 E0.02145
G1 X94.050 Y72.954 E0.02413
G1 X93.942 Y74.163 E0.03808
G1 X93.959 Y76.260 E0.06573
G1 X94.300 Y79.473 E0.10131
G1 X94.830 Y82.320 E0.09081
G1 X95.134 Y83.595 E0.04110
G1 X104.376 Y120.529 E1.19375
G1 X104.436 Y120.628 E0.00361
G1 X127.878 Y141.140 E0.97668
G1 X128.007 Y141.188 E0.00430
G1 X141.130 Y141.188 E0.41147
G1 X141.214 Y141.169 E0.00270
G1 X160.972 Y131.523 E0.68938
G1 X163.234 Y131.901 E0.07193
G1 X167.724 Y136.391 E0.19909
G1 X168.270 Y137.708 E0.04468
G1 X168.270 Y149.429 E0.36752
G1 X166.171 Y151.528 E0.09305
G1 X87.004 Y151.528 E2.48225
G1 X84.905 Y149.429 E0.09305
G1 X84.905 Y139.985 E0.29610
G1 X84.848 Y139.847 E0.00470
G1 X82.276 Y137.275 E0.11406
G1 X81.730 Y135.958 E0.04468
G1 X81.730 Y125.308 E0.33392
G1 X81.922 Y124.497 E0.02614
G1 X84.885 Y118.566 E0.20788
G1 X84.905 Y118.480 E0.00275
G1 X84.905 Y107.298 E0.35060
G1 X81.326 Y96.816 E0.34729
G1 X83.469 Y93.817 E0.11558
G1 X84.624 Y93.817 E0.03621
G1 X85.061 Y94.194 F7200.000
G1 F2100
G1 X85.282 Y93.973 E0.00979
G1 X85.282 Y87.618 E0.19928
G1 X85.061 Y87.397 E0.00979
G1 X83.966 Y87.397 E0.03435
G1 X82.081 Y85.473 E0.08444
G1 X82.192 Y80.231 E0.16439
G1 X82.692 Y75.272 E0.15628
G1 X83.469 Y71.408 E0.12359
G1 X84.276 Y68.833 E0.08462
G1 X84.968 Y67.195 E0.05576
G1 X85.788 Y65.692 E0.05368
G1 X86.461 Y64.707 E0.03739
G1 X86.965 Y64.084 E0.02511
G1 X87.651 Y63.363 E0.03122
G1 X89.239 Y62.013 E0.06533
G1 X90.695 Y61.021 E0.05524
G1 X92.127 Y60.245 E0.05108
G1 X93.366 Y59.721 E0.04218
G1 X94.686 Y59.301 E0.04342
G1 X95.926 Y59.031 E0.03980
G1 X97.286 Y58.871 E0.04295
G1 X98.485 Y58.849 E0.03759
G1 X99.557 Y58.932 E0.03370
G1 X100.303 Y59.056 E0.02370
G1 X101.577 Y59.354 E0.04102
G1 X102.964 Y61.104 E0.07002
G1 X102.964 Y66.806 E0.17879
G1 X100.884 Y68.712 E0.08845
G1 X99.151 Y68.560 E0.05455
G1 X98.542 Y68.558 E0.01911
G1 X97.824 Y68.627 E0.02259
G1 X97.155 Y68.766 E0.02142
G1 X96.612 Y68.940 E0.01790
G1 X96.058 Y69.188 E0.01903
G1 X95.695 Y69.400 E0.01319
G1 X95.341 Y69.657 E0.01371
G1 X94.969 Y69.991 E0.01567
G1 X94.626 Y70.377 E0.01621
G1 X94.310 Y70.823 E0.01713
G1 X94.164 Y71.087 E0.00946
G1 X94.027 Y71.414 E0.01111
G1 X93.822 Y72.109 E0.02272
G1 X93.676 Y72.903 E0.02531
G1 X93.564 Y74.148 E0.03921
G1 X93.582 Y76.281 E0.06688
G1 X93.927 Y79.527 E0.10235
G1 X94.461 Y82.398 E0.09157
G1 X94.768 Y83.685 E0.04147
G1 X104.039 Y120.735 E1.19751
G1 X104.099 Y120.834 E0.00361
G1 X127.737 Y141.517 E0.98482
G1 X127.865 Y141.565 E0.00430
G1 X141.217 Y141.565 E0.41864
G1 X141.301 Y141.546 E0.00270
G1 X161.029 Y131.915 E0.68833
G1 X163.053 Y132.253 E0.06436
G1 X167.405 Y136.605 E0.19295
G1 X167.893 Y137.783 E0.03998
G1 X167.893 Y149.273 E0.36027
G1 X166.015 Y151.151 E0.08325
G1 X87.160 Y151.151 E2.47245
G1 X85.282 Y149.273 E0.08325
G1 X85.282 Y139.829 E0.29610
G1 X85.225 Y139.691 E0.00470
G1 X82.595 Y137.061 E0.11660
G1 X82.107 Y135.883 E0.03998
G1 X82.107 Y125.352 E0.33020
G1 X82.279 Y124.626 E0.02339
G1 X85.262 Y118.655 E0.20930
G1 X85.282 Y118.569 E0.00275
G1 X85.282 Y107.236 E0.35535
G1 X81.746 Y96.878 E0.34317
G1 X83.663 Y94.194 E0.10341
G1 X85.001 Y94.194 E0.04195
G1 X85.439 Y94.571 F7200.000
G1 F2100
G1 X85.659 Y94.350 E0.00979
G1 X85.659 Y87.240 E0.22293
G1 X85.439 Y87.020 E0.00979
G1 X84.124 Y87.020 E0.04121
G1 X82.461 Y85.322 E0.07451
G1 X82.568 Y80.261 E0.15872
G1 X83.063 Y75.337 E0.15518
G1 X83.832 Y71.511 E0.12235
G1 X84.633 Y68.954 E0.08400
G1 X85.311 Y67.352 E0.05457
G1 X86.114 Y65.882 E0.05250
G1 X86.767 Y64.928 E0.03627
G1 X87.244 Y64.339 E0.02375
G1 X87.917 Y63.630 E0.03066
G1 X89.461 Y62.319 E0.06349
G1 X90.884 Y61.347 E0.05404
G1 X92.283 Y60.589 E0.04988
G1 X93.504 Y60.072 E0.04159
G1 X94.790 Y59.664 E0.04228
G1 X95.995 Y59.402 E0.03869
G1 X97.319 Y59.247 E0.04179
G1 X98.481 Y59.226 E0.03643
G1 X99.518 Y59.307 E0.03261
G1 X100.222 Y59.424 E0.02240
G1 X101.363 Y59.691 E0.03672
G1 X102.587 Y61.235 E0.06179
G1 X102.587 Y66.640 E0.16947
G1 X100.752 Y68.321 E0.07805
G1 X99.168 Y68.183 E0.04985
G1 X98.523 Y68.180 E0.02021
G1 X97.767 Y68.254 E0.02382
G1 X97.059 Y68.400 E0.02268
G1 X96.477 Y68.587 E0.01917
G1 X95.886 Y68.852 E0.02030
G1 X95.489 Y69.084 E0.01441
G1 X95.104 Y69.363 E0.01493
G1 X94.702 Y69.724 E0.01695
G1 X94.330 Y70.142 E0.01752
G1 X93.990 Y70.623 E0.01846
G1 X93.824 Y70.923 E0.01076
G1 X93.671 Y71.287 E0.01238
G1 X93.455 Y72.021 E0.02399
G1 X93.302 Y72.851 E0.02649
G1 X93.187 Y74.133 E0.04035
G1 X93.205 Y76.303 E0.06804
G1 X93.553 Y79.582 E0.10338
G1 X94.092 Y82.477 E0.09233
G1 X94.402 Y83.774 E0.04183
G1 X103.701 Y120.942 E1.20127
G1 X103.762 Y121.040 E0.00361
G1 X127.595 Y141.894 E0.99296
G1 X127.723 Y141.942 E0.00430
G1 X141.304 Y141.942 E0.42582
G1 X141.388 Y141.923 E0.00270
G1 X161.086 Y132.307 E0.68727
G1 X162.872 Y132.605 E0.05679
G1 X167.085 Y136.818 E0.18682
G1 X167.516 Y137.858 E0.03528
G1 X167.516 Y149.117 E0.35302
G1 X165.859 Y150.774 E0.07346
G1 X87.316 Y150.774 E2.46266
G1 X85.659 Y149.117 E0.07346
G1 X85.659 Y139.673 E0.29610
G1 X85.602 Y139.534 E0.00470
G1 X82.915 Y136.847 E0.11915
G1 X82.484 Y135.808 E0.03528
G1 X82.484 Y125.396 E0.32647
G1 X82.636 Y124.755 E0.02064
G1 X85.639 Y118.744 E0.21071
G1 X85.659 Y118.658 E0.00275
G1 X85.659 Y107.173 E0.36011
G1 X82.166 Y96.939 E0.33906
G1 X83.857 Y94.571 E0.09125
G1 X85.379 Y94.571 E0.04769
G1 X85.816 Y94.948 F7200.000
G1 F2100
G1 X86.036 Y94.728 E0.00979
G1 X86.036 Y86.863 E0.24658
G1 X85.816 Y86.642 E0.00979
G1 X84.283 Y86.642 E0.04806
G1 X82.841 Y85.172 E0.06457
G1 X82.943 Y80.291 E0.15306
G1 X83.435 Y75.401 E0.15409
G1 X84.195 Y71.614 E0.12111
G1 X84.990 Y69.076 E0.08339
G1 X85.654 Y67.509 E0.05338
G1 X86.439 Y66.073 E0.05131
G1 X87.073 Y65.148 E0.03515
G1 X87.522 Y64.593 E0.02240
G1 X88.184 Y63.897 E0.03010
G1 X89.682 Y62.624 E0.06165
G1 X91.074 Y61.673 E0.05284
G1 X92.439 Y60.932 E0.04869
G1 X93.643 Y60.423 E0.04100
G1 X94.893 Y60.026 E0.04113
G1 X96.065 Y59.773 E0.03757
G1 X97.352 Y59.623 E0.04063
G1 X98.476 Y59.604 E0.03526
G1 X99.478 Y59.682 E0.03152
G1 X100.142 Y59.793 E0.02111
G1 X101.149 Y60.028 E0.03242
G1 X102.210 Y61.367 E0.05355
G1 X102.210 Y66.474 E0.16014
G1 X100.619 Y67.931 E0.06764
G1 X99.185 Y67.805 E0.04516
G1 X98.505 Y67.803 E0.02131
G1 X97.710 Y67.881 E0.02504
G1 X96.963 Y68.035 E0.02393
G1 X96.342 Y68.235 E0.02044
G1 X95.714 Y68.516 E0.02158
G1 X95.283 Y68.767 E0.01563
G1 X94.866 Y69.069 E0.01615
G1 X94.434 Y69.458 E0.01823
G1 X94.035 Y69.907 E0.01884
G1 X93.670 Y70.422 E0.01980
G1 X93.484 Y70.759 E0.01205
G1 X93.315 Y71.160 E0.01365
G1 X93.088 Y71.933 E0.02526
G1 X92.928 Y72.800 E0.02766
G1 X92.810 Y74.118 E0.04148
G1 X92.828 Y76.325 E0.06919
G1 X93.180 Y79.636 E0.10442
G1 X93.723 Y82.555 E0.09309
G1 X94.036 Y83.864 E0.04219
G1 X103.364 Y121.148 E1.20504
G1 X103.424 Y121.246 E0.00361
G1 X127.453 Y142.271 E1.00111
G1 X127.582 Y142.319 E0.00430
G1 X141.391 Y142.319 E0.43299
G1 X141.475 Y142.300 E0.00270
G1 X161.143 Y132.699 E0.68622
G1 X162.691 Y132.957 E0.04922
G1 X166.765 Y137.032 E0.18068
G1 X167.139 Y137.933 E0.03057
G1 X167.139 Y148.961 E0.34577
G1 X165.703 Y150.396 E0.06366
G1 X87.472 Y150.396 E2.45286
G1 X86.036 Y148.961 E0.06366
G1 X86.036 Y139.517 E0.29610
G1 X85.979 Y139.378 E0.00470
G1 X83.235 Y136.634 E0.12169
G1 X82.861 Y135.733 E0.03057
G1 X82.861 Y125.440 E0.32274
G1 X82.992 Y124.884 E0.01788
G1 X86.016 Y118.833 E0.21212
G1 X86.036 Y118.747 E0.00275
G1 X86.036 Y107.110 E0.36487
G1 X82.585 Y97.001 E0.33494
G1 X84.051 Y94.948 E0.07908
G1 X85.756 Y94.948 E0.05343
G1 X86.193 Y95.326 F7200.000
G1 F2100
G1 X86.414 Y95.105 E0.00979
G1 X86.414 Y86.486 E0.27022
G1 X86.193 Y86.265 E0.00979
G1 X84.441 Y86.265 E0.05492
G1 X83.221 Y85.021 E0.05464
G1 X83.319 Y80.321 E0.14739
G1 X83.792 Y75.566 E0.14984
G1 X84.531 Y71.825 E0.11955
G1 X85.383 Y69.100 E0.08954
G1 X85.997 Y67.666 E0.04890
G1 X86.765 Y66.263 E0.05013
G1 X87.379 Y65.369 E0.03402
G1 X87.745 Y64.910 E0.01840
G1 X88.531 Y64.087 E0.03567
G1 X89.821 Y62.992 E0.05306
G1 X91.263 Y61.999 E0.05491
G1 X92.500 Y61.322 E0.04422
G1 X93.781 Y60.774 E0.04369
G1 X94.997 Y60.389 E0.03999
G1 X96.134 Y60.143 E0.03645
G1 X97.384 Y59.998 E0.03947
G1 X98.570 Y59.984 E0.03717
G1 X99.526 Y60.068 E0.03010
G1 X100.062 Y60.161 E0.01705
G1 X100.935 Y60.366 E0.02812
G1 X101.833 Y61.498 E0.04531
G1 X101.833 Y66.308 E0.15082
G1 X100.487 Y67.541 E0.05723
