; generated by PrusaSlicer 2.2.0+ on 2020-04-23 at 00:45:47 UTC


;
;

;
;
; 

; external perimeters extrusion width = 0.45mm
; perimeters extrusion width = 0.45mm
; infill extrusion width = 0.45mm
; solid infill extrusion width = 0.45mm
; top infill extrusion width = 0.40mm
; first layer extrusion width = 0.42mm

M73 P0 R21
M201 X9000 Y9000 Z500 E10000 ; sets maximum accelerations, mm/sec^2
M203 X500 Y500 Z12 E120 ; sets maximum feedrates, mm/sec
M204 P2000 R1500 T2000 ; sets acceleration (P, T) and retract acceleration (R), mm/sec^2
M205 X10.00 Y10.00 Z0.20 E2.50 ; sets the jerk limits, mm/sec
M205 S0 T0 ; sets the minimum extruding and travel feed rate, mm/sec
M107
M83  ; extruder relative mode
M140 S75 ; set bed temp
M109 S160 ; Set extruder temp before bed level
M190 S75 ; wait for bed temp

G28 W ; home all without mesh bed level
G80 N7 ; mesh bed leveling

M109 S240 ; wait for extruder temp

M221 S100 ; Set flow to 100

G1 Y-3.0 F1000.0 ; go outside print area
G92 E0.0
G1 E8 ; Purge Bubble
M73 P0 R21
G1 X60.0 E9.0 F1000.0 ; intro line
G1 X100.0 E12.5 F1000.0 ; intro line
G92 E0.0
G21 ; set units to millimeters
G90 ; use absolute coordinates
M83 ; use relative distances for extrusion
M900 K45; Filament gcode
;BEFORE_LAYER_CHANGE
G92 E0.0
;0.2


G1 E-0.80000 F2100.00000
G1 Z0.600 F10800.000
;AFTER_LAYER_CHANGE
;0.2
G1 X114.046 Y95.266
G1 Z0.200
G1 E0.80000 F2100.00000
M204 S1000
G1 F1200.000
G1 X114.907 Y95.097 E0.02532
G1 X119.004 Y95.096 E0.11817
G1 X119.824 Y95.222 E0.02392
G1 X120.568 Y95.586 E0.02392
G1 X137.951 Y108.206 E0.61962
G1 X138.428 Y108.849 E0.02310
G1 X138.699 Y109.603 E0.02310
G1 X138.754 Y112.154 E0.07362
G1 X138.700 Y112.692 E0.01559
G1 X138.543 Y113.209 E0.01559
G1 X138.287 Y113.685 E0.01559
G1 X137.943 Y114.102 E0.01559
G1 X137.093 Y114.678 E0.02963
G1 X136.091 Y114.903 E0.02963
G1 X114.000 Y114.904 E0.63723
G1 X113.462 Y114.851 E0.01559
G1 X112.945 Y114.694 E0.01559
G1 X112.469 Y114.439 E0.01559
G1 X112.048 Y114.093 E0.01570
G1 X111.475 Y113.251 E0.02940
G1 X111.248 Y112.257 E0.02940
G1 X111.246 Y98.817 E0.38769
G1 X111.414 Y97.902 E0.02684
G1 X111.677 Y97.370 E0.01712
G1 X112.051 Y96.904 E0.01723
G1 X113.253 Y95.721 E0.04866
G1 X113.994 Y95.296 E0.02464
G1 F8640.000
G1 X114.907 Y95.097 E-0.21584
G1 X117.264 Y95.097 E-0.54416
G1 E-0.04000 F2100.00000
G1 Z0.800 F10800.000
G1 X111.765 Y98.040
G1 Z0.200
G1 E0.80000 F2100.00000
G1 F1200.000
G1 X112.173 Y97.330 E0.02361
G1 X113.322 Y96.166 E0.04717
G1 X113.732 Y95.839 E0.01513
G1 X114.204 Y95.610 E0.01513
G1 X114.931 Y95.474 E0.02134
G1 X119.004 Y95.473 E0.11749
G1 X119.713 Y95.582 E0.02069
G1 X120.356 Y95.898 E0.02069
G1 X137.664 Y108.452 E0.61676
G1 X138.190 Y109.225 E0.02696
G1 X138.377 Y110.137 E0.02685
G1 X138.338 Y112.582 E0.07053
G1 X138.109 Y113.246 E0.02025
G1 X137.697 Y113.814 E0.02025
G1 X136.921 Y114.341 E0.02707
G1 X136.005 Y114.527 E0.02696
G1 X113.931 Y114.526 E0.63673
G1 X113.070 Y114.337 E0.02545
G1 X112.336 Y113.847 E0.02545
G1 X111.825 Y113.109 E0.02588
G1 X111.624 Y112.235 E0.02588
G1 X111.623 Y98.827 E0.38676
G1 X111.755 Y98.099 E0.02134
@Object 1_Clamp_at_10.3_x_2_x_3_x_1_x_4_x_20.stl id:0 copy 0
G1 F8640.000
G1 X112.173 Y97.330 E-0.20213
G1 X113.322 Y96.166 E-0.37762
G1 X113.732 Y95.839 E-0.12113
G1 X113.962 Y95.728 E-0.05912
G1 E-0.04000 F2100.00000
G1 Z0.800 F10800.000
G1 X115.164 Y109.961
G1 Z0.200
G1 E0.80000 F2100.00000
G1 F1200.000
G1 X116.189 Y110.986 E0.04183
G1 X115.164 Y110.986 E0.02958
G1 X115.164 Y110.021 E0.02785
G1 F8640.000
G1 X116.189 Y110.986 E-0.32516
G1 X115.164 Y110.986 E-0.23675
G1 X115.164 Y110.128 E-0.19809
G1 E-0.04000 F2100.00000
G1 Z0.800 F10800.000
G1 X115.164 Y100.039
G1 Z0.200
G1 E0.80000 F2100.00000
G1 F1200.000
G1 X115.164 Y99.332 E0.02040
G1 X115.482 Y99.014 E0.01297
G1 X116.189 Y99.014 E0.02040
G1 X115.207 Y99.997 E0.04010
G1 F8640.000
G1 X115.164 Y99.332 E-0.15383
G1 X115.482 Y99.014 E-0.10386
G1 X116.189 Y99.014 E-0.16331
G1 X115.207 Y99.997 E-0.32096
G1 E-0.05805 F2100.00000
G1 Z0.800 F10800.000
G1 X116.674 Y99.063
G1 Z0.200
G1 E0.80000 F2100.00000
G1 F1200.000
G1 X115.213 Y100.524 E0.05960
G1 X115.213 Y109.476 E0.25823
G1 X116.674 Y110.937 E0.05960
G1 X135.213 Y110.937 E0.53477
G1 X135.213 Y111.363 E0.01228
G1 X114.787 Y111.363 E0.58920
G1 X114.787 Y99.176 E0.35154
G1 X115.326 Y98.637 E0.02199
G1 X118.213 Y98.637 E0.08328
G1 X118.213 Y99.063 E0.01228
G1 X116.734 Y99.063 E0.04266
G1 X116.830 Y99.440 F10800.000
G1 F1200.000
G1 X115.590 Y100.680 E0.05059
G1 X115.590 Y109.320 E0.24922
G1 X116.830 Y110.560 E0.05059
G1 X135.590 Y110.560 E0.54115
G1 X135.590 Y111.740 E0.03404
G1 X114.410 Y111.740 E0.61096
G1 X114.410 Y99.020 E0.36693
G1 X115.170 Y98.260 E0.03100
G1 X118.590 Y98.260 E0.09866
G1 X118.590 Y99.440 E0.03404
G1 X116.890 Y99.440 E0.04903
G1 X116.451 Y99.312 F10800.000
G1 F8640.000
G1 X115.590 Y100.680 E-0.41489
G1 X115.590 Y102.175 E-0.34512
G1 E-0.04000 F2100.00000
G1 Z0.800 F10800.000
G1 X115.353 Y99.497
G1 Z0.200
G1 E0.80000 F2100.00000
G1 F1200.000
G1 X115.647 Y99.203 E0.00392
; stop printing object 1_Clamp_at_10.3_x_2_x_3_x_1_x_4_x_20.stl id:0 copy 0
;BEFORE_LAYER_CHANGE
G92 E0.0
;0.4


G1 F8640.000
G1 X115.353 Y99.497 E-0.09620
G1 E-0.70380 F2100.00000
G1 Z0.800 F10800.000
;AFTER_LAYER_CHANGE
;0.4
M104 S235 ; set temperature
M140 S80 ; set bed temperature
G1 X114.046 Y95.266
G1 Z0.400
G1 E0.80000 F2100.00000
G1 F1200
G1 X114.907 Y95.097 E0.02532
G1 X119.004 Y95.096 E0.11817
G1 X119.824 Y95.222 E0.02392
G1 X120.568 Y95.586 E0.02392
G1 X137.951 Y108.206 E0.61962
G1 X138.428 Y108.849 E0.02310
G1 X138.699 Y109.603 E0.02310
G1 X138.754 Y112.154 E0.07362
G1 X138.700 Y112.692 E0.01559
G1 X138.543 Y113.209 E0.01559
G1 X138.287 Y113.685 E0.01559
G1 X137.943 Y114.102 E0.01559
G1 X137.093 Y114.678 E0.02963
G1 X136.091 Y114.903 E0.02963
G1 X114.000 Y114.904 E0.63723
G1 X113.462 Y114.851 E0.01559
G1 X112.945 Y114.694 E0.01559
G1 X112.469 Y114.439 E0.01559
G1 X112.048 Y114.093 E0.01570
G1 X111.475 Y113.251 E0.02940
G1 X111.248 Y112.257 E0.02940
G1 X111.246 Y98.817 E0.38769
G1 X111.414 Y97.902 E0.02684
G1 X111.677 Y97.370 E0.01712
G1 X112.051 Y96.904 E0.01723
G1 X113.253 Y95.721 E0.04866
G1 X113.994 Y95.296 E0.02464
G1 F8640.000
G1 X114.907 Y95.097 E-0.21584
G1 X117.264 Y95.097 E-0.54416
G1 E-0.04000 F2100.00000
G1 Z1.000 F10800.000
G1 X111.765 Y98.040
G1 Z0.400
G1 E0.80000 F2100.00000
G1 F1200
G1 X112.173 Y97.330 E0.02361
G1 X113.322 Y96.166 E0.04717
G1 X113.732 Y95.839 E0.01513
G1 X114.204 Y95.610 E0.01513
G1 X114.931 Y95.474 E0.02134
G1 X119.004 Y95.473 E0.11749
G1 X119.713 Y95.582 E0.02069
G1 X120.356 Y95.898 E0.02069
G1 X137.664 Y108.452 E0.61676
G1 X138.190 Y109.225 E0.02696
G1 X138.377 Y110.137 E0.02685
G1 X138.338 Y112.582 E0.07053
G1 X138.109 Y113.246 E0.02025
G1 X137.697 Y113.814 E0.02025
G1 X136.921 Y114.341 E0.02707
G1 X136.005 Y114.527 E0.02696
G1 X113.931 Y114.526 E0.63673
G1 X113.070 Y114.337 E0.02545
G1 X112.336 Y113.847 E0.02545
G1 X111.825 Y113.109 E0.02588
G1 X111.624 Y112.235 E0.02588
G1 X111.623 Y98.827 E0.38676
G1 X111.755 Y98.099 E0.02134
@Object 1_Clamp_at_10.3_x_2_x_3_x_1_x_4_x_20.stl id:0 copy 0
G1 F8640.000
G1 X112.173 Y97.330 E-0.20213
G1 X113.322 Y96.166 E-0.37762
G1 X113.732 Y95.839 E-0.12113
G1 X113.962 Y95.728 E-0.05912
G1 E-0.04000 F2100.00000
G1 Z1.000 F10800.000
G1 X115.446 Y110.642
G1 Z0.400
G1 E0.80000 F2100.00000
M204 S800
G1 F1200
G1 X115.508 Y110.704 E0.00274
G1 X115.446 Y110.702 E0.00194
M204 S1000
G1 X115.039 Y111.111 F10800.000
M204 S800
G1 F1200
G1 X115.039 Y109.659 E0.04522
G1 X116.491 Y111.111 E0.06395
G1 X115.099 Y111.111 E0.04335
M204 S1000
G1 F8640.000
G1 X115.039 Y109.659 E-0.33558
G1 X116.339 Y110.958 E-0.42442
G1 E-0.04000 F2100.00000
G1 Z1.000 F10800.000
G1 X115.039 Y100.341
G1 Z0.400
G1 E0.80000 F2100.00000
M204 S800
G1 F1200
G1 X115.039 Y99.280 E0.03303
G1 X115.430 Y98.889 E0.01723
G1 X116.491 Y98.889 E0.03303
G1 X115.082 Y100.299 E0.06208
M204 S1000
G1 X115.369 Y100.587 F10800.000
M204 S800
G1 F1200
G1 X115.368 Y109.412 E0.27482
G1 X116.738 Y110.782 E0.06035
G1 X135.368 Y110.782 E0.58015
G1 X135.368 Y111.518 E0.02291
G1 X114.632 Y111.518 E0.64573
G1 X114.632 Y99.112 E0.38634
G1 X115.262 Y98.482 E0.02773
G1 X118.368 Y98.482 E0.09673
G1 X118.368 Y99.218 E0.02291
G1 X116.738 Y99.218 E0.05075
G1 X115.412 Y100.544 E0.05841
M204 S1000
G1 X115.775 Y100.757 F10800.000
M204 S800
G1 F1200
G1 X115.775 Y109.243 E0.26427
G1 X116.907 Y110.375 E0.04984
G1 X135.775 Y110.375 E0.58757
G1 X135.775 Y111.925 E0.04827
G1 X114.225 Y111.925 E0.67109
G1 X114.225 Y98.943 E0.40427
G1 X115.093 Y98.075 E0.03824
G1 X118.775 Y98.075 E0.11465
G1 X118.775 Y99.625 E0.04827
G1 X116.907 Y99.625 E0.05818
G1 X115.817 Y100.714 E0.04798
M204 S1000
G1 X115.378 Y100.805 F10800.000
G1 X115.000 Y100.668
G1 F1200
G1 X115.000 Y109.332 E0.21789
G1 F8640.000
G1 X115.000 Y106.040 E-0.76000
G1 E-0.04000 F2100.00000
G1 Z1.000 F10800.000
G1 X116.818 Y111.150
G1 Z0.400
G1 E0.80000 F2100.00000
G1 F1200
G1 X135.164 Y111.150 E0.46140
G1 F8640.000
G1 X131.873 Y111.150 E-0.76000
G1 E-0.04000 F2100.00000
G1 Z1.000 F10800.000
G1 X118.164 Y98.850
G1 Z0.400
G1 E0.80000 F2100.00000
G1 F1200
G1 X116.818 Y98.850 E0.03385
G1 F8640.000
G1 X118.164 Y98.850 E-0.31082
G1 E-0.48918 F2100.00000
G1 Z1.000 F10800.000
G1 X115.757 Y99.093
G1 Z0.400
G1 E0.80000 F2100.00000
G1 F1200
G1 X115.243 Y99.607 E0.01910
; stop printing object 1_Clamp_at_10.3_x_2_x_3_x_1_x_4_x_20.stl id:0 copy 0
;BEFORE_LAYER_CHANGE
G92 E0.0
;0.6


G1 F8640.000
G1 X115.757 Y99.093 E-0.16804
G1 E-0.63196 F2100.00000
G1 Z1.000 F10800.000
;AFTER_LAYER_CHANGE
;0.6
G1 X114.046 Y95.266
G1 Z0.600
G1 E0.80000 F2100.00000
G1 F1200
G1 X114.907 Y95.097 E0.02532
G1 X119.004 Y95.096 E0.11817
G1 X119.824 Y95.222 E0.02392
G1 X120.568 Y95.586 E0.02392
G1 X137.951 Y108.206 E0.61962
G1 X138.428 Y108.849 E0.02310
G1 X138.699 Y109.603 E0.02310
G1 X138.754 Y112.154 E0.07362
G1 X138.700 Y112.692 E0.01559
G1 X138.543 Y113.209 E0.01559
G1 X138.287 Y113.685 E0.01559
G1 X137.943 Y114.102 E0.01559
G1 X137.093 Y114.678 E0.02963
G1 X136.091 Y114.903 E0.02963
G1 X114.000 Y114.904 E0.63723
G1 X113.462 Y114.851 E0.01559
G1 X112.945 Y114.694 E0.01559
G1 X112.469 Y114.439 E0.01559
G1 X112.048 Y114.093 E0.01570
G1 X111.475 Y113.251 E0.02940
G1 X111.248 Y112.257 E0.02940
G1 X111.246 Y98.817 E0.38769
G1 X111.414 Y97.902 E0.02684
G1 X111.677 Y97.370 E0.01712
G1 X112.051 Y96.904 E0.01723
G1 X113.253 Y95.721 E0.04866
G1 X113.994 Y95.296 E0.02464
G1 F8640.000
G1 X114.907 Y95.097 E-0.21584
G1 X117.264 Y95.097 E-0.54416
G1 E-0.04000 F2100.00000
G1 Z1.200 F10800.000
G1 X111.765 Y98.040
G1 Z0.600
G1 E0.80000 F2100.00000
G1 F1200
G1 X112.173 Y97.330 E0.02361
G1 X113.322 Y96.166 E0.04717
G1 X113.732 Y95.839 E0.01513
G1 X114.204 Y95.610 E0.01513
G1 X114.931 Y95.474 E0.02134
G1 X119.004 Y95.473 E0.11749
G1 X119.713 Y95.582 E0.02069
G1 X120.356 Y95.898 E0.02069
G1 X137.664 Y108.452 E0.61676
G1 X138.190 Y109.225 E0.02696
G1 X138.377 Y110.137 E0.02685
G1 X138.338 Y112.582 E0.07053
G1 X138.109 Y113.246 E0.02025
G1 X137.697 Y113.814 E0.02025
G1 X136.921 Y114.341 E0.02707
G1 X136.005 Y114.527 E0.02696
G1 X113.931 Y114.526 E0.63673
G1 X113.070 Y114.337 E0.02545
G1 X112.336 Y113.847 E0.02545
G1 X111.825 Y113.109 E0.02588
G1 X111.624 Y112.235 E0.02588
G1 X111.623 Y98.827 E0.38676
G1 X111.755 Y98.099 E0.02134
@Object 1_Clamp_at_10.3_x_2_x_3_x_1_x_4_x_20.stl id:0 copy 0
G1 F8640.000
G1 X112.173 Y97.330 E-0.20213
G1 X113.322 Y96.166 E-0.37762
G1 X113.732 Y95.839 E-0.12113
G1 X113.962 Y95.728 E-0.05912
G1 E-0.04000 F2100.00000
G1 Z1.200 F10800.000
G1 X115.446 Y110.642
G1 Z0.600
G1 E0.80000 F2100.00000
M204 S800
G1 F1200
G1 X115.508 Y110.704 E0.00274
G1 X115.446 Y110.702 E0.00194
M204 S1000
G1 X115.039 Y111.111 F10800.000
M204 S800
G1 F1200
G1 X115.039 Y109.659 E0.04522
G1 X116.491 Y111.111 E0.06395
G1 X115.099 Y111.111 E0.04335
M204 S1000
G1 F8640.000
G1 X115.039 Y109.659 E-0.33558
G1 X116.339 Y110.958 E-0.42442
G1 E-0.04000 F2100.00000
G1 Z1.200 F10800.000
G1 X115.039 Y100.341
G1 Z0.600
G1 E0.80000 F2100.00000
M204 S800
G1 F1200
G1 X115.039 Y99.280 E0.03303
G1 X115.430 Y98.889 E0.01723
G1 X116.491 Y98.889 E0.03303
G1 X115.082 Y100.299 E0.06208
M204 S1000
G1 X115.369 Y100.587 F10800.000
M204 S800
G1 F1200
G1 X115.368 Y109.412 E0.27482
G1 X116.738 Y110.782 E0.06035
G1 X135.368 Y110.782 E0.58015
G1 X135.368 Y111.518 E0.02291
G1 X114.632 Y111.518 E0.64573
G1 X114.632 Y99.112 E0.38634
G1 X115.262 Y98.482 E0.02773
G1 X118.368 Y98.482 E0.09673
G1 X118.368 Y99.218 E0.02291
G1 X116.738 Y99.218 E0.05075
G1 X115.412 Y100.544 E0.05841
M204 S1000
G1 X115.775 Y100.757 F10800.000
M204 S800
G1 F1200
G1 X115.775 Y109.243 E0.26427
M73 P4 R20
G1 X116.907 Y110.375 E0.04984
G1 X135.775 Y110.375 E0.58757
G1 X135.775 Y111.925 E0.04827
G1 X114.225 Y111.925 E0.67109
G1 X114.225 Y98.943 E0.40427
G1 X115.093 Y98.075 E0.03824
G1 X118.775 Y98.075 E0.11465
G1 X118.775 Y99.625 E0.04827
G1 X116.907 Y99.625 E0.05818
G1 X115.817 Y100.714 E0.04798
M204 S1000
G1 X115.378 Y100.805 F10800.000
G1 X115.000 Y100.668
G1 F1200
G1 X115.000 Y109.332 E0.21789
G1 F8640.000
G1 X115.000 Y106.040 E-0.76000
G1 E-0.04000 F2100.00000
G1 Z1.200 F10800.000
G1 X116.818 Y111.150
G1 Z0.600
G1 E0.80000 F2100.00000
G1 F1200
G1 X135.164 Y111.150 E0.46140
G1 F8640.000
G1 X131.873 Y111.150 E-0.76000
G1 E-0.04000 F2100.00000
G1 Z1.200 F10800.000
G1 X118.164 Y98.850
G1 Z0.600
G1 E0.80000 F2100.00000
G1 F1200
G1 X116.818 Y98.850 E0.03385
G1 F8640.000
G1 X118.164 Y98.850 E-0.31082
G1 E-0.48918 F2100.00000
G1 Z1.200 F10800.000
G1 X115.757 Y99.093
G1 Z0.600
G1 E0.80000 F2100.00000
G1 F1200
G1 X115.243 Y99.607 E0.01910
; stop printing object 1_Clamp_at_10.3_x_2_x_3_x_1_x_4_x_20.stl id:0 copy 0
M106 S153
;BEFORE_LAYER_CHANGE
G92 E0.0
;0.8


G1 F8640.000
G1 X115.757 Y99.093 E-0.16804
G1 E-0.63196 F2100.00000
G1 Z1.200 F10800.000
;AFTER_LAYER_CHANGE
;0.8
@Object 1_Clamp_at_10.3_x_2_x_3_x_1_x_4_x_20.stl id:0 copy 0
G1 X115.446 Y110.642
G1 Z0.800
G1 E0.80000 F2100.00000
M204 S800
G1 F1200
G1 X115.508 Y110.704 E0.00274
G1 X115.446 Y110.702 E0.00194
M204 S1000
G1 X115.039 Y111.111 F10800.000
M204 S800
G1 F1200
G1 X115.039 Y109.659 E0.04522
G1 X116.491 Y111.111 E0.06395
G1 X115.099 Y111.111 E0.04335
M204 S1000
G1 F8640.000
G1 X115.039 Y109.659 E-0.33558
G1 X116.339 Y110.958 E-0.42442
G1 E-0.04000 F2100.00000
G1 Z1.400 F10800.000
G1 X115.039 Y100.341
G1 Z0.800
G1 E0.80000 F2100.00000
M204 S800
G1 F1200
G1 X115.039 Y99.280 E0.03303
G1 X115.430 Y98.889 E0.01723
G1 X116.491 Y98.889 E0.03303
G1 X115.082 Y100.299 E0.06208
M204 S1000
G1 X115.369 Y100.587 F10800.000
M204 S800
G1 F1200
G1 X115.368 Y109.412 E0.27482
G1 X116.738 Y110.782 E0.06035
G1 X135.368 Y110.782 E0.58015
G1 X135.368 Y111.518 E0.02291
G1 X114.632 Y111.518 E0.64573
G1 X114.632 Y99.112 E0.38634
G1 X115.262 Y98.482 E0.02773
G1 X118.368 Y98.482 E0.09673
G1 X118.368 Y99.218 E0.02291
G1 X116.738 Y99.218 E0.05075
G1 X115.412 Y100.544 E0.05841
M204 S1000
G1 X115.775 Y100.757 F10800.000
M204 S800
G1 F1200
G1 X115.775 Y109.243 E0.26427
G1 X116.907 Y110.375 E0.04984
G1 X135.775 Y110.375 E0.58757
G1 X135.775 Y111.925 E0.04827
G1 X114.225 Y111.925 E0.67109
G1 X114.225 Y98.943 E0.40427
G1 X115.093 Y98.075 E0.03824
G1 X118.775 Y98.075 E0.11465
G1 X118.775 Y99.625 E0.04827
G1 X116.907 Y99.625 E0.05818
G1 X115.817 Y100.714 E0.04798
M204 S1000
G1 X115.378 Y100.805 F10800.000
G1 X115.000 Y100.668
G1 F1200
G1 X115.000 Y109.332 E0.21789
G1 F8640.000
G1 X115.000 Y106.040 E-0.76000
G1 E-0.04000 F2100.00000
G1 Z1.400 F10800.000
G1 X116.818 Y111.150
G1 Z0.800
G1 E0.80000 F2100.00000
G1 F1200
G1 X135.164 Y111.150 E0.46140
G1 F8640.000
G1 X131.873 Y111.150 E-0.76000
G1 E-0.04000 F2100.00000
G1 Z1.400 F10800.000
G1 X118.164 Y98.850
G1 Z0.800
G1 E0.80000 F2100.00000
G1 F1200
G1 X116.818 Y98.850 E0.03385
G1 F8640.000
G1 X118.164 Y98.850 E-0.31082
G1 E-0.48918 F2100.00000
G1 Z1.400 F10800.000
G1 X115.757 Y99.093
G1 Z0.800
G1 E0.80000 F2100.00000
G1 F1200
G1 X115.243 Y99.607 E0.01910
; stop printing object 1_Clamp_at_10.3_x_2_x_3_x_1_x_4_x_20.stl id:0 copy 0
;BEFORE_LAYER_CHANGE
G92 E0.0
;1


G1 F8640.000
