; generated by PrusaSlicer 2.0.0+ on 2019-06-04 at 10:49:40

; 

; external perimeters extrusion width = 0.45mm
; perimeters extrusion width = 0.45mm
; infill extrusion width = 0.45mm
; solid infill extrusion width = 0.45mm
; top infill extrusion width = 0.40mm
; first layer extrusion width = 0.42mm

M73 P0 R19
M201 X9000 Y9000 Z500 E10000 ; sets maximum accelerations, mm/sec^2
M203 X500 Y500 Z12 E120 ; sets maximum feedrates, mm/sec
M204 P2000 R1500 T2000 ; sets acceleration (P, T) and retract acceleration (R), mm/sec^2
M205 X10.00 Y10.00 Z0.20 E2.50 ; sets the jerk limits, mm/sec
M205 S0 T0 ; sets the minimum extruding and travel feed rate, mm/sec
M107
M83  ; extruder relative mode
M140 S75 ; set bed temp
M109 S160 ; Set extruder temp before bed level
M190 S75 ; wait for bed temp

G28 W ; home all without mesh bed level
G80 ; mesh bed leveling

M109 S240 ; wait for extruder temp

M221 S100 ; Set flow to 100

G1 Y-3.0 F1000.0 ; go outside print area
G92 E0.0
G1 E8 ; Purge Bubble
M73 P0 R19
G1 X60.0 E9.0 F1000.0 ; intro line
G1 X100.0 E12.5 F1000.0 ; intro line
G92 E0.0
M900 K45; Filament gcode
G21 ; set units to millimeters
G90 ; use absolute coordinates
M83 ; use relative distances for extrusion
;BEFORE_LAYER_CHANGE
G92 E0.0
;0.2


G1 E-0.80000 F2100.00000
G1 Z0.600 F10800.000
;AFTER_LAYER_CHANGE
;0.2
G1 X111.590 Y97.970
G1 Z0.200
G1 E0.80000 F2100.00000
M204 S1000
G1 F1200
G1 X112.020 Y97.218 E0.02499
G1 X113.189 Y96.033 E0.04800
G1 X113.623 Y95.685 E0.01606
G1 X114.127 Y95.438 E0.01618
G1 X114.920 Y95.286 E0.02330
G1 X119.004 Y95.284 E0.11780
G1 X119.768 Y95.402 E0.02229
G1 X120.462 Y95.741 E0.02229
G1 X137.808 Y108.330 E0.61825
G1 X138.368 Y109.162 E0.02892
G1 X138.566 Y110.145 E0.02892
G1 X138.518 Y112.642 E0.07204
G1 X138.267 Y113.352 E0.02172
G1 X137.820 Y113.958 E0.02172
G1 X136.985 Y114.519 E0.02903
G1 X136.000 Y114.716 E0.02897
G1 X113.921 Y114.714 E0.63689
G1 X112.988 Y114.507 E0.02758
G1 X112.192 Y113.970 E0.02769
G1 X111.651 Y113.182 E0.02758
G1 X111.436 Y112.247 E0.02769
G1 X111.435 Y98.822 E0.38724
G1 X111.579 Y98.029 E0.02326
G1 X111.942 Y98.105 F10800.000
G1 F1200
G1 X112.323 Y97.443 E0.02203
G1 X113.458 Y96.297 E0.04651
G1 X113.841 Y95.994 E0.01410
G1 X114.285 Y95.782 E0.01420
G1 X114.944 Y95.662 E0.01932
G1 X119.004 Y95.661 E0.11710
G1 X119.658 Y95.763 E0.01911
G1 X120.253 Y96.056 E0.01911
G1 X137.523 Y108.579 E0.61537
G1 X138.011 Y109.288 E0.02482
G1 X138.188 Y110.130 E0.02482
G1 X138.156 Y112.525 E0.06909
G1 X137.950 Y113.143 E0.01880
G1 X137.571 Y113.673 E0.01880
G1 X136.856 Y114.164 E0.02503
G1 X136.006 Y114.339 E0.02503
G1 X113.942 Y114.338 E0.63647
G1 X113.153 Y114.168 E0.02327
G1 X112.477 Y113.721 E0.02337
G1 X112.000 Y113.039 E0.02400
G1 X111.813 Y112.225 E0.02410
G1 X111.812 Y98.832 E0.38635
G1 X111.932 Y98.164 E0.01957
G1 F8640
G1 X112.323 Y97.443 E-0.18941
G1 X113.458 Y96.297 E-0.37232
G1 X113.841 Y95.994 E-0.11285
G1 X114.174 Y95.834 E-0.08542
G1 E-0.04000 F2100.00000
G1 Z0.800 F10800.000
G1 X116.757 Y99.263
G1 Z0.200
G1 E0.80000 F2100.00000
G1 F1200
G1 X115.413 Y100.607 E0.05482
G1 X115.413 Y109.393 E0.25345
G1 X116.757 Y110.737 E0.05482
G1 X135.413 Y110.737 E0.53815
G1 X135.413 Y111.563 E0.02382
G1 X114.587 Y111.563 E0.60074
G1 X114.587 Y99.093 E0.35970
G1 X115.243 Y98.437 E0.02677
G1 X118.413 Y98.437 E0.09143
G1 X118.413 Y99.263 E0.02382
G1 X116.817 Y99.263 E0.04604
G1 X116.913 Y99.640 F10800.000
G1 F1200
G1 X115.790 Y100.763 E0.04581
G1 X115.790 Y109.237 E0.24444
G1 X116.913 Y110.360 E0.04581
G1 X135.790 Y110.360 E0.54452
G1 X135.790 Y111.940 E0.04558
G1 X114.210 Y111.940 E0.62250
G1 X114.210 Y98.937 E0.37508
G1 X115.087 Y98.060 E0.03578
G1 X118.790 Y98.060 E0.10682
G1 X118.790 Y99.640 E0.04558
G1 X116.973 Y99.640 E0.05241
G1 X116.530 Y99.525 F10800.000
G1 F8640
G1 X115.790 Y100.763 E-0.37664
G1 X115.790 Y102.423 E-0.38336
G1 E-0.04000 F2100.00000
G1 Z0.800 F10800.000
G1 X118.300 Y98.995
G1 Z0.200
G1 E0.80000 F2100.00000
G1 F1200
G1 X118.025 Y98.720 E0.01147
G1 X117.479 Y98.720 E0.01610
G1 X117.740 Y98.980 E0.01086
G1 X117.194 Y98.980 E0.01610
G1 X116.934 Y98.720 E0.01086
G1 X116.388 Y98.720 E0.01610
G1 X116.649 Y98.980 E0.01086
G1 X116.371 Y99.248 E0.01138
G1 X115.843 Y98.720 E0.02206
G1 X115.360 Y98.720 E0.01424
G1 X115.329 Y98.751 E0.00131
G1 X116.099 Y99.521 E0.03212
G1 X115.826 Y99.794 E0.01138
G1 X115.056 Y99.024 E0.03212
G1 X114.870 Y99.210 E0.00777
G1 X114.870 Y99.383 E0.00511
G1 X115.553 Y100.067 E0.02851
G1 X115.280 Y100.339 E0.01138
G1 X114.870 Y99.929 E0.01713
G1 X114.870 Y100.474 E0.01610
G1 X115.130 Y100.735 E0.01086
G1 X115.130 Y101.280 E0.01610
G1 X114.870 Y101.020 E0.01086
G1 X114.870 Y101.565 E0.01610
G1 X115.130 Y101.826 E0.01086
G1 X115.130 Y102.371 E0.01610
G1 X114.870 Y102.111 E0.01086
G1 X114.870 Y102.656 E0.01610
G1 X115.130 Y102.917 E0.01086
G1 X115.130 Y103.462 E0.01610
G1 X114.870 Y103.202 E0.01086
G1 X114.870 Y103.747 E0.01610
G1 X115.130 Y104.008 E0.01086
G1 X115.130 Y104.553 E0.01610
G1 X114.870 Y104.293 E0.01086
G1 X114.870 Y104.838 E0.01610
G1 X115.130 Y105.099 E0.01086
G1 X115.130 Y105.644 E0.01610
G1 X114.870 Y105.384 E0.01086
G1 X114.870 Y105.929 E0.01610
G1 X115.130 Y106.190 E0.01086
G1 X115.130 Y106.735 E0.01610
G1 X114.870 Y106.475 E0.01086
G1 X114.870 Y107.020 E0.01610
G1 X115.130 Y107.281 E0.01086
G1 X115.130 Y107.826 E0.01610
G1 X114.870 Y107.566 E0.01086
G1 X114.870 Y108.111 E0.01610
G1 X115.130 Y108.372 E0.01086
G1 X115.130 Y108.917 E0.01610
G1 X114.870 Y108.657 E0.01086
G1 X114.870 Y109.202 E0.01610
G1 X116.948 Y111.280 E0.08670
G1 X116.402 Y111.280 E0.01610
G1 X114.870 Y109.748 E0.06394
G1 X114.870 Y110.294 E0.01610
G1 X115.856 Y111.280 E0.04117
G1 X115.311 Y111.280 E0.01610
G1 X114.700 Y110.669 E0.02549
G1 F8640
G1 X115.311 Y111.280 E-0.19946
G1 X115.856 Y111.280 E-0.12596
G1 X114.870 Y110.294 E-0.32218
G1 X114.870 Y109.807 E-0.11241
G1 E-0.04000 F2100.00000
G1 Z0.800 F10800.000
G1 X117.063 Y110.850
G1 Z0.200
G1 E0.80000 F2100.00000
G1 F1200
G1 X117.493 Y111.280 E0.01794
G1 X118.039 Y111.280 E0.01610
G1 X117.778 Y111.020 E0.01086
G1 X118.324 Y111.020 E0.01610
G1 X118.584 Y111.280 E0.01086
G1 X119.130 Y111.280 E0.01610
G1 X118.869 Y111.020 E0.01086
G1 X119.415 Y111.020 E0.01610
G1 X119.675 Y111.280 E0.01086
G1 X120.221 Y111.280 E0.01610
G1 X119.960 Y111.020 E0.01086
G1 X120.506 Y111.020 E0.01610
G1 X120.766 Y111.280 E0.01086
G1 X121.312 Y111.280 E0.01610
G1 X121.051 Y111.020 E0.01086
G1 X121.597 Y111.020 E0.01610
G1 X121.857 Y111.280 E0.01086
G1 X122.403 Y111.280 E0.01610
G1 X122.142 Y111.020 E0.01086
G1 X122.688 Y111.020 E0.01610
G1 X122.948 Y111.280 E0.01086
G1 X123.494 Y111.280 E0.01610
G1 X123.233 Y111.020 E0.01086
G1 X123.779 Y111.020 E0.01610
G1 X124.039 Y111.280 E0.01086
G1 X124.585 Y111.280 E0.01610
G1 X124.324 Y111.020 E0.01086
G1 X124.870 Y111.020 E0.01610
G1 X125.130 Y111.280 E0.01086
G1 X125.676 Y111.280 E0.01610
G1 X125.415 Y111.020 E0.01086
G1 X125.961 Y111.020 E0.01610
G1 X126.221 Y111.280 E0.01086
G1 X126.767 Y111.280 E0.01610
G1 X126.506 Y111.020 E0.01086
G1 X127.052 Y111.020 E0.01610
G1 X127.312 Y111.280 E0.01086
G1 X127.858 Y111.280 E0.01610
G1 X127.597 Y111.020 E0.01086
G1 X128.143 Y111.020 E0.01610
G1 X128.403 Y111.280 E0.01086
G1 X128.949 Y111.280 E0.01610
G1 X128.688 Y111.020 E0.01086
G1 X129.234 Y111.020 E0.01610
G1 X129.494 Y111.280 E0.01086
G1 X130.040 Y111.280 E0.01610
G1 X129.779 Y111.020 E0.01086
G1 X130.325 Y111.020 E0.01610
G1 X130.585 Y111.280 E0.01086
G1 X131.131 Y111.280 E0.01610
G1 X130.870 Y111.020 E0.01086
G1 X131.416 Y111.020 E0.01610
G1 X131.676 Y111.280 E0.01086
G1 X132.222 Y111.280 E0.01610
G1 X131.961 Y111.020 E0.01086
G1 X132.507 Y111.020 E0.01610
G1 X132.767 Y111.280 E0.01086
G1 X133.313 Y111.280 E0.01610
G1 X133.052 Y111.020 E0.01086
G1 X133.598 Y111.020 E0.01610
G1 X133.858 Y111.280 E0.01086
G1 X134.404 Y111.280 E0.01610
G1 X134.143 Y111.020 E0.01086
G1 X134.689 Y111.020 E0.01610
G1 X135.119 Y111.450 E0.01794
;BEFORE_LAYER_CHANGE
G92 E0.0
;0.4


G1 F8640
G1 X134.689 Y111.020 E-0.14040
G1 X134.143 Y111.020 E-0.12596
G1 X134.404 Y111.280 E-0.08499
G1 X133.858 Y111.280 E-0.12596
G1 X133.598 Y111.020 E-0.08499
G1 X133.052 Y111.020 E-0.12596
G1 X133.272 Y111.240 E-0.07175
G1 E-0.04000 F2100.00000
G1 Z0.800 F10800.000
;AFTER_LAYER_CHANGE
;0.4
M104 S235 ; set temperature
M140 S80 ; set bed temperature
G1 X136.985 Y114.519
G1 Z0.400
G1 E0.80000 F2100.00000
G1 F1200
G1 X136.000 Y114.716 E0.02897
G1 X113.921 Y114.714 E0.63689
G1 X112.988 Y114.507 E0.02758
G1 X112.192 Y113.970 E0.02769
G1 X111.651 Y113.182 E0.02758
G1 X111.436 Y112.247 E0.02769
G1 X111.435 Y98.822 E0.38724
G1 X111.590 Y97.970 E0.02499
G1 X112.020 Y97.218 E0.02499
G1 X113.189 Y96.033 E0.04800
G1 X113.623 Y95.685 E0.01606
G1 X114.127 Y95.438 E0.01618
G1 X114.920 Y95.286 E0.02330
G1 X119.004 Y95.284 E0.11780
G1 X119.768 Y95.402 E0.02229
G1 X120.462 Y95.741 E0.02229
G1 X137.808 Y108.330 E0.61825
G1 X138.368 Y109.162 E0.02892
G1 X138.566 Y110.145 E0.02892
G1 X138.518 Y112.642 E0.07204
G1 X138.267 Y113.352 E0.02172
G1 X137.820 Y113.958 E0.02172
G1 X137.035 Y114.486 E0.02730
G1 F8640
G1 X136.000 Y114.716 E-0.24472
G1 X133.768 Y114.715 E-0.51528
G1 E-0.04000 F2100.00000
G1 Z1.000 F10800.000
G1 X135.368 Y111.518
G1 Z0.400
G1 E0.80000 F2100.00000
M204 S800
G1 F1200
G1 X114.632 Y111.518 E0.64573
G1 X114.632 Y99.112 E0.38634
G1 X115.262 Y98.482 E0.02773
G1 X118.368 Y98.482 E0.09673
G1 X118.368 Y99.218 E0.02291
G1 X116.738 Y99.218 E0.05075
G1 X115.368 Y100.588 E0.06035
G1 X115.368 Y109.412 E0.27478
G1 X116.738 Y110.782 E0.06035
G1 X135.368 Y110.782 E0.58015
G1 X135.368 Y111.458 E0.02105
M204 S1000
G1 X135.775 Y111.925 F10800.000
M204 S800
G1 F1200
G1 X114.225 Y111.925 E0.67109
G1 X114.225 Y98.943 E0.40427
G1 X115.093 Y98.075 E0.03824
G1 X118.775 Y98.075 E0.11465
G1 X118.775 Y99.625 E0.04827
G1 X116.907 Y99.625 E0.05818
G1 X115.775 Y100.757 E0.04984
G1 X115.775 Y109.243 E0.26427
G1 X116.907 Y110.375 E0.04984
G1 X135.775 Y110.375 E0.58757
G1 X135.775 Y111.865 E0.04640
M204 S1000
G1 X135.375 Y111.914 F10800.000
G1 X135.164 Y111.150
G1 F1200
G1 X116.818 Y111.150 E0.46141
G1 F8640
G1 X120.110 Y111.150 E-0.76000
G1 E-0.04000 F2100.00000
G1 Z1.000 F10800.000
G1 X115.745 Y111.396
G1 Z0.400
G1 E0.80000 F2100.00000
M204 S2000
G1 F1200
G1 X116.333 Y110.808 E0.02969
G1 X116.002 Y110.478 E0.01671
G1 X115.268 Y111.213 E0.03714
G1 X114.937 Y111.213 E0.01181
G1 X114.937 Y110.882 E0.01182
G1 X115.672 Y110.148 E0.03714
G1 X115.341 Y109.817 E0.01671
G1 X114.754 Y110.404 E0.02969
M204 S1000
G1 F8640
G1 X115.341 Y109.817 E-0.19178
G1 X115.672 Y110.148 E-0.10791
G1 X114.937 Y110.882 E-0.23986
G1 X114.937 Y111.213 E-0.07632
G1 X115.268 Y111.213 E-0.07628
G1 X115.476 Y111.005 E-0.06786
G1 E-0.04000 F2100.00000
G1 Z1.000 F10800.000
G1 X115.000 Y109.332
G1 Z0.400
G1 E0.80000 F2100.00000
G1 F1200
G1 X115.000 Y100.668 E0.21789
G1 X114.945 Y100.546 F10800.000
M204 S2000
G1 F1200
G1 X116.513 Y98.978 E0.07693
G1 X116.513 Y98.787 E0.00663
G1 X116.063 Y98.787 E0.01563
G1 X114.937 Y99.913 E0.05521
G1 X114.937 Y99.271 E0.02226
G1 X115.604 Y98.604 E0.03273
M204 S1000
G1 F8640
G1 X114.937 Y99.271 E-0.21777
G1 X114.937 Y99.913 E-0.14812
G1 X116.063 Y98.787 E-0.36742
G1 X116.178 Y98.787 E-0.02669
G1 E-0.04000 F2100.00000
G1 Z1.000 F10800.000
G1 X116.818 Y98.850
G1 Z0.400
G1 E0.80000 F2100.00000
G1 F1200
G1 X118.164 Y98.850 E0.03385
;BEFORE_LAYER_CHANGE
G92 E0.0
;0.6


G1 F8640
G1 X116.818 Y98.850 E-0.31082
G1 E-0.48918 F2100.00000
G1 Z1.000 F10800.000
;AFTER_LAYER_CHANGE
;0.6
G1 X119.768 Y95.402
G1 Z0.600
G1 E0.80000 F2100.00000
G1 F1200
G1 X120.462 Y95.741 E0.02229
G1 X137.808 Y108.330 E0.61825
G1 X138.368 Y109.162 E0.02892
G1 X138.566 Y110.145 E0.02892
G1 X138.518 Y112.642 E0.07204
G1 X138.267 Y113.352 E0.02172
G1 X137.820 Y113.958 E0.02172
G1 X136.985 Y114.519 E0.02903
G1 X136.000 Y114.716 E0.02897
G1 X113.921 Y114.714 E0.63689
G1 X112.988 Y114.507 E0.02758
G1 X112.192 Y113.970 E0.02769
G1 X111.651 Y113.182 E0.02758
G1 X111.436 Y112.247 E0.02769
G1 X111.435 Y98.822 E0.38724
G1 X111.590 Y97.970 E0.02499
G1 X112.020 Y97.218 E0.02499
G1 X113.189 Y96.033 E0.04800
G1 X113.623 Y95.685 E0.01606
G1 X114.127 Y95.438 E0.01618
G1 X114.920 Y95.286 E0.02330
G1 X119.004 Y95.284 E0.11780
G1 X119.708 Y95.393 E0.02056
G1 F8640
G1 X120.462 Y95.741 E-0.19168
G1 X122.454 Y97.187 E-0.56832
G1 E-0.04000 F2100.00000
G1 Z1.200 F10800.000
G1 X118.368 Y98.482
G1 Z0.600
G1 E0.80000 F2100.00000
M204 S800
G1 F1200
G1 X118.368 Y99.218 E0.02291
G1 X116.738 Y99.218 E0.05075
G1 X115.368 Y100.588 E0.06035
G1 X115.368 Y109.412 E0.27478
G1 X116.738 Y110.782 E0.06035
G1 X135.368 Y110.782 E0.58015
G1 X135.368 Y111.518 E0.02291
G1 X114.632 Y111.518 E0.64573
G1 X114.632 Y99.112 E0.38634
G1 X115.262 Y98.482 E0.02773
G1 X118.308 Y98.482 E0.09486
M204 S1000
G1 F8640
G1 X118.368 Y99.218 E-0.17047
G1 X116.738 Y99.218 E-0.37631
G1 X116.085 Y99.871 E-0.21322
G1 E-0.04000 F2100.00000
G1 Z1.200 F10800.000
G1 X116.907 Y99.625
G1 Z0.600
G1 E0.80000 F2100.00000
M204 S800
G1 F1200
G1 X115.775 Y100.757 E0.04984
G1 X115.775 Y109.243 E0.26427
G1 X116.907 Y110.375 E0.04984
G1 X135.775 Y110.375 E0.58757
G1 X135.775 Y111.925 E0.04827
G1 X114.225 Y111.925 E0.67109
G1 X114.225 Y98.943 E0.40427
G1 X115.093 Y98.075 E0.03824
G1 X118.775 Y98.075 E0.11465
G1 X118.775 Y99.625 E0.04827
G1 X116.967 Y99.625 E0.05631
M204 S1000
G1 X116.524 Y99.510 F10800.000
G1 X116.462 Y99.321
M204 S2000
G1 F1200
G1 X115.929 Y98.787 E0.02698
G1 X115.388 Y98.787 E0.01932
G1 X115.328 Y98.848 E0.00305
G1 X116.002 Y99.522 E0.03409
G1 X115.672 Y99.852 E0.01671
G1 X114.998 Y99.178 E0.03409
G1 X114.937 Y99.238 E0.00304
G1 X114.937 Y99.779 E0.01932
G1 X115.471 Y100.312 E0.02698
M204 S1000
G1 X115.000 Y100.668 F10800.000
G1 F1200
G1 X115.000 Y109.332 E0.21789
G1 F8640
G1 X115.000 Y106.040 E-0.76000
G1 E-0.04000 F2100.00000
G1 Z1.200 F10800.000
G1 X114.754 Y110.501
G1 Z0.600
G1 E0.80000 F2100.00000
M204 S2000
G1 F1200
G1 X115.466 Y111.213 E0.03394
G1 X116.089 Y111.213 E0.02104
G1 X114.937 Y110.061 E0.05495
G1 X114.937 Y109.637 E0.01429
G1 X115.137 Y109.637 E0.00675
G1 X116.696 Y111.196 E0.07437
M204 S1000
G1 X116.818 Y111.150 F10800.000
G1 F1200
G1 X135.164 Y111.150 E0.46141
G1 F8640
G1 X131.873 Y111.150 E-0.76000
G1 E-0.04000 F2100.00000
G1 Z1.200 F10800.000
G1 X118.164 Y98.850
G1 Z0.600
G1 E0.80000 F2100.00000
G1 F1200
G1 X116.818 Y98.850 E0.03385
M106 S153
;BEFORE_LAYER_CHANGE
G92 E0.0
;0.8


G1 F8640
G1 X118.164 Y98.850 E-0.31082
G1 E-0.48918 F2100.00000
G1 Z1.200 F10800.000
;AFTER_LAYER_CHANGE
;0.8
G1 X116.738 Y99.218
G1 Z0.800
G1 E0.80000 F2100.00000
M204 S800
G1 F1200
G1 X115.368 Y100.588 E0.06035
G1 X115.368 Y109.412 E0.27478
G1 X116.738 Y110.782 E0.06035
G1 X135.368 Y110.782 E0.58015
M73 P5 R18
G1 X135.368 Y111.518 E0.02291
G1 X114.632 Y111.518 E0.64573
G1 X114.632 Y99.112 E0.38634
G1 X115.262 Y98.482 E0.02773
G1 X118.368 Y98.482 E0.09673
G1 X118.368 Y99.218 E0.02291
G1 X116.798 Y99.218 E0.04888
M204 S1000
G1 X116.907 Y99.625 F10800.000
M204 S800
G1 F1200
G1 X115.775 Y100.757 E0.04984
G1 X115.775 Y109.243 E0.26427
G1 X116.907 Y110.375 E0.04984
G1 X135.775 Y110.375 E0.58757
G1 X135.775 Y111.925 E0.04827
G1 X114.225 Y111.925 E0.67109
G1 X114.225 Y98.943 E0.40427
G1 X115.093 Y98.075 E0.03824
G1 X118.775 Y98.075 E0.11465
G1 X118.775 Y99.625 E0.04827
G1 X116.967 Y99.625 E0.05631
M204 S1000
G1 X116.524 Y99.510 F10800.000
G1 X116.818 Y98.850
G1 F1200
G1 X118.164 Y98.850 E0.03385
G1 F8640
G1 X116.818 Y98.850 E-0.31082
G1 E-0.48918 F2100.00000
G1 Z1.400 F10800.000
G1 X115.604 Y98.604
G1 Z0.800
G1 E0.80000 F2100.00000
M204 S2000
G1 F1200
G1 X114.937 Y99.271 E0.03273
G1 X114.937 Y99.913 E0.02226
G1 X116.063 Y98.787 E0.05521
G1 X116.513 Y98.787 E0.01563
G1 X116.513 Y98.978 E0.00663
G1 X114.945 Y100.546 E0.07693
M204 S1000
G1 X115.000 Y100.668 F10800.000
G1 F1200
G1 X115.000 Y109.332 E0.21789
G1 F8640
G1 X115.000 Y106.040 E-0.76000
G1 E-0.04000 F2100.00000
G1 Z1.400 F10800.000
G1 X114.754 Y110.404
G1 Z0.800
G1 E0.80000 F2100.00000
M204 S2000
G1 F1200
G1 X115.341 Y109.817 E0.02969
G1 X115.672 Y110.148 E0.01671
G1 X114.937 Y110.882 E0.03714
