; generated by PrusaSlicer 2.3.0-beta3+ on 2020-12-16 at 11:41:42 UTC


;
;

;
;
; 

; external perimeters extrusion width = 0.45mm
; perimeters extrusion width = 0.45mm
; infill extrusion width = 0.45mm
; solid infill extrusion width = 0.45mm
; top infill extrusion width = 0.40mm
; support material extrusion width = 0.35mm
; first layer extrusion width = 0.42mm

M73 P0 R150
M201 X9000 Y9000 Z500 E10000 ; sets maximum accelerations, mm/sec^2
M203 X500 Y500 Z12 E120 ; sets maximum feedrates, mm/sec
M204 P2000 R1500 T2000 ; sets acceleration (P, T) and retract acceleration (R), mm/sec^2
M205 X10.00 Y10.00 Z0.20 E4.50 ; sets the jerk limits, mm/sec
M205 S0 T0 ; sets the minimum extruding and travel feed rate, mm/sec
M107
;TYPE:Custom
M862.3 P "MK2.5S" ; printer model check
M862.1 P0.4 ; nozzle diameter check
M115 U3.9.1 ; tell printer latest fw version
G90 ; use absolute coordinates
M83  ; extruder relative mode
M104 S240 ; set extruder temp
M140 S85 ; set bed temp
M190 S85 ; wait for bed temp
M109 S240 ; wait for extruder temp
G28 W ; home all without mesh bed level
G80 ; mesh bed leveling
G1 Y-3.0 F1000.0 ; go outside print area
G92 E0.0
G1 X60.0 E9.0 F1000.0 ; intro line
G1 X100.0 E12.5 F1000.0 ; intro line
G92 E0.0
G21 ; set units to millimeters
G90 ; use absolute coordinates
M83 ; use relative distances for extrusion
M900 K0.08 ; Filament gcode LA 1.5
M900 K45 ; Filament gcode LA 1.0
;LAYER_CHANGE
;Z:0.2
;HEIGHT:0.2
;BEFORE_LAYER_CHANGE
M117 INDICATOR-Layer1
G92 E0.0
;0.2


G1 E-1.40000 F2100.000
G1 Z0.200 F10800.000
;AFTER_LAYER_CHANGE
;0.2
G1 Z0.400
G1 X143.160 Y74.811
G1 Z0.200
G1 E1.40000 F2100.000
M204 S1000
;TYPE:Skirt
;WIDTH:0.42
G1 F1200.000
G1 X143.932 Y75.325 E0.02907
G1 X186.016 Y118.252 E1.88487
G1 X186.380 Y118.883 E0.02284
G1 X186.535 Y119.599 E0.02296
G1 X186.538 Y127.035 E0.23315
G1 X186.466 Y127.539 E0.01597
G1 X186.288 Y128.016 E0.01597
G1 X186.012 Y128.445 E0.01597
G1 X185.648 Y128.807 E0.01609
G1 X184.956 Y129.192 E0.02484
G1 X184.175 Y129.328 E0.02484
G1 X70.155 Y129.328 E3.57502
G1 X69.604 Y129.262 E0.01740
G1 X69.080 Y129.068 E0.01752
G1 X68.616 Y128.757 E0.01752
G1 X68.240 Y128.349 E0.01740
G1 X67.906 Y127.697 E0.02296
G1 X67.785 Y126.971 E0.02308
G1 X67.786 Y102.528 E0.76639
G1 X67.852 Y101.996 E0.01680
G1 X68.035 Y101.493 E0.01680
G1 X68.576 Y100.782 E0.02802
G1 X92.599 Y79.455 E1.00721
G1 X93.186 Y79.095 E0.02161
G1 X93.938 Y78.813 E0.02518
G1 X111.103 Y74.643 E0.55384
G1 X142.254 Y74.632 E0.97671
G1 X143.101 Y74.800 E0.02707
@Object Bear_MK2x_Body.stl id:0 copy 0
;WIPE_START
G1 F8640.000
G1 X143.932 Y75.325 E-0.22697
G1 X147.276 Y78.736 E-1.10303
;WIPE_END
G1 E-0.07000 F2100.000
G1 Z0.400 F10800.000
G1 X111.333 Y81.208
G1 Z0.200
G1 E1.40000 F2100.000
;TYPE:Support material
G1 F1200.000
G1 X111.333 Y77.009 E0.13167
G1 X112.088 Y77.009 E0.02365
G1 X112.088 Y81.039 E0.12634
G1 X112.842 Y81.039 E0.02365
G1 X112.842 Y77.009 E0.12634
G1 X113.596 Y77.009 E0.02365
G1 X113.596 Y81.039 E0.12634
G1 X114.033 Y81.039 E0.01372
G1 X114.276 Y81.281 E0.01074
G1 X114.276 Y87.553 E0.19666
G1 X114.350 Y87.553 E0.00233
G1 X114.350 Y77.009 E0.33060
G1 X115.104 Y77.009 E0.02365
G1 X115.104 Y87.553 E0.33060
G1 X115.858 Y87.553 E0.02365
G1 X115.858 Y77.009 E0.33060
G1 X116.613 Y77.009 E0.02365
G1 X116.613 Y87.553 E0.33060
G1 X117.367 Y87.553 E0.02365
G1 X117.367 Y77.009 E0.33060
G1 X118.121 Y77.009 E0.02365
G1 X118.121 Y87.553 E0.33060
G1 X118.875 Y87.553 E0.02365
G1 X118.875 Y77.009 E0.33060
G1 X119.629 Y77.009 E0.02365
G1 X119.629 Y87.553 E0.33060
G1 X120.383 Y87.553 E0.02365
G1 X120.383 Y77.009 E0.33060
G1 X121.138 Y77.009 E0.02365
G1 X121.138 Y87.553 E0.33060
G1 X121.892 Y87.553 E0.02365
G1 X121.892 Y77.009 E0.33060
G1 X122.646 Y77.009 E0.02365
G1 X122.646 Y87.553 E0.33060
G1 X123.400 Y87.553 E0.02365
G1 X123.400 Y77.009 E0.33060
G1 X124.154 Y77.009 E0.02365
G1 X124.154 Y87.553 E0.33060
G1 X124.908 Y87.553 E0.02365
G1 X124.908 Y77.009 E0.33060
G1 X125.662 Y77.009 E0.02365
G1 X125.662 Y87.553 E0.33060
G1 X126.417 Y87.553 E0.02365
G1 X126.417 Y77.009 E0.33060
G1 X127.171 Y77.009 E0.02365
G1 X127.171 Y87.553 E0.33060
G1 X127.925 Y87.553 E0.02365
G1 X127.925 Y77.009 E0.33060
G1 X128.679 Y77.009 E0.02365
G1 X128.679 Y87.553 E0.33060
G1 X129.433 Y87.553 E0.02365
G1 X129.433 Y77.009 E0.33060
G1 X130.187 Y77.009 E0.02365
G1 X130.187 Y87.553 E0.33060
G1 X130.942 Y87.553 E0.02365
G1 X130.942 Y77.009 E0.33060
G1 X131.696 Y77.009 E0.02365
G1 X131.696 Y87.553 E0.33060
G1 X132.450 Y87.553 E0.02365
G1 X132.450 Y77.009 E0.33060
G1 X133.204 Y77.009 E0.02365
G1 X133.204 Y87.553 E0.33060
G1 X133.958 Y87.553 E0.02365
G1 X133.958 Y77.009 E0.33060
G1 X134.712 Y77.009 E0.02365
G1 X134.712 Y87.553 E0.33060
M73 P0 R149
G1 X135.467 Y87.553 E0.02365
G1 X135.467 Y77.009 E0.33060
G1 X136.221 Y77.009 E0.02365
G1 X136.221 Y87.553 E0.33060
G1 X136.975 Y87.553 E0.02365
G1 X136.975 Y77.009 E0.33060
G1 X137.729 Y77.009 E0.02365
G1 X137.729 Y87.553 E0.33060
G1 X138.483 Y87.553 E0.02365
G1 X138.483 Y77.009 E0.33060
G1 X139.237 Y77.009 E0.02365
G1 X139.237 Y81.267 E0.13350
G1 X139.366 Y81.139 E0.00568
G1 X139.992 Y81.139 E0.01963
G1 X139.992 Y77.009 E0.12948
G1 X140.746 Y77.009 E0.02365
G1 X140.746 Y81.139 E0.12948
G1 X141.500 Y81.139 E0.02365
G1 X141.500 Y77.009 E0.12948
G1 X142.254 Y77.009 E0.02365
G1 X142.254 Y81.308 E0.13480
;WIPE_START
G1 F8640.000
G1 X142.254 Y77.009 E-0.99271
G1 X141.500 Y77.009 E-0.17414
G1 X141.500 Y77.715 E-0.16315
;WIPE_END
G1 E-0.07000 F2100.000
G1 Z0.400 F10800.000
G1 X170.592 Y117.568
G1 Z0.200
G1 E1.40000 F2100.000
;TYPE:Perimeter
G1 F1200.000
G1 X179.735 Y117.568 E0.28668
G1 X182.221 Y119.998 E0.10900
G1 X182.221 Y125.410 E0.16969
G1 X166.064 Y125.410 E0.50659
G1 X170.562 Y117.620 E0.28203
G1 X170.374 Y117.191 F10800.000
G1 F1200.000
G1 X179.889 Y117.191 E0.29832
G1 X182.598 Y119.839 E0.11879
G1 X182.598 Y125.787 E0.18649
G1 X165.411 Y125.787 E0.53890
G1 X170.344 Y117.243 E0.30933
G1 X170.156 Y116.814 F10800.000
G1 F1200.000
G1 X180.042 Y116.814 E0.30997
G1 X182.975 Y119.680 E0.12859
G1 X182.975 Y126.164 E0.20329
G1 X164.758 Y126.164 E0.57120
G1 X170.126 Y116.866 E0.33664
G1 X169.939 Y116.437 F10800.000
;TYPE:External perimeter
G1 F1200.000
G1 X180.196 Y116.437 E0.32161
G1 X183.352 Y119.522 E0.13838
G1 X183.352 Y126.541 E0.22009
G1 X164.105 Y126.541 E0.60350
G1 X169.909 Y116.489 E0.36394
G1 X170.329 Y116.522 F10800.000
;WIPE_START
G1 F8640.000
G1 X175.668 Y116.460 E-1.33000
;WIPE_END
G1 E-0.07000 F2100.000
G1 Z0.400 F10800.000
G1 X179.499 Y117.681
G1 Z0.200
G1 E1.40000 F2100.000
;TYPE:Solid infill
;WIDTH:0.426888
G1 F1200.000
G1 X181.938 Y120.121 E0.11014
G1 X181.938 Y120.664 E0.01734
G1 X179.126 Y117.851 E0.12699
G1 X178.583 Y117.851 E0.01734
G1 X181.938 Y121.207 E0.15151
G1 X181.938 Y121.750 E0.01734
G1 X178.040 Y117.851 E0.17603
G1 X177.497 Y117.851 E0.01734
G1 X181.938 Y122.293 E0.20055
G1 X181.938 Y122.836 E0.01734
G1 X176.954 Y117.851 E0.22507
G1 X176.411 Y117.851 E0.01734
G1 X181.938 Y123.379 E0.24959
G1 X181.938 Y123.922 E0.01734
G1 X175.868 Y117.851 E0.27411
G1 X175.325 Y117.851 E0.01734
G1 X181.938 Y124.465 E0.29862
G1 X181.938 Y125.008 E0.01734
G1 X174.782 Y117.851 E0.32314
G1 X174.239 Y117.851 E0.01734
G1 X181.515 Y125.127 E0.32853
G1 X180.972 Y125.127 E0.01734
G1 X173.696 Y117.851 E0.32853
G1 X173.153 Y117.851 E0.01734
G1 X180.429 Y125.127 E0.32853
G1 X179.886 Y125.127 E0.01734
G1 X172.610 Y117.851 E0.32853
G1 X172.067 Y117.851 E0.01734
G1 X179.343 Y125.127 E0.32853
G1 X178.800 Y125.127 E0.01734
G1 X171.524 Y117.851 E0.32853
G1 X170.981 Y117.851 E0.01734
G1 X178.257 Y125.127 E0.32853
G1 X177.714 Y125.127 E0.01734
G1 X170.639 Y118.052 E0.31944
G1 X170.440 Y118.397 E0.01269
G1 X177.171 Y125.127 E0.30390
G1 X176.628 Y125.127 E0.01734
G1 X170.241 Y118.741 E0.28835
G1 X170.042 Y119.085 E0.01269
G1 X176.085 Y125.127 E0.27281
G1 X175.542 Y125.127 E0.01734
G1 X169.844 Y119.429 E0.25727
G1 X169.645 Y119.774 E0.01269
G1 X174.999 Y125.127 E0.24172
G1 X174.455 Y125.127 E0.01734
G1 X169.446 Y120.118 E0.22618
G1 X169.247 Y120.462 E0.01269
G1 X173.912 Y125.127 E0.21064
G1 X173.369 Y125.127 E0.01734
G1 X169.049 Y120.806 E0.19509
G1 X168.850 Y121.151 E0.01269
G1 X172.826 Y125.127 E0.17955
G1 X172.283 Y125.127 E0.01734
G1 X168.651 Y121.495 E0.16401
G1 X168.452 Y121.839 E0.01269
G1 X171.740 Y125.127 E0.14846
G1 X171.197 Y125.127 E0.01734
G1 X168.254 Y122.183 E0.13292
G1 X168.055 Y122.528 E0.01269
G1 X170.654 Y125.127 E0.11737
G1 X170.111 Y125.127 E0.01734
G1 X167.856 Y122.872 E0.10183
G1 X167.657 Y123.216 E0.01269
G1 X169.568 Y125.127 E0.08629
G1 X169.025 Y125.127 E0.01734
G1 X167.459 Y123.560 E0.07074
G1 X167.260 Y123.905 E0.01269
G1 X168.482 Y125.127 E0.05520
G1 X167.939 Y125.127 E0.01734
G1 X167.061 Y124.249 E0.03966
G1 X166.862 Y124.593 E0.01269
G1 X167.396 Y125.127 E0.02411
G1 X166.853 Y125.127 E0.01734
G1 X166.539 Y124.813 E0.01418
;WIPE_START
G1 F8640.000
G1 X166.853 Y125.127 E-0.10254
G1 X167.396 Y125.127 E-0.12538
G1 X166.862 Y124.593 E-0.17439
G1 X167.061 Y124.249 E-0.09179
G1 X167.939 Y125.127 E-0.28680
G1 X168.482 Y125.127 E-0.12538
G1 X167.260 Y123.905 E-0.39922
G1 X167.313 Y123.813 E-0.02450
;WIPE_END
G1 E-0.07000 F2100.000
G1 Z0.400 F10800.000
G1 X158.348 Y125.410
G1 Z0.200
G1 E1.40000 F2100.000
;TYPE:Perimeter
;WIDTH:0.42
G1 F1200.000
G1 X144.977 Y125.410 E0.41923
G1 X138.521 Y114.227 E0.40488
G1 X145.092 Y102.846 E0.41204
G1 X158.233 Y102.846 E0.41204
G1 X164.804 Y114.227 E0.41204
G1 X158.378 Y125.358 E0.40300
G1 X158.565 Y125.787 F10800.000
G1 F1200.000
G1 X144.759 Y125.787 E0.43288
G1 X138.085 Y114.227 E0.41853
G1 X144.874 Y102.469 E0.42569
G1 X158.451 Y102.469 E0.42569
G1 X165.239 Y114.227 E0.42569
G1 X158.595 Y125.735 E0.41665
G1 X158.783 Y126.164 F10800.000
G1 F1200.000
G1 X144.542 Y126.164 E0.44653
G1 X137.650 Y114.227 E0.43218
G1 X144.656 Y102.092 E0.43934
G1 X158.669 Y102.092 E0.43934
G1 X165.675 Y114.227 E0.43934
G1 X158.813 Y126.112 E0.43030
G1 X159.001 Y126.541 F10800.000
;TYPE:External perimeter
G1 F1200.000
G1 X144.324 Y126.541 E0.46018
G1 X137.215 Y114.227 E0.44583
G1 X144.439 Y101.715 E0.45300
G1 X158.886 Y101.715 E0.45299
G1 X166.110 Y114.227 E0.45300
G1 X159.031 Y126.489 E0.44395
G1 X158.654 Y126.342 F10800.000
;WIPE_START
G1 F8640.000
G1 X153.271 Y126.510 E-1.33000
;WIPE_END
G1 E-0.07000 F2100.000
G1 Z0.400 F10800.000
G1 X157.390 Y102.959
G1 Z0.200
G1 E1.40000 F2100.000
;TYPE:Solid infill
;WIDTH:0.423497
G1 F1200.000
G1 X158.767 Y104.336 E0.06160
G1 X159.502 Y105.609 E0.04654
G1 X157.022 Y103.129 E0.11100
G1 X156.483 Y103.129 E0.01703
G1 X160.237 Y106.883 E0.16799
G1 X160.972 Y108.156 E0.04654
G1 X155.945 Y103.129 E0.22498
G1 X155.407 Y103.129 E0.01703
G1 X161.708 Y109.430 E0.28198
G1 X162.443 Y110.703 E0.04654
G1 X154.869 Y103.129 E0.33897
G1 X154.331 Y103.129 E0.01703
G1 X163.178 Y111.977 E0.39596
G1 X163.914 Y113.250 E0.04654
G1 X153.792 Y103.129 E0.45296
M73 P1 R149
G1 X153.254 Y103.129 E0.01703
G1 X164.432 Y114.306 E0.50022
G1 X164.235 Y114.648 E0.01247
G1 X152.716 Y103.129 E0.51550
G1 X152.178 Y103.129 E0.01703
G1 X164.038 Y114.989 E0.53077
G1 X163.841 Y115.330 E0.01247
G1 X151.639 Y103.129 E0.54604
G1 X151.101 Y103.129 E0.01703
G1 X163.644 Y115.671 E0.56131
G1 X163.447 Y116.013 E0.01247
G1 X150.563 Y103.129 E0.57658
G1 X150.025 Y103.129 E0.01703
G1 X163.250 Y116.354 E0.59185
G1 X163.053 Y116.695 E0.01247
G1 X149.487 Y103.129 E0.60712
G1 X148.948 Y103.129 E0.01703
G1 X162.856 Y117.036 E0.62239
G1 X162.659 Y117.377 E0.01247
G1 X148.410 Y103.129 E0.63766
G1 X147.872 Y103.129 E0.01703
G1 X162.462 Y117.719 E0.65293
M73 P1 R148
G1 X162.265 Y118.060 E0.01247
G1 X147.334 Y103.129 E0.66820
G1 X146.796 Y103.129 E0.01703
G1 X162.068 Y118.401 E0.68347
G1 X161.871 Y118.742 E0.01247
G1 X146.257 Y103.129 E0.69874
G1 X145.719 Y103.129 E0.01703
G1 X161.674 Y119.084 E0.71401
G1 X161.477 Y119.425 E0.01247
G1 X145.228 Y103.176 E0.72718
G1 X145.031 Y103.517 E0.01247
G1 X161.280 Y119.766 E0.72718
G1 X161.083 Y120.107 E0.01247
G1 X144.834 Y103.858 E0.72718
G1 X144.637 Y104.200 E0.01247
G1 X160.886 Y120.448 E0.72718
G1 X160.689 Y120.790 E0.01247
G1 X144.440 Y104.541 E0.72718
G1 X144.243 Y104.882 E0.01247
G1 X160.492 Y121.131 E0.72718
G1 X160.295 Y121.472 E0.01247
G1 X144.046 Y105.223 E0.72718
G1 X143.849 Y105.564 E0.01247
G1 X160.098 Y121.813 E0.72718
G1 X159.901 Y122.154 E0.01247
G1 X143.652 Y105.906 E0.72718
G1 X143.455 Y106.247 E0.01247
G1 X159.704 Y122.496 E0.72718
G1 X159.507 Y122.837 E0.01247
G1 X143.258 Y106.588 E0.72718
G1 X143.061 Y106.929 E0.01247
G1 X159.310 Y123.178 E0.72718
G1 X159.113 Y123.519 E0.01247
G1 X142.864 Y107.271 E0.72718
G1 X142.667 Y107.612 E0.01247
G1 X158.916 Y123.861 E0.72718
G1 X158.719 Y124.202 E0.01247
G1 X142.470 Y107.953 E0.72719
G1 X142.273 Y108.294 E0.01247
G1 X158.522 Y124.543 E0.72719
G1 X158.325 Y124.884 E0.01247
G1 X142.076 Y108.635 E0.72719
G1 X141.879 Y108.977 E0.01247
G1 X158.029 Y125.127 E0.72278
G1 X157.491 Y125.127 E0.01703
G1 X141.682 Y109.318 E0.70751
G1 X141.485 Y109.659 E0.01247
G1 X156.953 Y125.127 E0.69224
G1 X156.415 Y125.127 E0.01703
G1 X141.288 Y110.000 E0.67697
G1 X141.091 Y110.341 E0.01247
G1 X155.877 Y125.127 E0.66170
G1 X155.338 Y125.127 E0.01703
G1 X140.894 Y110.683 E0.64643
G1 X140.697 Y111.024 E0.01247
G1 X154.800 Y125.127 E0.63116
G1 X154.262 Y125.127 E0.01703
G1 X140.500 Y111.365 E0.61589
G1 X140.303 Y111.706 E0.01247
G1 X153.724 Y125.127 E0.60062
G1 X153.185 Y125.127 E0.01703
G1 X140.106 Y112.047 E0.58535
G1 X139.909 Y112.389 E0.01247
G1 X152.647 Y125.127 E0.57008
G1 X152.109 Y125.127 E0.01703
G1 X139.712 Y112.730 E0.55481
G1 X139.515 Y113.071 E0.01247
G1 X151.571 Y125.127 E0.53954
G1 X151.033 Y125.127 E0.01703
G1 X139.318 Y113.412 E0.52427
G1 X139.121 Y113.754 E0.01247
G1 X150.494 Y125.127 E0.50900
G1 X149.956 Y125.127 E0.01703
G1 X138.924 Y114.095 E0.49373
G1 X138.847 Y114.227 E0.00483
G1 X139.298 Y115.007 E0.02851
G1 X149.418 Y125.127 E0.45290
G1 X148.880 Y125.127 E0.01703
G1 X140.033 Y116.280 E0.39591
G1 X140.768 Y117.554 E0.04653
G1 X148.341 Y125.127 E0.33893
G1 X147.803 Y125.127 E0.01703
G1 X141.503 Y118.827 E0.28194
G1 X142.239 Y120.101 E0.04653
G1 X147.265 Y125.127 E0.22495
G1 X146.727 Y125.127 E0.01703
G1 X142.974 Y121.374 E0.16796
G1 X143.709 Y122.647 E0.04653
G1 X146.189 Y125.127 E0.11098
G1 X145.650 Y125.127 E0.01703
G1 X143.980 Y123.457 E0.07474
;WIPE_START
G1 F8640.000
G1 X145.650 Y125.127 E-0.54533
G1 X146.189 Y125.127 E-0.12428
G1 X144.166 Y123.105 E-0.66040
;WIPE_END
G1 E-0.07000 F2100.000
G1 Z0.400 F10800.000
G1 X137.261 Y125.410
G1 Z0.200
G1 E1.40000 F2100.000
;TYPE:Perimeter
;WIDTH:0.42
G1 F1200.000
G1 X115.064 Y125.410 E0.69596
G1 X119.592 Y117.568 E0.28391
G1 X132.733 Y117.568 E0.41205
G1 X137.231 Y125.358 E0.28203
G1 X137.914 Y125.787 F10800.000
G1 F1200.000
G1 X114.411 Y125.787 E0.73692
G1 X119.374 Y117.191 E0.31121
G1 X132.951 Y117.191 E0.42570
G1 X137.884 Y125.735 E0.30933
G1 X138.567 Y126.164 F10800.000
G1 F1200.000
G1 X113.758 Y126.164 E0.77788
G1 X119.156 Y116.814 E0.33852
G1 X133.169 Y116.814 E0.43935
G1 X138.537 Y126.112 E0.33664
G1 X139.220 Y126.541 F10800.000
;TYPE:External perimeter
G1 F1200.000
G1 X113.105 Y126.541 E0.81883
G1 X118.939 Y116.437 E0.36582
G1 X133.386 Y116.437 E0.45300
G1 X139.190 Y126.489 E0.36394
G1 X138.825 Y126.480 F10800.000
;WIPE_START
G1 F8640.000
G1 X133.430 Y126.501 E-1.33000
;WIPE_END
G1 E-0.07000 F2100.000
G1 Z0.400 F10800.000
G1 X133.722 Y119.507
G1 Z0.200
G1 E1.40000 F2100.000
;TYPE:Solid infill
;WIDTH:0.420615
G1 F1200.000
G1 X132.066 Y117.851 E0.07355
G1 X131.532 Y117.851 E0.01677
G1 X133.988 Y120.307 E0.10909
G1 X134.718 Y121.571 E0.04583
G1 X130.998 Y117.851 E0.16522
G1 X130.464 Y117.851 E0.01677
G1 X135.448 Y122.835 E0.22135
G1 X136.177 Y124.099 E0.04583
G1 X129.930 Y117.851 E0.27749
G1 X129.395 Y117.851 E0.01677
G1 X136.671 Y125.127 E0.32316
G1 X136.137 Y125.127 E0.01677
G1 X128.861 Y117.851 E0.32316
M73 P1 R147
G1 X128.327 Y117.851 E0.01677
G1 X135.603 Y125.127 E0.32316
G1 X135.069 Y125.127 E0.01677
G1 X127.793 Y117.851 E0.32316
G1 X127.259 Y117.851 E0.01677
G1 X134.535 Y125.127 E0.32316
G1 X134.001 Y125.127 E0.01677
