; generated by PrusaSlicer 2.9.4 on 2026-03-22 at 16:26:13 UTC


;
;

;
;
; 

; external perimeters extrusion width = 0.40mm
; perimeters extrusion width = 0.40mm
; infill extrusion width = 0.40mm
; solid infill extrusion width = 0.40mm
; top infill extrusion width = 0.40mm
; first layer extrusion width = 0.40mm

M73 P0 R137
M73 C59
M201 X9000 Y9000 Z500 E10000 ; sets maximum accelerations, mm/sec^2
M203 X500 Y500 Z12 E120 ; sets maximum feedrates, mm / sec
M204 S2000 T1500 ; sets acceleration (S) and retract acceleration (R), mm/sec^2
M205 X10.00 Y10.00 Z0.20 E4.50 ; sets the jerk limits, mm/sec
M205 S0 T0 ; sets the minimum extruding and travel feed rate, mm/sec

; printing object Meter Base-RC2.stl id:0 copy 0
; stop printing object Meter Base-RC2.stl id:0 copy 0

;TYPE:Custom
M83  ; extruder relative mode
M140 S85 ; set bed temp
M109 S160 ; Set extruder temp before bed level
M190 S85 ; wait for bed temp

G28 W ; home all without mesh bed level
G80 N7 ; mesh bed leveling

M109 S240 ; wait for extruder temp

M221 S100 ; Set flow to 100

G1 Y-3.0 F1000.0 ; go outside print area
G92 E0.0
G1 E8 ; Purge Bubble
G1 X60.0 E9.0 F1000.0 ; intro line
G1 X100.0 E12.5 F1000.0 ; intro line
G92 E0.0
G21 ; set units to millimeters
G90 ; use absolute coordinates
M83 ; use relative distances for extrusion

M900 K0.08 ; Filament gcode LA 1.5
M900 K45 ; Filament gcode LA 1.0




M107
;LAYER_CHANGE
;Z:0.2
;HEIGHT:0.2
G1 E-1 F2100
G1 Z.4 F720
G1 X98.525 Y68.861 F6000
G1 Z.2 F720
G1 E1 F2100
M204 S800
;TYPE:Skirt/Brim
;WIDTH:0.4
G1 F1200
G1 X99.343 Y67.747 E.04104
G1 X100.352 Y66.802 E.04105
G1 X101.697 Y65.969 E.04697
G1 X102.334 Y65.698 E.02055
G1 X103.47 Y65.375 E.03507
G1 X104.845 Y65.229 E.04106
G1 X161.046 Y65.229 E1.66868
G1 X162.421 Y65.375 E.04106
G1 X163.745 Y65.771 E.04103
G1 X164.974 Y66.403 E.04103
G1 X166.066 Y67.251 E.04105
G1 X166.983 Y68.285 E.04103
G1 X167.695 Y69.47 E.04105
G1 X168.177 Y70.766 E.04106
G1 X168.413 Y72.128 E.04104
G1 X169.622 Y153.739 E2.4234
G1 X169.545 Y154.562 E.02454
G1 X169.368 Y155.238 E.02075
G1 X169 Y156.045 E.02633
G1 X168.508 Y156.748 E.02548
G1 X167.828 Y157.401 E.02799
G1 X166.898 Y157.967 E.03232
G1 X166 Y158.274 E.02818
G1 X164.946 Y158.397 E.03151
G1 X84.139 Y158.397 E2.39926
G1 X83.221 Y158.304 E.0274
G1 X82.456 Y158.082 E.02365
G1 X81.839 Y157.79 E.02027
G1 X81.009 Y157.193 E.03036
G1 X80.354 Y156.466 E.02905
G1 X79.95 Y155.802 E.02308
G1 X78.952 Y153.688 E.06941
G1 X78.024 Y151.463 E.07158
G1 X77.242 Y149.252 E.06963
G1 X76.549 Y146.951 E.07135
G1 X75.993 Y144.665 E.06985
G1 X75.548 Y142.365 E.06956
G1 X75.067 Y138.423 E.11791
G1 X74.919 Y134.429 E.11867
G1 X74.995 Y132.061 E.07035
G1 X75.187 Y129.726 E.06956
G1 X75.783 Y125.774 E.11867
G1 X76.291 Y123.486 E.06959
G1 X76.916 Y121.208 E.07014
G1 X77.67 Y118.937 E.07105
G1 X78.519 Y116.739 E.06996
G1 X97.979 Y69.962 E1.50426
G1 X98.498 Y68.915 E.0347
M204 S1000
;WIPE_START
G1 F4800
G1 X98.525 Y68.861 E-.02509
G1 X99.343 Y67.747 E-.57442
G1 X100.046 Y67.088 E-.40049
;WIPE_END
G1 Z.4 F720
; printing object Meter Base-RC2.stl id:0 copy 0
G1 X131.722 Y124.598 F6000
G1 Z.2 F720
G1 E1 F2100
M204 S800
;TYPE:Perimeter
;WIDTH:0.399999
G1 F1200
G1 X131.878 Y124.502 E.00544
G1 X132.311 Y124.339 E.01374
G1 X132.805 Y124.255 E.01488
G1 X133.163 Y124.266 E.01063
G1 X133.711 Y124.369 E.01656
G1 X133.989 Y124.488 E.00898
G1 X134.528 Y124.819 E.01878
G1 X134.962 Y125.304 E.01932
G1 X135.179 Y125.68 E.01289
G1 X135.38 Y126.288 E.01901
G1 X135.399 Y126.931 E.0191
G1 X135.324 Y127.358 E.01287
G1 X135.041 Y128.028 E.02159
G1 X134.689 Y128.458 E.0165
G1 X134.356 Y128.737 E.0129
G1 X133.804 Y129.037 E.01865
G1 X133.163 Y129.172 E.01945
G1 X132.729 Y129.172 E.01289
G1 X132.087 Y129.037 E.01948
G1 X131.535 Y128.737 E.01865
G1 X131.203 Y128.458 E.01288
G1 X130.834 Y128.003 E.01739
G1 X130.568 Y127.358 E.02072
G1 X130.492 Y126.931 E.01288
G1 X130.498 Y126.386 E.01618
G1 X130.568 Y126.079 E.00935
G1 X130.762 Y125.563 E.01637
G1 X130.93 Y125.304 E.00917
G1 X131.364 Y124.819 E.01932
G1 X131.67 Y124.63 E.01068
M204 S1000
G1 X131.9 Y124.907 F6000
M204 S800
G1 F1200
G1 X132.057 Y124.811 E.00546
G1 X132.373 Y124.691 E.01004
G1 X132.881 Y124.606 E.01529
G1 X133.519 Y124.691 E.01911
G1 X133.81 Y124.797 E.0092
G1 X134.3 Y125.094 E.01701
G1 X134.688 Y125.534 E.01742
G1 X134.843 Y125.802 E.00919
G1 X135.028 Y126.35 E.01717
G1 X135.042 Y126.931 E.01726
G1 X134.988 Y127.236 E.0092
G1 X134.745 Y127.829 E.01903
G1 X134.415 Y128.229 E.0154
G1 X134.178 Y128.428 E.00919
G1 X133.679 Y128.703 E.01692
G1 X133.101 Y128.82 E.01751
G1 X132.791 Y128.82 E.0092
G1 X132.213 Y128.703 E.01751
G1 X131.714 Y128.428 E.01692
G1 X131.476 Y128.229 E.00921
G1 X131.135 Y127.811 E.01602
G1 X130.903 Y127.236 E.01841
G1 X130.849 Y126.931 E.0092
G1 X130.853 Y126.42 E.01517
G1 X131.048 Y125.802 E.01924
G1 X131.203 Y125.534 E.00919
G1 X131.591 Y125.094 E.01742
G1 X131.848 Y124.938 E.00893
M204 S1000
G1 X132.081 Y125.221 F6000
M204 S800
G1 F1200
G1 X132.235 Y125.12 E.00547
G1 X132.435 Y125.043 E.00636
G1 X132.98 Y124.962 E.01636
G1 X133.512 Y125.055 E.01604
G1 X133.999 Y125.318 E.01643
G1 X134.142 Y125.438 E.00554
G1 X134.467 Y125.838 E.0153
G1 X134.653 Y126.323 E.01542
G1 X134.685 Y126.506 E.00552
G1 X134.677 Y127.023 E.01535
G1 X134.508 Y127.513 E.01539
G1 X134.142 Y127.999 E.01806
G1 X133.632 Y128.331 E.01807
G1 X133.457 Y128.395 E.00553
G1 X132.946 Y128.477 E.01537
G1 X132.435 Y128.395 E.01537
G1 X132.26 Y128.331 E.00553
G1 X131.805 Y128.056 E.01579
G1 X131.477 Y127.674 E.01495
G1 X131.384 Y127.513 E.00552
G1 X131.215 Y127.026 E.01531
G1 X131.206 Y126.506 E.01544
G1 X131.239 Y126.323 E.00552
G1 X131.421 Y125.843 E.01524
G1 X131.75 Y125.438 E.01549
G1 X132.031 Y125.254 E.00997
M204 S1000
G1 X132.255 Y125.522 F6000
M204 S800
;TYPE:External perimeter
G1 F1200
G1 X132.438 Y125.415 E.00629
G1 X132.933 Y125.318 E.01498
G1 X133.433 Y125.405 E.01507
G1 X133.868 Y125.668 E.01509
G1 X134.172 Y126.046 E.0144
G1 X134.328 Y126.506 E.01442
G1 X134.317 Y126.992 E.01443
G1 X134.141 Y127.445 E.01443
G1 X133.821 Y127.81 E.01441
G1 X133.395 Y128.043 E.01442
G1 X132.915 Y128.117 E.01442
G1 X132.438 Y128.022 E.01444
G1 X132.023 Y127.77 E.01442
G1 X131.719 Y127.391 E.01443
G1 X131.563 Y126.931 E.01442
G1 X131.574 Y126.445 E.01443
G1 X131.75 Y125.993 E.0144
G1 X132.071 Y125.628 E.01443
G1 X132.203 Y125.552 E.00452
M204 S1000
;WIPE_START
G1 F4800
G1 X132.255 Y125.522 E-.02495
G1 X132.438 Y125.415 E-.08811
G1 X132.933 Y125.318 E-.20965
G1 X133.433 Y125.405 E-.21093
G1 X133.868 Y125.668 E-.21127
G1 X134.172 Y126.046 E-.20161
G1 X134.213 Y126.168 E-.05348
;WIPE_END
G1 Z.4 F720
G1 X132.52 Y130.304 F6000
G1 Z.2 F720
G1 E1 F2100
M204 S800
;TYPE:Perimeter
G1 F1200
G1 X132.837 Y130.251 E.00954
G1 X133.163 Y130.266 E.00969
G1 X133.804 Y130.401 E.01945
G1 X134.356 Y130.7 E.01864
G1 X134.689 Y130.979 E.0129
G1 X135.041 Y131.409 E.0165
G1 X135.179 Y131.68 E.00903
G1 X135.324 Y132.079 E.0126
G1 X135.399 Y132.506 E.01287
G1 X135.395 Y133.03 E.01556
G1 X135.324 Y133.358 E.00996
G1 X135.115 Y133.903 E.01733
G1 X134.689 Y134.458 E.02077
G1 X134.356 Y134.737 E.0129
G1 X133.914 Y134.989 E.01511
G1 X133.581 Y135.098 E.0104
G1 X133.077 Y135.184 E.01518
G1 X132.729 Y135.172 E.01034
G1 X132.205 Y135.075 E.01582
G1 X131.903 Y134.95 E.0097
G1 X131.424 Y134.665 E.01655
G1 X131.203 Y134.458 E.00899
G1 X130.829 Y133.995 E.01767
G1 X130.568 Y133.358 E.02044
G1 X130.492 Y132.931 E.01288
G1 X130.502 Y132.354 E.01713
G1 X130.713 Y131.68 E.02097
G1 X130.93 Y131.304 E.01289
G1 X131.332 Y130.846 E.01809
G1 X131.903 Y130.488 E.02001
G1 X132.311 Y130.339 E.0129
G1 X132.461 Y130.314 E.00452
M204 S1000
G1 X132.583 Y130.66 F6000
M204 S800
G1 F1200
G1 X132.791 Y130.617 E.00631
G1 X133.101 Y130.617 E.0092
G1 X133.679 Y130.735 E.01752
G1 X134.178 Y131.009 E.0169
G1 X134.415 Y131.208 E.00919
G1 X134.745 Y131.609 E.01542
G1 X134.988 Y132.201 E.019
G1 X135.042 Y132.506 E.0092
G1 X135.032 Y133.068 E.01669
G1 X134.843 Y133.635 E.01775
G1 X134.688 Y133.904 E.00922
G1 X134.354 Y134.295 E.01527
G1 X133.81 Y134.64 E.01913
G1 X133.519 Y134.746 E.0092
G1 X132.977 Y134.833 E.0163
G1 X132.373 Y134.746 E.01812
G1 X132.081 Y134.64 E.00922
G1 X131.634 Y134.377 E.0154
G1 X131.223 Y133.927 E.0181
G1 X131.048 Y133.635 E.01011
G1 X130.88 Y133.162 E.0149
G1 X130.849 Y132.506 E.0195
G1 X130.914 Y132.17 E.01016
G1 X131.094 Y131.698 E.015
G1 X131.476 Y131.208 E.01845
G1 X131.714 Y131.009 E.00921
G1 X132.213 Y130.735 E.0169
G1 X132.524 Y130.671 E.00943
M204 S1000
G1 X132.644 Y131.009 F6000
M204 S800
G1 F1200
G1 X132.946 Y130.961 E.00908
G1 X133.457 Y131.043 E.01537
G1 X133.632 Y131.106 E.00552
G1 X134.086 Y131.381 E.01576
G1 X134.415 Y131.763 E.01497
G1 X134.508 Y131.924 E.00552
G1 X134.685 Y132.506 E.01806
G1 X134.679 Y133.013 E.01505
G1 X134.508 Y133.513 E.01569
G1 X134.415 Y133.674 E.00552
G1 X134.068 Y134.071 E.01566
G1 X133.632 Y134.331 E.01507
G1 X133.457 Y134.395 E.00553
G1 X132.946 Y134.477 E.01537
G1 X132.435 Y134.395 E.01537
G1 X131.993 Y134.177 E.01463
G1 X131.75 Y133.999 E.00894
G1 X131.41 Y133.573 E.01618
G1 X131.235 Y133.104 E.01486
G1 X131.206 Y132.506 E.01778
G1 X131.25 Y132.292 E.00649
G1 X131.436 Y131.819 E.01509
G1 X131.805 Y131.381 E.017
G1 X132.26 Y131.106 E.01579
G1 X132.435 Y131.043 E.00552
G1 X132.585 Y131.018 E.00452
M204 S1000
G1 X132.706 Y131.362 F6000
M204 S800
;TYPE:External perimeter
G1 F1200
G1 X132.977 Y131.321 E.00814
G1 X133.453 Y131.415 E.01441
G1 X133.868 Y131.668 E.01443
G1 X134.172 Y132.046 E.0144
G1 X134.317 Y132.445 E.0126
G1 X134.326 Y132.958 E.01523
G1 X134.152 Y133.43 E.01494
G1 X133.821 Y133.81 E.01496
G1 X133.395 Y134.043 E.01442
G1 X132.915 Y134.117 E.01442
G1 X132.438 Y134.022 E.01444
G1 X132.023 Y133.77 E.01442
G1 X131.719 Y133.391 E.01443
G1 X131.563 Y132.931 E.01442
G1 X131.586 Y132.414 E.01537
G1 X131.75 Y131.993 E.01341
G1 X132.071 Y131.628 E.01443
G1 X132.497 Y131.394 E.01443
G1 X132.647 Y131.371 E.00451
M204 S1000
;WIPE_START
G1 F4800
G1 X132.706 Y131.362 E-.02481
G1 X132.977 Y131.321 E-.11392
G1 X133.453 Y131.415 E-.20166
G1 X133.868 Y131.668 E-.20201
G1 X134.172 Y132.046 E-.20161
G1 X134.317 Y132.445 E-.17645
G1 X134.32 Y132.636 E-.07954
;WIPE_END
G1 Z.4 F720
G1 X124.332 Y133.723 F6000
G1 Z.2 F720
G1 E1 F2100
M204 S800
;TYPE:Perimeter
G1 F1200
G1 X124.45 Y134.105 E.01187
G1 X124.513 Y134.61 E.01511
G1 X124.488 Y135.118 E.0151
G1 X124.3 Y135.819 E.02155
G1 X124.068 Y136.272 E.01511
G1 X123.76 Y136.677 E.01511
G1 X123.387 Y137.023 E.01511
G1 X122.96 Y137.3 E.01511
G1 X122.491 Y137.497 E.0151
G1 X121.995 Y137.611 E.01511
G1 X121.488 Y137.636 E.01507
G1 X120.982 Y137.573 E.01514
G1 X120.496 Y137.423 E.0151
G1 X120.043 Y137.191 E.01511
G1 X119.637 Y136.883 E.01513
G1 X119.291 Y136.51 E.01511
G1 X119.015 Y136.083 E.0151
G1 X118.817 Y135.614 E.01512
G1 X118.704 Y135.118 E.0151
G1 X118.678 Y134.61 E.0151
G1 X118.742 Y134.105 E.01511
G1 X118.892 Y133.619 E.0151
G1 X119.124 Y133.166 E.01511
G1 X119.431 Y132.76 E.01511
G1 X119.804 Y132.414 E.01511
G1 X120.23 Y132.138 E.01507
G1 X120.802 Y131.917 E.01821
G1 X121.348 Y131.819 E.01647
G1 X121.955 Y131.824 E.01802
G1 X122.491 Y131.94 E.01628
G1 X122.96 Y132.138 E.01512
G1 X123.387 Y132.414 E.0151
G1 X123.76 Y132.76 E.01511
G1 X124.068 Y133.166 E.01513
G1 X124.3 Y133.618 E.01509
G1 X124.314 Y133.665 E.00146
M204 S1000
G1 X123.999 Y133.844 F6000
M204 S800
G1 F1200
G1 X124.029 Y133.916 E.00232
G1 X124.132 Y134.35 E.01324
G1 X124.157 Y134.796 E.01326
G1 X124.105 Y135.24 E.01327
G1 X123.976 Y135.668 E.01327
G1 X123.775 Y136.067 E.01327
G1 X123.508 Y136.425 E.01326
G1 X123.183 Y136.731 E.01325
G1 X122.809 Y136.976 E.01328
G1 X122.399 Y137.152 E.01325
G1 X121.964 Y137.255 E.01327
G1 X121.518 Y137.28 E.01326
G1 X121.074 Y137.228 E.01327
G1 X120.646 Y137.099 E.01327
G1 X120.192 Y136.859 E.01525
G1 X119.89 Y136.631 E.01124
G1 X119.583 Y136.306 E.01327
G1 X119.338 Y135.932 E.01328
G1 X119.162 Y135.522 E.01325
G1 X119.059 Y135.087 E.01327
G1 X119.047 Y134.495 E.01758
G1 X119.142 Y133.989 E.01529
G1 X119.338 Y133.505 E.0155
G1 X119.618 Y133.086 E.01496
G1 X120.009 Y132.706 E.01619
G1 X120.382 Y132.461 E.01325
G1 X120.865 Y132.269 E.01543
G1 X121.412 Y132.17 E.0165
G1 X121.928 Y132.18 E.01532
G1 X122.404 Y132.286 E.01448
G1 X122.864 Y132.489 E.01493
G1 X123.302 Y132.806 E.01605
G1 X123.627 Y133.159 E.01425
G1 X123.853 Y133.505 E.01227
G1 X123.975 Y133.789 E.00918
M204 S1000
G1 X123.666 Y133.965 F6000
M204 S800
G1 F1200
G1 X123.685 Y134.008 E.0014
G1 X123.776 Y134.382 E.01143
G1 X123.802 Y134.765 E.0114
G1 X123.76 Y135.148 E.01144
G1 X123.653 Y135.517 E.01141
G1 X123.382 Y136.005 E.01657
G1 X123.039 Y136.389 E.01529
G1 X122.658 Y136.652 E.01375
G1 X122.306 Y136.807 E.01142
G1 X121.933 Y136.899 E.01141
G1 X121.549 Y136.925 E.01143
G1 X121.167 Y136.883 E.01141
G1 X120.797 Y136.776 E.01144
G1 X120.397 Y136.567 E.0134
G1 X120.142 Y136.378 E.00942
G1 X119.876 Y136.101 E.0114
G1 X119.662 Y135.781 E.01143
G1 X119.507 Y135.429 E.01142
G1 X119.415 Y135.056 E.01141
G1 X119.403 Y134.526 E.01574
G1 X119.507 Y134.008 E.01569
G1 X119.709 Y133.575 E.01419
G1 X119.936 Y133.265 E.01141
G1 X120.214 Y132.999 E.01142
G1 X120.533 Y132.785 E.01141
G1 X120.929 Y132.62 E.01274
G1 X121.475 Y132.521 E.01648
G1 X122.025 Y132.554 E.01636
G1 X122.472 Y132.698 E.01394
G1 X122.978 Y132.999 E.01748
G1 X123.335 Y133.364 E.01516
G1 X123.529 Y133.656 E.01041
G1 X123.641 Y133.91 E.00824
M204 S1000
G1 X123.333 Y134.086 F6000
M204 S800
;TYPE:External perimeter
G1 F1200
G1 X123.34 Y134.1 E.00046
G1 X123.42 Y134.413 E.00959
G1 X123.446 Y134.734 E.00956
G1 X123.415 Y135.055 E.00958
G1 X123.329 Y135.366 E.00958
G1 X123.09 Y135.801 E.01474
G1 X122.773 Y136.146 E.01391
G1 X122.507 Y136.329 E.00959
G1 X122.214 Y136.463 E.00957
G1 X121.902 Y136.543 E.00956
G1 X121.58 Y136.569 E.00959
G1 X121.259 Y136.538 E.00958
G1 X120.734 Y136.352 E.01654
G1 X120.395 Y136.126 E.0121
G1 X120.168 Y135.896 E.00959
G1 X119.986 Y135.63 E.00957
G1 X119.852 Y135.337 E.00957
G1 X119.771 Y135.025 E.00957
G1 X119.758 Y134.557 E.0139
G1 X119.862 Y134.071 E.01476
G1 X120.116 Y133.616 E.01547
G1 X120.418 Y133.291 E.01317
G1 X120.684 Y133.109 E.00957
G1 X120.992 Y132.971 E.01002
G1 X121.539 Y132.873 E.0165
G1 X122.001 Y132.918 E.01378
G1 X122.507 Y133.109 E.01606
G1 X122.797 Y133.311 E.01049
G1 X123.042 Y133.569 E.01056
G1 X123.206 Y133.807 E.00858
G1 X123.308 Y134.032 E.00733
M204 S1000
;WIPE_START
G1 F4800
G1 X123.333 Y134.086 E-.02473
G1 X123.34 Y134.1 E-.00651
G1 X123.42 Y134.413 E-.13427
G1 X123.446 Y134.734 E-.13385
G1 X123.415 Y135.055 E-.13404
G1 X123.329 Y135.366 E-.13411
G1 X123.09 Y135.801 E-.20629
G1 X122.773 Y136.146 E-.19473
G1 X122.711 Y136.189 E-.03147
;WIPE_END
G1 Z.4 F720
G1 X121.307 Y129.838 F6000
G1 Z.2 F720
G1 E1 F2100
M204 S800
;TYPE:Perimeter
G1 F1200
G1 X120.867 Y130.054 E.01455
G1 X119.8 Y130.454 E.03383
G1 X119.157 Y130.812 E.02185
G1 X118.711 Y131.102 E.0158
G1 X118.216 Y131.564 E.0201
G1 X117.871 Y131.976 E.01596
G1 X117.547 Y132.487 E.01796
G1 X117.308 Y132.989 E.01651
G1 X117.142 Y133.466 E.015
G1 X116.991 Y134.289 E.02484
G1 X116.967 Y134.902 E.01821
G1 X116.967 Y138.724 E.11348
G1 X116.942 Y139.289 E.01679
G1 X116.849 Y140.024 E.022
G1 X116.697 Y140.692 E.02034
G1 X116.504 Y141.285 E.01852
G1 X116.213 Y141.962 E.02188
G1 X115.879 Y142.57 E.0206
G1 X115.494 Y143.137 E.02035
G1 X115.101 Y143.618 E.01844
G1 X114.628 Y144.103 E.02011
G1 X114.106 Y144.547 E.02035
G1 X113.546 Y144.941 E.02033
G1 X112.951 Y145.28 E.02033
G1 X112.328 Y145.564 E.02033
G1 X111.615 Y145.805 E.02235
G1 X111.013 Y145.951 E.01839
G1 X110.337 Y146.052 E.02029
G1 X109.634 Y146.09 E.0209
G1 X94.383 Y146.09 E.45282
G1 X93.699 Y146.06 E.02033
G1 X92.482 Y145.843 E.0367
G1 X91.343 Y145.426 E.03601
G1 X90.699 Y145.099 E.02144
G1 X90.139 Y144.741 E.01973
G1 X89.215 Y143.962 E.03588
G1 X88.69 Y143.392 E.02301
G1 X88.24 Y142.789 E.02234
G1 X87.695 Y141.798 E.03358
G1 X87.382 Y140.933 E.02731
G1 X87.209 Y140.388 E.01698
G1 X87.105 Y139.849 E.0163
G1 X86.93 Y138.5 E.04039
G1 X86.812 Y137.18 E.03935
G1 X86.742 Y135.833 E.04005
G1 X86.725 Y134.508 E.03934
