; generated by PrusaSlicer 2.9.4 on 2026-03-24 at 07:59:41 UTC


;
;

;
;
; 

; external perimeters extrusion width = 0.45mm
; perimeters extrusion width = 0.45mm
; infill extrusion width = 0.45mm
; solid infill extrusion width = 0.45mm
; top infill extrusion width = 0.40mm
; support material extrusion width = 0.35mm
; first layer extrusion width = 0.42mm

; external perimeters extrusion width = 0.45mm
; perimeters extrusion width = 0.45mm
; infill extrusion width = 0.45mm
; solid infill extrusion width = 0.45mm
; top infill extrusion width = 0.40mm
; support material extrusion width = 0.35mm
; first layer extrusion width = 0.42mm

; external perimeters extrusion width = 0.45mm
; perimeters extrusion width = 0.45mm
; infill extrusion width = 0.45mm
; solid infill extrusion width = 0.45mm
; top infill extrusion width = 0.40mm
; support material extrusion width = 0.35mm
; first layer extrusion width = 0.42mm

M73 P0 R92
M201 X9000 Y9000 Z500 E10000 ; sets maximum accelerations, mm/sec^2
M203 X500 Y500 Z12 E120 ; sets maximum feedrates, mm / sec
M204 S2000 T1500 ; sets acceleration (S) and retract acceleration (R), mm/sec^2
M205 X10.00 Y10.00 Z0.20 E4.50 ; sets the jerk limits, mm/sec
M205 S0 T0 ; sets the minimum extruding and travel feed rate, mm/sec

; printing object Bear Reverse Bowden Side.stl id:1 copy 0
; stop printing object Bear Reverse Bowden Side.stl id:1 copy 0
; printing object M5 Drop-in T-Nut.stl id:2 copy 0
; stop printing object M5 Drop-in T-Nut.stl id:2 copy 0
; printing object M5 Drop-in T-Nut.stl id:2 copy 2
; stop printing object M5 Drop-in T-Nut.stl id:2 copy 2
; printing object M5 Drop-in T-Nut.stl id:2 copy 3
; stop printing object M5 Drop-in T-Nut.stl id:2 copy 3
; printing object M5 Drop-in T-Nut.stl id:2 copy 1
; stop printing object M5 Drop-in T-Nut.stl id:2 copy 1
; printing object Bear Reverse Bowden Top.stl id:0 copy 0
; stop printing object Bear Reverse Bowden Top.stl id:0 copy 0

;TYPE:Custom
M83  ; extruder relative mode
M140 S85 ; set bed temp
M109 S160 ; Set extruder temp before bed level
M190 S85 ; wait for bed temp

G28 W ; home all without mesh bed level
G80 N7 ; mesh bed leveling

M109 S240 ; wait for extruder temp

M221 S100 ; Set flow to 100

G1 Y-3.0 F1000.0 ; go outside print area
G92 E0.0
G1 E8 ; Purge Bubble
G1 X60.0 E9.0 F1000.0 ; intro line
G1 X100.0 E12.5 F1000.0 ; intro line
G92 E0.0
G21 ; set units to millimeters
G90 ; use absolute coordinates
M83 ; use relative distances for extrusion

M900 K0.08 ; Filament gcode LA 1.5
M900 K45 ; Filament gcode LA 1.0




M107
;LAYER_CHANGE
;Z:0.2
;HEIGHT:0.2
G1 E-1 F2100
G1 Z.4 F720
G1 X66.968 Y120.265 F10800
G1 Z.2 F720
G1 E1 F2100
M204 S800
;TYPE:Skirt/Brim
;WIDTH:0.42
G1 F1200
G1 X73.353 Y117.839 E.21416
G1 X74.11 Y117.696 E.02415
G1 X159.748 Y116.922 E2.68523
G1 X171.505 Y116.922 E.36863
G1 X172.343 Y117.089 E.02679
G1 X174.217 Y117.865 E.0636
G1 X174.927 Y118.34 E.02678
G1 X179.207 Y122.62 E.18978
G1 X179.681 Y123.33 E.02677
G1 X180.458 Y125.204 E.06361
G1 X180.624 Y126.042 E.02679
G1 X180.619 Y131.212 E.1621
G1 X178.978 Y154.909 E.74478
G1 X178.262 Y161.869 E.21938
G1 X177.652 Y163.173 E.04514
G1 X174.701 Y166.197 E.13248
G1 X173.162 Y166.858 E.05252
G1 X144.314 Y167.213 E.90458
G1 X72.656 Y164.709 E2.24816
G1 X71.422 Y164.275 E.04101
G1 X70.603 Y163.025 E.04686
G1 X68.869 Y155.652 E.23748
G1 X65.472 Y133.409 E.7055
G1 X65.447 Y122.421 E.34452
G1 X66.088 Y120.873 E.05253
G1 X66.919 Y120.299 E.03167
M204 S1000
;WIPE_START
G1 F8640
G1 X66.968 Y120.265 E-.01377
G1 X70.961 Y118.748 E-.98623
;WIPE_END
G1 Z.4 F720
G1 X70.746 Y122.647 F10800
G1 Z.2 F720
G1 E1 F2100
M204 S800
G1 F1200
G1 X70.865 Y122.453 E.00714
G1 X71.975 Y121.351 E.04904
G1 X72.949 Y120.694 E.03684
G1 X74.737 Y120.18 E.05833
G1 X77.35 Y120.19 E.08193
G1 X78.79 Y120.52 E.04632
G1 X79.991 Y121.187 E.04307
G1 X81.096 Y120.564 E.03977
G1 X82.63 Y120.193 E.04948
G1 X85.459 Y120.211 E.0887
G1 X86.767 Y120.573 E.04255
G1 X87.922 Y121.279 E.04244
G1 X91.283 Y124.616 E.1485
G1 X92.127 Y125.958 E.04971
G1 X92.505 Y127.457 E.04847
G1 X92.498 Y130.228 E.08688
G1 X92.162 Y131.541 E.04249
G1 X91.641 Y132.508 E.03444
G1 X90.82 Y133.399 E.03799
G1 X89.723 Y134.106 E.04092
G1 X88.274 Y134.522 E.04727
G1 X86.408 Y134.534 E.05851
G1 X85.695 Y134.925 E.0255
G1 X84.22 Y135.321 E.04789
G1 X78.868 Y135.32 E.16781
G1 X77.414 Y134.935 E.04716
G1 X76.696 Y134.544 E.02563
G1 X73.855 Y134.503 E.08909
G1 X72.733 Y134.203 E.03642
G1 X71.735 Y133.668 E.0355
G1 X70.955 Y132.974 E.03274
G1 X70.311 Y132.107 E.03386
G1 X69.719 Y130.302 E.05956
G1 X69.689 Y125.368 E.1547
G1 X70.069 Y123.75 E.05211
G1 X70.715 Y122.698 E.03871
M204 S1000
G1 X71.033 Y122.892 F10800
M204 S800
G1 F1200
G1 X71.147 Y122.704 E.00689
G1 X72.228 Y121.631 E.04776
G1 X73.134 Y121.024 E.03419
G1 X74.762 Y120.558 E.05309
G1 X77.328 Y120.567 E.08046
G1 X78.642 Y120.867 E.04226
G1 X79.553 Y121.321 E.03191
G1 X79.953 Y121.644 E.01612
G1 X81.213 Y120.923 E.04552
G1 X82.652 Y120.57 E.04646
G1 X85.431 Y120.588 E.08714
G1 X86.639 Y120.928 E.03935
G1 X87.672 Y121.562 E.038
G1 X91.002 Y124.868 E.14713
G1 X91.791 Y126.132 E.04672
G1 X92.133 Y127.524 E.04494
G1 X92.121 Y130.203 E.084
G1 X91.819 Y131.384 E.03822
G1 X91.347 Y132.271 E.0315
G1 X90.558 Y133.126 E.03648
G1 X89.59 Y133.752 E.03614
G1 X88.245 Y134.145 E.04393
G1 X86.308 Y134.157 E.06073
G1 X85.574 Y134.567 E.02636
G1 X84.147 Y134.95 E.04633
G1 X78.894 Y134.943 E.1647
G1 X77.536 Y134.577 E.0441
G1 X76.797 Y134.169 E.02647
G1 X73.885 Y134.127 E.09131
G1 X72.854 Y133.845 E.03351
G1 X71.934 Y133.348 E.03279
G1 X71.22 Y132.706 E.03011
G1 X70.658 Y131.958 E.02934
G1 X70.096 Y130.269 E.05581
G1 X70.066 Y125.387 E.15307
G1 X70.407 Y123.919 E.04725
G1 X71.002 Y122.943 E.03584
M204 S1000
G1 X71.321 Y123.136 F10800
M204 S800
G1 F1200
G1 X71.43 Y122.955 E.00662
G1 X72.48 Y121.912 E.0464
G1 X73.319 Y121.354 E.03159
G1 X74.787 Y120.935 E.04787
G1 X77.306 Y120.944 E.07898
G1 X78.494 Y121.215 E.03821
G1 X79.364 Y121.649 E.03048
G1 X80 Y122.175 E.02588
G1 X80.291 Y121.885 E.01288
G1 X81.329 Y121.283 E.03762
G1 X82.719 Y120.942 E.04487
G1 X85.401 Y120.965 E.0841
G1 X86.51 Y121.283 E.03617
G1 X87.422 Y121.845 E.03359
G1 X90.721 Y125.121 E.14577
G1 X91.432 Y126.253 E.04191
G1 X91.756 Y127.546 E.04179
G1 X91.744 Y130.177 E.08249
G1 X91.459 Y131.267 E.03533
G1 X91.052 Y132.035 E.02725
G1 X90.331 Y132.825 E.03354
G1 X89.455 Y133.399 E.03284
G1 X88.215 Y133.768 E.04056
G1 X86.157 Y133.781 E.06453
G1 X85.453 Y134.21 E.02585
G1 X84.121 Y134.573 E.04329
G1 X78.968 Y134.572 E.16157
G1 X77.654 Y134.219 E.04266
G1 X76.946 Y133.793 E.02591
G1 X73.961 Y133.756 E.0936
G1 X72.974 Y133.487 E.03208
G1 X72.17 Y133.052 E.02866
G1 X71.486 Y132.438 E.02882
G1 X70.979 Y131.757 E.02662
G1 X70.473 Y130.237 E.05023
G1 X70.443 Y125.407 E.15144
G1 X70.746 Y124.088 E.04243
G1 X71.29 Y123.187 E.033
M204 S1000
G1 X71.609 Y123.378 F10800
M204 S800
G1 F1200
G1 X71.712 Y123.206 E.00629
G1 X72.733 Y122.193 E.0451
G1 X73.502 Y121.685 E.0289
G1 X74.812 Y121.312 E.04271
G1 X77.284 Y121.321 E.07751
G1 X78.346 Y121.562 E.03414
G1 X79.175 Y121.976 E.02905
G1 X80.033 Y122.697 E.03514
G1 X80.506 Y122.196 E.0216
G1 X81.495 Y121.623 E.03584
G1 X82.739 Y121.319 E.04015
G1 X85.325 Y121.335 E.08108
G1 X86.336 Y121.619 E.03293
G1 X87.172 Y122.128 E.03069
G1 X90.44 Y125.373 E.1444
G1 X91.075 Y126.375 E.03719
G1 X91.378 Y127.569 E.03862
G1 X91.367 Y130.15 E.08093
G1 X91.101 Y131.149 E.03241
G1 X90.756 Y131.8 E.0231
G1 X90.101 Y132.525 E.03064
G1 X89.318 Y133.047 E.02951
G1 X88.185 Y133.391 E.03713
G1 X86.017 Y133.405 E.06798
G1 X85.328 Y133.853 E.02577
G1 X84.095 Y134.196 E.04013
G1 X78.993 Y134.195 E.15997
G1 X77.777 Y133.861 E.03954
G1 X77.085 Y133.417 E.02578
G1 X74.036 Y133.386 E.0956
G1 X73.094 Y133.129 E.03062
G1 X72.405 Y132.757 E.02455
G1 X71.753 Y132.171 E.02749
G1 X71.301 Y131.558 E.02388
G1 X70.841 Y130.149 E.04647
G1 X70.82 Y125.426 E.14809
G1 X71.085 Y124.255 E.03764
G1 X71.578 Y123.43 E.03013
M204 S1000
G1 X71.899 Y123.619 F10800
M204 S800
G1 F1200
G1 X71.995 Y123.456 E.00593
G1 X72.984 Y122.474 E.0437
G1 X73.684 Y122.016 E.02623
G1 X74.837 Y121.689 E.03758
G1 X77.262 Y121.698 E.07603
G1 X78.198 Y121.91 E.03009
G1 X78.986 Y122.303 E.02761
G1 X79.689 Y122.9 E.02892
G1 X79.987 Y123.309 E.01587
G1 X80.722 Y122.507 E.03411
G1 X81.66 Y121.963 E.034
G1 X82.761 Y121.696 E.03552
G1 X85.25 Y121.705 E.07804
G1 X86.165 Y121.956 E.02975
G1 X86.923 Y122.412 E.02774
G1 X90.16 Y125.627 E.14305
G1 X90.717 Y126.5 E.03247
G1 X91.001 Y127.592 E.03538
G1 X90.99 Y130.123 E.07936
G1 X90.743 Y131.029 E.02944
G1 X90.459 Y131.566 E.01905
G1 X89.869 Y132.227 E.02778
G1 X89.178 Y132.696 E.02618
G1 X88.154 Y133.014 E.03362
G1 X85.875 Y133.029 E.07146
G1 X85.201 Y133.497 E.02573
G1 X84.068 Y133.819 E.03693
G1 X79.02 Y133.818 E.15828
G1 X77.902 Y133.505 E.0364
G1 X77.225 Y133.041 E.02573
G1 X74.112 Y133.016 E.09761
G1 X73.214 Y132.771 E.02919
G1 X72.641 Y132.462 E.02041
G1 X72.02 Y131.904 E.02618
G1 X71.623 Y131.361 E.02109
G1 X71.209 Y130.062 E.04275
G1 X71.197 Y125.446 E.14473
G1 X71.425 Y124.421 E.03292
G1 X71.868 Y123.671 E.02731
M204 S1000
G1 X72.19 Y123.858 F10800
M204 S800
G1 F1200
G1 X72.279 Y123.706 E.00552
G1 X73.236 Y122.756 E.04228
G1 X73.865 Y122.348 E.02351
G1 X74.862 Y122.066 E.03249
G1 X77.239 Y122.075 E.07453
G1 X78.091 Y122.272 E.02742
G1 X78.795 Y122.628 E.02474
G1 X79.423 Y123.169 E.02599
G1 X80.015 Y124.013 E.03232
G1 X80.228 Y123.609 E.01432
G1 X80.937 Y122.818 E.03331
G1 X81.826 Y122.303 E.03221
G1 X82.783 Y122.073 E.03086
G1 X85.175 Y122.076 E.075
G1 X86.039 Y122.313 E.02809
G1 X86.707 Y122.722 E.02456
G1 X89.88 Y125.88 E.14036
G1 X90.361 Y126.626 E.02783
G1 X90.624 Y127.616 E.03212
G1 X90.613 Y130.096 E.07776
G1 X90.385 Y130.908 E.02644
M73 P0 R91
G1 X90.162 Y131.332 E.01502
G1 X89.603 Y131.959 E.02634
G1 X89.037 Y132.345 E.02148
G1 X88.122 Y132.637 E.03011
G1 X85.73 Y132.653 E.075
G1 X85.033 Y133.159 E.02701
G1 X84.042 Y133.442 E.03231
G1 X79.046 Y133.441 E.15665
G1 X78.069 Y133.166 E.03182
G1 X77.368 Y132.665 E.02702
G1 X74.141 Y132.639 E.10118
G1 X73.336 Y132.414 E.02621
G1 X72.876 Y132.166 E.01639
G1 X72.287 Y131.637 E.02482
G1 X71.947 Y131.166 E.01821
G1 X71.586 Y130.033 E.03728
G1 X71.574 Y125.465 E.14323
G1 X71.766 Y124.584 E.02827
G1 X72.16 Y123.91 E.02448
M204 S1000
G1 X72.482 Y124.096 F10800
M204 S800
G1 F1200
G1 X72.563 Y123.956 E.00507
G1 X73.487 Y123.038 E.04084
G1 X74.045 Y122.681 E.02077
G1 X74.886 Y122.443 E.0274
G1 X77.215 Y122.452 E.07302
G1 X77.98 Y122.633 E.02465
G1 X78.601 Y122.952 E.02189
G1 X79.157 Y123.437 E.02313
G1 X79.575 Y124.043 E.02308
G1 X79.839 Y124.952 E.02968
G1 X80.131 Y124.943 E.00916
G1 X80.244 Y124.443 E.01607
G1 X80.532 Y123.834 E.02112
G1 X81.156 Y123.127 E.02957
G1 X81.942 Y122.663 E.02862
G1 X82.849 Y122.445 E.02925
G1 X85.099 Y122.446 E.07055
G1 X85.912 Y122.669 E.02643
G1 X86.488 Y123.029 E.0213
G1 X89.6 Y126.133 E.13781
G1 X90.005 Y126.755 E.02327
G1 X90.247 Y127.64 E.02877
G1 X90.236 Y130.067 E.0761
G1 X89.865 Y131.099 E.03439
G1 X89.337 Y131.691 E.02487
G1 X88.893 Y131.996 E.01689
G1 X88.089 Y132.26 E.02653
G1 X85.583 Y132.277 E.07858
G1 X84.864 Y132.821 E.02827
G1 X84.016 Y133.065 E.02767
G1 X79.072 Y133.064 E.15502
G1 X78.235 Y132.827 E.02728
G1 X77.513 Y132.289 E.02823
G1 X74.17 Y132.262 E.10482
G1 X73.461 Y132.057 E.02314
G1 X73.111 Y131.87 E.01244
G1 X72.556 Y131.371 E.0234
G1 X72.271 Y130.971 E.0154
G1 X71.963 Y130.003 E.03185
G1 X71.952 Y125.484 E.14169
G1 X72.108 Y124.746 E.02365
G1 X72.452 Y124.148 E.02163
M204 S1000
G1 X72.776 Y124.331 F10800
M204 S800
G1 F1200
G1 X72.847 Y124.204 E.00456
G1 X73.738 Y123.321 E.03933
G1 X74.222 Y123.014 E.01797
G1 X74.911 Y122.821 E.02243
G1 X77.192 Y122.829 E.07152
G1 X77.828 Y122.979 E.02049
G1 X78.407 Y123.277 E.02042
G1 X78.888 Y123.703 E.02015
G1 X79.245 Y124.227 E.01988
G1 X79.508 Y125.177 E.03091
G1 X79.513 Y126.796 E.05076
G1 X80.473 Y126.807 E.0301
G1 X80.489 Y125.081 E.05412
G1 X80.596 Y124.579 E.01609
G1 X80.833 Y124.062 E.01783
G1 X81.419 Y123.399 E.02774
G1 X82.058 Y123.022 E.02326
G1 X82.872 Y122.822 E.02628
G1 X85.072 Y122.823 E.06898
G1 X85.781 Y123.023 E.0231
G1 X86.266 Y123.335 E.01808
G1 X89.321 Y126.387 E.1354
G1 X89.651 Y126.886 E.01876
G1 X89.87 Y127.665 E.02537
G1 X89.859 Y130.037 E.07437
G1 X89.544 Y130.9 E.0288
G1 X89.072 Y131.422 E.02207
G1 X88.745 Y131.648 E.01246
G1 X88.055 Y131.883 E.02285
G1 X85.438 Y131.901 E.08206
G1 X84.699 Y132.482 E.02947
G1 X83.989 Y132.688 E.02318
G1 X79.099 Y132.687 E.15332
G1 X78.398 Y132.487 E.02286
G1 X77.656 Y131.914 E.02939
G1 X74.201 Y131.885 E.10833
G1 X73.345 Y131.574 E.02856
G1 X72.824 Y131.106 E.02196
G1 X72.597 Y130.78 E.01246
G1 X72.34 Y129.973 E.02656
G1 X72.329 Y125.501 E.14022
G1 X72.451 Y124.904 E.01911
G1 X72.746 Y124.383 E.01877
M204 S1000
G1 X73.071 Y124.563 F10800
M204 S800
G1 F1200
G1 X73.132 Y124.453 E.00394
G1 X73.988 Y123.604 E.0378
G1 X74.398 Y123.349 E.01514
G1 X74.936 Y123.198 E.01752
G1 X77.17 Y123.206 E.07005
G1 X77.679 Y123.326 E.0164
G1 X78.179 Y123.578 E.01756
G1 X78.591 Y123.935 E.01709
G1 X78.915 Y124.413 E.01811
G1 X79.131 Y125.203 E.02568
G1 X79.137 Y127.169 E.06164
G1 X80.847 Y127.188 E.05362
G1 X80.862 Y125.137 E.06431
G1 X80.948 Y124.716 E.01347
G1 X81.164 Y124.246 E.01622
G1 X81.678 Y123.674 E.02411
G1 X82.221 Y123.363 E.01962
G1 X82.895 Y123.2 E.02174
G1 X85.044 Y123.2 E.06738
G1 X85.645 Y123.376 E.01964
G1 X86.041 Y123.638 E.01489
G1 X89.042 Y126.641 E.13311
G1 X89.298 Y127.021 E.01437
G1 X89.493 Y127.692 E.02191
G1 X89.482 Y130.006 E.07255
G1 X89.225 Y130.698 E.02315
G1 X88.557 Y131.32 E.02862
G1 X87.966 Y131.516 E.01952
G1 X85.247 Y131.524 E.08525
G1 X84.712 Y132.046 E.02344
G1 X83.961 Y132.311 E.02497
G1 X79.126 Y132.31 E.1516
G1 X78.385 Y132.052 E.0246
G1 X77.851 Y131.538 E.02324
G1 X74.233 Y131.509 E.11344
G1 X73.547 Y131.255 E.02294
G1 X72.924 Y130.591 E.02855
G1 X72.717 Y129.943 E.02133
G1 X72.706 Y125.518 E.13874
G1 X72.796 Y125.06 E.01463
G1 X73.042 Y124.616 E.01592
M204 S1000
G1 X73.369 Y124.792 F10800
M204 S800
G1 F1200
G1 X73.419 Y124.7 E.00328
G1 X74.239 Y123.886 E.03623
G1 X74.531 Y123.702 E.01082
G1 X74.963 Y123.575 E.01412
G1 X77.145 Y123.583 E.06842
G1 X77.953 Y123.88 E.02699
G1 X78.294 Y124.169 E.01402
G1 X78.585 Y124.599 E.01628
G1 X78.754 Y125.228 E.02042
G1 X78.761 Y127.542 E.07255
G1 X81.222 Y127.569 E.07717
G1 X81.239 Y125.16 E.07553
G1 X81.312 Y124.814 E.01109
G1 X81.467 Y124.473 E.01174
G1 X81.896 Y123.983 E.02042
G1 X82.341 Y123.722 E.01618
G1 X82.919 Y123.577 E.01868
G1 X85.018 Y123.577 E.06581
G1 X85.464 Y123.708 E.01457
G1 X85.789 Y123.919 E.01215
G1 X88.764 Y126.896 E.13196
G1 X88.946 Y127.16 E.01005
G1 X89.115 Y127.719 E.01831
G1 X89.105 Y129.973 E.07067
G1 X88.969 Y130.387 E.01366
G1 X88.552 Y130.874 E.0201
G1 X87.881 Y131.148 E.02273
G1 X85.019 Y131.146 E.08974
G1 X84.871 Y131.396 E.00911
G1 X84.506 Y131.729 E.01549
G1 X83.932 Y131.934 E.01911
G1 X79.155 Y131.933 E.14978
G1 X78.588 Y131.734 E.01884
G1 X78.226 Y131.411 E.01521
G1 X78.074 Y131.163 E.00912
G1 X74.267 Y131.132 E.11937
G1 X73.857 Y130.997 E.01353
G1 X73.371 Y130.584 E.02
G1 X73.094 Y129.912 E.02279
G1 X73.083 Y125.534 E.13727
G1 X73.142 Y125.211 E.0103
G1 X73.34 Y124.845 E.01305
M204 S1000
G1 X73.689 Y124.986 F10800
M204 S800
G1 F1200
G1 X73.704 Y124.948 E.00128
G1 X74.706 Y124.037 E.04246
G1 X74.99 Y123.952 E.00929
G1 X77.119 Y123.96 E.06675
G1 X77.758 Y124.204 E.02145
G1 X78.026 Y124.436 E.01111
G1 X78.252 Y124.778 E.01285
G1 X78.383 Y125.296 E.01675
G1 X78.384 Y127.91 E.08196
G1 X80.027 Y127.943 E.05153
G1 X81.597 Y127.945 E.04923
G1 X81.612 Y125.219 E.08547
G1 X81.795 Y124.659 E.01847
G1 X82.154 Y124.26 E.01683
G1 X82.501 Y124.064 E.0125
G1 X82.984 Y123.948 E.01557
G1 X84.938 Y123.947 E.06127
G1 X85.33 Y124.061 E.0128
G1 X88.597 Y127.306 E.14438
G1 X88.738 Y127.75 E.01461
G1 X88.737 Y129.884 E.06691
G1 X88.6 Y130.275 E.01299
G1 X88.197 Y130.657 E.01741
G1 X87.85 Y130.771 E.01145
G1 X84.784 Y130.769 E.09613
G1 X84.587 Y131.146 E.01334
G1 X84.292 Y131.419 E.0126
G1 X83.9 Y131.557 E.01303
G1 X79.187 Y131.556 E.14777
