; generated by PrusaSlicer 2.9.2 on 2025-04-28 at 14:20:22 UTC


;
;

;
;
; 

; external perimeters extrusion width = 0.45mm
; perimeters extrusion width = 0.45mm
; infill extrusion width = 0.45mm
; solid infill extrusion width = 0.45mm
; top infill extrusion width = 0.40mm
; first layer extrusion width = 0.42mm

; external perimeters extrusion width = 0.45mm
; perimeters extrusion width = 0.45mm
; infill extrusion width = 0.45mm
; solid infill extrusion width = 0.45mm
; top infill extrusion width = 0.40mm
; first layer extrusion width = 0.42mm

; external perimeters extrusion width = 0.45mm
; perimeters extrusion width = 0.45mm
; infill extrusion width = 0.45mm
; solid infill extrusion width = 0.45mm
; top infill extrusion width = 0.40mm
; first layer extrusion width = 0.42mm

M73 P0 R213
M201 X9000 Y9000 Z500 E10000 ; sets maximum accelerations, mm/sec^2
M203 X500 Y500 Z12 E120 ; sets maximum feedrates, mm / sec
M204 S2000 T1500 ; sets acceleration (S) and retract acceleration (R), mm/sec^2
M205 X10.00 Y10.00 Z0.20 E4.50 ; sets the jerk limits, mm/sec
M205 S0 T0 ; sets the minimum extruding and travel feed rate, mm/sec

; printing object support_top.stl id:2 copy 0
; stop printing object support_top.stl id:2 copy 0
; printing object support_left.stl id:0 copy 0
; stop printing object support_left.stl id:0 copy 0
; printing object support_right.stl id:1 copy 0
; stop printing object support_right.stl id:1 copy 0

;TYPE:Custom
M83  ; extruder relative mode
M140 S85 ; set bed temp
M109 S160 ; Set extruder temp before bed level
M190 S85 ; wait for bed temp

G28 W ; home all without mesh bed level
G80 N7 ; mesh bed leveling

M109 S250 ; wait for extruder temp

M221 S100 ; Set flow to 100

G1 Y-3.0 F1000.0 ; go outside print area
G92 E0.0
G1 E8 ; Purge Bubble
G1 X60.0 E9.0 F1000.0 ; intro line
G1 X100.0 E12.5 F1000.0 ; intro line
G92 E0.0
G21 ; set units to millimeters
G90 ; use absolute coordinates
M83 ; use relative distances for extrusion

M900 K0.08 ; Filament gcode LA 1.5
M900 K45 ; Filament gcode LA 1.0




M107
;LAYER_CHANGE
;Z:0.2
;HEIGHT:0.2
G1 E-1 F2100
G1 Z.4 F720
G1 X49.219 Y83.362 F6000
G1 Z.2 F720
G1 E1 F2100
M204 S800
;TYPE:Skirt/Brim
;WIDTH:0.42
G1 F1200
G1 X141.867 Y28.66 E3.37346
G1 X142.98 Y28.356 E.03618
G1 X151.98 Y28.356 E.28219
G1 X152.707 Y28.48 E.02312
G1 X223.707 Y53.48 E2.36013
G1 X224.754 Y54.264 E.04101
G1 X225.169 Y55.545 E.04222
G1 X225.169 Y179.455 E3.88511
G1 X224.778 Y180.704 E.04104
M73 P0 R212
G1 X223.745 Y181.506 E.041
G1 X222.98 Y181.644 E.02437
G1 X213.98 Y181.644 E.28219
G1 X213.345 Y181.55 E.02013
G1 X147.345 Y161.55 E2.16231
G1 X26.303 Y119.578 E4.01688
G1 X25.252 Y118.8 E.041
G1 X24.831 Y117.511 E.04252
G1 X24.831 Y99.011 E.58005
G1 X25.222 Y97.762 E.04104
G1 X25.907 Y97.126 E.02931
G1 X49.168 Y83.393 E.84695
M204 S1000
;WIPE_START
G1 F4800
G1 X49.219 Y83.362 E-.02481
G1 X51.239 Y82.169 E-.97519
;WIPE_END
G1 Z.4 F720
; printing object support_top.stl id:2 copy 0
G1 X31.423 Y103.376 F6000
G1 Z.2 F720
G1 E1 F2100
M204 S800
;TYPE:Perimeter
;WIDTH:0.419999
G1 F1200
G1 X31.399 Y103.389 E.00086
G1 X31.279 Y103.565 E.00668
G1 X31.233 Y103.789 E.00717
G1 X31.233 Y116.724 E.40557
G1 X27.807 Y116.724 E.10742
G1 X27.807 Y99.798 E.5307
G1 X98.241 Y99.798 E2.2084
G1 X98.526 Y99.721 E.00926
G1 X98.732 Y99.513 E.00918
G1 X98.807 Y99.232 E.00912
G1 X98.807 Y84.798 E.45257
G1 X106.233 Y84.798 E.23284
G1 X106.233 Y88.511 E.11642
G1 X106.233 Y120.724 E1.01001
G1 X98.807 Y120.724 E.23284
G1 X98.807 Y103.789 E.53098
G1 X98.732 Y103.508 E.00912
G1 X98.526 Y103.3 E.00918
G1 X98.241 Y103.224 E.00925
G1 X31.701 Y103.232 E2.08631
G1 X31.476 Y103.349 E.00795
M204 S1000
G1 X31.698 Y103.642 F6000
M204 S800
;TYPE:External perimeter
G1 F1200
G1 X31.665 Y103.656 E.00112
G1 X31.61 Y103.789 E.00451
G1 X31.61 Y117.101 E.41739
G1 X27.43 Y117.101 E.13106
G1 X27.43 Y99.421 E.55434
G1 X98.241 Y99.421 E2.22023
G1 X98.365 Y99.374 E.00416
G1 X98.43 Y99.232 E.0049
G1 X98.43 Y84.421 E.46439
G1 X106.61 Y84.421 E.25648
G1 X106.61 Y88.511 E.12824
G1 X106.61 Y121.101 E1.02183
G1 X98.43 Y121.101 E.25648
G1 X98.43 Y103.789 E.5428
G1 X98.384 Y103.666 E.00412
G1 X98.241 Y103.601 E.00493
G1 X31.799 Y103.601 E2.08324
G1 X31.753 Y103.619 E.00155
M204 S1000
;WIPE_START
G1 F4800
G1 X31.698 Y103.642 E-.02478
G1 X31.665 Y103.656 E-.0149
G1 X31.61 Y103.789 E-.05982
G1 X31.61 Y105.956 E-.9005
;WIPE_END
G1 Z.4 F720
G1 X106.12 Y85.674 F6000
G1 Z.2 F720
G1 E1 F2100
M204 S800
;TYPE:Solid infill
;WIDTH:0.420414
G1 F1200
G1 X105.526 Y85.081 E.02635
G1 X104.992 Y85.081 E.01676
G1 X105.95 Y86.038 E.0425
G1 X105.95 Y86.572 E.01676
G1 X104.459 Y85.081 E.06619
G1 X103.925 Y85.081 E.01676
G1 X105.95 Y87.106 E.08989
G1 X105.95 Y87.64 E.01676
G1 X103.391 Y85.081 E.1136
G1 X102.857 Y85.081 E.01676
G1 X105.95 Y88.174 E.1373
G1 X105.95 Y88.707 E.01673
G1 X102.323 Y85.081 E.16098
G1 X101.789 Y85.081 E.01676
G1 X105.95 Y89.241 E.18469
G1 X105.95 Y89.775 E.01676
G1 X101.255 Y85.081 E.20839
G1 X100.722 Y85.081 E.01673
G1 X105.95 Y90.309 E.23207
G1 X105.95 Y90.843 E.01676
G1 X100.188 Y85.081 E.25578
G1 X99.654 Y85.081 E.01676
G1 X105.95 Y91.377 E.27948
G1 X105.95 Y91.911 E.01676
G1 X99.12 Y85.081 E.30319
G1 X99.09 Y85.081 E.00094
G1 X99.09 Y85.584 E.01579
G1 X105.95 Y92.444 E.30452
G1 X105.95 Y92.978 E.01676
G1 X99.09 Y86.118 E.30452
G1 X99.09 Y86.652 E.01676
G1 X105.95 Y93.512 E.30452
G1 X105.95 Y94.046 E.01676
G1 X99.09 Y87.186 E.30452
G1 X99.09 Y87.72 E.01676
G1 X105.95 Y94.58 E.30452
G1 X105.95 Y95.114 E.01676
G1 X99.09 Y88.254 E.30452
G1 X99.09 Y88.787 E.01673
G1 X105.95 Y95.648 E.30454
G1 X105.95 Y96.181 E.01673
G1 X99.09 Y89.321 E.30452
G1 X99.09 Y89.855 E.01676
G1 X105.95 Y96.715 E.30452
G1 X105.95 Y97.249 E.01676
G1 X99.09 Y90.389 E.30452
G1 X99.09 Y90.923 E.01676
G1 X105.95 Y97.783 E.30452
G1 X105.95 Y98.317 E.01676
G1 X99.09 Y91.457 E.30452
G1 X99.09 Y91.991 E.01676
G1 X105.95 Y98.851 E.30452
G1 X105.95 Y99.385 E.01676
G1 X99.09 Y92.524 E.30454
G1 X99.09 Y93.058 E.01676
G1 X105.95 Y99.918 E.30452
G1 X105.95 Y100.452 E.01676
G1 X99.09 Y93.592 E.30452
G1 X99.09 Y94.126 E.01676
G1 X105.95 Y100.986 E.30452
G1 X105.95 Y101.52 E.01676
G1 X99.09 Y94.66 E.30452
G1 X99.09 Y95.194 E.01676
G1 X105.95 Y102.054 E.30452
G1 X105.95 Y102.588 E.01676
G1 X99.09 Y95.728 E.30452
G1 X99.09 Y96.261 E.01673
G1 X105.95 Y103.122 E.30454
G1 X105.95 Y103.655 E.01673
G1 X99.09 Y96.795 E.30452
G1 X99.09 Y97.329 E.01676
G1 X105.95 Y104.189 E.30452
G1 X105.95 Y104.723 E.01676
G1 X99.09 Y97.863 E.30452
G1 X99.09 Y98.397 E.01676
G1 X105.95 Y105.257 E.30452
G1 X105.95 Y105.791 E.01676
G1 X99.09 Y98.931 E.30452
G1 X99.09 Y99.24 E.0097
G1 X99.056 Y99.431 E.00609
G1 X105.95 Y106.325 E.30603
G1 X105.95 Y106.859 E.01676
M73 P0 R211
G1 X98.877 Y99.785 E.314
G1 X98.801 Y99.871 E.0036
G1 X98.667 Y99.967 E.00517
G1 X98.567 Y100.009 E.0034
G1 X105.95 Y107.392 E.32773
G1 X105.95 Y107.926 E.01676
G1 X98.104 Y100.081 E.34826
G1 X97.57 Y100.081 E.01676
G1 X105.95 Y108.46 E.37197
G1 X105.95 Y108.994 E.01676
G1 X97.037 Y100.081 E.39565
G1 X96.503 Y100.081 E.01676
G1 X105.95 Y109.528 E.41936
G1 X105.95 Y110.062 E.01676
G1 X95.969 Y100.081 E.44306
G1 X95.435 Y100.081 E.01676
G1 X98.303 Y102.949 E.12731
G1 X98.478 Y102.973 E.00554
G1 X98.667 Y103.055 E.00647
G1 X98.801 Y103.15 E.00516
G1 X98.941 Y103.308 E.00663
G1 X99.04 Y103.499 E.00675
G1 X99.08 Y103.726 E.00724
G1 X105.95 Y110.596 E.30496
G1 X105.95 Y111.129 E.01673
G1 X99.09 Y104.269 E.30452
G1 X99.09 Y104.803 E.01676
G1 X105.95 Y111.663 E.30452
G1 X105.95 Y112.197 E.01676
G1 X99.09 Y105.337 E.30452
G1 X99.09 Y105.871 E.01676
G1 X105.95 Y112.731 E.30452
G1 X105.95 Y113.265 E.01676
G1 X99.09 Y106.405 E.30452
G1 X99.09 Y106.939 E.01676
G1 X105.95 Y113.799 E.30452
G1 X105.95 Y114.333 E.01676
G1 X99.09 Y107.472 E.30454
G1 X99.09 Y108.006 E.01676
G1 X105.95 Y114.866 E.30452
G1 X105.95 Y115.4 E.01676
G1 X99.09 Y108.54 E.30452
G1 X99.09 Y109.074 E.01676
G1 X105.95 Y115.934 E.30452
G1 X105.95 Y116.468 E.01676
G1 X99.09 Y109.608 E.30452
G1 X99.09 Y110.142 E.01676
G1 X105.95 Y117.002 E.30452
G1 X105.95 Y117.536 E.01676
G1 X99.09 Y110.676 E.30452
G1 X99.09 Y111.209 E.01673
G1 X105.95 Y118.07 E.30454
G1 X105.95 Y118.603 E.01673
G1 X99.09 Y111.743 E.30452
G1 X99.09 Y112.277 E.01676
G1 X105.95 Y119.137 E.30452
G1 X105.95 Y119.671 E.01676
G1 X99.09 Y112.811 E.30452
G1 X99.09 Y113.345 E.01676
G1 X105.95 Y120.205 E.30452
G1 X105.95 Y120.441 E.00741
G1 X105.652 Y120.441 E.00935
G1 X99.09 Y113.879 E.29129
G1 X99.09 Y114.413 E.01676
G1 X105.118 Y120.441 E.26759
G1 X104.584 Y120.441 E.01676
G1 X99.09 Y114.946 E.2439
G1 X99.09 Y115.48 E.01676
G1 X104.05 Y120.441 E.2202
G1 X103.517 Y120.441 E.01673
G1 X99.09 Y116.014 E.19652
G1 X99.09 Y116.548 E.01676
G1 X102.983 Y120.441 E.17281
G1 X102.449 Y120.441 E.01676
G1 X99.09 Y117.082 E.14911
G1 X99.09 Y117.616 E.01676
G1 X101.915 Y120.441 E.1254
G1 X101.381 Y120.441 E.01676
G1 X99.09 Y118.15 E.1017
G1 X99.09 Y118.683 E.01673
G1 X100.847 Y120.441 E.07802
G1 X100.313 Y120.441 E.01676
G1 X99.09 Y119.217 E.05431
G1 X99.09 Y119.751 E.01676
G1 X99.78 Y120.441 E.03063
G1 X99.246 Y120.441 E.01676
G1 X98.92 Y120.115 E.01447
M204 S1000
;WIPE_START
G1 F4800
G1 X99.246 Y120.441 E-.19162
G1 X99.78 Y120.441 E-.22194
G1 X99.09 Y119.751 E-.40557
G1 X99.09 Y119.316 E-.18087
;WIPE_END
G1 Z.4 F720
G1 X97.931 Y103.11 F6000
G1 Z.2 F720
G1 E1 F2100
M204 S800
G1 F1200
G1 X94.901 Y100.081 E.13448
G1 X94.367 Y100.081 E.01676
G1 X97.228 Y102.941 E.12698
G1 X96.694 Y102.941 E.01676
G1 X93.833 Y100.081 E.12698
G1 X93.3 Y100.081 E.01673
G1 X96.16 Y102.941 E.12696
G1 X95.626 Y102.941 E.01676
G1 X92.766 Y100.081 E.12696
G1 X92.232 Y100.081 E.01676
G1 X95.093 Y102.941 E.12698
G1 X94.559 Y102.941 E.01676
G1 X91.698 Y100.081 E.12698
G1 X91.164 Y100.081 E.01676
G1 X94.025 Y102.941 E.12698
G1 X93.491 Y102.942 E.01676
G1 X90.63 Y100.081 E.127
G1 X90.096 Y100.081 E.01676
G1 X92.958 Y102.942 E.12702
G1 X92.424 Y102.942 E.01676
G1 X89.563 Y100.081 E.127
G1 X89.029 Y100.081 E.01676
G1 X91.89 Y102.942 E.127
G1 X91.356 Y102.942 E.01676
G1 X88.495 Y100.081 E.127
G1 X87.961 Y100.081 E.01676
G1 X90.823 Y102.942 E.12702
G1 X90.289 Y102.942 E.01676
G1 X87.427 Y100.081 E.12702
G1 X86.893 Y100.081 E.01676
G1 X89.755 Y102.942 E.12702
G1 X89.221 Y102.942 E.01676
G1 X86.359 Y100.081 E.12702
G1 X85.826 Y100.081 E.01673
G1 X88.687 Y102.942 E.127
G1 X88.154 Y102.942 E.01673
G1 X85.292 Y100.081 E.12702
G1 X84.758 Y100.081 E.01676
G1 X87.62 Y102.943 E.12705
G1 X87.086 Y102.943 E.01676
G1 X84.224 Y100.081 E.12705
G1 X83.69 Y100.081 E.01676
G1 X86.552 Y102.943 E.12705
G1 X86.019 Y102.943 E.01673
G1 X83.156 Y100.081 E.12707
G1 X82.622 Y100.081 E.01676
G1 X85.485 Y102.943 E.12707
G1 X84.951 Y102.943 E.01676
G1 X82.089 Y100.081 E.12705
G1 X81.555 Y100.081 E.01676
G1 X84.417 Y102.943 E.12705
G1 X83.884 Y102.943 E.01673
G1 X81.021 Y100.081 E.12707
G1 X80.487 Y100.081 E.01676
G1 X83.35 Y102.943 E.12707
G1 X82.816 Y102.943 E.01676
G1 X79.953 Y100.081 E.12707
G1 X79.419 Y100.081 E.01676
G1 X82.282 Y102.943 E.12707
G1 X81.749 Y102.944 E.01673
G1 X78.885 Y100.081 E.12711
G1 X78.352 Y100.081 E.01673
G1 X81.215 Y102.944 E.12709
G1 X80.681 Y102.944 E.01676
G1 X77.818 Y100.081 E.12709
G1 X77.284 Y100.081 E.01676
G1 X80.147 Y102.944 E.12709
G1 X79.613 Y102.944 E.01676
G1 X76.75 Y100.081 E.12709
G1 X76.216 Y100.081 E.01676
G1 X79.08 Y102.944 E.12711
G1 X78.546 Y102.944 E.01676
G1 X75.682 Y100.081 E.12711
G1 X75.148 Y100.081 E.01676
G1 X78.012 Y102.944 E.12711
G1 X77.478 Y102.944 E.01676
G1 X74.615 Y100.081 E.12709
G1 X74.081 Y100.081 E.01676
G1 X76.945 Y102.944 E.12711
G1 X76.411 Y102.944 E.01676
G1 X73.547 Y100.081 E.12711
G1 X73.013 Y100.081 E.01676
G1 X75.877 Y102.945 E.12713
G1 X75.343 Y102.945 E.01676
G1 X72.479 Y100.081 E.12713
G1 X71.945 Y100.081 E.01676
G1 X74.81 Y102.945 E.12716
G1 X74.276 Y102.945 E.01676
G1 X71.411 Y100.081 E.12716
G1 X70.878 Y100.081 E.01673
G1 X73.742 Y102.945 E.12713
G1 X73.208 Y102.945 E.01676
G1 X70.344 Y100.081 E.12713
G1 X69.81 Y100.081 E.01676
G1 X72.674 Y102.945 E.12713
G1 X72.141 Y102.945 E.01673
G1 X69.276 Y100.081 E.12716
G1 X68.742 Y100.081 E.01676
G1 X71.607 Y102.945 E.12716
G1 X71.073 Y102.945 E.01676
G1 X68.208 Y100.081 E.12716
G1 X67.674 Y100.081 E.01676
G1 X70.539 Y102.945 E.12716
G1 X70.006 Y102.946 E.01673
G1 X67.141 Y100.081 E.12718
G1 X66.607 Y100.081 E.01676
G1 X69.472 Y102.946 E.12718
G1 X68.938 Y102.946 E.01676
G1 X66.073 Y100.081 E.12718
G1 X65.539 Y100.081 E.01676
G1 X68.404 Y102.946 E.12718
G1 X67.871 Y102.946 E.01673
G1 X65.005 Y100.081 E.1272
G1 X64.471 Y100.081 E.01676
G1 X67.337 Y102.946 E.1272
G1 X66.803 Y102.946 E.01676
G1 X63.937 Y100.081 E.1272
G1 X63.404 Y100.081 E.01673
G1 X66.269 Y102.946 E.12718
G1 X65.736 Y102.946 E.01673
G1 X62.87 Y100.081 E.1272
G1 X62.336 Y100.081 E.01676
G1 X65.202 Y102.946 E.1272
G1 X64.668 Y102.946 E.01676
G1 X61.802 Y100.081 E.1272
G1 X61.268 Y100.081 E.01676
G1 X64.134 Y102.947 E.12722
G1 X63.6 Y102.947 E.01676
G1 X60.734 Y100.081 E.12722
G1 X60.2 Y100.081 E.01676
G1 X63.067 Y102.947 E.12725
G1 X62.533 Y102.947 E.01676
G1 X59.667 Y100.081 E.12722
G1 X59.133 Y100.081 E.01676
G1 X61.999 Y102.947 E.12722
G1 X61.465 Y102.947 E.01676
G1 X58.599 Y100.081 E.12722
G1 X58.065 Y100.081 E.01676
G1 X60.932 Y102.947 E.12725
G1 X60.398 Y102.947 E.01676
G1 X57.531 Y100.081 E.12725
G1 X56.997 Y100.081 E.01676
G1 X59.864 Y102.947 E.12725
G1 X59.33 Y102.947 E.01676
G1 X56.463 Y100.081 E.12725
G1 X55.93 Y100.081 E.01673
G1 X58.797 Y102.947 E.12725
G1 X58.263 Y102.948 E.01676
G1 X55.396 Y100.081 E.12727
G1 X54.862 Y100.081 E.01676
G1 X57.729 Y102.948 E.12727
G1 X57.195 Y102.948 E.01676
G1 X54.328 Y100.081 E.12727
G1 X53.794 Y100.081 E.01676
G1 X56.661 Y102.948 E.12727
G1 X56.128 Y102.948 E.01673
G1 X53.26 Y100.081 E.12729
G1 X52.726 Y100.081 E.01676
G1 X55.594 Y102.948 E.12729
G1 X55.06 Y102.948 E.01676
G1 X52.193 Y100.081 E.12727
G1 X51.659 Y100.081 E.01676
G1 X54.526 Y102.948 E.12727
G1 X53.993 Y102.948 E.01673
G1 X51.125 Y100.081 E.12729
G1 X50.591 Y100.081 E.01676
G1 X53.459 Y102.948 E.12729
G1 X52.925 Y102.948 E.01676
G1 X50.057 Y100.081 E.12729
G1 X49.523 Y100.081 E.01676
G1 X52.391 Y102.949 E.12731
G1 X51.858 Y102.949 E.01673
G1 X48.989 Y100.081 E.12733
G1 X48.456 Y100.081 E.01673
G1 X51.324 Y102.949 E.12731
G1 X50.79 Y102.949 E.01676
G1 X47.922 Y100.081 E.12731
G1 X47.388 Y100.081 E.01676
G1 X50.256 Y102.949 E.12731
G1 X49.723 Y102.949 E.01673
G1 X46.854 Y100.081 E.12733
G1 X46.32 Y100.081 E.01676
G1 X49.189 Y102.949 E.12733
G1 X48.655 Y102.949 E.01676
G1 X45.786 Y100.081 E.12733
G1 X45.252 Y100.081 E.01676
G1 X48.121 Y102.949 E.12733
G1 X47.587 Y102.949 E.01676
G1 X44.719 Y100.081 E.12731
G1 X44.185 Y100.081 E.01676
G1 X47.054 Y102.949 E.12733
G1 X46.52 Y102.95 E.01676
G1 X43.651 Y100.081 E.12736
G1 X43.117 Y100.081 E.01676
G1 X45.986 Y102.95 E.12736
G1 X45.452 Y102.95 E.01676
G1 X42.583 Y100.081 E.12736
G1 X42.049 Y100.081 E.01676
G1 X44.919 Y102.95 E.12738
G1 X44.385 Y102.95 E.01676
G1 X41.515 Y100.081 E.12738
G1 X40.982 Y100.081 E.01673
G1 X43.851 Y102.95 E.12736
G1 X43.317 Y102.95 E.01676
G1 X40.448 Y100.081 E.12736
G1 X39.914 Y100.081 E.01676
G1 X42.784 Y102.95 E.12738
G1 X42.25 Y102.95 E.01676
G1 X39.38 Y100.081 E.12738
G1 X38.846 Y100.081 E.01676
G1 X41.716 Y102.95 E.12738
G1 X41.182 Y102.95 E.01676
G1 X38.312 Y100.081 E.12738
G1 X37.778 Y100.081 E.01676
G1 X40.649 Y102.951 E.12742
G1 X40.115 Y102.951 E.01676
G1 X37.245 Y100.081 E.1274
G1 X36.711 Y100.081 E.01676
G1 X39.581 Y102.951 E.1274
G1 X39.047 Y102.951 E.01676
G1 X36.177 Y100.081 E.1274
G1 X35.643 Y100.081 E.01676
G1 X38.513 Y102.951 E.1274
G1 X37.98 Y102.951 E.01673
G1 X35.109 Y100.081 E.12742
G1 X34.575 Y100.081 E.01676
G1 X37.446 Y102.951 E.12742
G1 X36.912 Y102.951 E.01676
G1 X34.041 Y100.081 E.12742
G1 X33.508 Y100.081 E.01673
M73 P1 R211
G1 X36.378 Y102.951 E.1274
G1 X35.845 Y102.951 E.01673
G1 X32.974 Y100.081 E.12742
G1 X32.44 Y100.081 E.01676
G1 X35.311 Y102.951 E.12742
G1 X34.777 Y102.952 E.01676
G1 X31.906 Y100.081 E.12744
G1 X31.372 Y100.081 E.01676
G1 X34.243 Y102.952 E.12744
G1 X33.71 Y102.952 E.01673
