; generated by PrusaSlicer 2.2.0 on 2020-08-25 at 22:22:35 UTC


;
;

;
;
; 

; external perimeters extrusion width = 0.45mm
; perimeters extrusion width = 0.45mm
; infill extrusion width = 0.45mm
; solid infill extrusion width = 0.45mm
; top infill extrusion width = 0.40mm
; first layer extrusion width = 0.42mm

M73 P0 R43
M201 X9000 Y9000 Z500 E10000 ; sets maximum accelerations, mm/sec^2
M203 X500 Y500 Z12 E120 ; sets maximum feedrates, mm/sec
M204 P2000 R1500 T2000 ; sets acceleration (P, T) and retract acceleration (R), mm/sec^2
M205 X10.00 Y10.00 Z0.20 E2.50 ; sets the jerk limits, mm/sec
M205 S0 T0 ; sets the minimum extruding and travel feed rate, mm/sec
M107
M83  ; extruder relative mode
M140 S75 ; set bed temp
M109 S160 ; Set extruder temp before bed level
M190 S75 ; wait for bed temp

G28 W ; home all without mesh bed level
G80 N7 ; mesh bed leveling

M109 S240 ; wait for extruder temp

M221 S100 ; Set flow to 100

G1 Y-3.0 F1000.0 ; go outside print area
G92 E0.0
G1 E8 ; Purge Bubble
M73 P0 R43
G1 X60.0 E9.0 F1000.0 ; intro line
G1 X100.0 E12.5 F1000.0 ; intro line
G92 E0.0
G21 ; set units to millimeters
G90 ; use absolute coordinates
M83 ; use relative distances for extrusion
M900 K45; Filament gcode
;BEFORE_LAYER_CHANGE
G92 E0.0
;0.2


G1 E-0.80000 F2100.00000
G1 Z0.600 F10800.000
;AFTER_LAYER_CHANGE
;0.2
G1 X114.670 Y96.113
G1 Z0.200
G1 E0.80000 F2100.00000
M204 S1000
G1 F1200.000
G1 X115.622 Y95.089 E0.04034
G1 X116.683 Y94.160 E0.04068
G1 X117.784 Y93.381 E0.03890
G1 X119.765 Y92.341 E0.06454
G1 X121.026 Y91.880 E0.03875
G1 X122.384 Y91.535 E0.04040
G1 X123.770 Y91.335 E0.04040
G1 X125.145 Y91.279 E0.03968
G1 X126.567 Y91.370 E0.04110
G1 X127.895 Y91.595 E0.03886
G1 X130.035 Y92.259 E0.06464
G1 X131.255 Y92.823 E0.03876
G1 X132.463 Y93.541 E0.04055
G1 X133.584 Y94.376 E0.04032
G1 X134.616 Y95.326 E0.04045
G1 X135.548 Y96.380 E0.04059
G1 X136.334 Y97.478 E0.03894
G1 X137.389 Y99.458 E0.06474
G1 X137.861 Y100.717 E0.03877
G1 X138.219 Y102.079 E0.04063
G1 X138.435 Y103.467 E0.04052
G1 X138.507 Y104.874 E0.04064
G1 X138.435 Y106.277 E0.04052
G1 X138.219 Y107.664 E0.04052
G1 X137.861 Y109.027 E0.04063
G1 X137.389 Y110.284 E0.03873
G1 X136.333 Y112.265 E0.06476
G1 X135.547 Y113.362 E0.03894
G1 X134.616 Y114.417 E0.04058
G1 X133.584 Y115.366 E0.04045
G1 X132.463 Y116.201 E0.04032
G1 X131.255 Y116.919 E0.04054
G1 X130.035 Y117.483 E0.03876
G1 X127.895 Y118.147 E0.06463
G1 X126.567 Y118.372 E0.03886
G1 X125.137 Y118.463 E0.04134
G1 X123.771 Y118.407 E0.03945
G1 X122.385 Y118.207 E0.04040
G1 X121.027 Y117.862 E0.04040
G1 X119.758 Y117.398 E0.03899
G1 X118.454 Y116.761 E0.04184
G1 X117.311 Y116.046 E0.03890
G1 X115.581 Y114.612 E0.06482
G1 X114.667 Y113.625 E0.03881
G1 X113.821 Y112.500 E0.04059
G1 X113.100 Y111.301 E0.04037
G1 X112.502 Y110.026 E0.04062
G1 X112.039 Y108.696 E0.04063
G1 X111.716 Y107.329 E0.04051
G1 X111.534 Y105.932 E0.04064
G1 X111.496 Y104.590 E0.03875
G1 X111.728 Y102.348 E0.06500
G1 X112.043 Y101.033 E0.03902
G1 X112.526 Y99.658 E0.04204
G1 X113.102 Y98.436 E0.03896
G1 X113.828 Y97.231 E0.04060
G1 X114.634 Y96.161 E0.03862
G1 X114.935 Y96.388 F10800.000
G1 F1200.000
G1 X115.888 Y95.356 E0.04053
G1 X116.917 Y94.456 E0.03943
G1 X117.989 Y93.697 E0.03788
G1 X119.906 Y92.691 E0.06246
G1 X121.139 Y92.240 E0.03785
G1 X122.458 Y91.905 E0.03927
G1 X123.806 Y91.710 E0.03927
G1 X125.143 Y91.656 E0.03861
G1 X126.524 Y91.745 E0.03992
G1 X127.821 Y91.964 E0.03795
G1 X129.888 Y92.606 E0.06244
G1 X131.080 Y93.157 E0.03786
G1 X132.254 Y93.855 E0.03941
G1 X133.344 Y94.667 E0.03921
G1 X134.348 Y95.590 E0.03933
G1 X135.253 Y96.616 E0.03946
G1 X136.019 Y97.685 E0.03793
G1 X137.040 Y99.600 E0.06262
G1 X137.501 Y100.828 E0.03783
G1 X137.849 Y102.153 E0.03951
G1 X138.060 Y103.503 E0.03941
G1 X138.130 Y104.871 E0.03952
G1 X138.060 Y106.239 E0.03952
G1 X137.850 Y107.589 E0.03940
G1 X137.501 Y108.913 E0.03951
G1 X137.040 Y110.142 E0.03785
G1 X136.019 Y112.056 E0.06258
G1 X135.252 Y113.128 E0.03804
G1 X134.349 Y114.151 E0.03934
G1 X133.346 Y115.074 E0.03933
G1 X132.253 Y115.888 E0.03931
G1 X131.078 Y116.585 E0.03941
G1 X129.887 Y117.137 E0.03786
G1 X127.820 Y117.778 E0.06244
G1 X126.526 Y117.997 E0.03784
G1 X125.141 Y118.086 E0.04003
G1 X123.804 Y118.032 E0.03861
G1 X122.457 Y117.837 E0.03927
G1 X121.137 Y117.502 E0.03927
G1 X119.901 Y117.049 E0.03797
G1 X118.633 Y116.429 E0.04072
G1 X117.520 Y115.732 E0.03788
G1 X115.851 Y114.350 E0.06251
G1 X114.956 Y113.383 E0.03803
G1 X114.136 Y112.292 E0.03936
G1 X113.432 Y111.123 E0.03937
G1 X112.851 Y109.883 E0.03949
G1 X112.400 Y108.590 E0.03950
G1 X112.086 Y107.260 E0.03940
G1 X111.910 Y105.902 E0.03952
G1 X111.873 Y104.590 E0.03787
G1 X112.097 Y102.425 E0.06276
G1 X112.403 Y101.142 E0.03806
G1 X112.873 Y99.807 E0.04082
G1 X113.433 Y98.617 E0.03795
G1 X114.139 Y97.444 E0.03948
G1 X114.899 Y96.436 E0.03642
; printing object Door Handle Insert.stl id:0 copy 0
G1 F8640.000
G1 X115.888 Y95.356 E-0.33821
G1 X116.917 Y94.456 E-0.31564
G1 X117.293 Y94.190 E-0.10614
G1 E-0.04000 F2100.00000
G1 Z0.800 F10800.000
G1 X118.162 Y99.104
G1 Z0.200
G1 E0.80000 F2100.00000
G1 F1200.000
G1 X118.521 Y98.708 E0.01541
G1 X118.903 Y98.334 E0.01541
G1 X119.307 Y97.983 E0.01543
G1 X119.755 Y97.640 E0.01627
G1 X120.170 Y97.358 E0.01449
G1 X120.628 Y97.085 E0.01538
G1 X121.102 Y96.840 E0.01538
G1 X121.590 Y96.623 E0.01540
G1 X122.118 Y96.427 E0.01625
G1 X122.598 Y96.279 E0.01447
G1 X123.115 Y96.153 E0.01537
G1 X123.639 Y96.058 E0.01537
G1 X124.169 Y95.994 E0.01539
G1 X124.730 Y95.962 E0.01623
G1 X125.232 Y95.962 E0.01446
G1 X125.763 Y95.994 E0.01535
G1 X126.292 Y96.057 E0.01536
G1 X126.817 Y96.152 E0.01538
G1 X127.363 Y96.286 E0.01623
G1 X127.842 Y96.434 E0.01447
G1 X128.341 Y96.620 E0.01536
G1 X128.828 Y96.836 E0.01537
G1 X129.303 Y97.081 E0.01540
G1 X129.786 Y97.370 E0.01626
G1 X130.202 Y97.652 E0.01449
G1 X130.625 Y97.978 E0.01539
G1 X131.029 Y98.327 E0.01540
G1 X131.411 Y98.701 E0.01543
G1 X131.790 Y99.120 E0.01629
G1 X132.106 Y99.512 E0.01452
G1 X132.416 Y99.948 E0.01542
G1 X132.700 Y100.401 E0.01543
G1 X132.957 Y100.871 E0.01546
G1 X133.198 Y101.383 E0.01632
G1 X133.386 Y101.850 E0.01454
G1 X133.557 Y102.358 E0.01544
G1 X133.697 Y102.875 E0.01545
G1 X133.807 Y103.400 E0.01547
G1 X133.889 Y103.960 E0.01633
G1 X133.934 Y104.462 E0.01455
G1 X133.950 Y104.999 E0.01547
G1 X133.932 Y105.565 E0.01633
G1 X133.887 Y106.067 E0.01455
G1 X133.809 Y106.597 E0.01545
G1 X133.700 Y107.121 E0.01545
G1 X133.560 Y107.639 E0.01547
G1 X133.379 Y108.175 E0.01633
G1 X133.191 Y108.643 E0.01454
G1 X132.962 Y109.127 E0.01543
G1 X132.706 Y109.596 E0.01543
G1 X132.422 Y110.051 E0.01545
G1 X132.093 Y110.510 E0.01630
G1 X131.777 Y110.902 E0.01452
G1 X131.418 Y111.299 E0.01543
G1 X131.014 Y111.693 E0.01629
G1 X130.634 Y112.022 E0.01450
G1 X130.211 Y112.348 E0.01539
G1 X129.770 Y112.648 E0.01539
G1 X129.311 Y112.922 E0.01541
G1 X128.810 Y113.179 E0.01626
G1 X128.351 Y113.383 E0.01448
G1 X127.852 Y113.570 E0.01537
G1 X127.343 Y113.727 E0.01537
G1 X126.825 Y113.854 E0.01539
G1 X126.270 Y113.953 E0.01624
G1 X125.772 Y114.013 E0.01447
G1 X125.241 Y114.045 E0.01536
G1 X124.708 Y114.045 E0.01536
G1 X124.176 Y114.014 E0.01539
G1 X123.617 Y113.945 E0.01624
G1 X123.123 Y113.856 E0.01447
G1 X122.606 Y113.730 E0.01536
G1 X122.096 Y113.574 E0.01537
G1 X121.596 Y113.387 E0.01540
G1 X121.082 Y113.157 E0.01626
G1 X120.636 Y112.926 E0.01448
G1 X120.177 Y112.653 E0.01538
G1 X119.736 Y112.354 E0.01539
G1 X119.312 Y112.028 E0.01542
G1 X118.887 Y111.657 E0.01628
G1 X118.527 Y111.305 E0.01451
G1 X118.168 Y110.910 E0.01541
G1 X117.832 Y110.494 E0.01542
G1 X117.522 Y110.058 E0.01545
G1 X117.223 Y109.578 E0.01631
G1 X116.981 Y109.136 E0.01453
G1 X116.752 Y108.652 E0.01543
G1 X116.552 Y108.156 E0.01544
G1 X116.381 Y107.647 E0.01547
G1 X116.235 Y107.101 E0.01633
G1 X116.131 Y106.607 E0.01455
G1 X116.053 Y106.077 E0.01545
G1 X116.005 Y105.543 E0.01545
G1 X115.989 Y105.007 E0.01548
G1 X116.007 Y104.441 E0.01633
G1 X116.052 Y103.939 E0.01455
G1 X116.130 Y103.409 E0.01545
G1 X116.239 Y102.884 E0.01545
G1 X116.379 Y102.367 E0.01547
G1 X116.561 Y101.831 E0.01632
G1 X116.749 Y101.363 E0.01454
G1 X116.977 Y100.879 E0.01543
G1 X117.234 Y100.410 E0.01543
G1 X117.518 Y99.955 E0.01545
G1 X117.847 Y99.496 E0.01630
G1 X118.125 Y99.151 E0.01279
G1 X118.419 Y99.387 F10800.000
G1 F1200.000
G1 X118.793 Y98.970 E0.01618
G1 X119.159 Y98.612 E0.01476
G1 X119.545 Y98.276 E0.01477
G1 X119.975 Y97.946 E0.01563
G1 X120.373 Y97.677 E0.01386
G1 X120.812 Y97.415 E0.01474
G1 X121.265 Y97.180 E0.01473
G1 X121.732 Y96.973 E0.01474
G1 X122.239 Y96.784 E0.01560
G1 X122.698 Y96.643 E0.01384
G1 X123.193 Y96.522 E0.01472
G1 X123.695 Y96.431 E0.01472
G1 X124.202 Y96.370 E0.01472
G1 X124.741 Y96.339 E0.01557
G1 X125.221 Y96.339 E0.01383
G1 X125.730 Y96.369 E0.01470
G1 X126.236 Y96.430 E0.01471
G1 X126.738 Y96.521 E0.01472
G1 X127.262 Y96.650 E0.01558
G1 X127.721 Y96.791 E0.01384
G1 X128.199 Y96.969 E0.01472
G1 X128.665 Y97.176 E0.01472
G1 X129.119 Y97.411 E0.01474
G1 X129.584 Y97.688 E0.01561
G1 X129.981 Y97.958 E0.01386
G1 X130.387 Y98.270 E0.01475
G1 X130.773 Y98.605 E0.01476
G1 X131.139 Y98.963 E0.01477
G1 X131.503 Y99.365 E0.01564
G1 X131.805 Y99.740 E0.01389
G1 X132.102 Y100.158 E0.01478
G1 X132.375 Y100.592 E0.01479
G1 X132.621 Y101.042 E0.01480
G1 X132.852 Y101.533 E0.01567
G1 X133.032 Y101.981 E0.01392
G1 X133.196 Y102.467 E0.01480
G1 X133.331 Y102.963 E0.01481
G1 X133.436 Y103.466 E0.01482
G1 X133.514 Y104.004 E0.01569
G1 X133.557 Y104.485 E0.01393
G1 X133.572 Y104.998 E0.01482
G1 X133.555 Y105.542 E0.01569
G1 X133.513 Y106.023 E0.01393
G1 X133.438 Y106.531 E0.01481
G1 X133.333 Y107.034 E0.01481
G1 X133.199 Y107.529 E0.01482
G1 X133.025 Y108.044 E0.01568
G1 X132.845 Y108.492 E0.01392
G1 X132.626 Y108.956 E0.01479
G1 X132.380 Y109.406 E0.01479
G1 X132.108 Y109.841 E0.01479
G1 X131.793 Y110.282 E0.01566
G1 X131.491 Y110.657 E0.01389
G1 X131.147 Y111.037 E0.01478
G1 X130.758 Y111.415 E0.01564
G1 X130.395 Y111.730 E0.01387
G1 X129.990 Y112.043 E0.01475
G1 X129.567 Y112.330 E0.01475
G1 X129.128 Y112.592 E0.01475
G1 X128.647 Y112.839 E0.01561
G1 X128.208 Y113.034 E0.01385
G1 X127.730 Y113.213 E0.01472
G1 X127.243 Y113.364 E0.01472
G1 X126.747 Y113.485 E0.01473
G1 X126.215 Y113.580 E0.01559
G1 X125.738 Y113.637 E0.01383
G1 X125.229 Y113.668 E0.01471
G1 X124.719 Y113.668 E0.01471
G1 X124.210 Y113.638 E0.01472
G1 X123.673 Y113.572 E0.01559
G1 X123.201 Y113.487 E0.01383
G1 X122.706 Y113.366 E0.01472
G1 X122.218 Y113.216 E0.01472
G1 X121.739 Y113.038 E0.01474
G1 X121.245 Y112.817 E0.01560
G1 X120.819 Y112.596 E0.01385
G1 X120.380 Y112.335 E0.01474
G1 X119.957 Y112.048 E0.01475
G1 X119.551 Y111.736 E0.01476
G1 X119.143 Y111.380 E0.01563
G1 X118.799 Y111.043 E0.01388
G1 X118.454 Y110.665 E0.01477
G1 X118.133 Y110.266 E0.01477
G1 X117.836 Y109.848 E0.01479
G1 X117.548 Y109.387 E0.01566
G1 X117.317 Y108.964 E0.01391
G1 X117.098 Y108.501 E0.01479
G1 X116.906 Y108.025 E0.01480
G1 X116.742 Y107.538 E0.01481
G1 X116.601 Y107.013 E0.01568
G1 X116.503 Y106.540 E0.01393
G1 X116.427 Y106.033 E0.01481
G1 X116.382 Y105.521 E0.01481
G1 X116.366 Y105.007 E0.01482
G1 X116.384 Y104.464 E0.01569
G1 X116.426 Y103.983 E0.01393
G1 X116.501 Y103.475 E0.01481
G1 X116.606 Y102.972 E0.01481
G1 X116.740 Y102.476 E0.01482
G1 X116.914 Y101.961 E0.01568
G1 X117.094 Y101.514 E0.01392
G1 X117.313 Y101.050 E0.01479
G1 X117.559 Y100.600 E0.01479
G1 X117.831 Y100.165 E0.01480
G1 X118.147 Y99.724 E0.01566
G1 X118.381 Y99.434 E0.01075
G1 X118.284 Y99.010 F10800.000
G1 F8640.000
G1 X118.793 Y98.970 E-0.14332
G1 X119.159 Y98.612 E-0.11817
G1 X119.545 Y98.276 E-0.11820
G1 X119.975 Y97.946 E-0.12508
G1 X120.373 Y97.677 E-0.11096
G1 X120.812 Y97.415 E-0.11798
G1 X120.913 Y97.363 E-0.02629
G1 E-0.04000 F2100.00000
G1 Z0.800 F10800.000
G1 X117.261 Y98.544
G1 Z0.200
G1 E0.80000 F2100.00000
G1 F1200.000
G1 X117.730 Y97.996 E0.02083
G1 X118.094 Y97.624 E0.01499
G1 X118.476 Y97.273 E0.01498
G1 X118.876 Y96.941 E0.01498
G1 X119.292 Y96.632 E0.01497
G1 X119.724 Y96.344 E0.01496
G1 X120.170 Y96.079 E0.01495
G1 X120.628 Y95.838 E0.01495
G1 X121.099 Y95.622 E0.01494
G1 X121.580 Y95.430 E0.01494
G1 X122.070 Y95.264 E0.01493
G1 X122.568 Y95.123 E0.01493
G1 X123.073 Y95.009 E0.01492
G1 X123.583 Y94.922 E0.01492
G1 X124.096 Y94.861 E0.01492
G1 X124.611 Y94.827 E0.01488
G1 X125.179 Y94.822 E0.01637
G1 X125.646 Y94.841 E0.01349
G1 X126.161 Y94.888 E0.01492
G1 X126.673 Y94.962 E0.01492
G1 X127.180 Y95.063 E0.01492
G1 X127.682 Y95.190 E0.01493
G1 X128.176 Y95.344 E0.01493
G1 X128.662 Y95.523 E0.01493
G1 X129.138 Y95.727 E0.01494
G1 X129.603 Y95.956 E0.01494
G1 X130.055 Y96.209 E0.01495
G1 X130.494 Y96.485 E0.01496
G1 X130.918 Y96.784 E0.01496
G1 X131.326 Y97.104 E0.01497
G1 X131.717 Y97.446 E0.01498
G1 X132.090 Y97.808 E0.01499
G1 X132.444 Y98.188 E0.01499
G1 X132.778 Y98.587 E0.01500
G1 X133.091 Y99.003 E0.01501
G1 X133.382 Y99.434 E0.01502
G1 X133.651 Y99.881 E0.01502
G1 X133.896 Y100.340 E0.01503
G1 X134.117 Y100.812 E0.01504
G1 X134.314 Y101.295 E0.01504
G1 X134.485 Y101.788 E0.01505
G1 X134.631 Y102.289 E0.01505
G1 X134.751 Y102.797 E0.01506
G1 X134.845 Y103.311 E0.01506
G1 X134.912 Y103.828 E0.01506
G1 X134.952 Y104.349 E0.01506
G1 X134.966 Y104.871 E0.01506
G1 X134.952 Y105.393 E0.01506
G1 X134.912 Y105.914 E0.01506
G1 X134.845 Y106.431 E0.01506
G1 X134.751 Y106.945 E0.01506
G1 X134.631 Y107.453 E0.01506
G1 X134.485 Y107.954 E0.01505
G1 X134.314 Y108.447 E0.01505
G1 X134.117 Y108.930 E0.01504
G1 X133.896 Y109.402 E0.01504
G1 X133.651 Y109.861 E0.01503
G1 X133.382 Y110.308 E0.01502
G1 X133.091 Y110.739 E0.01502
G1 X132.778 Y111.155 E0.01501
G1 X132.444 Y111.554 E0.01500
G1 X132.090 Y111.934 E0.01499
G1 X131.717 Y112.296 E0.01499
G1 X131.326 Y112.638 E0.01498
G1 X130.918 Y112.958 E0.01497
G1 X130.494 Y113.257 E0.01496
G1 X130.055 Y113.533 E0.01496
G1 X129.603 Y113.786 E0.01495
G1 X129.138 Y114.015 E0.01494
G1 X128.662 Y114.219 E0.01494
G1 X128.176 Y114.398 E0.01493
G1 X127.682 Y114.552 E0.01493
G1 X127.180 Y114.679 E0.01493
G1 X126.673 Y114.780 E0.01492
G1 X126.161 Y114.854 E0.01492
G1 X125.646 Y114.901 E0.01492
G1 X125.129 Y114.921 E0.01492
G1 X124.612 Y114.915 E0.01492
G1 X124.096 Y114.881 E0.01492
G1 X123.583 Y114.820 E0.01492
G1 X123.073 Y114.733 E0.01492
G1 X122.568 Y114.618 E0.01492
G1 X122.070 Y114.478 E0.01493
G1 X121.580 Y114.312 E0.01493
G1 X121.099 Y114.120 E0.01494
G1 X120.628 Y113.904 E0.01494
G1 X120.170 Y113.663 E0.01495
G1 X119.724 Y113.398 E0.01495
G1 X119.292 Y113.110 E0.01496
G1 X118.876 Y112.801 E0.01497
G1 X118.476 Y112.469 E0.01498
G1 X118.094 Y112.118 E0.01498
G1 X117.730 Y111.746 E0.01499
G1 X117.386 Y111.356 E0.01500
G1 X117.063 Y110.949 E0.01501
G1 X116.761 Y110.525 E0.01501
G1 X116.481 Y110.086 E0.01502
G1 X116.224 Y109.633 E0.01503
G1 X115.990 Y109.167 E0.01503
G1 X115.781 Y108.689 E0.01504
G1 X115.597 Y108.201 E0.01504
G1 X115.438 Y107.704 E0.01505
G1 X115.305 Y107.200 E0.01505
G1 X115.199 Y106.689 E0.01506
G1 X115.118 Y106.173 E0.01506
G1 X115.065 Y105.654 E0.01506
G1 X115.038 Y105.132 E0.01506
G1 X115.038 Y104.610 E0.01506
G1 X115.065 Y104.088 E0.01506
G1 X115.118 Y103.569 E0.01506
G1 X115.199 Y103.053 E0.01506
G1 X115.305 Y102.542 E0.01506
G1 X115.438 Y102.038 E0.01505
G1 X115.597 Y101.541 E0.01505
G1 X115.781 Y101.053 E0.01505
G1 X115.990 Y100.575 E0.01504
G1 X116.224 Y100.109 E0.01503
G1 X116.481 Y99.656 E0.01503
G1 X116.761 Y99.217 E0.01502
G1 X117.223 Y98.591 E0.02245
G1 X116.928 Y98.356 F10800.000
G1 F1200.000
G1 X117.454 Y97.739 E0.02340
G1 X117.831 Y97.354 E0.01556
G1 X118.228 Y96.989 E0.01555
G1 X118.643 Y96.645 E0.01554
G1 X119.075 Y96.323 E0.01553
G1 X119.523 Y96.025 E0.01553
G1 X119.986 Y95.750 E0.01552
G1 X120.462 Y95.500 E0.01552
G1 X120.950 Y95.275 E0.01551
G1 X121.449 Y95.076 E0.01550
G1 X121.958 Y94.904 E0.01550
G1 X122.475 Y94.758 E0.01550
G1 X122.999 Y94.639 E0.01549
G1 X123.529 Y94.548 E0.01549
G1 X124.062 Y94.485 E0.01549
G1 X124.597 Y94.450 E0.01547
G1 X125.184 Y94.445 E0.01694
G1 X125.671 Y94.464 E0.01404
G1 X126.205 Y94.513 E0.01549
G1 X126.737 Y94.590 E0.01549
