; generated by PrusaSlicer 2.2.0+win64 on 2020-08-26 at 01:18:40 UTC


;
;

;
;
; 

; external perimeters extrusion width = 0.45mm
; perimeters extrusion width = 0.45mm
; infill extrusion width = 0.45mm
; solid infill extrusion width = 0.45mm
; top infill extrusion width = 0.40mm
; support material extrusion width = 0.35mm
; first layer extrusion width = 0.42mm

M73 P0 R52
M201 X9000 Y9000 Z500 E10000 ; sets maximum accelerations, mm/sec^2
M203 X500 Y500 Z12 E120 ; sets maximum feedrates, mm/sec
M204 P2000 R1500 T2000 ; sets acceleration (P, T) and retract acceleration (R), mm/sec^2
M205 X10.00 Y10.00 Z0.20 E2.50 ; sets the jerk limits, mm/sec
M205 S0 T0 ; sets the minimum extruding and travel feed rate, mm/sec
M107
M83  ; extruder relative mode
M140 S75 ; set bed temp
M109 S160 ; Set extruder temp before bed level
M190 S75 ; wait for bed temp

G28 W ; home all without mesh bed level
G80 N7 ; mesh bed leveling

M109 S240 ; wait for extruder temp

M221 S100 ; Set flow to 100

G1 Y-3.0 F1000.0 ; go outside print area
G92 E0.0
G1 E8 ; Purge Bubble
M73 P0 R52
G1 X60.0 E9.0 F1000.0 ; intro line
G1 X100.0 E12.5 F1000.0 ; intro line
G92 E0.0
G21 ; set units to millimeters
G90 ; use absolute coordinates
M83 ; use relative distances for extrusion
M900 K45; Filament gcode
;BEFORE_LAYER_CHANGE
G92 E0.0
;0.2


G1 E-0.80000 F2100.00000
G1 Z0.600 F10800.000
;AFTER_LAYER_CHANGE
;0.2
G1 X95.439 Y74.783
G1 Z0.200
G1 E0.80000 F2100.00000
M204 S1000
G1 F1200.000
G1 X96.203 Y74.284 E0.02632
G1 X97.099 Y74.110 E0.02632
G1 X152.942 Y74.280 E1.61084
G1 X153.865 Y74.483 E0.02729
G1 X154.637 Y75.030 E0.02729
G1 X155.110 Y75.771 E0.02534
G1 X155.281 Y76.633 E0.02534
G1 X155.281 Y133.516 E1.64086
G1 X155.084 Y134.460 E0.02782
G1 X154.530 Y135.246 E0.02772
G1 X153.797 Y135.716 E0.02513
G1 X152.943 Y135.889 E0.02513
G1 X113.676 Y135.890 E1.13269
G1 X96.977 Y135.717 E0.48174
G1 X96.098 Y135.500 E0.02610
G1 X95.364 Y134.971 E0.02610
G1 X94.891 Y134.231 E0.02534
G1 X94.719 Y133.369 E0.02534
G1 X94.720 Y76.419 E1.64278
G1 X94.921 Y75.529 E0.02632
G1 X95.405 Y74.832 E0.02448
G1 F8640.000
G1 X96.203 Y74.284 E-0.22355
G1 X97.099 Y74.110 E-0.21065
G1 X98.510 Y74.115 E-0.32581
G1 E-0.04000 F2100.00000
G1 Z0.800 F10800.000
G1 X97.096 Y76.488
G1 Z0.200
G1 E0.80000 F2100.00000
G1 F1200.000
G1 X97.096 Y133.343 E1.64004
G1 X97.850 Y133.343 E0.02175
G1 X97.850 Y76.657 E1.63515
G1 X98.604 Y76.657 E0.02175
G1 X98.604 Y133.343 E1.63515
G1 X99.359 Y133.343 E0.02175
G1 X99.359 Y76.657 E1.63515
G1 X100.113 Y76.657 E0.02175
G1 X100.113 Y133.343 E1.63515
G1 X100.867 Y133.343 E0.02175
G1 X100.867 Y76.657 E1.63515
G1 X101.621 Y76.657 E0.02175
G1 X101.621 Y133.343 E1.63515
G1 X102.375 Y133.343 E0.02175
G1 X102.375 Y76.657 E1.63515
G1 X103.129 Y76.657 E0.02175
G1 X103.129 Y133.343 E1.63515
G1 X103.884 Y133.343 E0.02175
G1 X103.884 Y76.657 E1.63515
G1 X104.638 Y76.657 E0.02175
G1 X104.638 Y133.343 E1.63515
G1 X105.392 Y133.343 E0.02175
G1 X105.392 Y76.657 E1.63515
G1 X106.146 Y76.657 E0.02175
G1 X106.146 Y133.343 E1.63515
G1 X106.900 Y133.343 E0.02175
G1 X106.900 Y76.657 E1.63515
G1 X107.654 Y76.657 E0.02175
G1 X107.654 Y133.343 E1.63515
M73 P2 R51
G1 X108.409 Y133.343 E0.02175
G1 X108.409 Y76.657 E1.63515
G1 X109.163 Y76.657 E0.02175
G1 X109.163 Y133.343 E1.63515
G1 X109.917 Y133.343 E0.02175
G1 X109.917 Y76.657 E1.63515
G1 X110.671 Y76.657 E0.02175
G1 X110.671 Y133.343 E1.63515
G1 X111.425 Y133.343 E0.02175
G1 X111.425 Y76.657 E1.63515
G1 X112.179 Y76.657 E0.02175
G1 X112.179 Y133.343 E1.63515
G1 X112.933 Y133.343 E0.02175
G1 X112.933 Y76.657 E1.63515
G1 X113.688 Y76.657 E0.02175
G1 X113.688 Y133.512 E1.64004
G1 X135.558 Y133.512 F10800.000
G1 F1200.000
G1 X135.558 Y108.956 E0.70835
G1 X134.951 Y108.956 E0.01751
G1 X134.804 Y109.294 E0.01063
G1 X134.804 Y133.343 E0.69370
G1 X134.050 Y133.343 E0.02175
G1 X134.050 Y110.580 E0.65661
G1 X133.776 Y110.987 E0.01416
G1 X133.570 Y111.241 E0.00943
G1 X133.570 Y115.878 E0.13373
G1 X133.296 Y115.878 E0.00792
G1 X133.296 Y133.343 E0.50380
G1 X132.542 Y133.343 E0.02175
G1 X132.542 Y115.878 E0.50380
G1 X131.787 Y115.878 E0.02175
G1 X131.787 Y133.343 E0.50380
G1 X131.033 Y133.343 E0.02175
G1 X131.033 Y115.878 E0.50380
G1 X130.279 Y115.878 E0.02175
G1 X130.279 Y133.343 E0.50380
G1 X129.525 Y133.343 E0.02175
G1 X129.525 Y115.878 E0.50380
G1 X128.771 Y115.878 E0.02175
G1 X128.771 Y133.343 E0.50380
G1 X128.017 Y133.343 E0.02175
G1 X128.017 Y115.878 E0.50380
G1 X127.262 Y115.878 E0.02175
G1 X127.262 Y133.343 E0.50380
G1 X126.508 Y133.343 E0.02175
G1 X126.508 Y115.878 E0.50380
G1 X125.754 Y115.878 E0.02175
G1 X125.754 Y133.343 E0.50380
G1 X125.000 Y133.343 E0.02175
G1 X125.000 Y115.878 E0.50380
G1 X124.246 Y115.878 E0.02175
G1 X124.246 Y133.343 E0.50380
G1 X123.492 Y133.343 E0.02175
G1 X123.492 Y115.878 E0.50380
G1 X122.738 Y115.878 E0.02175
G1 X122.738 Y133.343 E0.50380
G1 X121.983 Y133.343 E0.02175
G1 X121.983 Y115.878 E0.50380
G1 X121.229 Y115.878 E0.02175
G1 X121.229 Y133.343 E0.50380
G1 X120.475 Y133.343 E0.02175
G1 X120.475 Y115.878 E0.50380
G1 X119.721 Y115.878 E0.02175
G1 X119.721 Y133.343 E0.50380
G1 X118.967 Y133.343 E0.02175
G1 X118.967 Y115.878 E0.50380
G1 X118.213 Y115.878 E0.02175
G1 X118.213 Y133.343 E0.50380
G1 X117.458 Y133.343 E0.02175
G1 X117.458 Y115.878 E0.50380
G1 X116.704 Y115.878 E0.02175
G1 X116.704 Y133.343 E0.50380
G1 X115.950 Y133.343 E0.02175
G1 X115.950 Y110.599 E0.65606
G1 X115.431 Y109.748 E0.02874
G1 X115.196 Y109.270 E0.01539
G1 X115.196 Y133.343 E0.69441
G1 X114.442 Y133.343 E0.02175
G1 X114.442 Y108.956 E0.70345
G1 X114.122 Y108.956 E0.00921
G1 X114.122 Y105.272 E0.10629
G1 X114.097 Y104.987 E0.00823
G1 X114.097 Y104.013 E0.02811
G1 X114.122 Y103.728 E0.00823
G1 X114.122 Y91.815 E0.34364
G1 X114.442 Y91.815 E0.00921
G1 X114.442 Y76.657 E0.43725
G1 X115.196 Y76.657 E0.02175
G1 X115.196 Y91.815 E0.43725
G1 X115.950 Y91.815 E0.02175
G1 X115.950 Y76.657 E0.43725
G1 X116.704 Y76.657 E0.02175
G1 X116.704 Y91.815 E0.43725
G1 X117.458 Y91.815 E0.02175
G1 X117.458 Y76.657 E0.43725
G1 X118.213 Y76.657 E0.02175
G1 X118.213 Y91.815 E0.43725
G1 X118.967 Y91.815 E0.02175
G1 X118.967 Y76.657 E0.43725
G1 X119.721 Y76.657 E0.02175
G1 X119.721 Y91.815 E0.43725
G1 X120.475 Y91.815 E0.02175
G1 X120.475 Y76.657 E0.43725
M73 P3 R50
G1 X121.229 Y76.657 E0.02175
G1 X121.229 Y91.815 E0.43725
G1 X121.983 Y91.815 E0.02175
G1 X121.983 Y76.657 E0.43725
G1 X122.738 Y76.657 E0.02175
G1 X122.738 Y91.815 E0.43725
G1 X123.492 Y91.815 E0.02175
G1 X123.492 Y76.657 E0.43725
G1 X124.246 Y76.657 E0.02175
G1 X124.246 Y91.815 E0.43725
G1 X125.000 Y91.815 E0.02175
G1 X125.000 Y76.657 E0.43725
G1 X125.754 Y76.657 E0.02175
G1 X125.754 Y91.815 E0.43725
G1 X126.508 Y91.815 E0.02175
G1 X126.508 Y76.657 E0.43725
G1 X127.262 Y76.657 E0.02175
G1 X127.262 Y91.815 E0.43725
G1 X128.017 Y91.815 E0.02175
G1 X128.017 Y76.657 E0.43725
G1 X128.771 Y76.657 E0.02175
G1 X128.771 Y91.815 E0.43725
G1 X129.525 Y91.815 E0.02175
G1 X129.525 Y76.657 E0.43725
G1 X130.279 Y76.657 E0.02175
G1 X130.279 Y91.815 E0.43725
G1 X131.033 Y91.815 E0.02175
G1 X131.033 Y76.657 E0.43725
G1 X131.787 Y76.657 E0.02175
G1 X131.787 Y91.815 E0.43725
G1 X132.542 Y91.815 E0.02175
G1 X132.542 Y76.657 E0.43725
G1 X133.296 Y76.657 E0.02175
G1 X133.296 Y91.815 E0.43725
G1 X134.050 Y91.815 E0.02175
G1 X134.050 Y76.657 E0.43725
G1 X134.804 Y76.657 E0.02175
G1 X134.804 Y91.815 E0.43725
G1 X135.558 Y91.815 E0.02175
G1 X135.558 Y76.657 E0.43725
G1 X136.312 Y76.657 E0.02175
G1 X136.312 Y133.343 E1.63515
G1 X137.067 Y133.343 E0.02175
G1 X137.067 Y76.657 E1.63515
G1 X137.821 Y76.657 E0.02175
G1 X137.821 Y133.343 E1.63515
G1 X138.575 Y133.343 E0.02175
G1 X138.575 Y76.657 E1.63515
G1 X139.329 Y76.657 E0.02175
G1 X139.329 Y133.343 E1.63515
G1 X140.083 Y133.343 E0.02175
G1 X140.083 Y76.657 E1.63515
G1 X140.837 Y76.657 E0.02175
G1 X140.837 Y133.343 E1.63515
G1 X141.591 Y133.343 E0.02175
G1 X141.591 Y76.657 E1.63515
G1 X142.346 Y76.657 E0.02175
G1 X142.346 Y133.343 E1.63515
G1 X143.100 Y133.343 E0.02175
G1 X143.100 Y76.657 E1.63515
G1 X143.854 Y76.657 E0.02175
G1 X143.854 Y133.343 E1.63515
G1 X144.608 Y133.343 E0.02175
G1 X144.608 Y76.657 E1.63515
G1 X145.362 Y76.657 E0.02175
G1 X145.362 Y133.343 E1.63515
G1 X146.116 Y133.343 E0.02175
G1 X146.116 Y76.657 E1.63515
G1 X146.871 Y76.657 E0.02175
G1 X146.871 Y133.343 E1.63515
G1 X147.625 Y133.343 E0.02175
G1 X147.625 Y76.657 E1.63515
M73 P5 R49
G1 X148.379 Y76.657 E0.02175
G1 X148.379 Y133.343 E1.63515
G1 X149.133 Y133.343 E0.02175
G1 X149.133 Y76.657 E1.63515
G1 X149.887 Y76.657 E0.02175
G1 X149.887 Y133.343 E1.63515
G1 X150.641 Y133.343 E0.02175
G1 X150.641 Y76.657 E1.63515
G1 X151.396 Y76.657 E0.02175
G1 X151.396 Y133.343 E1.63515
G1 X152.150 Y133.343 E0.02175
G1 X152.150 Y76.657 E1.63515
G1 X152.904 Y76.657 E0.02175
G1 X152.904 Y133.512 E1.64004
G1 F8640.000
G1 X152.904 Y130.221 E-0.76000
G1 E-0.04000 F2100.00000
G1 Z0.800 F10800.000
G1 X131.787 Y108.310
G1 Z0.200
G1 E0.80000 F2100.00000
G1 F1200.000
G1 X131.787 Y106.649 E0.04791
G1 X131.033 Y106.649 E0.02175
G1 X131.033 Y109.179 E0.07299
G1 X130.605 Y109.708 E0.01962
G1 X130.279 Y110.033 E0.01329
G1 X130.279 Y106.649 E0.09762
G1 X129.525 Y106.649 E0.02175
G1 X129.525 Y110.688 E0.11652
G1 X128.771 Y111.193 E0.02618
G1 X128.771 Y106.649 E0.13108
G1 X128.017 Y106.649 E0.02175
G1 X128.017 Y111.574 E0.14206
G1 X127.262 Y111.857 E0.02324
G1 X127.262 Y106.649 E0.15023
G1 X126.508 Y106.649 E0.02175
G1 X126.508 Y112.055 E0.15594
G1 X125.754 Y112.174 E0.02202
G1 X125.754 Y106.649 E0.15936
G1 X125.000 Y106.649 E0.02175
G1 X125.000 Y112.213 E0.16050
G1 X124.246 Y112.177 E0.02178
G1 X124.246 Y106.649 E0.15945
G1 X123.492 Y106.649 E0.02175
G1 X123.492 Y112.065 E0.15621
G1 X122.738 Y111.873 E0.02244
G1 X122.738 Y104.342 E0.21725
G1 X121.983 Y104.342 E0.02175
G1 X121.983 Y111.597 E0.20927
G1 X121.229 Y111.225 E0.02426
G1 X121.229 Y104.342 E0.19854
G1 X120.475 Y104.342 E0.02175
G1 X120.475 Y110.737 E0.18446
G1 X119.892 Y110.264 E0.02166
G1 X119.721 Y110.093 E0.00697
G1 X119.721 Y104.342 E0.16589
G1 X118.967 Y104.342 E0.02175
G1 X118.967 Y109.253 E0.14166
G1 X118.831 Y109.085 E0.00623
G1 X118.410 Y108.436 E0.02232
G1 X118.213 Y108.053 E0.01242
G1 X118.213 Y104.342 E0.10705
G1 X117.458 Y104.342 E0.02175
G1 X117.458 Y106.520 E0.06283
G1 F8640.000
G1 X117.458 Y104.342 E-0.50297
G1 X118.213 Y104.342 E-0.17414
G1 X118.213 Y104.701 E-0.08289
G1 E-0.04000 F2100.00000
G1 Z0.800 F10800.000
G1 X116.373 Y106.448
G1 Z0.200
G1 E0.80000 F2100.00000
G1 F1200.000
G1 X116.229 Y105.539 E0.02653
G1 X116.182 Y104.621 E0.02653
G1 X116.231 Y103.703 E0.02653
G1 X116.376 Y102.794 E0.02653
G1 X116.614 Y101.906 E0.02652
G1 X116.925 Y101.098 E0.02498
G1 X117.362 Y100.230 E0.02804
G1 X117.864 Y99.458 E0.02657
G1 X118.444 Y98.743 E0.02653
G1 X119.094 Y98.094 E0.02653
G1 X119.810 Y97.515 E0.02653
G1 X120.581 Y97.015 E0.02653
G1 X121.401 Y96.598 E0.02653
G1 X122.260 Y96.269 E0.02653
G1 X123.148 Y96.031 E0.02653
G1 X124.056 Y95.888 E0.02652
G1 X124.922 Y95.843 E0.02499
G1 X125.927 Y95.894 E0.02905
G1 X126.784 Y96.030 E0.02501
G1 X127.712 Y96.280 E0.02774
G1 X128.564 Y96.610 E0.02636
G1 X129.378 Y97.026 E0.02635
G1 X130.147 Y97.528 E0.02651
G1 X130.861 Y98.108 E0.02653
G1 X131.510 Y98.759 E0.02653
G1 X132.088 Y99.475 E0.02653
G1 X132.588 Y100.247 E0.02653
G1 X133.004 Y101.067 E0.02653
G1 X133.332 Y101.926 E0.02653
G1 X133.569 Y102.815 E0.02653
G1 X133.711 Y103.723 E0.02653
G1 X133.758 Y104.642 E0.02653
G1 X133.709 Y105.560 E0.02653
G1 X133.563 Y106.468 E0.02653
G1 X133.324 Y107.356 E0.02653
G1 X132.993 Y108.214 E0.02653
G1 X132.575 Y109.033 E0.02653
G1 X132.073 Y109.804 E0.02653
G1 X131.493 Y110.517 E0.02652
G1 X130.881 Y111.130 E0.02498
G1 X130.128 Y111.744 E0.02804
G1 X129.354 Y112.245 E0.02657
G1 X128.534 Y112.661 E0.02653
G1 X127.675 Y112.990 E0.02653
G1 X126.787 Y113.227 E0.02653
G1 X125.878 Y113.369 E0.02653
G1 X124.960 Y113.417 E0.02653
G1 X124.041 Y113.367 E0.02653
G1 X123.133 Y113.222 E0.02653
G1 X122.245 Y112.983 E0.02653
G1 X121.387 Y112.653 E0.02653
G1 X120.568 Y112.234 E0.02653
G1 X119.797 Y111.733 E0.02653
G1 X119.083 Y111.153 E0.02652
G1 X118.471 Y110.541 E0.02498
G1 X117.856 Y109.788 E0.02804
G1 X117.355 Y109.015 E0.02657
G1 X116.939 Y108.195 E0.02653
G1 X116.610 Y107.336 E0.02653
G1 X116.388 Y106.506 E0.02480
G1 X116.752 Y106.409 F10800.000
G1 F1200.000
G1 X116.605 Y105.500 E0.02654
G1 X116.560 Y104.621 E0.02539
G1 X116.607 Y103.742 E0.02539
G1 X116.745 Y102.873 E0.02539
G1 X116.973 Y102.023 E0.02539
G1 X117.270 Y101.251 E0.02387
G1 X117.689 Y100.418 E0.02689
G1 X118.170 Y99.680 E0.02541
G1 X118.724 Y98.996 E0.02539
G1 X119.347 Y98.374 E0.02539
G1 X120.031 Y97.821 E0.02539
G1 X120.770 Y97.342 E0.02539
G1 X121.554 Y96.943 E0.02539
G1 X122.376 Y96.628 E0.02539
G1 X123.226 Y96.401 E0.02539
G1 X124.096 Y96.264 E0.02539
G1 X124.922 Y96.220 E0.02386
G1 X125.888 Y96.270 E0.02790
G1 X126.705 Y96.399 E0.02386
G1 X127.595 Y96.639 E0.02659
G1 X128.410 Y96.954 E0.02522
G1 X129.188 Y97.353 E0.02521
G1 X129.925 Y97.833 E0.02537
G1 X130.608 Y98.388 E0.02539
G1 X131.229 Y99.011 E0.02539
G1 X131.782 Y99.696 E0.02539
G1 X132.260 Y100.435 E0.02539
G1 X132.659 Y101.220 E0.02539
G1 X132.973 Y102.042 E0.02539
G1 X133.199 Y102.893 E0.02539
G1 X133.336 Y103.762 E0.02539
G1 X133.380 Y104.641 E0.02539
G1 X133.333 Y105.520 E0.02539
G1 X133.194 Y106.389 E0.02539
G1 X132.965 Y107.239 E0.02539
G1 X132.649 Y108.060 E0.02539
G1 X132.248 Y108.844 E0.02539
G1 X131.768 Y109.581 E0.02539
G1 X131.213 Y110.264 E0.02538
G1 X130.628 Y110.850 E0.02387
G1 X129.905 Y111.439 E0.02689
G1 X129.166 Y111.918 E0.02540
G1 X128.381 Y112.316 E0.02539
G1 X127.559 Y112.630 E0.02539
G1 X126.709 Y112.857 E0.02539
G1 X125.839 Y112.994 E0.02539
G1 X124.960 Y113.039 E0.02539
G1 X124.081 Y112.992 E0.02539
G1 X123.212 Y112.853 E0.02539
G1 X122.362 Y112.624 E0.02539
G1 X121.541 Y112.308 E0.02539
G1 X120.757 Y111.908 E0.02539
G1 X120.019 Y111.427 E0.02539
G1 X119.336 Y110.873 E0.02539
G1 X118.751 Y110.288 E0.02387
G1 X118.161 Y109.566 E0.02689
G1 X117.682 Y108.827 E0.02540
G1 X117.284 Y108.042 E0.02539
G1 X116.969 Y107.220 E0.02539
G1 X116.768 Y106.467 E0.02250
G1 X116.372 Y106.286 F10800.000
G1 F8640.000
G1 X116.605 Y105.500 E-0.22626
G1 X116.560 Y104.621 E-0.20323
G1 X116.607 Y103.742 E-0.20323
G1 X116.693 Y103.198 E-0.12727
G1 E-0.04000 F2100.00000
G1 Z0.800 F10800.000
G1 X115.569 Y106.802
G1 Z0.200
G1 E0.80000 F2100.00000
G1 F1200.000
G1 X115.378 Y105.822 E0.02880
G1 X115.298 Y104.942 E0.02550
G1 X115.298 Y104.058 E0.02550
G1 X115.378 Y103.178 E0.02550
G1 X115.538 Y102.308 E0.02550
G1 X115.777 Y101.457 E0.02550
G1 X116.092 Y100.631 E0.02550
G1 X116.481 Y99.837 E0.02550
G1 X116.940 Y99.081 E0.02550
G1 X117.466 Y98.371 E0.02550
G1 X118.055 Y97.711 E0.02550
G1 X118.701 Y97.108 E0.02550
G1 X119.399 Y96.566 E0.02550
G1 X120.144 Y96.089 E0.02550
G1 X120.929 Y95.682 E0.02550
G1 X121.748 Y95.349 E0.02550
G1 X122.593 Y95.091 E0.02550
G1 X123.459 Y94.911 E0.02550
G1 X124.335 Y94.811 E0.02544
G1 X125.305 Y94.796 E0.02799
G1 X126.103 Y94.851 E0.02307
G1 X126.976 Y94.991 E0.02550
G1 X127.832 Y95.210 E0.02550
G1 X128.666 Y95.506 E0.02550
G1 X129.468 Y95.877 E0.02550
G1 X130.234 Y96.319 E0.02550
G1 X130.956 Y96.829 E0.02550
G1 X131.629 Y97.402 E0.02550
G1 X132.247 Y98.034 E0.02550
G1 X132.805 Y98.720 E0.02550
G1 X133.298 Y99.454 E0.02550
G1 X133.723 Y100.229 E0.02550
G1 X134.075 Y101.040 E0.02550
G1 X134.352 Y101.880 E0.02550
G1 X134.551 Y102.741 E0.02550
G1 X134.672 Y103.617 E0.02550
G1 X134.712 Y104.500 E0.02550
G1 X134.672 Y105.383 E0.02550
G1 X134.551 Y106.259 E0.02550
G1 X134.352 Y107.120 E0.02550
G1 X134.075 Y107.960 E0.02550
G1 X133.723 Y108.771 E0.02550
G1 X133.298 Y109.546 E0.02550
G1 X132.805 Y110.280 E0.02550
G1 X132.247 Y110.966 E0.02550
G1 X131.629 Y111.598 E0.02550
G1 X130.956 Y112.171 E0.02550
G1 X130.234 Y112.681 E0.02550
G1 X129.468 Y113.123 E0.02550
G1 X128.666 Y113.494 E0.02550
G1 X127.832 Y113.790 E0.02550
G1 X126.976 Y114.009 E0.02550
G1 X126.103 Y114.149 E0.02550
G1 X125.221 Y114.210 E0.02550
G1 X124.337 Y114.189 E0.02550
G1 X123.459 Y114.089 E0.02550
