; generated by PrusaSlicer 2.4.2+x64 on 2022-07-25 at 14:57:31 UTC
;
;
;
;
; 
; external perimeters extrusion width = 0.45mm
; perimeters extrusion width = 0.45mm
; infill extrusion width = 0.45mm
; solid infill extrusion width = 0.45mm
; top infill extrusion width = 0.40mm
; first layer extrusion width = 0.42mm
; external perimeters extrusion width = 0.45mm
; perimeters extrusion width = 0.45mm
; infill extrusion width = 0.45mm
; solid infill extrusion width = 0.45mm
; top infill extrusion width = 0.40mm
; first layer extrusion width = 0.42mm
M73 P0 R58
M201 X9000 Y9000 Z500 E10000 ; sets maximum accelerations, mm/sec^2
M203 X500 Y500 Z12 E120 ; sets maximum feedrates, mm / sec
M204 P2000 R1500 T2000 ; sets acceleration (P, T) and retract acceleration (R), mm/sec^2
M205 X10.00 Y10.00 Z0.20 E4.50 ; sets the jerk limits, mm/sec
M205 S0 T0 ; sets the minimum extruding and travel feed rate, mm/sec
M107
;TYPE:Custom
M83  ; extruder relative mode
M140 S110 ; set bed temp
M109 S160 ; Set extruder temp before bed level
M190 S110 ; wait for bed temp
G28 W ; home all without mesh bed level
G80 N7 ; mesh bed leveling
M109 S240 ; wait for extruder temp
M221 S100 ; Set flow to 100
G1 Y-3.0 F1000.0 ; go outside print area
G92 E0.0
G1 E8 ; Purge Bubble
G1 X60.0 E9.0 F1000.0 ; intro line
G1 X100.0 E12.5 F1000.0 ; intro line
G92 E0.0
G21 ; set units to millimeters
G90 ; use absolute coordinates
M83 ; use relative distances for extrusion
M900 K0.04 ; Filament gcode LA 1.5
M900 K20 ; Filament gcode LA 1.0
M107
;LAYER_CHANGE
M117 INDICATOR-Layer1
;Z:0.2
;HEIGHT:0.2
;BEFORE_LAYER_CHANGE
M117 DASHBOARD_LAYER_INDICATOR 1
G92 E0.0
;0.2
G1 E-.8 F2100
G1 Z.6 F720
;AFTER_LAYER_CHANGE
;0.2
G1 X146.082 Y86.353 F6000
G1 Z.2 F720
G1 E.8 F2100
M204 S800
;TYPE:Skirt/Brim
;WIDTH:0.42
G1 F1200
G1 X147.312 Y84.942 E.05869
G1 X148.334 Y84.158 E.04039
G1 X151.168 Y83.251 E.09328
G1 X167.793 Y83.257 E.52129
G1 X169.424 Y83.578 E.05211
G1 X170.937 Y84.29 E.05243
G1 X172.63 Y85.826 E.07168
G1 X173.864 Y87.794 E.07284
G1 X174.571 Y89.156 E.04812
G1 X175.186 Y90.555 E.04792
G1 X175.698 Y91.955 E.04672
G1 X176.121 Y93.381 E.04664
G1 X176.457 Y94.851 E.04727
G1 X176.56 Y95.478 E.01992
G1 X179.712 Y97.052 E.11048
G1 X181.253 Y98.586 E.06819
G1 X181.855 Y99.638 E.038
G1 X182.286 Y100.778 E.0382
G1 X182.48 Y120.555 E.62014
G1 X182.091 Y122.311 E.05637
G1 X181.456 Y123.646 E.04637
G1 X180.226 Y125.058 E.0587
G1 X179.204 Y125.842 E.04039
G1 X176.372 Y126.749 E.09323
G1 X145.653 Y126.749 E.96319
G1 X143.916 Y126.36 E.05582
G1 X142.583 Y125.726 E.04627
G1 X141.172 Y124.496 E.05869
G1 X140.388 Y123.473 E.0404
G1 X139.481 Y120.636 E.0934
G1 X139.507 Y101.807 E.59037
G1 X139.939 Y100.03 E.05736
G1 X140.787 Y98.487 E.05519
G1 X142.376 Y96.96 E.0691
G1 X145.059 Y95.645 E.09369
G1 X145.064 Y89.381 E.19641
G1 X145.448 Y87.686 E.05451
G1 X146.056 Y86.407 E.04439
M204 S1000
G1 X146.396 Y86.57 F6000
M204 S800
G1 F1200
G1 X147.583 Y85.205 E.0567
G1 X148.537 Y84.478 E.03763
G1 X151.197 Y83.628 E.08755
G1 X167.774 Y83.634 E.51979
G1 X169.327 Y83.943 E.04964
G1 X170.75 Y84.618 E.04938
G1 X172.324 Y86.048 E.06668
G1 X173.533 Y87.975 E.07131
G1 X174.228 Y89.314 E.0473
G1 X174.839 Y90.702 E.04754
G1 X175.342 Y92.079 E.04597
G1 X175.758 Y93.482 E.0459
G1 X176.088 Y94.929 E.04652
G1 X176.219 Y95.73 E.02544
G1 X179.469 Y97.341 E.11376
G1 X180.939 Y98.796 E.06483
G1 X181.52 Y99.812 E.03671
G1 X181.921 Y100.879 E.03575
G1 X182.103 Y120.537 E.61637
G1 X181.728 Y122.207 E.05366
G1 X181.128 Y123.46 E.04356
G1 X179.956 Y124.794 E.0557
G1 X179.001 Y125.522 E.03763
G1 X176.343 Y126.372 E.0875
G1 X145.674 Y126.372 E.96161
G1 X144.02 Y125.997 E.05317
G1 X142.77 Y125.397 E.04347
G1 X141.435 Y124.225 E.05568
G1 X140.708 Y123.271 E.03764
G1 X139.858 Y120.608 E.08766
G1 X139.884 Y101.83 E.58875
G1 X140.283 Y100.188 E.05299
G1 X141.07 Y98.737 E.05176
G1 X142.569 Y97.285 E.06541
G1 X145.436 Y95.881 E.10012
G1 X145.436 Y89.444 E.20181
G1 X145.811 Y87.79 E.05317
G1 X146.37 Y86.624 E.04054
M204 S1000
G1 X146.709 Y86.788 F6000
M204 S800
G1 F1200
G1 X146.738 Y86.728 E.0021
G1 X147.852 Y85.47 E.05268
G1 X148.739 Y84.798 E.03488
G1 X151.226 Y84.005 E.08184
G1 X167.756 Y84.011 E.5183
G1 X169.187 Y84.294 E.04573
G1 X170.563 Y84.947 E.04777
G1 X172.019 Y86.27 E.06168
G1 X173.202 Y88.155 E.06978
G1 X173.891 Y89.482 E.04687
G1 X174.491 Y90.848 E.04678
G1 X174.986 Y92.202 E.04522
G1 X175.394 Y93.584 E.04516
G1 X175.72 Y95.007 E.04577
G1 X175.877 Y95.982 E.03098
G1 X179.227 Y97.632 E.11706
G1 X180.625 Y99.006 E.06148
G1 X181.172 Y99.959 E.03446
G1 X181.557 Y100.981 E.03423
G1 X181.726 Y120.518 E.61258
G1 X181.365 Y122.102 E.05093
G1 X180.8 Y123.272 E.04074
G1 X179.686 Y124.53 E.05269
G1 X178.799 Y125.202 E.03488
G1 X176.314 Y125.995 E.0818
G1 X145.696 Y125.995 E.96002
G1 X144.126 Y125.634 E.0505
G1 X142.958 Y125.07 E.04067
G1 X141.7 Y123.956 E.05268
G1 X141.028 Y123.069 E.03489
G1 X140.235 Y120.579 E.08194
G1 X140.261 Y101.853 E.58714
G1 X140.626 Y100.344 E.04867
G1 X141.355 Y98.986 E.04833
G1 X142.762 Y97.611 E.06169
G1 X145.813 Y96.116 E.10654
G1 X145.813 Y89.466 E.20851
G1 X146.174 Y87.896 E.0505
G1 X146.683 Y86.842 E.03669
M204 S1000
G1 X147.022 Y87.007 F6000
M204 S800
G1 F1200
G1 X147.066 Y86.917 E.00315
G1 X148.12 Y85.735 E.04967
G1 X148.94 Y85.119 E.03215
G1 X151.255 Y84.382 E.07616
G1 X167.737 Y84.388 E.5168
G1 X169.089 Y84.659 E.04323
G1 X170.375 Y85.275 E.04471
G1 X171.713 Y86.493 E.05672
G1 X172.871 Y88.336 E.06825
G1 X173.548 Y89.639 E.04605
G1 X174.139 Y90.983 E.04602
G1 X174.626 Y92.315 E.04447
G1 X175.031 Y93.685 E.04478
G1 X175.351 Y95.085 E.04502
G1 X175.536 Y96.235 E.03654
G1 X178.985 Y97.923 E.12039
G1 X180.312 Y99.218 E.05812
G1 X180.825 Y100.107 E.03219
G1 X181.192 Y101.083 E.03269
G1 X181.349 Y120.498 E.60878
G1 X181.003 Y121.995 E.04817
G1 X180.473 Y123.082 E.03792
G1 X179.418 Y124.265 E.04968
G1 X178.598 Y124.881 E.03215
G1 X176.285 Y125.618 E.07612
G1 X145.717 Y125.618 E.95842
G1 X144.232 Y125.272 E.0478
M73 P1 R58
G1 X143.147 Y124.742 E.03786
G1 X141.965 Y123.688 E.04967
G1 X141.348 Y122.868 E.03216
G1 X140.612 Y120.55 E.07626
G1 X140.638 Y101.876 E.58551
G1 X140.987 Y100.457 E.04582
G1 X141.64 Y99.234 E.04349
G1 X142.956 Y97.936 E.05794
G1 X146.19 Y96.351 E.11294
G1 X146.19 Y89.487 E.2152
G1 X146.536 Y88.002 E.0478
G1 X146.995 Y87.061 E.03284
M204 S1000
G1 X147.333 Y87.228 F6000
M204 S800
G1 F1200
G1 X147.392 Y87.108 E.00419
G1 X148.388 Y86.002 E.04667
G1 X149.14 Y85.44 E.02944
G1 X151.283 Y84.759 E.07051
G1 X167.718 Y84.765 E.51529
G1 X168.99 Y85.024 E.04071
G1 X170.186 Y85.602 E.04165
G1 X171.407 Y86.715 E.0518
G1 X172.54 Y88.517 E.06673
G1 X173.211 Y89.808 E.04562
G1 X173.787 Y91.118 E.04488
G1 X174.27 Y92.439 E.0441
G1 X174.668 Y93.786 E.04404
G1 X174.982 Y95.163 E.04427
G1 X175.195 Y96.489 E.04213
G1 X178.745 Y98.215 E.12376
G1 X179.998 Y99.429 E.05472
G1 X180.49 Y100.282 E.03086
G1 X180.827 Y101.183 E.03018
G1 X180.971 Y120.478 E.605
G1 X180.641 Y121.888 E.04539
G1 X180.146 Y122.892 E.0351
G1 X179.15 Y123.998 E.04667
G1 X178.398 Y124.56 E.02943
G1 X176.256 Y125.241 E.07048
G1 X145.74 Y125.241 E.95682
G1 X144.341 Y124.91 E.04507
M73 P1 R57
G1 X143.338 Y124.416 E.03505
G1 X142.232 Y123.42 E.04667
G1 X141.67 Y122.668 E.02944
G1 X140.989 Y120.522 E.0706
G1 X141.015 Y101.899 E.58389
G1 X141.331 Y100.612 E.04157
G1 X141.927 Y99.48 E.04012
G1 X143.15 Y98.26 E.05413
G1 X146.567 Y96.586 E.11932
G1 X146.567 Y89.51 E.22188
G1 X146.898 Y88.111 E.04507
G1 X147.306 Y87.281 E.02898
M204 S1000
G1 X147.643 Y87.449 F6000
M204 S800
G1 F1200
G1 X147.717 Y87.3 E.00523
G1 X148.654 Y86.269 E.04366
G1 X149.339 Y85.761 E.02674
G1 X151.312 Y85.136 E.0649
G1 X167.698 Y85.142 E.51378
G1 X168.89 Y85.388 E.03816
G1 X169.996 Y85.929 E.03859
G1 X171.102 Y86.937 E.04693
G1 X172.209 Y88.697 E.0652
G1 X172.873 Y89.976 E.04518
G1 X173.435 Y91.253 E.04374
G1 X173.91 Y92.552 E.04335
G1 X174.304 Y93.887 E.04366
G1 X174.612 Y95.24 E.04352
G1 X174.854 Y96.743 E.04773
G1 X178.506 Y98.508 E.12716
G1 X179.686 Y99.642 E.05132
G1 X180.143 Y100.429 E.02853
G1 X180.462 Y101.284 E.02864
G1 X180.594 Y120.458 E.60119
G1 X180.279 Y121.779 E.04257
G1 X179.821 Y122.7 E.03227
G1 X178.884 Y123.731 E.04366
G1 X178.199 Y124.239 E.02674
G1 X176.227 Y124.863 E.06486
G1 X145.762 Y124.863 E.9552
G1 X144.45 Y124.549 E.04231
G1 X143.53 Y124.091 E.03223
G1 X142.499 Y123.154 E.04366
G1 X141.991 Y122.469 E.02675
G1 X141.366 Y120.493 E.06497
G1 X141.392 Y101.923 E.58225
G1 X141.691 Y100.726 E.03869
G1 X142.246 Y99.683 E.03707
G1 X143.392 Y98.551 E.0505
G1 X146.945 Y96.822 E.12386
G1 X146.945 Y89.532 E.22858
G1 X147.259 Y88.22 E.04231
G1 X147.616 Y87.503 E.02512
M204 S1000
G1 X147.952 Y87.672 F6000
M204 S800
G1 F1200
G1 X148.042 Y87.494 E.00626
G1 X148.919 Y86.538 E.04065
G1 X149.537 Y86.084 E.02407
G1 X151.341 Y85.513 E.05932
G1 X167.678 Y85.52 E.51225
G1 X168.789 Y85.752 E.03558
G1 X169.805 Y86.255 E.03553
G1 X170.796 Y87.16 E.04209
G1 X171.878 Y88.878 E.06367
G1 X172.536 Y90.145 E.04474
G1 X173.083 Y91.389 E.04261
G1 X173.55 Y92.664 E.0426
G1 X173.938 Y93.977 E.04291
G1 X174.241 Y95.307 E.04277
G1 X174.461 Y96.666 E.04316
G1 X174.491 Y96.987 E.01014
G1 X178.268 Y98.802 E.13137
G1 X179.373 Y99.855 E.04788
G1 X179.808 Y100.604 E.02716
G1 X180.097 Y101.384 E.02609
G1 X180.217 Y120.437 E.59739
G1 X179.918 Y121.668 E.03973
G1 X179.496 Y122.506 E.02943
G1 X178.619 Y123.461 E.04065
G1 X178.001 Y123.916 E.02407
G1 X176.198 Y124.486 E.05929
G1 X145.785 Y124.486 E.95358
G1 X144.561 Y124.188 E.03951
G1 X143.724 Y123.766 E.0294
G1 X142.768 Y122.889 E.04065
G1 X142.313 Y122.271 E.02407
G1 X141.743 Y120.465 E.05938
G1 X141.769 Y101.948 E.58059
G1 X142.051 Y100.843 E.03576
G1 X142.564 Y99.887 E.03401
G1 X143.633 Y98.842 E.04688
G1 X147.322 Y97.059 E.12844
G1 X147.322 Y89.555 E.23529
G1 X147.62 Y88.331 E.03951
G1 X147.925 Y87.725 E.02125
M204 S1000
G1 X148.26 Y87.896 F6000
M204 S800
G1 F1200
G1 X148.365 Y87.689 E.00729
G1 X149.182 Y86.809 E.03764
G1 X149.734 Y86.406 E.02142
G1 X151.37 Y85.891 E.05378
G1 X167.658 Y85.897 E.51072
G1 X168.687 Y86.116 E.03299
G1 X169.572 Y86.552 E.03092
G1 X170.491 Y87.383 E.03885
G1 X171.555 Y89.072 E.0626
G1 X172.193 Y90.302 E.04344
G1 X172.731 Y91.524 E.04186
G1 X173.19 Y92.777 E.04185
G1 X173.572 Y94.066 E.04215
G1 X173.872 Y95.384 E.04239
G1 X174.088 Y96.719 E.04238
G1 X174.135 Y97.235 E.01626
G1 X178.031 Y99.096 E.13539
G1 X179.062 Y100.069 E.04444
G1 X179.461 Y100.75 E.02475
G1 X179.732 Y101.484 E.02452
G1 X179.84 Y120.415 E.59358
G1 X179.558 Y121.556 E.03685
G1 X179.173 Y122.311 E.02659
G1 X178.356 Y123.191 E.03764
G1 X177.804 Y123.594 E.02142
G1 X176.169 Y124.109 E.05375
G1 X145.809 Y124.109 E.95194
G1 X144.674 Y123.827 E.03667
G1 X143.919 Y123.443 E.02656
G1 X143.039 Y122.626 E.03764
G1 X142.636 Y122.074 E.02142
G1 X142.12 Y120.436 E.05383
G1 X142.146 Y101.973 E.57892
G1 X142.409 Y100.961 E.03279
G1 X142.881 Y100.093 E.03095
G1 X143.873 Y99.135 E.04325
G1 X147.699 Y97.297 E.13307
G1 X147.699 Y89.579 E.242
G1 X147.981 Y88.444 E.03667
G1 X148.233 Y87.95 E.01739
M204 S1000
G1 X148.566 Y88.122 F6000
M204 S800
G1 F1200
G1 X148.688 Y87.886 E.00832
G1 X149.444 Y87.081 E.03463
G1 X149.93 Y86.73 E.01879
G1 X151.398 Y86.268 E.04828
G1 X167.639 Y86.274 E.5092
G1 X168.544 Y86.465 E.02902
G1 X169.341 Y86.852 E.02776
G1 X170.186 Y87.607 E.03554
G1 X171.231 Y89.267 E.0615
G1 X171.85 Y90.459 E.04213
G1 X172.379 Y91.66 E.04111
G1 X172.83 Y92.89 E.0411
G1 X173.209 Y94.168 E.04177
G1 X173.503 Y95.462 E.04163
G1 X173.715 Y96.772 E.04161
G1 X173.778 Y97.484 E.02239
G1 X177.795 Y99.392 E.13946
G1 X178.751 Y100.284 E.041
G1 X179.113 Y100.897 E.02231
G1 X179.367 Y101.584 E.02295
G1 X179.463 Y120.392 E.58974
G1 X179.198 Y121.441 E.03392
G1 X178.85 Y122.114 E.02374
G1 X178.094 Y122.919 E.03463
G1 X177.608 Y123.27 E.01879
G1 X176.141 Y123.732 E.04825
G1 X145.832 Y123.732 E.95029
G1 X144.788 Y123.467 E.03378
M73 P2 R57
G1 X144.116 Y123.12 E.02372
G1 X143.311 Y122.364 E.03463
G1 X142.96 Y121.878 E.01879
G1 X142.498 Y120.408 E.04832
G1 X142.523 Y101.998 E.57723
G1 X142.768 Y101.081 E.02976
G1 X143.197 Y100.301 E.0279
G1 X144.111 Y99.428 E.03964
G1 X148.076 Y97.535 E.13776
G1 X148.076 Y89.602 E.24871
G1 X148.341 Y88.558 E.03378
G1 X148.539 Y88.175 E.01352
M204 S1000
G1 X148.871 Y88.349 F6000
M204 S800
G1 F1200
G1 X149.009 Y88.085 E.00934
G1 X149.704 Y87.354 E.03162
G1 X150.124 Y87.054 E.01619
G1 X151.427 Y86.645 E.04282
G1 X167.619 Y86.651 E.50769
G1 X168.403 Y86.815 E.02513
G1 X169.113 Y87.153 E.02462
G1 X169.882 Y87.831 E.03217
G1 X170.9 Y89.447 E.0599
G1 X171.508 Y90.617 E.04132
G1 X172.027 Y91.795 E.04036
G1 X172.47 Y93.003 E.04035
G1 X172.842 Y94.257 E.04102
G1 X173.134 Y95.54 E.04125
G1 X173.341 Y96.825 E.04082
G1 X173.421 Y97.732 E.02855
G1 X177.562 Y99.689 E.14358
G1 X178.441 Y100.5 E.03751
G1 X178.779 Y101.074 E.02087
G1 X179.002 Y101.682 E.02031
G1 X179.085 Y120.369 E.58593
G1 X178.838 Y121.325 E.03095
G1 X178.529 Y121.915 E.02088
G1 X177.834 Y122.646 E.03162
G1 X177.414 Y122.946 E.01619
G1 X176.112 Y123.355 E.0428
G1 X145.857 Y123.355 E.94862
G1 X144.905 Y123.108 E.03084
G1 X144.315 Y122.799 E.02087
G1 X143.584 Y122.104 E.03162
G1 X143.284 Y121.684 E.01619
G1 X142.875 Y120.38 E.04286
G1 X142.9 Y102.024 E.57552
G1 X143.125 Y101.203 E.02668
G1 X143.511 Y100.512 E.02485
G1 X144.348 Y99.723 E.03603
G1 X148.453 Y97.773 E.1425
G1 X148.453 Y89.627 E.25543
G1 X148.7 Y88.675 E.03084
G1 X148.843 Y88.402 E.00964
M204 S1000
G1 X149.173 Y88.579 F6000
M204 S800
G1 F1200
G1 X149.329 Y88.287 E.01036
G1 X149.962 Y87.63 E.02862
G1 X150.317 Y87.38 E.01361
G1 X151.456 Y87.022 E.03742
G1 X167.6 Y87.028 E.50619
G1 X168.265 Y87.167 E.02131
G1 X168.887 Y87.456 E.02149
G1 X169.578 Y88.056 E.02872
G1 X170.569 Y89.628 E.05827
G1 X171.165 Y90.775 E.04051
G1 X171.675 Y91.931 E.03962
G1 X172.111 Y93.116 E.03959
G1 X172.479 Y94.359 E.04063
G1 X172.765 Y95.618 E.04049
G1 X172.968 Y96.878 E.04004
G1 X173.065 Y97.981 E.03472
G1 X177.329 Y99.988 E.14777
G1 X178.132 Y100.718 E.03403
G1 X178.431 Y101.22 E.01833
G1 X178.636 Y101.781 E.01872
G1 X178.708 Y120.345 E.58208
G1 X178.48 Y121.206 E.02792
G1 X178.209 Y121.713 E.01802
G1 X177.576 Y122.37 E.02862
G1 X177.221 Y122.62 E.01361
G1 X176.083 Y122.978 E.03741
G1 X145.882 Y122.978 E.94693
G1 X145.024 Y122.75 E.02785
G1 X144.517 Y122.479 E.01801
G1 X143.86 Y121.846 E.02862
G1 X143.61 Y121.491 E.01361
G1 X143.252 Y120.351 E.03745
G1 X143.277 Y102.051 E.57378
G1 X143.481 Y101.329 E.02354
G1 X143.824 Y100.724 E.02181
G1 X144.582 Y100.02 E.03243
G1 X148.83 Y98.013 E.1473
G1 X148.83 Y89.652 E.26214
G1 X149.058 Y88.794 E.02785
G1 X149.145 Y88.632 E.00577
M204 S1000
G1 X149.473 Y88.81 F6000
M204 S800
G1 F1200
G1 X149.646 Y88.491 E.01138
G1 X150.218 Y87.907 E.02562
G1 X150.508 Y87.706 E.01106
G1 X151.484 Y87.399 E.03209
G1 X167.579 Y87.405 E.50464
G1 X168.163 Y87.531 E.01874
G1 X168.7 Y87.784 E.01862
G1 X169.308 Y88.32 E.02539
G1 X170.245 Y89.821 E.0555
G1 X170.828 Y90.943 E.03963
G1 X171.328 Y92.077 E.03886
G1 X171.755 Y93.24 E.03884
G1 X172.116 Y94.46 E.03988
G1 X172.394 Y95.683 E.03935
G1 X172.594 Y96.932 E.03964
G1 X172.708 Y98.231 E.0409
G1 X177.099 Y100.287 E.15203
G1 X177.823 Y100.936 E.03049
G1 X178.098 Y101.397 E.01683
G1 X178.27 Y101.877 E.016
G1 X178.331 Y120.32 E.57826
G1 X178.122 Y121.084 E.02483
G1 X177.892 Y121.509 E.01516
G1 X177.32 Y122.093 E.02562
G1 X177.03 Y122.294 E.01106
G1 X176.054 Y122.601 E.03208
G1 X145.908 Y122.601 E.94522
G1 X145.146 Y122.392 E.02478
G1 X144.721 Y122.162 E.01515
G1 X144.137 Y121.59 E.02562
G1 X143.936 Y121.3 E.01106
G1 X143.629 Y120.323 E.03211
G1 X143.654 Y102.08 E.57201
G1 X143.836 Y101.458 E.02031
G1 X144.136 Y100.939 E.01879
G1 X144.815 Y100.318 E.02885
G1 X149.207 Y98.252 E.15218
G1 X149.207 Y89.678 E.26884
G1 X149.416 Y88.916 E.02478
G1 X149.444 Y88.863 E.00189
M204 S1000
G1 X149.772 Y89.041 F6000
M204 S800
G1 F1200
G1 X149.962 Y88.699 E.01229
G1 X150.472 Y88.187 E.02264
G1 X150.697 Y88.033 E.00855
G1 X151.513 Y87.776 E.02683
G1 X167.558 Y87.782 E.50307
G1 X168.059 Y87.893 E.01611
G1 X168.511 Y88.112 E.01574
G1 X169.035 Y88.582 E.02207
G1 X169.921 Y90.013 E.05279
