; generated by PrusaSlicer 2.2.0+ on 2020-04-22 at 21:46:33 UTC


;
;

;
;
; 

; external perimeters extrusion width = 0.45mm
; perimeters extrusion width = 0.45mm
; infill extrusion width = 0.45mm
; solid infill extrusion width = 0.45mm
; top infill extrusion width = 0.40mm
; first layer extrusion width = 0.42mm

M73 P0 R34
M201 X9000 Y9000 Z500 E10000 ; sets maximum accelerations, mm/sec^2
M203 X500 Y500 Z12 E120 ; sets maximum feedrates, mm/sec
M204 P2000 R1500 T2000 ; sets acceleration (P, T) and retract acceleration (R), mm/sec^2
M205 X10.00 Y10.00 Z0.20 E2.50 ; sets the jerk limits, mm/sec
M205 S0 T0 ; sets the minimum extruding and travel feed rate, mm/sec
M107
M83  ; extruder relative mode
M140 S100 ; set bed temp
M109 S160 ; Set extruder temp before bed level
M190 S100 ; wait for bed temp

G28 W ; home all without mesh bed level
G80 N7 ; mesh bed leveling

M109 S255 ; wait for extruder temp

M221 S100 ; Set flow to 100

G1 Y-3.0 F1000.0 ; go outside print area
G92 E0.0
G1 E8 ; Purge Bubble
M73 P0 R34
G1 X60.0 E9.0 F1000.0 ; intro line
G1 X100.0 E12.5 F1000.0 ; intro line
G92 E0.0
G21 ; set units to millimeters
G90 ; use absolute coordinates
M83 ; use relative distances for extrusion
M900 K30 ; Filament gcode
;BEFORE_LAYER_CHANGE
G92 E0.0
;0.2


G1 E-0.80000 F2100.00000
G1 Z0.600 F10800.000
;AFTER_LAYER_CHANGE
;0.2
G1 X102.333 Y100.404
G1 Z0.200
G1 E0.80000 F2100.00000
M204 S1000
G1 F1200.000
G1 X112.554 Y90.454 E0.44725
G1 X112.980 Y90.135 E0.01668
G1 X113.466 Y89.918 E0.01668
G1 X114.175 Y89.807 E0.02249
G1 X135.819 Y89.807 E0.67864
G1 X136.664 Y89.964 E0.02696
G1 X137.399 Y90.411 E0.02696
G1 X147.670 Y100.407 E0.44938
G1 X147.989 Y100.828 E0.01657
G1 X149.122 Y102.852 E0.07272
G1 X149.807 Y104.571 E0.05801
G1 X150.235 Y106.413 E0.05932
G1 X150.375 Y108.193 E0.05596
G1 X150.377 Y114.056 E0.18384
G1 X150.228 Y115.965 E0.06003
G1 X149.796 Y117.836 E0.06021
G1 X149.082 Y119.639 E0.06081
G1 X148.105 Y121.314 E0.06081
G1 X146.877 Y122.835 E0.06128
G1 X146.135 Y123.561 E0.03257
G1 X144.745 Y124.654 E0.05544
G1 X142.975 Y125.665 E0.06390
G1 X142.014 Y126.069 E0.03269
G1 X140.312 Y126.575 E0.05568
G1 X138.199 Y126.866 E0.06687
G1 X111.610 Y126.855 E0.83369
G1 X109.677 Y126.573 E0.06124
G1 X107.990 Y126.070 E0.05520
G1 X107.084 Y125.692 E0.03078
G1 X105.327 Y124.704 E0.06318
G1 X103.769 Y123.475 E0.06223
G1 X103.053 Y122.759 E0.03174
G1 X101.944 Y121.382 E0.05544
G1 X100.915 Y119.632 E0.06366
G1 X100.498 Y118.672 E0.03281
G1 X99.971 Y116.980 E0.05556
G1 X99.657 Y114.947 E0.06449
G1 X99.623 Y108.251 E0.20997
G1 X99.774 Y106.359 E0.05950
G1 X100.152 Y104.704 E0.05323
G1 X100.507 Y103.690 E0.03367
G1 X101.262 Y102.127 E0.05443
G1 X102.301 Y100.455 E0.06174
@Object nozzle_fan_duct.stl id:0 copy 0
G1 F8640.000
G1 X104.658 Y98.157 E-0.76000
G1 E-0.04000 F2100.00000
G1 Z0.800 F10800.000
G1 X141.787 Y110.223
G1 Z0.200
G1 E0.80000 F2100.00000
G1 F1200.000
G1 X135.294 Y110.223 E0.20358
G1 X135.148 Y110.207 E0.00461
G1 X134.964 Y110.118 E0.00639
G1 X134.837 Y109.959 E0.00639
G1 X134.804 Y109.862 E0.00322
G1 X134.787 Y109.716 E0.00461
G1 X134.787 Y105.223 E0.14087
G1 X115.213 Y105.223 E0.61373
G1 X115.213 Y109.716 E0.14087
G1 X115.196 Y109.862 E0.00461
G1 X115.163 Y109.959 E0.00322
G1 X115.036 Y110.118 E0.00639
G1 X114.852 Y110.207 E0.00639
G1 X114.706 Y110.223 E0.00461
G1 X108.213 Y110.223 E0.20358
G1 X108.213 Y122.720 E0.39182
G1 X107.711 Y122.460 E0.01771
G1 X107.089 Y122.075 E0.02295
G1 X106.497 Y121.645 E0.02295
G1 X105.939 Y121.171 E0.02295
G1 X105.418 Y120.657 E0.02295
G1 X104.938 Y120.105 E0.02295
G1 X104.500 Y119.518 E0.02295
G1 X104.108 Y118.900 E0.02295
G1 X103.764 Y118.254 E0.02295
G1 X103.469 Y117.584 E0.02295
G1 X103.226 Y116.894 E0.02295
G1 X103.035 Y116.188 E0.02295
G1 X102.898 Y115.469 E0.02295
G1 X102.815 Y114.741 E0.02295
G1 X102.787 Y113.995 E0.02341
G1 X102.787 Y108.296 E0.17869
G1 X102.813 Y107.593 E0.02206
G1 X102.891 Y106.908 E0.02160
G1 X103.019 Y106.231 E0.02160
G1 X103.197 Y105.566 E0.02160
G1 X103.424 Y104.916 E0.02160
G1 X103.699 Y104.287 E0.02151
G1 X104.116 Y103.516 E0.02748
G1 X114.540 Y93.371 E0.45606
G1 X135.460 Y93.371 E0.65595
G1 X145.884 Y103.516 E0.45606
G1 X146.301 Y104.287 E0.02748
G1 X146.576 Y104.916 E0.02151
G1 X146.803 Y105.566 E0.02160
G1 X146.981 Y106.231 E0.02160
G1 X147.109 Y106.908 E0.02160
G1 X147.187 Y107.593 E0.02160
G1 X147.213 Y108.296 E0.02206
G1 X147.213 Y113.995 E0.17869
G1 X147.185 Y114.741 E0.02341
G1 X147.102 Y115.469 E0.02295
G1 X146.965 Y116.188 E0.02295
G1 X146.774 Y116.894 E0.02295
G1 X146.531 Y117.584 E0.02295
G1 X146.236 Y118.254 E0.02295
G1 X145.892 Y118.900 E0.02295
G1 X145.500 Y119.518 E0.02295
G1 X145.062 Y120.105 E0.02295
G1 X144.582 Y120.657 E0.02295
G1 X144.061 Y121.171 E0.02295
G1 X143.503 Y121.645 E0.02295
G1 X142.911 Y122.075 E0.02295
G1 X142.289 Y122.460 E0.02295
G1 X141.787 Y122.720 E0.01771
G1 X141.787 Y110.283 E0.38994
G1 X141.410 Y110.600 F10800.000
G1 F1200.000
G1 X135.273 Y110.600 E0.19242
G1 X135.064 Y110.576 E0.00661
G1 X134.887 Y110.515 E0.00588
G1 X134.728 Y110.415 E0.00588
G1 X134.595 Y110.282 E0.00588
G1 X134.496 Y110.123 E0.00588
G1 X134.434 Y109.946 E0.00588
G1 X134.410 Y109.737 E0.00661
G1 X134.410 Y105.600 E0.12971
G1 X115.590 Y105.600 E0.59009
G1 X115.590 Y109.737 E0.12971
G1 X115.566 Y109.946 E0.00661
G1 X115.504 Y110.123 E0.00588
G1 X115.405 Y110.282 E0.00588
G1 X115.272 Y110.415 E0.00588
G1 X115.113 Y110.515 E0.00588
G1 X114.936 Y110.576 E0.00588
G1 X114.727 Y110.600 E0.00661
G1 X108.590 Y110.600 E0.19242
G1 X108.590 Y122.860 E0.38440
G1 X109.586 Y123.220 E0.03320
G1 X110.342 Y123.426 E0.02456
G1 X111.108 Y123.569 E0.02446
G1 X111.950 Y123.668 E0.02657
G1 X112.034 Y123.725 E0.00318
G1 X112.065 Y123.771 E0.00173
G1 X112.086 Y123.879 E0.00343
G1 X112.051 Y123.982 E0.00343
G1 X112.015 Y124.024 E0.00173
G1 X111.917 Y124.073 E0.00343
G1 X111.105 Y124.003 E0.02555
G1 X110.356 Y123.869 E0.02384
G1 X109.620 Y123.680 E0.02384
G1 X108.900 Y123.436 E0.02384
G1 X108.201 Y123.138 E0.02384
G1 X107.525 Y122.788 E0.02384
G1 X106.879 Y122.389 E0.02384
G1 X106.264 Y121.942 E0.02384
G1 X105.684 Y121.449 E0.02384
G1 X105.143 Y120.915 E0.02384
G1 X104.644 Y120.342 E0.02384
G1 X104.190 Y119.732 E0.02384
G1 X103.782 Y119.090 E0.02384
G1 X103.425 Y118.419 E0.02384
G1 X103.118 Y117.723 E0.02384
G1 X102.865 Y117.006 E0.02384
G1 X102.667 Y116.272 E0.02384
G1 X102.525 Y115.525 E0.02384
G1 X102.439 Y114.770 E0.02384
G1 X102.410 Y114.002 E0.02408
G1 X102.410 Y108.289 E0.17914
G1 X102.437 Y107.565 E0.02273
G1 X102.517 Y106.852 E0.02249
G1 X102.651 Y106.147 E0.02249
G1 X102.836 Y105.455 E0.02248
G1 X103.073 Y104.778 E0.02249
G1 X103.360 Y104.121 E0.02245
G1 X103.812 Y103.286 E0.02979
G1 X114.386 Y92.994 E0.46267
G1 X135.614 Y92.994 E0.66556
G1 X146.188 Y103.286 E0.46267
G1 X146.640 Y104.121 E0.02979
G1 X146.927 Y104.778 E0.02245
G1 X147.164 Y105.455 E0.02249
G1 X147.349 Y106.147 E0.02249
G1 X147.483 Y106.852 E0.02248
G1 X147.563 Y107.565 E0.02249
G1 X147.590 Y108.289 E0.02273
G1 X147.590 Y114.002 E0.17914
G1 X147.561 Y114.770 E0.02408
G1 X147.475 Y115.525 E0.02384
G1 X147.333 Y116.272 E0.02384
G1 X147.135 Y117.006 E0.02384
G1 X146.882 Y117.723 E0.02384
G1 X146.575 Y118.419 E0.02384
G1 X146.218 Y119.090 E0.02384
G1 X145.810 Y119.732 E0.02384
G1 X145.356 Y120.342 E0.02384
G1 X144.857 Y120.915 E0.02384
G1 X144.316 Y121.449 E0.02384
G1 X143.736 Y121.942 E0.02384
G1 X143.121 Y122.389 E0.02384
G1 X142.475 Y122.788 E0.02384
G1 X141.799 Y123.138 E0.02384
G1 X141.100 Y123.436 E0.02384
G1 X140.380 Y123.680 E0.02384
G1 X139.644 Y123.869 E0.02384
G1 X138.895 Y124.003 E0.02384
G1 X138.083 Y124.073 E0.02555
G1 X137.985 Y124.024 E0.00343
G1 X137.949 Y123.982 E0.00173
G1 X137.914 Y123.879 E0.00343
G1 X137.935 Y123.771 E0.00343
G1 X137.966 Y123.725 E0.00173
G1 X138.050 Y123.668 E0.00318
G1 X138.892 Y123.569 E0.02657
G1 X139.658 Y123.426 E0.02446
G1 X140.414 Y123.220 E0.02456
G1 X141.410 Y122.860 E0.03320
G1 X141.410 Y110.660 E0.38252
G1 X141.420 Y110.200 F10800.000
G1 F8640.000
G1 X138.119 Y110.628 E-0.76000
G1 E-0.04000 F2100.00000
G1 Z0.800 F10800.000
G1 X139.751 Y110.110
G1 Z0.200
G1 E0.80000 F2100.00000
G1 F1200.000
G1 X135.070 Y105.428 E0.20860
G1 X135.070 Y105.964 E0.01688
G1 X139.046 Y109.940 E0.17716
G1 X138.510 Y109.940 E0.01688
G1 X135.070 Y106.500 E0.15328
G1 X135.070 Y107.036 E0.01688
G1 X137.974 Y109.940 E0.12940
G1 X137.438 Y109.940 E0.01688
G1 X135.070 Y107.572 E0.10552
G1 X135.070 Y108.108 E0.01688
G1 X136.902 Y109.940 E0.08164
G1 X136.366 Y109.940 E0.01688
G1 X135.070 Y108.644 E0.05777
G1 X135.070 Y109.180 E0.01688
G1 X135.830 Y109.940 E0.03389
G1 X135.292 Y109.938 E0.01695
G1 X134.900 Y109.546 E0.01748
G1 F8640.000
G1 X135.292 Y109.938 E-0.12810
G1 X135.830 Y109.940 E-0.12420
G1 X135.070 Y109.180 E-0.24833
G1 X135.070 Y108.644 E-0.12374
G1 X135.485 Y109.059 E-0.13563
G1 E-0.04000 F2100.00000
G1 Z0.800 F10800.000
G1 X139.647 Y123.674
G1 Z0.200
G1 E0.80000 F2100.00000
G1 F1200.000
G1 X138.641 Y123.814 E0.00453
G1 X138.643 Y123.832 F10800.000
G1 F1200.000
G1 X139.702 Y123.635 E0.00501
G1 X139.815 Y123.605 F10800.000
G1 F1200.000
G1 X140.451 Y123.431 E0.00315
G1 X140.610 Y123.377 F10800.000
G1 F1200.000
G1 X141.184 Y123.169 E0.00298
G1 F8640.000
G1 X140.610 Y123.377 E-0.14096
G1 E-0.65904 F2100.00000
G1 Z0.800 F10800.000
G1 X141.900 Y121.905
G1 Z0.200
G1 E0.80000 F2100.00000
G1 F1200.000
G1 X142.186 Y122.191 E0.01274
G1 X142.517 Y121.986 E0.01227
G1 X142.070 Y121.539 E0.01994
G1 X142.070 Y121.003 E0.01688
G1 X142.843 Y121.776 E0.03444
G1 X143.153 Y121.550 E0.01209
G1 X142.070 Y120.467 E0.04826
G1 X142.070 Y119.931 E0.01688
G1 X143.454 Y121.315 E0.06169
G1 X143.744 Y121.069 E0.01198
G1 X142.070 Y119.395 E0.07461
G1 X142.070 Y118.859 E0.01688
G1 X144.023 Y120.812 E0.08701
G1 X144.292 Y120.545 E0.01194
G1 X142.070 Y118.323 E0.09902
G1 X142.070 Y117.787 E0.01688
G1 X144.548 Y120.265 E0.11041
G1 X144.797 Y119.979 E0.01197
G1 X142.070 Y117.251 E0.12152
G1 X142.070 Y116.716 E0.01688
G1 X145.030 Y119.675 E0.13188
G1 X145.258 Y119.368 E0.01207
G1 X142.070 Y116.180 E0.14208
G1 X142.070 Y115.644 E0.01688
G1 X145.467 Y119.041 E0.15138
G1 X145.672 Y118.710 E0.01226
G1 X142.070 Y115.108 E0.16052
G1 X142.070 Y114.572 E0.01688
G1 X145.859 Y118.361 E0.16882
G1 X146.037 Y118.004 E0.01258
G1 X142.070 Y114.036 E0.17679
G1 X142.070 Y113.500 E0.01688
G1 X146.201 Y117.631 E0.18408
G1 X146.351 Y117.245 E0.01305
G1 X142.070 Y112.964 E0.19075
G1 X142.070 Y112.428 E0.01688
G1 X146.490 Y116.849 E0.19697
G1 X146.607 Y116.430 E0.01371
G1 X142.070 Y111.893 E0.20216
G1 X142.070 Y111.357 E0.01688
G1 X146.713 Y116.000 E0.20690
G1 X146.799 Y115.550 E0.01444
G1 X142.070 Y110.821 E0.21072
G1 X142.070 Y110.285 E0.01688
G1 X147.015 Y115.230 E0.22037
G1 F8640.000
G1 X144.688 Y112.903 E-0.76000
G1 E-0.04000 F2100.00000
G1 Z0.800 F10800.000
G1 X146.077 Y104.110
G1 Z0.200
G1 E0.80000 F2100.00000
G1 F1200.000
G1 X135.345 Y93.654 E0.47210
G1 X135.085 Y93.654 E0.00821
G1 X146.205 Y104.775 E0.49553
G1 X146.312 Y105.019 E0.00841
G1 X146.526 Y105.631 E0.02044
G1 X134.549 Y93.654 E0.53371
G1 X134.013 Y93.654 E0.01688
G1 X146.718 Y106.359 E0.56611
G1 X146.837 Y107.014 E0.02098
G1 X133.477 Y93.654 E0.59529
G1 X132.941 Y93.654 E0.01688
G1 X146.905 Y107.617 E0.62219
G1 X146.925 Y108.174 E0.01755
G1 X132.405 Y93.654 E0.64700
G1 X131.869 Y93.654 E0.01688
G1 X146.930 Y108.715 E0.67109
G1 X146.930 Y109.250 E0.01688
G1 X131.334 Y93.654 E0.69497
G1 X130.798 Y93.654 E0.01688
G1 X146.930 Y109.786 E0.71885
G1 X146.930 Y110.322 E0.01688
G1 X130.262 Y93.654 E0.74273
G1 X129.726 Y93.654 E0.01688
G1 X146.930 Y110.858 E0.76661
G1 X146.930 Y111.394 E0.01688
G1 X129.190 Y93.654 E0.79049
G1 X128.654 Y93.654 E0.01688
G1 X146.930 Y111.930 E0.81436
G1 X146.930 Y112.466 E0.01688
G1 X128.118 Y93.654 E0.83824
G1 X127.582 Y93.654 E0.01688
G1 X146.930 Y113.002 E0.86212
G1 X146.930 Y113.538 E0.01688
G1 X127.046 Y93.654 E0.88600
M73 P3 R33
G1 X126.511 Y93.654 E0.01688
G1 X146.927 Y114.070 E0.90974
G1 X146.908 Y114.587 E0.01628
G1 X125.975 Y93.654 E0.93275
G1 X125.439 Y93.654 E0.01688
G1 X141.725 Y109.940 E0.72570
G1 X141.189 Y109.940 E0.01688
G1 X124.903 Y93.654 E0.72570
G1 X124.367 Y93.654 E0.01688
G1 X140.653 Y109.940 E0.72570
G1 X140.117 Y109.940 E0.01688
G1 X123.831 Y93.654 E0.72570
G1 X123.295 Y93.654 E0.01688
G1 X134.582 Y104.940 E0.50291
G1 X134.046 Y104.940 E0.01688
G1 X122.759 Y93.654 E0.50291
G1 X122.224 Y93.654 E0.01688
G1 X133.510 Y104.940 E0.50291
G1 X132.974 Y104.940 E0.01688
G1 X121.688 Y93.654 E0.50291
G1 X121.152 Y93.654 E0.01688
G1 X132.438 Y104.940 E0.50291
G1 X131.902 Y104.940 E0.01688
G1 X120.616 Y93.654 E0.50291
G1 X120.080 Y93.654 E0.01688
G1 X131.366 Y104.940 E0.50291
G1 X130.830 Y104.940 E0.01688
G1 X119.544 Y93.654 E0.50291
G1 X119.008 Y93.654 E0.01688
G1 X130.294 Y104.940 E0.50291
G1 X129.759 Y104.940 E0.01688
G1 X118.472 Y93.654 E0.50291
G1 X117.936 Y93.654 E0.01688
G1 X129.223 Y104.940 E0.50291
G1 X128.687 Y104.940 E0.01688
G1 X117.401 Y93.654 E0.50291
G1 X116.865 Y93.654 E0.01688
G1 X128.151 Y104.940 E0.50291
G1 X127.615 Y104.940 E0.01688
G1 X116.329 Y93.654 E0.50291
G1 X115.793 Y93.654 E0.01688
G1 X127.079 Y104.940 E0.50291
G1 X126.543 Y104.940 E0.01688
G1 X115.257 Y93.654 E0.50291
G1 X114.721 Y93.654 E0.01688
G1 X126.007 Y104.940 E0.50291
G1 X125.471 Y104.940 E0.01688
G1 X114.417 Y93.885 E0.49259
G1 X114.145 Y94.150 E0.01194
G1 X124.936 Y104.940 E0.48082
G1 X124.400 Y104.940 E0.01688
G1 X113.874 Y94.414 E0.46904
G1 X113.602 Y94.678 E0.01194
G1 X123.864 Y104.940 E0.45726
G1 X123.328 Y104.940 E0.01688
G1 X113.330 Y94.943 E0.44548
G1 X113.059 Y95.207 E0.01194
G1 X122.792 Y104.940 E0.43371
G1 X122.256 Y104.940 E0.01688
G1 X112.787 Y95.471 E0.42193
G1 X112.516 Y95.736 E0.01194
G1 X121.720 Y104.940 E0.41015
G1 X121.184 Y104.940 E0.01688
G1 X112.244 Y96.000 E0.39837
G1 X111.972 Y96.264 E0.01194
G1 X120.648 Y104.940 E0.38660
G1 X120.113 Y104.940 E0.01688
G1 X111.701 Y96.528 E0.37482
G1 X111.429 Y96.793 E0.01194
G1 X119.577 Y104.940 E0.36304
G1 X119.041 Y104.940 E0.01688
G1 X111.158 Y97.057 E0.35127
G1 X110.886 Y97.321 E0.01194
G1 X118.505 Y104.940 E0.33949
G1 X117.969 Y104.940 E0.01688
G1 X110.615 Y97.586 E0.32771
G1 X110.343 Y97.850 E0.01194
G1 X117.433 Y104.940 E0.31593
G1 X116.897 Y104.940 E0.01688
G1 X110.071 Y98.114 E0.30416
G1 X109.800 Y98.379 E0.01194
G1 X116.361 Y104.940 E0.29238
G1 X115.825 Y104.940 E0.01688
G1 X109.528 Y98.643 E0.28060
G1 X109.257 Y98.907 E0.01194
G1 X115.290 Y104.940 E0.26882
G1 X114.930 Y104.940 E0.01133
G1 X114.930 Y105.117 E0.00556
G1 X108.985 Y99.172 E0.26491
G1 X108.713 Y99.436 E0.01194
G1 X114.930 Y105.652 E0.27701
G1 X114.930 Y106.188 E0.01688
G1 X108.442 Y99.700 E0.28911
G1 X108.170 Y99.964 E0.01194
G1 X114.930 Y106.724 E0.30121
G1 X114.930 Y107.260 E0.01688
G1 X107.899 Y100.229 E0.31331
G1 X107.627 Y100.493 E0.01194
G1 X114.930 Y107.796 E0.32541
G1 X114.930 Y108.332 E0.01688
G1 X107.356 Y100.757 E0.33752
G1 X107.084 Y101.022 E0.01194
G1 X114.930 Y108.868 E0.34962
G1 X114.930 Y109.404 E0.01688
G1 X106.812 Y101.286 E0.36172
G1 X106.541 Y101.550 E0.01194
G1 X114.867 Y109.876 E0.37099
G1 X114.855 Y109.891 E0.00061
G1 X114.772 Y109.931 E0.00287
G1 X114.690 Y109.940 E0.00262
G1 X114.395 Y109.940 E0.00930
G1 X106.269 Y101.815 E0.36207
G1 X105.998 Y102.079 E0.01194
G1 X113.859 Y109.940 E0.35029
G1 X113.323 Y109.940 E0.01688
G1 X105.726 Y102.343 E0.33851
G1 X105.455 Y102.608 E0.01194
G1 X112.787 Y109.940 E0.32674
G1 X112.251 Y109.940 E0.01688
G1 X105.183 Y102.872 E0.31496
G1 X104.911 Y103.136 E0.01194
G1 X111.715 Y109.940 E0.30318
G1 X111.180 Y109.940 E0.01688
G1 X104.640 Y103.400 E0.29140
G1 X104.368 Y103.665 E0.01194
G1 X110.644 Y109.940 E0.27963
G1 X110.108 Y109.940 E0.01688
G1 X104.173 Y104.005 E0.26446
G1 X103.985 Y104.353 E0.01246
G1 X109.572 Y109.940 E0.24896
G1 X109.036 Y109.940 E0.01688
G1 X103.818 Y104.722 E0.23253
G1 X103.660 Y105.100 E0.01291
G1 X108.500 Y109.940 E0.21569
G1 X107.964 Y109.940 E0.01688
G1 X103.521 Y105.497 E0.19800
G1 X103.398 Y105.910 E0.01357
G1 X107.930 Y110.442 E0.20197
G1 X107.930 Y110.978 E0.01688
G1 X103.287 Y106.335 E0.20690
