; generated by PrusaSlicer 2.2.0+ on 2020-04-22 at 23:40:14 UTC


;
;

;
;
; 

; external perimeters extrusion width = 0.45mm
; perimeters extrusion width = 0.45mm
; infill extrusion width = 0.45mm
; solid infill extrusion width = 0.45mm
; top infill extrusion width = 0.40mm
; first layer extrusion width = 0.42mm

M73 P0 R90
M201 X9000 Y9000 Z500 E10000 ; sets maximum accelerations, mm/sec^2
M203 X500 Y500 Z12 E120 ; sets maximum feedrates, mm/sec
M204 P2000 R1500 T2000 ; sets acceleration (P, T) and retract acceleration (R), mm/sec^2
M205 X10.00 Y10.00 Z0.20 E2.50 ; sets the jerk limits, mm/sec
M205 S0 T0 ; sets the minimum extruding and travel feed rate, mm/sec
M107
M83  ; extruder relative mode
M140 S75 ; set bed temp
M109 S160 ; Set extruder temp before bed level
M190 S75 ; wait for bed temp

G28 W ; home all without mesh bed level
G80 N7 ; mesh bed leveling

M109 S240 ; wait for extruder temp

M221 S100 ; Set flow to 100

G1 Y-3.0 F1000.0 ; go outside print area
G92 E0.0
G1 E8 ; Purge Bubble
M73 P0 R90
G1 X60.0 E9.0 F1000.0 ; intro line
G1 X100.0 E12.5 F1000.0 ; intro line
G92 E0.0
G21 ; set units to millimeters
G90 ; use absolute coordinates
M83 ; use relative distances for extrusion
M900 K45; Filament gcode
;BEFORE_LAYER_CHANGE
G92 E0.0
;0.2


G1 E-0.80000 F2100.00000
G1 Z0.600 F10800.000
;AFTER_LAYER_CHANGE
;0.2
G1 X168.256 Y36.102
G1 Z0.200
G1 E0.80000 F2100.00000
M204 S1000
G1 F1200.000
G1 X169.020 Y36.608 E0.02642
G1 X169.535 Y37.365 E0.02642
G1 X169.727 Y38.261 E0.02642
G1 X169.706 Y172.019 E3.85838
G1 X169.470 Y172.775 E0.02286
G1 X168.999 Y173.412 E0.02286
G1 X168.344 Y173.859 E0.02286
G1 X167.579 Y174.066 E0.02286
G1 X148.631 Y174.056 E0.54658
G1 X148.044 Y173.898 E0.01753
G1 X147.516 Y173.596 E0.01753
G1 X81.209 Y123.227 E2.40197
G1 X80.674 Y122.658 E0.02253
G1 X80.378 Y122.034 E0.01993
G1 X80.273 Y121.355 E0.01982
G1 X80.294 Y71.844 E1.42819
G1 X80.437 Y71.296 E0.01633
G1 X80.702 Y70.800 E0.01622
G1 X81.077 Y70.381 E0.01622
G1 X81.540 Y70.061 E0.01622
G1 X123.070 Y48.546 E1.34921
G1 X148.042 Y36.103 E0.80480
G1 X148.929 Y35.923 E0.02610
G1 X167.354 Y35.923 E0.53149
G1 X168.197 Y36.091 E0.02480
@Object Table-Mount-LCD.stl id:1 copy 0
G1 F8640.000
G1 X169.020 Y36.608 E-0.22439
G1 X169.535 Y37.365 E-0.21151
G1 X169.727 Y38.261 E-0.21151
G1 X169.727 Y38.748 E-0.11259
G1 E-0.04000 F2100.00000
G1 Z0.800 F10800.000
G1 X158.150 Y150.845
G1 Z0.200
G1 E0.80000 F2100.00000
G1 F1200.000
G1 X158.930 Y150.982 E0.02286
G1 X159.616 Y151.379 E0.02286
G1 X160.126 Y151.986 E0.02286
G1 X160.397 Y152.730 E0.02286
G1 X160.397 Y153.522 E0.02286
G1 X160.126 Y154.267 E0.02286
G1 X159.616 Y154.874 E0.02286
G1 X158.930 Y155.270 E0.02286
G1 X158.150 Y155.408 E0.02286
G1 X157.370 Y155.270 E0.02286
G1 X156.684 Y154.874 E0.02286
G1 X156.174 Y154.267 E0.02286
G1 X155.903 Y153.522 E0.02286
G1 X155.903 Y152.730 E0.02286
G1 X156.174 Y151.986 E0.02286
G1 X156.684 Y151.379 E0.02286
G1 X157.370 Y150.982 E0.02286
G1 X158.091 Y150.855 E0.02112
G1 X158.150 Y151.228 F10800.000
G1 F1200.000
G1 X158.799 Y151.342 E0.01902
G1 X159.370 Y151.672 E0.01902
G1 X159.794 Y152.177 E0.01902
G1 X160.020 Y152.797 E0.01902
G1 X160.020 Y153.456 E0.01902
G1 X159.794 Y154.076 E0.01902
G1 X159.370 Y154.581 E0.01902
G1 X158.799 Y154.910 E0.01902
G1 X158.150 Y155.025 E0.01902
G1 X157.501 Y154.910 E0.01902
G1 X156.930 Y154.581 E0.01902
G1 X156.506 Y154.076 E0.01902
G1 X156.280 Y153.456 E0.01902
G1 X156.280 Y152.797 E0.01902
G1 X156.506 Y152.177 E0.01902
G1 X156.930 Y151.672 E0.01902
G1 X157.501 Y151.342 E0.01902
G1 X158.091 Y151.238 E0.01729
G1 X158.150 Y151.611 F10800.000
G1 F1200.000
G1 X158.668 Y151.702 E0.01518
G1 X159.124 Y151.965 E0.01518
G1 X159.463 Y152.368 E0.01518
G1 X159.643 Y152.863 E0.01518
G1 X159.643 Y153.390 E0.01518
G1 X159.463 Y153.884 E0.01518
G1 X159.124 Y154.287 E0.01518
G1 X158.668 Y154.551 E0.01518
G1 X158.150 Y154.642 E0.01518
G1 X157.632 Y154.551 E0.01518
G1 X157.176 Y154.287 E0.01518
G1 X156.837 Y153.884 E0.01518
G1 X156.657 Y153.390 E0.01518
G1 X156.657 Y152.863 E0.01518
G1 X156.837 Y152.368 E0.01518
G1 X157.176 Y151.965 E0.01518
G1 X157.632 Y151.702 E0.01518
G1 X158.091 Y151.621 E0.01345
G1 X158.350 Y151.264 F10800.000
G1 F8640.000
G1 X158.668 Y151.702 E-0.13465
G1 X159.124 Y151.965 E-0.12154
G1 X159.463 Y152.368 E-0.12154
G1 X159.643 Y152.863 E-0.12154
G1 X159.643 Y153.390 E-0.12154
G1 X159.463 Y153.884 E-0.12155
G1 X159.413 Y153.943 E-0.01764
G1 E-0.04000 F2100.00000
G1 Z0.800 F10800.000
G1 X158.150 Y59.258
G1 Z0.200
G1 E0.80000 F2100.00000
G1 F1200.000
G1 X157.370 Y59.121 E0.02284
G1 X156.684 Y58.725 E0.02284
G1 X156.175 Y58.118 E0.02284
G1 X155.905 Y57.374 E0.02284
G1 X155.905 Y56.582 E0.02284
G1 X156.175 Y55.838 E0.02284
G1 X156.684 Y55.232 E0.02284
G1 X157.370 Y54.836 E0.02284
G1 X158.150 Y54.698 E0.02284
G1 X158.930 Y54.836 E0.02284
G1 X159.616 Y55.232 E0.02284
G1 X160.125 Y55.838 E0.02284
G1 X160.395 Y56.582 E0.02284
G1 X160.395 Y57.374 E0.02284
G1 X160.125 Y58.118 E0.02284
G1 X159.616 Y58.725 E0.02284
G1 X158.930 Y59.121 E0.02284
G1 X158.209 Y59.248 E0.02111
G1 X158.150 Y58.876 F10800.000
G1 F1200.000
G1 X157.501 Y58.761 E0.01901
G1 X156.930 Y58.432 E0.01901
G1 X156.507 Y57.927 E0.01901
G1 X156.282 Y57.308 E0.01901
G1 X156.282 Y56.649 E0.01901
G1 X156.507 Y56.030 E0.01901
G1 X156.930 Y55.525 E0.01901
G1 X157.501 Y55.195 E0.01901
G1 X158.150 Y55.081 E0.01901
G1 X158.799 Y55.195 E0.01901
G1 X159.370 Y55.525 E0.01901
G1 X159.793 Y56.030 E0.01901
G1 X160.018 Y56.649 E0.01901
G1 X160.018 Y57.308 E0.01901
G1 X159.793 Y57.927 E0.01901
G1 X159.370 Y58.432 E0.01901
G1 X158.799 Y58.761 E0.01901
G1 X158.209 Y58.865 E0.01728
G1 X158.150 Y58.493 F10800.000
G1 F1200.000
G1 X157.632 Y58.401 E0.01517
G1 X157.177 Y58.138 E0.01517
G1 X156.839 Y57.735 E0.01517
G1 X156.659 Y57.241 E0.01517
G1 X156.659 Y56.715 E0.01517
G1 X156.839 Y56.221 E0.01517
G1 X157.177 Y55.818 E0.01517
G1 X157.632 Y55.555 E0.01517
G1 X158.150 Y55.464 E0.01517
G1 X158.668 Y55.555 E0.01517
G1 X159.123 Y55.818 E0.01517
G1 X159.461 Y56.221 E0.01517
G1 X159.641 Y56.715 E0.01517
G1 X159.641 Y57.241 E0.01517
G1 X159.461 Y57.735 E0.01517
G1 X159.123 Y58.138 E0.01517
G1 X158.668 Y58.401 E0.01517
G1 X158.209 Y58.482 E0.01344
G1 X157.950 Y58.839 F10800.000
G1 F8640.000
G1 X157.632 Y58.401 E-0.13454
G1 X157.177 Y58.138 E-0.12144
G1 X156.839 Y57.735 E-0.12144
G1 X156.659 Y57.241 E-0.12144
G1 X156.659 Y56.715 E-0.12144
G1 X156.839 Y56.221 E-0.12144
G1 X156.889 Y56.160 E-0.01827
G1 E-0.04000 F2100.00000
G1 Z0.800 F10800.000
G1 X166.186 Y39.464
G1 Z0.200
G1 E0.80000 F2100.00000
G1 F1200.000
G1 X166.186 Y170.536 E3.78089
G1 X150.114 Y170.536 E0.46360
G1 X150.114 Y39.464 E3.78089
G1 X166.126 Y39.464 E0.46187
G1 X166.563 Y39.087 F10800.000
G1 F1200.000
G1 X166.563 Y170.913 E3.80264
G1 X149.737 Y170.913 E0.48536
G1 X149.737 Y39.087 E3.80264
M73 P1 R89
G1 X166.503 Y39.087 E0.48363
G1 X166.940 Y38.710 F10800.000
G1 F1200.000
G1 X166.940 Y171.290 E3.82440
G1 X149.360 Y171.290 E0.50711
G1 X149.360 Y38.710 E3.82440
G1 X166.880 Y38.710 E0.50538
G1 X166.922 Y39.110 F10800.000
G1 F8640.000
G1 X166.881 Y42.001 E-0.76000
G1 E-0.04000 F2100.00000
G1 Z0.800 F10800.000
G1 X166.073 Y40.340
G1 Z0.200
G1 E0.80000 F2100.00000
G1 F1200.000
G1 X165.480 Y39.747 E0.02422
G1 X164.946 Y39.747 E0.01541
G1 X165.903 Y40.704 E0.03908
G1 X165.903 Y41.238 E0.01541
G1 X164.412 Y39.747 E0.06087
G1 X163.878 Y39.747 E0.01541
G1 X165.903 Y41.772 E0.08266
G1 X165.903 Y42.305 E0.01541
G1 X163.345 Y39.747 E0.10445
G1 X162.811 Y39.747 E0.01541
G1 X165.903 Y42.839 E0.12624
G1 X165.903 Y43.373 E0.01541
G1 X162.277 Y39.747 E0.14803
G1 X161.744 Y39.747 E0.01541
G1 X165.903 Y43.906 E0.16981
G1 X165.903 Y44.440 E0.01541
G1 X161.210 Y39.747 E0.19160
G1 X160.676 Y39.747 E0.01541
G1 X165.903 Y44.974 E0.21339
G1 X165.903 Y45.507 E0.01541
G1 X160.143 Y39.747 E0.23518
G1 X159.609 Y39.747 E0.01541
G1 X165.903 Y46.041 E0.25697
G1 X165.903 Y46.575 E0.01541
G1 X159.075 Y39.747 E0.27876
G1 X158.541 Y39.747 E0.01541
G1 X165.903 Y47.109 E0.30055
G1 X165.903 Y47.642 E0.01541
G1 X158.008 Y39.747 E0.32234
G1 X157.474 Y39.747 E0.01541
G1 X165.903 Y48.176 E0.34413
G1 X165.903 Y48.710 E0.01541
G1 X156.940 Y39.747 E0.36592
G1 X156.407 Y39.747 E0.01541
G1 X165.903 Y49.243 E0.38770
G1 X165.903 Y49.777 E0.01541
G1 X155.873 Y39.747 E0.40949
G1 X155.339 Y39.747 E0.01541
G1 X165.903 Y50.311 E0.43128
G1 X165.903 Y50.844 E0.01541
G1 X154.806 Y39.747 E0.45307
G1 X154.272 Y39.747 E0.01541
G1 X165.903 Y51.378 E0.47486
G1 X165.903 Y51.912 E0.01541
G1 X153.738 Y39.747 E0.49665
G1 X153.205 Y39.747 E0.01541
G1 X165.903 Y52.445 E0.51844
G1 X165.903 Y52.979 E0.01541
G1 X152.671 Y39.747 E0.54023
G1 X152.137 Y39.747 E0.01541
G1 X165.903 Y53.513 E0.56202
G1 X165.903 Y54.047 E0.01541
G1 X151.603 Y39.747 E0.58381
G1 X151.070 Y39.747 E0.01541
G1 X165.903 Y54.580 E0.60559
G1 X165.903 Y55.114 E0.01541
G1 X150.536 Y39.747 E0.62738
G1 X150.397 Y39.747 E0.00402
G1 X150.397 Y40.142 E0.01139
G1 X165.903 Y55.648 E0.63306
G1 X165.903 Y56.181 E0.01541
G1 X150.397 Y40.675 E0.63306
G1 X150.397 Y41.209 E0.01541
G1 X165.903 Y56.715 E0.63306
G1 X165.903 Y57.249 E0.01541
G1 X150.397 Y41.743 E0.63306
G1 X150.397 Y42.276 E0.01541
G1 X165.903 Y57.782 E0.63306
G1 X165.903 Y58.316 E0.01541
G1 X150.397 Y42.810 E0.63306
G1 X150.397 Y43.344 E0.01541
G1 X165.903 Y58.850 E0.63306
G1 X165.903 Y59.383 E0.01541
G1 X150.397 Y43.877 E0.63306
G1 X150.397 Y44.411 E0.01541
G1 X165.903 Y59.917 E0.63306
G1 X165.903 Y60.451 E0.01541
G1 X150.397 Y44.945 E0.63306
G1 X150.397 Y45.478 E0.01541
G1 X165.903 Y60.985 E0.63306
G1 X165.903 Y61.518 E0.01541
G1 X160.542 Y56.157 E0.21889
G1 X160.678 Y56.532 E0.01154
G1 X160.678 Y56.827 E0.00851
G1 X165.903 Y62.052 E0.21331
G1 X165.903 Y62.586 E0.01541
G1 X160.678 Y57.361 E0.21331
G1 X160.678 Y57.424 E0.00182
G1 X160.553 Y57.769 E0.01060
G1 X165.903 Y63.119 E0.21844
G1 X165.903 Y63.653 E0.01541
G1 X160.410 Y58.160 E0.22425
G1 X160.373 Y58.262 E0.00312
G1 X160.193 Y58.477 E0.00810
G1 X165.903 Y64.187 E0.23312
G1 X165.903 Y64.720 E0.01541
G1 X159.950 Y58.767 E0.24306
G1 X159.800 Y58.945 E0.00671
G1 X159.669 Y59.020 E0.00436
G1 X165.903 Y65.254 E0.25450
G1 X165.903 Y65.788 E0.01541
G1 X159.331 Y59.216 E0.26831
G1 X159.028 Y59.391 E0.01010
G1 X158.981 Y59.399 E0.00139
G1 X165.903 Y66.322 E0.28262
G1 X165.903 Y66.855 E0.01541
G1 X158.527 Y59.479 E0.30114
G1 X158.150 Y59.546 E0.01105
G1 X158.040 Y59.526 E0.00321
G1 X165.903 Y67.389 E0.32101
G1 X165.903 Y67.923 E0.01541
G1 X157.392 Y59.412 E0.34746
G1 X157.272 Y59.391 E0.00353
G1 X156.500 Y58.945 E0.02574
G1 X155.927 Y58.262 E0.02574
G1 X155.746 Y57.766 E0.01525
G1 X150.397 Y52.417 E0.21838
G1 X150.397 Y51.883 E0.01541
G1 X155.622 Y57.108 E0.21331
G1 X155.622 Y56.574 E0.01541
G1 X150.397 Y51.349 E0.21331
G1 X150.397 Y50.815 E0.01541
G1 X155.753 Y56.172 E0.21867
G1 X155.895 Y55.780 E0.01202
G1 X150.397 Y50.282 E0.22449
G1 X150.397 Y49.748 E0.01541
G1 X156.117 Y55.468 E0.23353
G1 X156.360 Y55.178 E0.01094
G1 X150.397 Y49.214 E0.24347
G1 X150.397 Y48.681 E0.01541
G1 X156.644 Y54.928 E0.25506
G1 X156.983 Y54.733 E0.01128
G1 X150.397 Y48.147 E0.26888
G1 X150.397 Y47.613 E0.01541
G1 X157.338 Y54.554 E0.28337
G1 X157.792 Y54.474 E0.01330
G1 X150.397 Y47.080 E0.30190
G1 X150.397 Y46.546 E0.01541
G1 X158.286 Y54.435 E0.32209
G1 X158.934 Y54.549 E0.01899
G1 X150.227 Y45.842 E0.35547
G1 F8640.000
G1 X152.555 Y48.170 E-0.76000
G1 E-0.04000 F2100.00000
G1 Z0.800 F10800.000
G1 X166.073 Y68.626
G1 Z0.200
G1 E0.80000 F2100.00000
G1 F1200.000
G1 X150.397 Y52.950 E0.63999
M73 P2 R88
G1 X150.397 Y53.484 E0.01541
G1 X165.903 Y68.990 E0.63306
G1 X165.903 Y69.524 E0.01541
G1 X150.397 Y54.018 E0.63306
G1 X150.397 Y54.551 E0.01541
G1 X165.903 Y70.057 E0.63306
G1 X165.903 Y70.591 E0.01541
G1 X150.397 Y55.085 E0.63306
G1 X150.397 Y55.619 E0.01541
G1 X165.903 Y71.125 E0.63306
G1 X165.903 Y71.658 E0.01541
G1 X150.397 Y56.152 E0.63306
G1 X150.397 Y56.686 E0.01541
G1 X165.903 Y72.192 E0.63306
G1 X165.903 Y72.726 E0.01541
G1 X150.397 Y57.220 E0.63306
G1 X150.397 Y57.753 E0.01541
G1 X165.903 Y73.260 E0.63306
G1 X165.903 Y73.793 E0.01541
G1 X150.397 Y58.287 E0.63306
G1 X150.397 Y58.821 E0.01541
G1 X165.903 Y74.327 E0.63306
G1 X165.903 Y74.861 E0.01541
G1 X150.397 Y59.355 E0.63306
G1 X150.397 Y59.888 E0.01541
G1 X165.903 Y75.394 E0.63306
G1 X165.903 Y75.928 E0.01541
G1 X150.397 Y60.422 E0.63306
G1 X150.397 Y60.956 E0.01541
G1 X165.903 Y76.462 E0.63306
G1 X165.903 Y76.995 E0.01541
G1 X150.397 Y61.489 E0.63306
G1 X150.397 Y62.023 E0.01541
G1 X165.903 Y77.529 E0.63306
G1 X165.903 Y78.063 E0.01541
G1 X150.397 Y62.557 E0.63306
G1 X150.397 Y63.090 E0.01541
G1 X165.903 Y78.596 E0.63306
G1 X165.903 Y79.130 E0.01541
G1 X150.397 Y63.624 E0.63306
G1 X150.397 Y64.158 E0.01541
G1 X165.903 Y79.664 E0.63306
G1 X165.903 Y80.198 E0.01541
G1 X150.397 Y64.691 E0.63306
G1 X150.397 Y65.225 E0.01541
G1 X165.903 Y80.731 E0.63306
G1 X165.903 Y81.265 E0.01541
G1 X150.397 Y65.759 E0.63306
G1 X150.397 Y66.293 E0.01541
G1 X165.903 Y81.799 E0.63306
G1 X165.903 Y82.332 E0.01541
G1 X150.397 Y66.826 E0.63306
G1 X150.397 Y67.360 E0.01541
G1 X165.903 Y82.866 E0.63306
G1 X165.903 Y83.400 E0.01541
G1 X150.397 Y67.894 E0.63306
G1 X150.397 Y68.427 E0.01541
G1 X165.903 Y83.933 E0.63306
G1 X165.903 Y84.467 E0.01541
G1 X150.397 Y68.961 E0.63306
G1 X150.397 Y69.495 E0.01541
G1 X165.903 Y85.001 E0.63306
G1 X165.903 Y85.535 E0.01541
G1 X150.397 Y70.028 E0.63306
G1 X150.397 Y70.562 E0.01541
G1 X165.903 Y86.068 E0.63306
G1 X165.903 Y86.602 E0.01541
G1 X150.397 Y71.096 E0.63306
G1 X150.397 Y71.630 E0.01541
G1 X165.903 Y87.136 E0.63306
G1 X165.903 Y87.669 E0.01541
G1 X150.397 Y72.163 E0.63306
G1 X150.397 Y72.697 E0.01541
G1 X165.903 Y88.203 E0.63306
G1 X165.903 Y88.737 E0.01541
G1 X150.397 Y73.231 E0.63306
G1 X150.397 Y73.764 E0.01541
G1 X165.903 Y89.270 E0.63306
G1 X165.903 Y89.804 E0.01541
G1 X150.397 Y74.298 E0.63306
G1 X150.397 Y74.832 E0.01541
G1 X165.903 Y90.338 E0.63306
G1 X165.903 Y90.871 E0.01541
G1 X150.397 Y75.365 E0.63306
G1 X150.397 Y75.899 E0.01541
G1 X165.903 Y91.405 E0.63306
G1 X165.903 Y91.939 E0.01541
G1 X150.397 Y76.433 E0.63306
G1 X150.397 Y76.966 E0.01541
G1 X165.903 Y92.473 E0.63306
G1 X165.903 Y93.006 E0.01541
G1 X150.397 Y77.500 E0.63306
G1 X150.397 Y78.034 E0.01541
G1 X165.903 Y93.540 E0.63306
G1 X165.903 Y94.074 E0.01541
G1 X150.397 Y78.568 E0.63306
G1 X150.397 Y79.101 E0.01541
G1 X165.903 Y94.607 E0.63306
G1 X165.903 Y95.141 E0.01541
G1 X150.397 Y79.635 E0.63306
G1 X150.397 Y80.169 E0.01541
G1 X165.903 Y95.675 E0.63306
G1 X165.903 Y96.208 E0.01541
G1 X150.397 Y80.702 E0.63306
G1 X150.397 Y81.236 E0.01541
G1 X165.903 Y96.742 E0.63306
G1 X165.903 Y97.276 E0.01541
G1 X150.397 Y81.770 E0.63306
M73 P3 R87
G1 X150.397 Y82.303 E0.01541
G1 X165.903 Y97.809 E0.63306
G1 X165.903 Y98.343 E0.01541
G1 X150.397 Y82.837 E0.63306
G1 X150.397 Y83.371 E0.01541
G1 X165.903 Y98.877 E0.63306
G1 X165.903 Y99.411 E0.01541
G1 X150.397 Y83.904 E0.63306
G1 X150.397 Y84.438 E0.01541
G1 X165.903 Y99.944 E0.63306
G1 X165.903 Y100.478 E0.01541
G1 X150.397 Y84.972 E0.63306
G1 X150.397 Y85.506 E0.01541
G1 X165.903 Y101.012 E0.63306
G1 X165.903 Y101.545 E0.01541
G1 X150.397 Y86.039 E0.63306
G1 X150.397 Y86.573 E0.01541
G1 X165.903 Y102.079 E0.63306
G1 X165.903 Y102.613 E0.01541
G1 X150.397 Y87.107 E0.63306
G1 X150.397 Y87.640 E0.01541
G1 X165.903 Y103.146 E0.63306
G1 X165.903 Y103.680 E0.01541
G1 X150.397 Y88.174 E0.63306
G1 X150.397 Y88.708 E0.01541
G1 X165.903 Y104.214 E0.63306
G1 X165.903 Y104.748 E0.01541
G1 X150.397 Y89.241 E0.63306
G1 X150.397 Y89.775 E0.01541
G1 X165.903 Y105.281 E0.63306
G1 X165.903 Y105.815 E0.01541
G1 X150.397 Y90.309 E0.63306
G1 X150.397 Y90.843 E0.01541
G1 X165.903 Y106.349 E0.63306
G1 X165.903 Y106.882 E0.01541
G1 X150.397 Y91.376 E0.63306
G1 X150.397 Y91.910 E0.01541
G1 X165.903 Y107.416 E0.63306
G1 X165.903 Y107.950 E0.01541
G1 X150.397 Y92.444 E0.63306
G1 X150.397 Y92.977 E0.01541
G1 X165.903 Y108.483 E0.63306
G1 X165.903 Y109.017 E0.01541
G1 X150.397 Y93.511 E0.63306
G1 X150.397 Y94.045 E0.01541
G1 X165.903 Y109.551 E0.63306
G1 X165.903 Y110.084 E0.01541
