; generated by PrusaSlicer 2.2.0+ on 2020-04-28 at 21:13:34 UTC


;
;

;
;
; 

; external perimeters extrusion width = 0.60mm
; perimeters extrusion width = 0.43mm
; infill extrusion width = 0.45mm
; solid infill extrusion width = 0.70mm
; top infill extrusion width = 0.43mm
; support material extrusion width = 0.37mm
; first layer extrusion width = 0.42mm

M73 P0 R34
M201 X9000 Y9000 Z500 E10000 ; sets maximum accelerations, mm/sec^2
M203 X500 Y500 Z12 E120 ; sets maximum feedrates, mm/sec
M204 P2000 R1500 T2000 ; sets acceleration (P, T) and retract acceleration (R), mm/sec^2
M205 X10.00 Y10.00 Z0.20 E4.50 ; sets the jerk limits, mm/sec
M205 S0 T0 ; sets the minimum extruding and travel feed rate, mm/sec
M107
M83  ; extruder relative mode
M140 S100 ; set bed temp
M109 S160 ; Set extruder temp before bed level
M190 S100 ; wait for bed temp

G28 W ; home all without mesh bed level
G80 N7 ; mesh bed leveling

M109 S270 ; wait for extruder temp

M221 S100 ; Set flow to 100

G1 Y-3.0 F1000.0 ; go outside print area
G92 E0.0
G1 E8 ; Purge Bubble
M73 P0 R34
G1 X60.0 E9.0 F1000.0 ; intro line
G1 X100.0 E12.5 F1000.0 ; intro line
G92 E0.0
G21 ; set units to millimeters
G90 ; use absolute coordinates
M83 ; use relative distances for extrusion
M900 K30 ; Filament gcode
;BEFORE_LAYER_CHANGE
G92 E0.0
;0.2


G1 E-0.80000 F2100.00000
G1 Z0.600 F10800.000
;AFTER_LAYER_CHANGE
;0.2
G1 X85.576 Y93.762
G1 Z0.200
G1 E0.80000 F2100.00000
M204 S1000
G1 F1200.000
G1 X86.299 Y93.648 E0.02296
G1 X132.021 Y93.648 E1.43357
G1 X165.980 Y93.771 E1.06479
G1 X166.531 Y93.842 E0.01740
G1 X167.049 Y94.039 E0.01740
G1 X167.687 Y94.522 E0.02508
G1 X169.788 Y96.957 E0.10086
G1 X170.109 Y97.487 E0.01941
G1 X170.282 Y98.081 E0.01941
G1 X170.309 Y112.383 E0.44841
G1 X170.236 Y112.929 E0.01728
G1 X170.040 Y113.444 E0.01728
G1 X169.743 Y113.885 E0.01669
G1 X167.618 Y116.289 E0.10058
G1 X166.931 Y116.712 E0.02532
G1 X166.141 Y116.882 E0.02532
G1 X88.700 Y116.760 E2.42813
G1 X87.828 Y116.564 E0.02802
G1 X82.485 Y114.050 E0.18515
G1 X82.062 Y113.680 E0.01763
G1 X80.012 Y111.304 E0.09838
G1 X79.586 Y110.522 E0.02790
G1 X79.472 Y109.822 E0.02225
G1 X79.472 Y100.478 E0.29296
G1 X79.610 Y99.683 E0.02532
G1 X80.022 Y98.962 E0.02602
G1 X82.151 Y96.632 E0.09898
G1 X84.777 Y94.203 E0.11216
G1 X85.523 Y93.791 E0.02672
@Object Ribbon_Cable_Slot_Guide_25mm.stl id:1 copy 0
G1 F8640.000
G1 X86.299 Y93.648 E-0.18216
G1 X88.801 Y93.648 E-0.57784
G1 E-0.04000 F2100.00000
G1 Z0.800 F10800.000
G1 X167.932 Y112.345
G1 Z0.200
G1 E0.80000 F2100.00000
G1 F1200.000
G1 X167.932 Y98.443 E0.37809
G1 X167.437 Y98.443 E0.01346
G1 X167.437 Y112.212 E0.37448
G1 X166.943 Y112.212 E0.01346
G1 X166.943 Y98.443 E0.37448
G1 X166.448 Y98.443 E0.01346
G1 X166.448 Y112.212 E0.37448
G1 X166.045 Y112.212 E0.01096
G1 X166.045 Y114.507 E0.06241
G1 X165.953 Y114.507 E0.00250
G1 X165.953 Y96.148 E0.49931
G1 X165.458 Y96.148 E0.01346
G1 X165.458 Y114.507 E0.49931
G1 X164.963 Y114.507 E0.01346
G1 X164.963 Y96.148 E0.49931
G1 X164.468 Y96.148 E0.01346
G1 X164.468 Y114.507 E0.49931
G1 X163.973 Y114.507 E0.01346
G1 X163.973 Y96.148 E0.49931
G1 X163.478 Y96.148 E0.01346
G1 X163.478 Y114.507 E0.49931
G1 X162.983 Y114.507 E0.01346
G1 X162.983 Y96.148 E0.49931
G1 X162.489 Y96.148 E0.01346
G1 X162.489 Y114.507 E0.49931
G1 X161.994 Y114.507 E0.01346
G1 X161.994 Y96.148 E0.49931
G1 X161.499 Y96.148 E0.01346
G1 X161.499 Y114.507 E0.49931
G1 X161.004 Y114.507 E0.01346
G1 X161.004 Y96.148 E0.49931
G1 X160.509 Y96.148 E0.01346
G1 X160.509 Y114.507 E0.49931
G1 X160.014 Y114.507 E0.01346
G1 X160.014 Y96.148 E0.49931
G1 X159.519 Y96.148 E0.01346
G1 X159.519 Y114.507 E0.49931
G1 X159.024 Y114.507 E0.01346
G1 X159.024 Y96.148 E0.49931
G1 X158.529 Y96.148 E0.01346
G1 X158.529 Y114.507 E0.49931
G1 X158.035 Y114.507 E0.01346
G1 X158.035 Y96.148 E0.49931
G1 X157.540 Y96.148 E0.01346
G1 X157.540 Y114.507 E0.49931
G1 X157.045 Y114.507 E0.01346
G1 X157.045 Y96.148 E0.49931
G1 X156.550 Y96.148 E0.01346
G1 X156.550 Y114.507 E0.49931
G1 X156.055 Y114.507 E0.01346
G1 X156.055 Y96.148 E0.49931
G1 X155.560 Y96.148 E0.01346
G1 X155.560 Y114.507 E0.49931
G1 X155.065 Y114.507 E0.01346
G1 X155.065 Y96.148 E0.49931
G1 X154.570 Y96.148 E0.01346
G1 X154.570 Y114.507 E0.49931
G1 X154.075 Y114.507 E0.01346
G1 X154.075 Y96.148 E0.49931
G1 X153.581 Y96.148 E0.01346
G1 X153.581 Y114.507 E0.49931
G1 X153.086 Y114.507 E0.01346
G1 X153.086 Y96.148 E0.49931
G1 X152.591 Y96.148 E0.01346
G1 X152.591 Y114.507 E0.49931
G1 X152.096 Y114.507 E0.01346
G1 X152.096 Y96.148 E0.49931
G1 X151.601 Y96.148 E0.01346
G1 X151.601 Y114.507 E0.49931
G1 X151.106 Y114.507 E0.01346
G1 X151.106 Y96.148 E0.49931
G1 X150.611 Y96.148 E0.01346
G1 X150.611 Y114.507 E0.49931
G1 X150.116 Y114.507 E0.01346
G1 X150.116 Y96.148 E0.49931
G1 X149.621 Y96.148 E0.01346
G1 X149.621 Y114.507 E0.49931
G1 X149.127 Y114.507 E0.01346
G1 X149.127 Y96.148 E0.49931
G1 X148.632 Y96.148 E0.01346
G1 X148.632 Y114.507 E0.49931
G1 X148.137 Y114.507 E0.01346
G1 X148.137 Y96.148 E0.49931
G1 X147.642 Y96.148 E0.01346
G1 X147.642 Y114.507 E0.49931
G1 X147.147 Y114.507 E0.01346
G1 X147.147 Y96.148 E0.49931
G1 X146.652 Y96.148 E0.01346
G1 X146.652 Y114.507 E0.49931
G1 X146.157 Y114.507 E0.01346
G1 X146.157 Y96.148 E0.49931
M73 P3 R33
G1 X145.662 Y96.148 E0.01346
G1 X145.662 Y114.507 E0.49931
G1 X145.167 Y114.507 E0.01346
G1 X145.167 Y96.148 E0.49931
G1 X144.673 Y96.148 E0.01346
G1 X144.673 Y114.507 E0.49931
G1 X144.178 Y114.507 E0.01346
G1 X144.178 Y96.148 E0.49931
G1 X143.683 Y96.148 E0.01346
G1 X143.683 Y114.507 E0.49931
G1 X143.188 Y114.507 E0.01346
G1 X143.188 Y96.148 E0.49931
G1 X143.096 Y96.148 E0.00250
G1 X143.096 Y98.443 E0.06241
G1 X142.693 Y98.443 E0.01096
G1 X142.693 Y112.212 E0.37448
G1 X142.198 Y112.212 E0.01346
G1 X142.198 Y98.443 E0.37448
G1 X141.703 Y98.443 E0.01346
G1 X141.703 Y112.212 E0.37448
G1 X141.208 Y112.212 E0.01346
G1 X141.208 Y98.310 E0.37809
; stop printing object Ribbon_Cable_Slot_Guide_25mm.stl id:1 copy 0
@Object Ribbon_Cable_Slot_Guide_25mm.stl id:0 copy 0
G1 F8640.000
G1 X141.208 Y101.601 E-0.76000
G1 E-0.04000 F2100.00000
G1 Z0.800 F10800.000
G1 X81.849 Y100.482
G1 Z0.200
G1 E0.80000 F2100.00000
G1 F1200.000
G1 X81.849 Y109.795 E0.25326
G1 X82.344 Y109.795 E0.01346
G1 X82.344 Y100.615 E0.24966
G1 X82.839 Y100.615 E0.01346
G1 X82.839 Y109.795 E0.24966
G1 X83.334 Y109.795 E0.01346
G1 X83.334 Y100.615 E0.24966
G1 X83.824 Y100.615 E0.01334
G1 X83.829 Y98.320 E0.06241
G1 X83.829 Y112.089 E0.37448
G1 X84.323 Y112.089 E0.01346
G1 X84.323 Y98.320 E0.37448
G1 X84.818 Y98.320 E0.01346
G1 X84.818 Y112.089 E0.37448
G1 X85.313 Y112.089 E0.01346
G1 X85.313 Y98.320 E0.37448
G1 X85.808 Y98.320 E0.01346
G1 X85.808 Y112.089 E0.37448
G1 X86.303 Y112.089 E0.01346
G1 X86.303 Y96.025 E0.43690
G1 X86.798 Y96.025 E0.01346
G1 X86.798 Y112.089 E0.43690
G1 X87.293 Y112.089 E0.01346
G1 X87.293 Y96.025 E0.43690
G1 X87.788 Y96.025 E0.01346
G1 X87.788 Y112.089 E0.43690
G1 X88.283 Y112.089 E0.01346
G1 X88.283 Y96.025 E0.43690
G1 X88.777 Y96.025 E0.01346
G1 X88.777 Y114.384 E0.49931
G1 X89.272 Y114.384 E0.01346
G1 X89.272 Y96.025 E0.49931
G1 X89.767 Y96.025 E0.01346
G1 X89.767 Y114.384 E0.49931
G1 X90.262 Y114.384 E0.01346
G1 X90.262 Y96.025 E0.49931
G1 X90.757 Y96.025 E0.01346
G1 X90.757 Y114.384 E0.49931
G1 X91.252 Y114.384 E0.01346
G1 X91.252 Y96.025 E0.49931
G1 X91.747 Y96.025 E0.01346
G1 X91.747 Y114.384 E0.49931
G1 X92.242 Y114.384 E0.01346
G1 X92.242 Y96.025 E0.49931
G1 X92.737 Y96.025 E0.01346
G1 X92.737 Y114.384 E0.49931
G1 X93.231 Y114.384 E0.01346
G1 X93.231 Y96.025 E0.49931
G1 X93.726 Y96.025 E0.01346
G1 X93.726 Y114.384 E0.49931
G1 X94.221 Y114.384 E0.01346
G1 X94.221 Y96.025 E0.49931
G1 X94.716 Y96.025 E0.01346
G1 X94.716 Y114.384 E0.49931
G1 X95.211 Y114.384 E0.01346
G1 X95.211 Y96.025 E0.49931
G1 X95.706 Y96.025 E0.01346
G1 X95.706 Y114.384 E0.49931
G1 X96.201 Y114.384 E0.01346
G1 X96.201 Y96.025 E0.49931
G1 X96.696 Y96.025 E0.01346
G1 X96.696 Y114.384 E0.49931
G1 X97.191 Y114.384 E0.01346
G1 X97.191 Y96.025 E0.49931
G1 X97.685 Y96.025 E0.01346
G1 X97.685 Y114.384 E0.49931
G1 X98.180 Y114.384 E0.01346
G1 X98.180 Y96.025 E0.49931
G1 X98.675 Y96.025 E0.01346
G1 X98.675 Y114.384 E0.49931
G1 X99.170 Y114.384 E0.01346
G1 X99.170 Y96.025 E0.49931
G1 X99.665 Y96.025 E0.01346
G1 X99.665 Y114.384 E0.49931
G1 X100.160 Y114.384 E0.01346
G1 X100.160 Y96.025 E0.49931
G1 X100.655 Y96.025 E0.01346
G1 X100.655 Y114.384 E0.49931
G1 X101.150 Y114.384 E0.01346
G1 X101.150 Y96.025 E0.49931
G1 X101.645 Y96.025 E0.01346
G1 X101.645 Y114.384 E0.49931
G1 X102.139 Y114.384 E0.01346
G1 X102.139 Y96.025 E0.49931
G1 X102.634 Y96.025 E0.01346
G1 X102.634 Y114.384 E0.49931
G1 X103.129 Y114.384 E0.01346
G1 X103.129 Y96.025 E0.49931
G1 X103.624 Y96.025 E0.01346
G1 X103.624 Y114.384 E0.49931
G1 X104.119 Y114.384 E0.01346
G1 X104.119 Y96.025 E0.49931
G1 X104.614 Y96.025 E0.01346
G1 X104.614 Y114.384 E0.49931
G1 X105.109 Y114.384 E0.01346
G1 X105.109 Y96.025 E0.49931
G1 X105.604 Y96.025 E0.01346
G1 X105.604 Y114.384 E0.49931
G1 X106.099 Y114.384 E0.01346
G1 X106.099 Y96.025 E0.49931
G1 X106.593 Y96.025 E0.01346
G1 X106.593 Y114.384 E0.49931
G1 X107.088 Y114.384 E0.01346
G1 X107.088 Y96.025 E0.49931
G1 X107.583 Y96.025 E0.01346
G1 X107.583 Y114.384 E0.49931
G1 X108.078 Y114.384 E0.01346
G1 X108.078 Y96.025 E0.49931
G1 X108.573 Y96.025 E0.01346
G1 X108.573 Y114.384 E0.49931
G1 X109.068 Y114.384 E0.01346
G1 X109.068 Y96.025 E0.49931
G1 X109.563 Y96.025 E0.01346
G1 X109.563 Y114.384 E0.49931
M73 P6 R32
G1 X110.058 Y114.384 E0.01346
G1 X110.058 Y96.025 E0.49931
G1 X110.553 Y96.025 E0.01346
G1 X110.553 Y114.384 E0.49931
G1 X111.047 Y114.384 E0.01346
G1 X111.047 Y96.025 E0.49931
G1 X111.542 Y96.025 E0.01346
G1 X111.542 Y114.384 E0.49931
G1 X112.037 Y114.384 E0.01346
G1 X112.037 Y96.025 E0.49931
G1 X112.532 Y96.025 E0.01346
G1 X112.532 Y114.384 E0.49931
G1 X113.027 Y114.384 E0.01346
G1 X113.027 Y96.025 E0.49931
G1 X113.522 Y96.025 E0.01346
G1 X113.522 Y114.384 E0.49931
G1 X114.017 Y114.384 E0.01346
G1 X114.017 Y96.025 E0.49931
G1 X114.512 Y96.025 E0.01346
G1 X114.512 Y114.384 E0.49931
G1 X115.007 Y114.384 E0.01346
G1 X115.007 Y96.025 E0.49931
G1 X115.502 Y96.025 E0.01346
G1 X115.501 Y114.384 E0.49931
G1 X115.996 Y114.384 E0.01346
G1 X115.996 Y96.025 E0.49931
G1 X116.491 Y96.025 E0.01346
G1 X116.491 Y114.384 E0.49931
G1 X116.986 Y114.384 E0.01346
G1 X116.986 Y96.025 E0.49931
G1 X117.481 Y96.025 E0.01346
G1 X117.481 Y114.384 E0.49931
G1 X117.976 Y114.384 E0.01346
G1 X117.976 Y96.025 E0.49931
G1 X118.471 Y96.025 E0.01346
G1 X118.471 Y114.384 E0.49931
G1 X118.966 Y114.384 E0.01346
G1 X118.966 Y96.025 E0.49931
G1 X119.461 Y96.025 E0.01346
G1 X119.461 Y114.384 E0.49931
G1 X119.956 Y114.384 E0.01346
G1 X119.956 Y96.025 E0.49931
G1 X120.450 Y96.025 E0.01346
G1 X120.450 Y114.384 E0.49931
G1 X120.945 Y114.384 E0.01346
G1 X120.945 Y96.025 E0.49931
G1 X121.440 Y96.025 E0.01346
G1 X121.440 Y114.384 E0.49931
G1 X121.935 Y114.384 E0.01346
G1 X121.935 Y96.025 E0.49931
G1 X122.430 Y96.025 E0.01346
G1 X122.430 Y114.384 E0.49931
G1 X122.925 Y114.384 E0.01346
G1 X122.925 Y96.025 E0.49931
G1 X123.420 Y96.025 E0.01346
G1 X123.420 Y114.384 E0.49931
G1 X123.915 Y114.384 E0.01346
G1 X123.915 Y96.025 E0.49931
G1 X124.410 Y96.025 E0.01346
G1 X124.410 Y114.384 E0.49931
G1 X124.904 Y114.384 E0.01346
G1 X124.904 Y96.025 E0.49931
G1 X125.399 Y96.025 E0.01346
G1 X125.399 Y114.384 E0.49931
G1 X125.894 Y114.384 E0.01346
G1 X125.894 Y96.025 E0.49931
G1 X126.389 Y96.025 E0.01346
G1 X126.389 Y114.384 E0.49931
G1 X126.884 Y114.384 E0.01346
G1 X126.884 Y96.025 E0.49931
G1 X127.379 Y96.025 E0.01346
G1 X127.379 Y114.384 E0.49931
G1 X127.874 Y114.384 E0.01346
G1 X127.874 Y96.025 E0.49931
G1 X128.369 Y96.025 E0.01346
G1 X128.369 Y114.384 E0.49931
G1 X128.864 Y114.384 E0.01346
G1 X128.864 Y96.025 E0.49931
G1 X129.358 Y96.025 E0.01346
G1 X129.358 Y114.384 E0.49931
G1 X129.853 Y114.384 E0.01346
G1 X129.853 Y96.025 E0.49931
G1 X130.348 Y96.025 E0.01346
G1 X130.348 Y114.384 E0.49931
G1 X130.843 Y114.384 E0.01346
G1 X130.843 Y96.025 E0.49931
G1 X131.338 Y96.025 E0.01346
G1 X131.338 Y114.384 E0.49931
G1 X131.833 Y114.384 E0.01346
G1 X131.833 Y96.025 E0.49931
G1 X132.017 Y96.025 E0.00500
G1 X132.017 Y98.320 E0.06241
G1 X132.328 Y98.320 E0.00846
G1 X132.328 Y112.089 E0.37448
G1 X132.823 Y112.089 E0.01346
G1 X132.823 Y98.320 E0.37448
G1 X133.318 Y98.320 E0.01346
G1 X133.318 Y112.089 E0.37448
G1 X133.812 Y112.089 E0.01346
G1 X133.812 Y98.320 E0.37448
G1 X134.307 Y98.320 E0.01346
G1 X134.307 Y112.089 E0.37448
G1 X134.312 Y109.795 E0.06241
G1 X134.802 Y109.795 E0.01334
G1 X134.802 Y100.615 E0.24966
G1 X135.297 Y100.615 E0.01346
G1 X135.297 Y109.795 E0.24966
G1 X135.792 Y109.795 E0.01346
G1 X135.792 Y100.615 E0.24966
G1 X136.287 Y100.615 E0.01346
G1 X136.287 Y109.927 E0.25326
; stop printing object Ribbon_Cable_Slot_Guide_25mm.stl id:0 copy 0
;BEFORE_LAYER_CHANGE
G92 E0.0
;0.7


G1 F8640.000
G1 X136.287 Y106.636 E-0.76000
G1 E-0.04000 F2100.00000
G1 Z0.800 F10800.000
;AFTER_LAYER_CHANGE
;0.7
M140 S115 ; set bed temperature
G1 X85.576 Y93.762
G1 Z0.700
G1 E0.80000 F2100.00000
G1 F3000.000
G1 X86.299 Y93.648 E0.04760
G1 X132.021 Y93.648 E2.97203
G1 X165.980 Y93.771 E2.20749
G1 X166.531 Y93.842 E0.03607
G1 X167.049 Y94.039 E0.03607
G1 X167.687 Y94.522 E0.05199
G1 X169.788 Y96.957 E0.20909
G1 X170.109 Y97.487 E0.04024
G1 X170.282 Y98.081 E0.04024
G1 X170.309 Y112.383 E0.92962
G1 X170.236 Y112.929 E0.03582
G1 X170.040 Y113.444 E0.03582
G1 X169.743 Y113.885 E0.03459
G1 X167.618 Y116.289 E0.20852
G1 X166.931 Y116.712 E0.05248
G1 X166.141 Y116.882 E0.05248
G1 X88.700 Y116.760 E5.03392
G1 X87.828 Y116.564 E0.05808
G1 X82.485 Y114.050 E0.38384
G1 X82.062 Y113.680 E0.03656
G1 X80.012 Y111.304 E0.20397
G1 X79.586 Y110.522 E0.05784
G1 X79.472 Y109.822 E0.04613
G1 X79.472 Y100.478 E0.60735
G1 X79.610 Y99.683 E0.05248
G1 X80.022 Y98.962 E0.05395
G1 X82.151 Y96.632 E0.20519
G1 X84.777 Y94.203 E0.23252
G1 X85.523 Y93.791 E0.05540
@Object Ribbon_Cable_Slot_Guide_25mm.stl id:1 copy 0
G1 F8640.000
G1 X86.299 Y93.648 E-0.18216
G1 X88.801 Y93.648 E-0.57784
G1 E-0.04000 F2100.00000
G1 Z1.300 F10800.000
G1 X147.321 Y101.147
G1 Z0.700
G1 E0.80000 F2100.00000
M204 S800
G1 F3000.000
G1 X148.265 Y100.998 E0.05466
G1 X160.876 Y100.998 E0.72181
G1 X161.820 Y101.147 E0.05466
G1 X162.736 Y101.603 E0.05859
G1 X163.503 Y102.309 E0.05968
G1 X164.077 Y103.207 E0.06101
G1 X164.432 Y104.235 E0.06220
G1 X164.552 Y105.327 E0.06290
G1 X164.432 Y106.420 E0.06290
G1 X164.077 Y107.447 E0.06220
G1 X163.503 Y108.345 E0.06101
G1 X162.736 Y109.052 E0.05968
G1 X161.820 Y109.507 E0.05859
G1 X160.876 Y109.656 E0.05466
G1 X148.265 Y109.656 E0.72181
G1 X147.321 Y109.507 E0.05466
G1 X146.405 Y109.052 E0.05859
G1 X145.637 Y108.345 E0.05968
G1 X145.063 Y107.447 E0.06101
G1 X144.709 Y106.420 E0.06220
G1 X144.589 Y105.327 E0.06290
G1 X144.709 Y104.235 E0.06290
G1 X145.063 Y103.207 E0.06220
G1 X145.637 Y102.309 E0.06101
G1 X146.405 Y101.603 E0.05968
G1 X147.267 Y101.174 E0.05515
M204 S1000
G1 X147.453 Y101.561 F10800.000
M204 S800
G1 F2333.907
G1 X148.298 Y101.427 E0.07315
G1 X160.842 Y101.427 E1.07259
G1 X161.687 Y101.561 E0.07315
G1 X162.490 Y101.960 E0.07667
G1 X163.172 Y102.587 E0.07918
G1 X163.688 Y103.396 E0.08204
G1 X164.011 Y104.329 E0.08446
G1 X164.120 Y105.327 E0.08583
G1 X164.011 Y106.325 E0.08583
G1 X163.688 Y107.259 E0.08446
G1 X163.172 Y108.067 E0.08204
G1 X162.490 Y108.695 E0.07918
G1 X161.687 Y109.094 E0.07667
G1 X160.842 Y109.227 E0.07315
G1 X148.298 Y109.227 E1.07259
G1 X147.453 Y109.094 E0.07315
G1 X146.650 Y108.695 E0.07667
G1 X145.969 Y108.067 E0.07918
G1 X145.452 Y107.259 E0.08204
G1 X145.130 Y106.325 E0.08446
G1 X145.021 Y105.327 E0.08583
G1 X145.130 Y104.329 E0.08583
G1 X145.452 Y103.396 E0.08446
G1 X145.969 Y102.587 E0.08204
G1 X146.650 Y101.960 E0.07918
G1 X147.399 Y101.587 E0.07154
M204 S1000
G1 X147.539 Y101.170 F10800.000
G1 F8640.000
G1 X148.298 Y101.427 E-0.21080
G1 X150.677 Y101.427 E-0.54920
G1 E-0.04000 F2100.00000
G1 Z1.300 F10800.000
G1 X147.616 Y98.932
G1 Z0.700
