; generated by PrusaSlicer 2.2.0+ on 2020-04-29 at 16:33:52 UTC


;
;

;
;
; 

; external perimeters extrusion width = 0.60mm
; perimeters extrusion width = 0.43mm
; infill extrusion width = 0.45mm
; solid infill extrusion width = 0.70mm
; top infill extrusion width = 0.43mm
; first layer extrusion width = 0.42mm

M73 P0 R87
M201 X9000 Y9000 Z500 E10000 ; sets maximum accelerations, mm/sec^2
M203 X500 Y500 Z12 E120 ; sets maximum feedrates, mm/sec
M204 P2000 R1500 T2000 ; sets acceleration (P, T) and retract acceleration (R), mm/sec^2
M205 X10.00 Y10.00 Z0.20 E4.50 ; sets the jerk limits, mm/sec
M205 S0 T0 ; sets the minimum extruding and travel feed rate, mm/sec
M107
M83  ; extruder relative mode
M140 S100 ; set bed temp
M109 S160 ; Set extruder temp before bed level
M190 S100 ; wait for bed temp

G28 W ; home all without mesh bed level
G80 N7 ; mesh bed leveling

M109 S270 ; wait for extruder temp

M221 S100 ; Set flow to 100

G1 Y-3.0 F1000.0 ; go outside print area
G92 E0.0
G1 E8 ; Purge Bubble
M73 P0 R87
G1 X60.0 E9.0 F1000.0 ; intro line
G1 X100.0 E12.5 F1000.0 ; intro line
G92 E0.0
G21 ; set units to millimeters
G90 ; use absolute coordinates
M83 ; use relative distances for extrusion
M900 K30 ; Filament gcode
;BEFORE_LAYER_CHANGE
G92 E0.0
;0.2


G1 E-0.80000 F2100.00000
G1 Z0.600 F10800.000
;AFTER_LAYER_CHANGE
;0.2
G1 X73.173 Y49.772
G1 Z0.200
G1 E0.80000 F2100.00000
M204 S1000
G1 F1200.000
G1 X73.963 Y49.623 E0.02520
G1 X176.002 Y49.623 E3.19936
G1 X176.490 Y49.674 E0.01538
G1 X176.956 Y49.825 E0.01538
G1 X178.146 Y50.413 E0.04161
G1 X178.637 Y50.784 E0.01929
G1 X179.307 Y51.461 E0.02987
G1 X179.602 Y51.881 E0.01609
G1 X180.224 Y53.162 E0.04466
G1 X180.376 Y53.932 E0.02461
G1 X180.377 Y156.025 E3.20103
G1 X180.177 Y156.953 E0.02978
G1 X179.593 Y158.136 E0.04138
G1 X179.242 Y158.610 E0.01846
G1 X178.542 Y159.305 E0.03094
G1 X178.109 Y159.608 E0.01657
G1 X176.816 Y160.232 E0.04501
G1 X176.010 Y160.377 E0.02567
G1 X73.975 Y160.377 E3.19924
G1 X73.047 Y160.177 E0.02978
G1 X71.864 Y159.593 E0.04138
G1 X71.390 Y159.242 E0.01846
G1 X70.693 Y158.539 E0.03106
G1 X70.392 Y158.109 E0.01645
G1 X69.768 Y156.816 E0.04501
G1 X69.623 Y156.010 E0.02567
G1 X69.623 Y53.975 E3.19924
G1 X69.823 Y53.047 E0.02978
G1 X70.407 Y51.864 E0.04138
G1 X70.758 Y51.391 E0.01846
G1 X71.458 Y50.695 E0.03094
G1 X71.884 Y50.396 E0.01633
G1 X73.119 Y49.798 E0.04301
@Object Lack Spacer.stl id:0 copy 2
G1 F8640.000
G1 X73.963 Y49.623 E-0.19897
G1 X76.393 Y49.623 E-0.56103
G1 E-0.04000 F2100.00000
G1 Z0.800 F10800.000
G1 X148.894 Y75.754
G1 Z0.200
G1 E0.80000 F2100.00000
G1 F1200.000
G1 X149.036 Y75.358 E0.01321
G1 X149.216 Y74.977 E0.01320
G1 X149.433 Y74.616 E0.01322
G1 X149.683 Y74.279 E0.01317
G1 X149.966 Y73.966 E0.01321
G1 X150.279 Y73.683 E0.01321
G1 X150.616 Y73.433 E0.01317
G1 X150.977 Y73.216 E0.01322
G1 X151.358 Y73.036 E0.01320
G1 X151.754 Y72.894 E0.01321
G1 X152.163 Y72.792 E0.01321
G1 X152.580 Y72.730 E0.01320
G1 X152.986 Y72.710 E0.01277
G1 X153.420 Y72.730 E0.01361
G1 X153.837 Y72.792 E0.01322
G1 X154.246 Y72.894 E0.01321
G1 X154.642 Y73.036 E0.01321
G1 X155.023 Y73.216 E0.01320
G1 X155.384 Y73.433 E0.01322
G1 X155.721 Y73.683 E0.01317
G1 X156.034 Y73.966 E0.01321
G1 X156.317 Y74.279 E0.01321
G1 X156.567 Y74.616 E0.01317
G1 X156.784 Y74.977 E0.01322
G1 X156.964 Y75.358 E0.01320
G1 X157.106 Y75.754 E0.01321
G1 X157.208 Y76.163 E0.01321
G1 X157.270 Y76.580 E0.01321
G1 X157.290 Y77.000 E0.01318
G1 X157.270 Y77.420 E0.01318
G1 X157.208 Y77.837 E0.01321
G1 X157.106 Y78.246 E0.01321
G1 X156.964 Y78.642 E0.01321
G1 X156.784 Y79.023 E0.01320
G1 X156.567 Y79.384 E0.01322
G1 X156.317 Y79.721 E0.01317
G1 X156.034 Y80.034 E0.01321
G1 X155.721 Y80.317 E0.01321
G1 X155.384 Y80.567 E0.01317
G1 X155.023 Y80.784 E0.01322
G1 X154.642 Y80.964 E0.01320
G1 X154.246 Y81.106 E0.01321
G1 X153.837 Y81.208 E0.01321
G1 X153.421 Y81.270 E0.01318
G1 X153.000 Y81.291 E0.01322
G1 X152.579 Y81.270 E0.01322
G1 X152.163 Y81.208 E0.01318
G1 X151.754 Y81.106 E0.01321
G1 X151.358 Y80.964 E0.01321
G1 X150.977 Y80.784 E0.01320
G1 X150.616 Y80.567 E0.01322
G1 X150.279 Y80.317 E0.01317
G1 X149.966 Y80.034 E0.01321
G1 X149.683 Y79.721 E0.01321
G1 X149.433 Y79.384 E0.01317
G1 X149.216 Y79.023 E0.01322
G1 X149.036 Y78.642 E0.01320
G1 X148.894 Y78.246 E0.01321
G1 X148.792 Y77.837 E0.01321
G1 X148.730 Y77.421 E0.01318
G1 X148.709 Y77.000 E0.01322
G1 X148.730 Y76.579 E0.01322
G1 X148.792 Y76.163 E0.01318
G1 X148.879 Y75.813 E0.01133
G1 X149.245 Y75.904 F10800.000
G1 F1200.000
G1 X149.385 Y75.503 E0.01331
G1 X149.549 Y75.155 E0.01204
G1 X149.747 Y74.826 E0.01206
G1 X149.975 Y74.518 E0.01202
G1 X150.233 Y74.233 E0.01204
G1 X150.518 Y73.975 E0.01204
G1 X150.826 Y73.747 E0.01202
G1 X151.155 Y73.549 E0.01206
G1 X151.503 Y73.385 E0.01204
G1 X151.864 Y73.255 E0.01203
G1 X152.237 Y73.162 E0.01205
G1 X152.617 Y73.105 E0.01204
G1 X152.987 Y73.088 E0.01162
G1 X153.383 Y73.105 E0.01244
G1 X153.763 Y73.162 E0.01204
G1 X154.136 Y73.255 E0.01205
G1 X154.497 Y73.385 E0.01203
G1 X154.845 Y73.549 E0.01204
G1 X155.174 Y73.747 E0.01206
G1 X155.482 Y73.975 E0.01202
G1 X155.767 Y74.233 E0.01204
G1 X156.025 Y74.518 E0.01204
G1 X156.253 Y74.826 E0.01202
G1 X156.451 Y75.155 E0.01206
G1 X156.615 Y75.503 E0.01204
G1 X156.745 Y75.864 E0.01203
G1 X156.838 Y76.237 E0.01205
G1 X156.895 Y76.617 E0.01205
G1 X156.912 Y77.000 E0.01202
G1 X156.895 Y77.383 E0.01202
G1 X156.838 Y77.763 E0.01205
G1 X156.745 Y78.136 E0.01205
G1 X156.615 Y78.497 E0.01203
G1 X156.451 Y78.845 E0.01204
G1 X156.253 Y79.174 E0.01206
G1 X156.025 Y79.482 E0.01202
G1 X155.767 Y79.767 E0.01204
G1 X155.482 Y80.025 E0.01204
G1 X155.174 Y80.253 E0.01202
G1 X154.845 Y80.451 E0.01206
G1 X154.497 Y80.615 E0.01204
G1 X154.136 Y80.745 E0.01203
G1 X153.763 Y80.838 E0.01205
G1 X153.384 Y80.894 E0.01203
G1 X153.000 Y80.914 E0.01204
G1 X152.616 Y80.894 E0.01204
G1 X152.237 Y80.838 E0.01203
G1 X151.864 Y80.745 E0.01205
G1 X151.503 Y80.615 E0.01203
G1 X151.155 Y80.451 E0.01204
G1 X150.826 Y80.253 E0.01206
G1 X150.518 Y80.025 E0.01202
G1 X150.233 Y79.767 E0.01204
G1 X149.975 Y79.482 E0.01204
G1 X149.747 Y79.174 E0.01202
G1 X149.549 Y78.845 E0.01206
G1 X149.385 Y78.497 E0.01204
G1 X149.255 Y78.136 E0.01203
G1 X149.162 Y77.763 E0.01205
G1 X149.106 Y77.384 E0.01203
G1 X149.086 Y77.000 E0.01204
G1 X149.106 Y76.616 E0.01204
G1 X149.162 Y76.237 E0.01203
G1 X149.231 Y75.962 E0.00889
G1 X148.970 Y75.614 F10800.000
G1 F8640.000
G1 X149.385 Y75.503 E-0.11183
G1 X149.549 Y75.155 E-0.08870
G1 X149.747 Y74.826 E-0.08878
G1 X149.975 Y74.518 E-0.08855
G1 X150.233 Y74.233 E-0.08868
G1 X150.518 Y73.975 E-0.08868
G1 X150.826 Y73.747 E-0.08855
G1 X151.155 Y73.549 E-0.08878
G1 X151.263 Y73.498 E-0.02746
G1 E-0.04000 F2100.00000
G1 Z0.800 F10800.000
G1 X128.880 Y53.976
G1 Z0.200
G1 E0.80000 F2100.00000
G1 F1200.000
G1 X129.123 Y53.500 E0.01676
G1 X129.500 Y53.123 E0.01671
G1 X129.976 Y52.880 E0.01676
G1 X130.559 Y52.787 E0.01852
G1 X175.441 Y52.787 E1.40725
G1 X176.024 Y52.880 E0.01852
G1 X176.500 Y53.123 E0.01676
G1 X176.877 Y53.500 E0.01671
G1 X177.120 Y53.976 E0.01676
G1 X177.213 Y54.559 E0.01852
G1 X177.213 Y99.441 E1.40725
G1 X177.120 Y100.024 E0.01852
G1 X176.877 Y100.500 E0.01676
G1 X176.500 Y100.877 E0.01671
G1 X176.024 Y101.120 E0.01676
G1 X175.441 Y101.213 E0.01852
G1 X130.559 Y101.213 E1.40725
G1 X129.976 Y101.120 E0.01852
G1 X129.500 Y100.877 E0.01676
G1 X129.123 Y100.500 E0.01671
G1 X128.880 Y100.024 E0.01676
G1 X128.787 Y99.441 E0.01852
G1 X128.787 Y54.559 E1.40725
G1 X128.870 Y54.035 E0.01664
G1 X128.517 Y53.857 F10800.000
G1 F1200.000
G1 X128.814 Y53.275 E0.02050
G1 X129.275 Y52.814 E0.02045
G1 X129.857 Y52.517 E0.02050
G1 X130.412 Y52.429 E0.01761
G1 X130.412 Y52.410 E0.00058
G1 X175.588 Y52.410 E1.41646
G1 X175.588 Y52.429 E0.00058
G1 X176.143 Y52.517 E0.01761
G1 X176.725 Y52.814 E0.02050
G1 X177.186 Y53.275 E0.02045
G1 X177.483 Y53.857 E0.02050
G1 X177.571 Y54.412 E0.01761
G1 X177.590 Y54.412 E0.00058
G1 X177.590 Y99.588 E1.41646
G1 X177.571 Y99.588 E0.00058
G1 X177.483 Y100.143 E0.01761
G1 X177.186 Y100.725 E0.02050
G1 X176.725 Y101.186 E0.02045
G1 X176.143 Y101.483 E0.02050
G1 X175.588 Y101.571 E0.01761
G1 X175.588 Y101.590 E0.00058
G1 X130.412 Y101.590 E1.41646
G1 X130.412 Y101.571 E0.00058
G1 X129.857 Y101.483 E0.01761
G1 X129.275 Y101.186 E0.02050
G1 X128.814 Y100.725 E0.02045
G1 X128.517 Y100.143 E0.02050
G1 X128.429 Y99.588 E0.01761
G1 X128.410 Y99.588 E0.00058
G1 X128.410 Y54.412 E1.41646
G1 X128.429 Y54.412 E0.00058
G1 X128.507 Y53.917 E0.01572
G1 X128.912 Y53.799 F10800.000
G1 F8640.000
G1 X128.814 Y53.275 E-0.16419
G1 X129.275 Y52.814 E-0.15063
G1 X129.857 Y52.517 E-0.15096
G1 X130.412 Y52.429 E-0.12965
G1 X130.412 Y52.410 E-0.00430
G1 X131.106 Y52.410 E-0.16027
G1 E-0.04000 F2100.00000
G1 Z0.800 F10800.000
G1 X149.038 Y78.910
G1 Z0.200
G1 E0.80000 F2100.00000
G1 F1200.000
G1 X129.070 Y58.942 E0.88634
G1 X129.070 Y58.408 E0.01676
G1 X148.508 Y77.846 E0.86281
G1 X148.448 Y77.449 E0.01259
G1 X148.438 Y77.242 E0.00650
G1 X129.070 Y57.874 E0.85972
G1 X129.070 Y57.341 E0.01676
G1 X148.440 Y76.711 E0.85982
G1 X148.496 Y76.233 E0.01511
G1 X129.070 Y56.807 E0.86229
G1 X129.070 Y56.273 E0.01676
G1 X148.592 Y75.795 E0.86657
M73 P1 R86
G1 X148.723 Y75.392 E0.01329
G1 X129.070 Y55.739 E0.87239
G1 X129.070 Y55.205 E0.01676
G1 X148.884 Y75.019 E0.87951
G1 X149.070 Y74.671 E0.01238
G1 X129.070 Y54.671 E0.88777
G1 X129.131 Y54.198 E0.01497
G1 X149.280 Y74.348 E0.89440
G1 X149.512 Y74.046 E0.01195
G1 X129.280 Y53.814 E0.89809
G1 X129.354 Y53.668 E0.00514
G1 X129.511 Y53.511 E0.00696
G1 X149.766 Y73.765 E0.89907
G1 X150.046 Y73.512 E0.01186
G1 X129.814 Y53.280 E0.89809
G1 X130.064 Y53.152 E0.00883
G1 X130.198 Y53.131 E0.00427
G1 X150.348 Y73.280 E0.89440
G1 X150.671 Y73.070 E0.01211
G1 X130.671 Y53.070 E0.88777
G1 X131.205 Y53.070 E0.01676
G1 X151.019 Y72.884 E0.87950
G1 X151.393 Y72.723 E0.01276
G1 X131.739 Y53.070 E0.87239
G1 X132.273 Y53.070 E0.01676
G1 X151.795 Y72.592 E0.86657
G1 X152.233 Y72.496 E0.01406
G1 X132.807 Y53.070 E0.86229
G1 X133.341 Y53.070 E0.01676
G1 X152.711 Y72.440 E0.85982
G1 X153.243 Y72.439 E0.01670
G1 X133.874 Y53.070 E0.85975
G1 X134.408 Y53.070 E0.01676
G1 X153.846 Y72.508 E0.86281
G1 X154.328 Y72.623 E0.01554
G1 X154.589 Y72.717 E0.00871
G1 X134.942 Y53.070 E0.87209
G1 X135.476 Y53.070 E0.01676
G1 X176.930 Y94.524 E1.84009
G1 X176.930 Y93.990 E0.01676
G1 X136.010 Y53.070 E1.81640
G1 X136.544 Y53.070 E0.01676
G1 X176.930 Y93.456 E1.79270
G1 X176.930 Y92.923 E0.01676
G1 X137.077 Y53.070 E1.76901
G1 X137.611 Y53.070 E0.01676
G1 X176.930 Y92.389 E1.74531
G1 X176.930 Y91.855 E0.01676
G1 X138.145 Y53.070 E1.72161
G1 X138.679 Y53.070 E0.01676
G1 X176.930 Y91.321 E1.69792
G1 X176.930 Y90.787 E0.01676
G1 X139.213 Y53.070 E1.67422
G1 X139.747 Y53.070 E0.01676
G1 X176.930 Y90.253 E1.65052
G1 X176.930 Y89.720 E0.01676
G1 X140.280 Y53.070 E1.62683
G1 X140.814 Y53.070 E0.01676
G1 X176.930 Y89.186 E1.60313
G1 X176.930 Y88.652 E0.01676
G1 X141.348 Y53.070 E1.57944
G1 X141.882 Y53.070 E0.01676
G1 X176.930 Y88.118 E1.55574
G1 X176.930 Y87.584 E0.01676
G1 X142.416 Y53.070 E1.53204
M73 P2 R85
G1 X142.950 Y53.070 E0.01676
G1 X176.930 Y87.050 E1.50835
G1 X176.930 Y86.517 E0.01676
G1 X143.483 Y53.070 E1.48465
G1 X144.017 Y53.070 E0.01676
G1 X176.930 Y85.983 E1.46095
G1 X176.930 Y85.449 E0.01676
G1 X144.551 Y53.070 E1.43726
G1 X145.085 Y53.070 E0.01676
G1 X176.930 Y84.915 E1.41356
G1 X176.930 Y84.381 E0.01676
G1 X145.619 Y53.070 E1.38987
G1 X146.153 Y53.070 E0.01676
G1 X176.930 Y83.847 E1.36617
G1 X176.930 Y83.313 E0.01676
G1 X146.687 Y53.070 E1.34247
G1 X147.220 Y53.070 E0.01676
G1 X176.930 Y82.780 E1.31878
G1 X176.930 Y82.246 E0.01676
G1 X147.754 Y53.070 E1.29508
G1 X148.288 Y53.070 E0.01676
G1 X176.930 Y81.712 E1.27138
G1 X176.930 Y81.178 E0.01676
G1 X148.822 Y53.070 E1.24769
G1 X149.356 Y53.070 E0.01676
G1 X176.930 Y80.644 E1.22399
G1 X176.930 Y80.110 E0.01676
G1 X149.890 Y53.070 E1.20030
G1 X150.423 Y53.070 E0.01676
G1 X176.930 Y79.577 E1.17660
G1 X176.930 Y79.043 E0.01676
G1 X150.957 Y53.070 E1.15290
G1 X151.491 Y53.070 E0.01676
G1 X176.930 Y78.509 E1.12921
G1 X176.930 Y77.975 E0.01676
G1 X152.025 Y53.070 E1.10551
G1 X152.559 Y53.070 E0.01676
G1 X176.930 Y77.441 E1.08181
G1 X176.930 Y76.907 E0.01676
G1 X153.093 Y53.070 E1.05812
G1 X153.626 Y53.070 E0.01676
G1 X176.930 Y76.374 E1.03442
G1 X176.930 Y75.840 E0.01676
G1 X154.160 Y53.070 E1.01073
G1 X154.694 Y53.070 E0.01676
G1 X176.930 Y75.306 E0.98703
G1 X176.930 Y74.772 E0.01676
G1 X155.228 Y53.070 E0.96333
G1 X155.762 Y53.070 E0.01676
G1 X176.930 Y74.238 E0.93964
G1 X176.930 Y73.704 E0.01676
G1 X156.296 Y53.070 E0.91594
G1 X156.829 Y53.070 E0.01676
G1 X176.930 Y73.171 E0.89224
G1 X176.930 Y72.637 E0.01676
G1 X157.363 Y53.070 E0.86855
G1 X157.897 Y53.070 E0.01676
G1 X176.930 Y72.103 E0.84485
G1 X176.930 Y71.569 E0.01676
G1 X158.431 Y53.070 E0.82116
G1 X158.965 Y53.070 E0.01676
G1 X176.930 Y71.035 E0.79746
G1 X176.930 Y70.501 E0.01676
G1 X159.499 Y53.070 E0.77376
G1 X160.032 Y53.070 E0.01676
G1 X176.930 Y69.968 E0.75007
M73 P3 R84
G1 X176.930 Y69.434 E0.01676
G1 X160.566 Y53.070 E0.72637
G1 X161.100 Y53.070 E0.01676
G1 X176.930 Y68.900 E0.70267
G1 X176.930 Y68.366 E0.01676
G1 X161.634 Y53.070 E0.67898
G1 X162.168 Y53.070 E0.01676
G1 X176.930 Y67.832 E0.65528
G1 X176.930 Y67.298 E0.01676
G1 X162.702 Y53.070 E0.63159
G1 X163.235 Y53.070 E0.01676
G1 X176.930 Y66.765 E0.60789
G1 X176.930 Y66.231 E0.01676
G1 X163.769 Y53.070 E0.58419
G1 X164.303 Y53.070 E0.01676
G1 X176.930 Y65.697 E0.56050
G1 X176.930 Y65.163 E0.01676
G1 X164.837 Y53.070 E0.53680
G1 X165.371 Y53.070 E0.01676
G1 X176.930 Y64.629 E0.51310
G1 X176.930 Y64.095 E0.01676
G1 X165.905 Y53.070 E0.48941
G1 X166.438 Y53.070 E0.01676
G1 X176.930 Y63.562 E0.46571
G1 X176.930 Y63.028 E0.01676
G1 X166.972 Y53.070 E0.44202
G1 X167.506 Y53.070 E0.01676
G1 X176.930 Y62.494 E0.41832
G1 X176.930 Y61.960 E0.01676
G1 X168.040 Y53.070 E0.39462
G1 X168.574 Y53.070 E0.01676
G1 X176.930 Y61.426 E0.37093
G1 X176.930 Y60.892 E0.01676
G1 X169.108 Y53.070 E0.34723
G1 X169.641 Y53.070 E0.01676
G1 X176.930 Y60.359 E0.32353
G1 X176.930 Y59.825 E0.01676
G1 X170.175 Y53.070 E0.29984
G1 X170.709 Y53.070 E0.01676
G1 X176.930 Y59.291 E0.27614
G1 X176.930 Y58.757 E0.01676
G1 X171.243 Y53.070 E0.25245
G1 X171.777 Y53.070 E0.01676
G1 X176.930 Y58.223 E0.22875
G1 X176.930 Y57.689 E0.01676
G1 X172.311 Y53.070 E0.20505
G1 X172.844 Y53.070 E0.01676
G1 X176.930 Y57.156 E0.18136
G1 X176.930 Y56.622 E0.01676
G1 X173.378 Y53.070 E0.15766
G1 X173.912 Y53.070 E0.01676
G1 X176.930 Y56.088 E0.13396
G1 X176.930 Y55.554 E0.01676
G1 X174.446 Y53.070 E0.11027
G1 X174.980 Y53.070 E0.01676
G1 X176.930 Y55.020 E0.08657
G1 X176.930 Y54.581 E0.01378
G1 X176.912 Y54.468 E0.00358
G1 X175.532 Y53.088 E0.06128
G1 X175.936 Y53.152 E0.01285
G1 X176.331 Y53.354 E0.01394
G1 X177.016 Y54.038 E0.03037
G1 F8640.000
G1 X176.331 Y53.354 E-0.22342
G1 X175.936 Y53.152 E-0.10255
G1 X175.532 Y53.088 E-0.09451
G1 X176.571 Y54.128 E-0.33953
G1 E-0.04000 F2100.00000
G1 Z0.800 F10800.000
G1 X151.090 Y80.962
G1 Z0.200
G1 E0.80000 F2100.00000
G1 F1200.000
G1 X171.058 Y100.930 E0.88634
G1 X171.592 Y100.930 E0.01676
G1 X152.154 Y81.492 E0.86281
G1 X152.551 Y81.552 E0.01259
G1 X152.758 Y81.562 E0.00650
G1 X172.126 Y100.930 E0.85972
G1 X172.659 Y100.930 E0.01676
G1 X153.289 Y81.560 E0.85982
G1 X153.767 Y81.504 E0.01511
G1 X173.193 Y100.930 E0.86229
G1 X173.727 Y100.930 E0.01676
G1 X154.205 Y81.408 E0.86657
G1 X154.608 Y81.277 E0.01329
G1 X174.261 Y100.930 E0.87239
G1 X174.795 Y100.930 E0.01676
G1 X154.981 Y81.116 E0.87951
G1 X155.329 Y80.930 E0.01238
G1 X175.329 Y100.930 E0.88777
G1 X175.802 Y100.869 E0.01497
G1 X155.652 Y80.720 E0.89440
G1 X155.954 Y80.488 E0.01195
G1 X176.186 Y100.720 E0.89809
G1 X176.332 Y100.646 E0.00514
G1 X176.489 Y100.489 E0.00696
G1 X156.235 Y80.234 E0.89907
G1 X156.488 Y79.954 E0.01186
G1 X176.720 Y100.186 E0.89809
G1 X176.848 Y99.936 E0.00883
G1 X176.869 Y99.802 E0.00427
G1 X156.720 Y79.652 E0.89440
G1 X156.930 Y79.329 E0.01211
G1 X176.930 Y99.329 E0.88777
