; generated by PrusaSlicer 2.2.0+ on 2020-12-09 at 21:22:21 UTC


;
;

;
;
; 

; external perimeters extrusion width = 0.45mm
; perimeters extrusion width = 0.45mm
; infill extrusion width = 0.45mm
; solid infill extrusion width = 0.45mm
; top infill extrusion width = 0.40mm
; first layer extrusion width = 0.42mm

M73 P0 R18
M201 X9000 Y9000 Z500 E10000 ; sets maximum accelerations, mm/sec^2
M203 X500 Y500 Z12 E120 ; sets maximum feedrates, mm/sec
M204 P2000 R1500 T2000 ; sets acceleration (P, T) and retract acceleration (R), mm/sec^2
M205 X10.00 Y10.00 Z0.20 E4.50 ; sets the jerk limits, mm/sec
M205 S0 T0 ; sets the minimum extruding and travel feed rate, mm/sec
M107
M83  ; extruder relative mode
M140 S85 ; set bed temp
M109 S160 ; Set extruder temp before bed level
M190 S85 ; wait for bed temp

G28 W ; home all without mesh bed level
G80 N7 ; mesh bed leveling

M109 S240 ; wait for extruder temp

M221 S100 ; Set flow to 100

G1 Y-3.0 F1000.0 ; go outside print area
G92 E0.0
G1 E8 ; Purge Bubble
M73 P0 R18
G1 X60.0 E9.0 F1000.0 ; intro line
G1 X100.0 E12.5 F1000.0 ; intro line
G92 E0.0
G21 ; set units to millimeters
G90 ; use absolute coordinates
M83 ; use relative distances for extrusion
M900 K0.08 ; Filament gcode LA 1.5
M900 K45 ; Filament gcode LA 1.0
;BEFORE_LAYER_CHANGE
G92 E0.0
;0.2


G1 E-1.40000 F2100.00000
G1 Z0.200 F10800.000
;AFTER_LAYER_CHANGE
;0.2
G1 Z0.400
G1 X154.483 Y136.177
G1 Z0.200
G1 E1.40000 F2100.00000
M204 S1000
G1 F1200.000
G1 X153.559 Y136.378 E0.02966
G1 X101.010 Y136.374 E1.64764
G1 X99.839 Y136.239 E0.03694
G1 X98.545 Y135.848 E0.04239
G1 X97.367 Y135.233 E0.04167
G1 X96.318 Y134.404 E0.04191
G1 X95.411 Y133.351 E0.04357
G1 X94.722 Y132.131 E0.04393
G1 X94.252 Y130.649 E0.04876
G1 X94.114 Y129.258 E0.04381
G1 X94.119 Y80.479 E1.52946
G1 X94.293 Y79.161 E0.04167
G1 X94.647 Y78.045 E0.03671
G1 X95.259 Y76.874 E0.04143
G1 X96.087 Y75.825 E0.04191
G1 X97.138 Y74.921 E0.04345
G1 X98.322 Y74.246 E0.04274
G1 X99.617 Y73.808 E0.04286
G1 X100.968 Y73.626 E0.04274
G1 X153.531 Y73.621 E1.64808
G1 X154.423 Y73.796 E0.02849
G1 X155.186 Y74.295 E0.02860
G1 X155.705 Y75.046 E0.02860
G1 X155.903 Y75.932 E0.02849
G1 X155.904 Y134.028 E1.82154
G1 X155.732 Y134.889 E0.02755
G1 X155.259 Y135.630 E0.02755
G1 X154.532 Y136.143 E0.02789
; printing object LED Clip.stl id:0 copy 6
G1 F8640.000
G1 X153.559 Y136.378 E-0.23123
G1 X148.800 Y136.378 E-1.09877
G1 E-0.07000 F2100.00000
G1 Z0.400 F10800.000
G1 X142.092 Y83.777
G1 Z0.200
G1 E1.40000 F2100.00000
G1 F1200.000
G1 X141.638 Y83.832 E0.01432
G1 X141.341 Y83.828 E0.00931
G1 X141.049 Y83.793 E0.00923
G1 X140.600 Y83.675 E0.01456
G1 X140.181 Y83.473 E0.01458
G1 X139.935 Y83.297 E0.00946
G1 X139.816 Y83.183 E0.00518
G1 X139.616 Y82.954 E0.00954
G1 X139.456 Y82.712 E0.00908
G1 X139.153 Y82.107 E0.02123
G1 X139.053 Y81.854 E0.00855
G1 X138.976 Y81.576 E0.00903
G1 X138.921 Y81.158 E0.01322
G1 X138.921 Y80.881 E0.00869
G1 X138.951 Y80.606 E0.00869
G1 X139.053 Y80.192 E0.01335
G1 X139.379 Y79.458 E0.02518
G1 X139.530 Y79.200 E0.00939
G1 X139.708 Y78.969 E0.00915
G1 X139.928 Y78.746 E0.00981
G1 X140.066 Y78.646 E0.00534
G1 X140.456 Y78.428 E0.01401
G1 X140.897 Y78.285 E0.01453
G1 X141.188 Y78.234 E0.00928
G1 X141.483 Y78.214 E0.00926
G1 X141.939 Y78.243 E0.01432
G1 X142.229 Y78.303 E0.00930
G1 X142.524 Y78.396 E0.00968
G1 X142.806 Y78.521 E0.00968
G1 X143.063 Y78.670 E0.00930
G1 X143.424 Y78.950 E0.01432
G1 X143.631 Y79.160 E0.00927
G1 X143.823 Y79.402 E0.00967
G1 X143.979 Y79.650 E0.00920
G1 X144.109 Y79.914 E0.00924
G1 X144.256 Y80.348 E0.01435
G1 X144.313 Y80.655 E0.00978
G1 X144.337 Y80.947 E0.00920
G1 X144.328 Y81.255 E0.00965
G1 X144.288 Y81.549 E0.00932
G1 X144.167 Y81.989 E0.01430
G1 X144.050 Y82.262 E0.00930
G1 X143.900 Y82.530 E0.00965
G1 X143.729 Y82.770 E0.00922
G1 X143.535 Y82.990 E0.00921
G1 X143.189 Y83.290 E0.01437
G1 X142.928 Y83.460 E0.00975
G1 X142.666 Y83.593 E0.00923
G1 X142.379 Y83.702 E0.00961
G1 X142.150 Y83.762 E0.00744
G1 X141.958 Y84.154 F10800.000
G1 F8640.000
G1 X141.638 Y83.832 E-0.11919
G1 X141.341 Y83.828 E-0.06859
G1 X141.049 Y83.793 E-0.06798
G1 X140.600 Y83.675 E-0.10723
G1 X140.181 Y83.473 E-0.10740
G1 X139.935 Y83.297 E-0.06970
G1 X139.816 Y83.183 E-0.03813
G1 X139.616 Y82.954 E-0.07023
G1 X139.456 Y82.712 E-0.06689
G1 X139.153 Y82.107 E-0.15633
G1 X139.053 Y81.854 E-0.06293
G1 X138.976 Y81.576 E-0.06648
G1 X138.921 Y81.158 E-0.09734
G1 X138.921 Y80.881 E-0.06397
G1 X138.951 Y80.606 E-0.06400
G1 X139.053 Y80.192 E-0.09832
G1 X139.062 Y80.171 E-0.00531
G1 E-0.07000 F2100.00000
G1 Z0.400 F10800.000
G1 X140.469 Y84.030
G1 Z0.200
G1 E1.40000 F2100.00000
G1 F1200.000
G1 X140.978 Y84.164 E0.01651
G1 X141.316 Y84.205 E0.01067
G1 X141.659 Y84.209 E0.01074
G1 X142.162 Y84.148 E0.01591
G1 X142.494 Y84.062 E0.01075
G1 X142.818 Y83.939 E0.01087
G1 X143.117 Y83.787 E0.01049
G1 X143.416 Y83.592 E0.01120
G1 X143.801 Y83.258 E0.01598
G1 X144.025 Y83.004 E0.01062
G1 X144.219 Y82.732 E0.01047
G1 X144.389 Y82.428 E0.01092
G1 X144.523 Y82.114 E0.01073
G1 X144.658 Y81.625 E0.01589
G1 X144.704 Y81.285 E0.01075
G1 X144.714 Y80.937 E0.01092
G1 X144.688 Y80.604 E0.01047
G1 X144.621 Y80.253 E0.01123
G1 X144.459 Y79.770 E0.01596
G1 X144.309 Y79.466 E0.01065
G1 X144.131 Y79.184 E0.01045
G1 X143.914 Y78.910 E0.01094
G1 X143.675 Y78.667 E0.01070
G1 X143.274 Y78.356 E0.01591
G1 X142.978 Y78.185 E0.01073
G1 X142.658 Y78.043 E0.01097
G1 X142.324 Y77.937 E0.01097
G1 X141.989 Y77.869 E0.01073
G1 X141.483 Y77.836 E0.01591
G1 X141.143 Y77.859 E0.01068
G1 X140.806 Y77.918 E0.01074
G1 X140.372 Y78.059 E0.01429
G1 X140.641 Y77.790 E0.01192
G1 X140.998 Y77.507 E0.01428
G1 X141.385 Y77.267 E0.01427
G1 X141.801 Y77.071 E0.01445
G1 X142.369 Y76.891 E0.01867
G1 X142.823 Y76.812 E0.01445
G1 X143.296 Y76.785 E0.01486
G1 X152.740 Y76.785 E0.29612
G1 X152.740 Y85.211 E0.26418
G1 X143.126 Y85.208 E0.30145
G1 X142.824 Y85.184 E0.00951
G1 X142.369 Y85.105 E0.01447
G1 X142.087 Y85.027 E0.00917
G1 X141.657 Y84.863 E0.01445
G1 X141.248 Y84.651 E0.01445
G1 X140.998 Y84.489 E0.00934
G1 X140.761 Y84.308 E0.00935
G1 X140.479 Y84.048 E0.01203
G1 F8640.000
G1 X140.978 Y84.164 E-0.11834
G1 X141.316 Y84.205 E-0.07858
G1 X141.659 Y84.209 E-0.07907
G1 X142.162 Y84.148 E-0.11718
G1 X142.494 Y84.062 E-0.07915
G1 X142.818 Y83.939 E-0.08007
G1 X143.117 Y83.787 E-0.07726
G1 X143.416 Y83.592 E-0.08251
G1 X143.801 Y83.258 E-0.11768
G1 X144.025 Y83.004 E-0.07823
G1 X144.219 Y82.732 E-0.07714
G1 X144.389 Y82.428 E-0.08041
G1 X144.523 Y82.114 E-0.07898
G1 X144.658 Y81.625 E-0.11700
G1 X144.698 Y81.332 E-0.06839
G1 E-0.07000 F2100.00000
G1 Z0.400 F10800.000
G1 X153.117 Y85.588
G1 Z0.200
G1 E1.40000 F2100.00000
G1 F1200.000
G1 X143.111 Y85.585 E0.31373
G1 X142.777 Y85.559 E0.01053
G1 X142.287 Y85.473 E0.01559
G1 X141.970 Y85.386 E0.01030
G1 X141.502 Y85.208 E0.01569
G1 X141.058 Y84.977 E0.01569
G1 X140.781 Y84.798 E0.01036
G1 X140.518 Y84.597 E0.01036
G1 X140.149 Y84.256 E0.01575
G1 X139.814 Y83.874 E0.01594
G1 X139.395 Y83.328 E0.02157
G1 X139.112 Y82.894 E0.01624
G1 X138.958 Y82.587 E0.01076
G1 X138.858 Y82.286 E0.00995
G1 X138.767 Y81.767 E0.01654
G1 X138.741 Y81.421 E0.01086
G1 X138.737 Y80.751 E0.02100
G1 X138.751 Y80.402 E0.01095
G1 X138.821 Y79.880 E0.01654
G1 X138.854 Y79.725 E0.00497
G1 X138.971 Y79.412 E0.01046
G1 X139.216 Y78.960 E0.01612
G1 X139.714 Y78.255 E0.02705
G1 X140.035 Y77.862 E0.01593
G1 X140.390 Y77.508 E0.01571
G1 X140.781 Y77.198 E0.01563
G1 X141.204 Y76.936 E0.01563
G1 X141.657 Y76.722 E0.01569
G1 X141.968 Y76.610 E0.01036
G1 X142.287 Y76.523 E0.01036
G1 X142.780 Y76.437 E0.01569
G1 X143.285 Y76.408 E0.01588
G1 X153.117 Y76.408 E0.30828
G1 X153.117 Y85.528 E0.28595
G1 X152.730 Y85.489 F10800.000
G1 F8640.000
G1 X147.357 Y85.561 E-1.33000
G1 E-0.07000 F2100.00000
G1 Z0.400 F10800.000
G1 X149.842 Y85.097
G1 Z0.200
G1 E1.40000 F2100.00000
G1 F1200.000
G1 X144.880 Y80.135 E0.22182
G1 X144.968 Y80.567 E0.01394
G1 X144.985 Y80.777 E0.00668
G1 X149.134 Y84.927 E0.18549
G1 X148.597 Y84.927 E0.01700
G1 X144.986 Y81.316 E0.16142
G1 X144.910 Y81.777 E0.01479
G1 X148.059 Y84.926 E0.14077
G1 X147.521 Y84.926 E0.01700
G1 X144.793 Y82.199 E0.12193
G1 X144.631 Y82.574 E0.01293
G1 X146.983 Y84.926 E0.10513
G1 X146.445 Y84.926 E0.01700
G1 X144.435 Y82.916 E0.08986
G1 X144.207 Y83.225 E0.01216
G1 X145.907 Y84.926 E0.07601
G1 X145.370 Y84.925 E0.01700
G1 X143.949 Y83.505 E0.06352
G1 X143.661 Y83.754 E0.01205
G1 X144.832 Y84.925 E0.05234
G1 X144.294 Y84.925 E0.01700
G1 X143.345 Y83.976 E0.04243
G1 X142.997 Y84.165 E0.01253
G1 X143.756 Y84.925 E0.03396
G1 X143.218 Y84.925 E0.01700
G1 X142.613 Y84.319 E0.02708
G1 X142.186 Y84.430 E0.01393
G1 X142.826 Y85.070 E0.02859
G1 F8640.000
G1 X142.186 Y84.430 E-0.20884
G1 X142.613 Y84.319 E-0.10177
G1 X143.218 Y84.925 E-0.19783
G1 X143.756 Y84.925 E-0.12418
G1 X142.997 Y84.165 E-0.24810
G1 X143.345 Y83.976 E-0.09155
G1 X144.294 Y84.925 E-0.30994
G1 X144.501 Y84.925 E-0.04780
G1 E-0.07000 F2100.00000
G1 Z0.400 F10800.000
G1 X141.536 Y84.588
G1 Z0.200
G1 E1.40000 F2100.00000
G1 F1200.000
G1 X141.745 Y84.394 E0.00321
G1 X141.724 Y84.564 F10800.000
G1 F1200.000
G1 X141.253 Y84.407 E0.00261
G1 F8640.000
G1 X141.724 Y84.564 E-0.11466
G1 E-1.28534 F2100.00000
G1 Z0.400 F10800.000
G1 X140.291 Y83.920
G1 Z0.200
G1 E1.40000 F2100.00000
G1 F1200.000
G1 X140.026 Y83.699 E0.00513
G1 X139.909 Y83.587 E0.00232
G1 X139.792 Y83.474 E0.00168
G1 X139.661 Y83.328 E0.00125
G1 F8640.000
G1 X139.792 Y83.474 E-0.04532
G1 E-1.35468 F2100.00000
G1 Z0.400 F10800.000
G1 X139.615 Y78.762
G1 Z0.200
G1 E1.40000 F2100.00000
G1 F1200.000
G1 X139.779 Y78.567 E0.00189
G1 X139.849 Y78.496 E0.00101
G1 X139.927 Y78.418 E0.00145
G1 X140.073 Y78.295 E0.00327
G1 X140.220 Y78.172 E0.00403
G1 F8640.000
G1 X140.073 Y78.295 E-0.04418
G1 E-1.35582 F2100.00000
G1 Z0.400 F10800.000
G1 X141.160 Y77.639
G1 Z0.200
G1 E1.40000 F2100.00000
G1 F1200.000
G1 X141.489 Y77.545 E0.00582
G1 X141.523 Y77.536 E0.00065
G1 X141.592 Y77.378 E0.00324
G1 F8640.000
G1 X141.523 Y77.536 E-0.03993
G1 X141.489 Y77.545 E-0.00796
G1 E-1.35211 F2100.00000
G1 Z0.400 F10800.000
G1 X142.675 Y77.929
G1 Z0.200
G1 E1.40000 F2100.00000
G1 F1200.000
G1 X142.071 Y77.325 E0.02700
G1 X142.088 Y77.287 E0.00133
G1 X142.065 Y77.277 E0.00079
G1 X142.447 Y77.165 E0.01261
G1 X150.210 Y84.927 E0.34701
G1 X150.748 Y84.927 E0.01700
G1 X142.911 Y77.090 E0.35034
G1 X143.426 Y77.068 E0.01630
G1 X151.286 Y84.927 E0.35135
G1 X151.823 Y84.928 E0.01700
G1 X143.964 Y77.068 E0.35136
G1 X144.501 Y77.068 E0.01699
G1 X152.361 Y84.928 E0.35137
G1 X152.457 Y84.928 E0.00304
G1 X152.457 Y84.486 E0.01395
G1 X145.039 Y77.068 E0.33164
G1 X145.576 Y77.068 E0.01699
G1 X152.457 Y83.949 E0.30761
G1 X152.457 Y83.411 E0.01699
G1 X146.114 Y77.068 E0.28357
G1 X146.652 Y77.068 E0.01699
G1 X152.457 Y82.874 E0.25954
G1 X152.457 Y82.336 E0.01699
G1 X147.189 Y77.068 E0.23550
G1 X147.727 Y77.068 E0.01699
G1 X152.457 Y81.798 E0.21147
G1 X152.457 Y81.261 E0.01699
G1 X148.265 Y77.068 E0.18744
G1 X148.802 Y77.068 E0.01699
G1 X152.457 Y80.723 E0.16340
G1 X152.457 Y80.185 E0.01699
G1 X149.340 Y77.068 E0.13937
G1 X149.877 Y77.068 E0.01699
G1 X152.457 Y79.648 E0.11533
G1 X152.457 Y79.110 E0.01699
G1 X150.415 Y77.068 E0.09130
G1 X150.953 Y77.068 E0.01699
G1 X152.457 Y78.573 E0.06727
G1 X152.457 Y78.035 E0.01699
G1 X151.490 Y77.068 E0.04323
G1 X152.028 Y77.068 E0.01699
G1 X152.627 Y77.667 E0.02678
; stop printing object LED Clip.stl id:0 copy 6
; printing object LED Clip.stl id:0 copy 7
G1 F8640.000
G1 X152.028 Y77.068 E-0.19564
G1 X151.490 Y77.068 E-0.12414
G1 X152.457 Y78.035 E-0.31579
G1 X152.457 Y78.573 E-0.12414
G1 X150.953 Y77.068 E-0.49135
G1 X150.611 Y77.068 E-0.07894
G1 E-0.07000 F2100.00000
G1 Z0.400 F10800.000
G1 X139.928 Y94.747
G1 Z0.200
G1 E1.40000 F2100.00000
G1 F1200.000
G1 X140.066 Y94.647 E0.00534
G1 X140.456 Y94.429 E0.01401
G1 X140.897 Y94.286 E0.01453
G1 X141.188 Y94.235 E0.00928
G1 X141.483 Y94.215 E0.00926
G1 X141.939 Y94.244 E0.01432
G1 X142.229 Y94.304 E0.00930
G1 X142.524 Y94.397 E0.00968
G1 X142.806 Y94.522 E0.00968
G1 X143.063 Y94.671 E0.00930
G1 X143.424 Y94.951 E0.01432
G1 X143.631 Y95.161 E0.00927
G1 X143.823 Y95.403 E0.00967
G1 X143.979 Y95.651 E0.00920
G1 X144.109 Y95.915 E0.00924
G1 X144.256 Y96.349 E0.01435
G1 X144.313 Y96.656 E0.00978
G1 X144.337 Y96.948 E0.00920
G1 X144.328 Y97.256 E0.00965
G1 X144.288 Y97.550 E0.00932
G1 X144.167 Y97.990 E0.01430
G1 X144.050 Y98.263 E0.00930
G1 X143.900 Y98.531 E0.00965
G1 X143.729 Y98.771 E0.00922
G1 X143.535 Y98.991 E0.00921
G1 X143.189 Y99.291 E0.01437
G1 X142.928 Y99.461 E0.00975
G1 X142.666 Y99.594 E0.00923
G1 X142.379 Y99.703 E0.00961
G1 X142.092 Y99.778 E0.00932
G1 X141.638 Y99.833 E0.01432
G1 X141.341 Y99.829 E0.00931
G1 X141.049 Y99.794 E0.00923
G1 X140.600 Y99.676 E0.01456
G1 X140.181 Y99.474 E0.01458
G1 X139.935 Y99.298 E0.00946
G1 X139.616 Y98.955 E0.01470
G1 X139.456 Y98.713 E0.00908
G1 X139.153 Y98.108 E0.02123
G1 X139.053 Y97.855 E0.00855
G1 X138.976 Y97.577 E0.00903
G1 X138.921 Y97.159 E0.01322
G1 X138.921 Y96.882 E0.00869
G1 X138.951 Y96.607 E0.00869
G1 X139.053 Y96.193 E0.01335
G1 X139.379 Y95.459 E0.02518
G1 X139.530 Y95.201 E0.00939
G1 X139.708 Y94.970 E0.00915
G1 X139.886 Y94.790 E0.00793
G1 X139.898 Y94.580 F10800.000
G1 X140.372 Y94.060
G1 F1200.000
G1 X140.641 Y93.791 E0.01192
G1 X140.998 Y93.508 E0.01428
G1 X141.385 Y93.268 E0.01427
G1 X141.801 Y93.072 E0.01445
G1 X142.082 Y92.971 E0.00934
G1 X142.369 Y92.892 E0.00934
G1 X142.823 Y92.813 E0.01445
G1 X143.296 Y92.786 E0.01486
G1 X152.740 Y92.786 E0.29612
G1 X152.740 Y101.212 E0.26418
G1 X143.126 Y101.209 E0.30145
G1 X142.824 Y101.185 E0.00951
G1 X142.369 Y101.106 E0.01447
G1 X142.087 Y101.028 E0.00917
G1 X141.657 Y100.864 E0.01445
G1 X141.248 Y100.652 E0.01445
G1 X140.761 Y100.309 E0.01867
G1 X140.450 Y100.022 E0.01326
G1 X140.978 Y100.165 E0.01715
G1 X141.316 Y100.206 E0.01067
G1 X141.659 Y100.210 E0.01074
G1 X142.162 Y100.149 E0.01591
G1 X142.494 Y100.063 E0.01075
G1 X142.818 Y99.940 E0.01087
G1 X143.117 Y99.788 E0.01049
G1 X143.416 Y99.593 E0.01120
G1 X143.801 Y99.259 E0.01598
G1 X144.025 Y99.005 E0.01062
G1 X144.219 Y98.733 E0.01047
G1 X144.389 Y98.429 E0.01092
G1 X144.523 Y98.115 E0.01073
G1 X144.658 Y97.626 E0.01589
G1 X144.704 Y97.286 E0.01075
G1 X144.714 Y96.938 E0.01092
G1 X144.688 Y96.605 E0.01047
G1 X144.621 Y96.254 E0.01123
G1 X144.459 Y95.771 E0.01596
G1 X144.309 Y95.467 E0.01065
G1 X144.131 Y95.185 E0.01045
G1 X143.914 Y94.911 E0.01094
G1 X143.675 Y94.668 E0.01070
G1 X143.274 Y94.357 E0.01591
G1 X142.978 Y94.186 E0.01073
G1 X142.658 Y94.044 E0.01097
G1 X142.324 Y93.938 E0.01097
G1 X141.989 Y93.870 E0.01073
G1 X141.483 Y93.837 E0.01591
G1 X141.143 Y93.860 E0.01068
G1 X140.806 Y93.919 E0.01074
G1 X140.429 Y94.041 E0.01241
G1 F8640.000
G1 X140.641 Y93.791 E-0.07571
G1 X140.998 Y93.508 E-0.10515
G1 X141.385 Y93.268 E-0.10509
G1 X141.801 Y93.072 E-0.10639
G1 X142.082 Y92.971 E-0.06879
G1 X142.369 Y92.892 E-0.06879
G1 X142.823 Y92.813 E-0.10638
G1 X143.296 Y92.786 E-0.10943
G1 X145.826 Y92.786 E-0.58428
G1 E-0.07000 F2100.00000
G1 Z0.400 F10800.000
G1 X153.117 Y101.589
G1 Z0.200
G1 E1.40000 F2100.00000
G1 F1200.000
G1 X143.111 Y101.586 E0.31373
G1 X142.777 Y101.560 E0.01053
G1 X142.287 Y101.474 E0.01559
G1 X141.970 Y101.387 E0.01030
G1 X141.502 Y101.209 E0.01569
G1 X141.058 Y100.978 E0.01569
G1 X140.781 Y100.799 E0.01036
G1 X140.518 Y100.598 E0.01036
G1 X140.149 Y100.257 E0.01575
G1 X139.814 Y99.875 E0.01594
G1 X139.395 Y99.329 E0.02157
G1 X139.112 Y98.895 E0.01624
G1 X138.958 Y98.588 E0.01076
G1 X138.858 Y98.287 E0.00995
G1 X138.767 Y97.768 E0.01654
G1 X138.741 Y97.422 E0.01086
G1 X138.737 Y96.752 E0.02100
G1 X138.751 Y96.403 E0.01095
G1 X138.821 Y95.881 E0.01654
G1 X138.854 Y95.726 E0.00497
G1 X138.971 Y95.413 E0.01046
G1 X139.216 Y94.961 E0.01612
G1 X139.714 Y94.256 E0.02705
G1 X140.035 Y93.863 E0.01593
G1 X140.390 Y93.509 E0.01571
G1 X140.781 Y93.199 E0.01563
G1 X141.204 Y92.937 E0.01563
G1 X141.657 Y92.723 E0.01569
G1 X141.968 Y92.611 E0.01036
G1 X142.287 Y92.524 E0.01036
G1 X142.780 Y92.438 E0.01569
