; generated by PrusaSlicer 2.2.0+win64 on 2020-12-11 at 15:12:13 UTC


;
;

;
;
; 

; external perimeters extrusion width = 0.45mm
; perimeters extrusion width = 0.45mm
; infill extrusion width = 0.45mm
; solid infill extrusion width = 0.45mm
; top infill extrusion width = 0.40mm
; first layer extrusion width = 0.42mm

M73 P0 R41
M201 X9000 Y9000 Z500 E10000 ; sets maximum accelerations, mm/sec^2
M203 X500 Y500 Z12 E120 ; sets maximum feedrates, mm/sec
M204 P2000 R1500 T2000 ; sets acceleration (P, T) and retract acceleration (R), mm/sec^2
M205 X10.00 Y10.00 Z0.20 E2.50 ; sets the jerk limits, mm/sec
M205 S0 T0 ; sets the minimum extruding and travel feed rate, mm/sec
M107
M83  ; extruder relative mode
M140 S85 ; set bed temp
M109 S160 ; Set extruder temp before bed level
M190 S85 ; wait for bed temp

G28 W ; home all without mesh bed level
G80 N7 ; mesh bed leveling

M109 S240 ; wait for extruder temp

M221 S100 ; Set flow to 100

G1 Y-3.0 F1000.0 ; go outside print area
G92 E0.0
G1 E8 ; Purge Bubble
M73 P0 R41
G1 X60.0 E9.0 F1000.0 ; intro line
G1 X100.0 E12.5 F1000.0 ; intro line
G92 E0.0
G21 ; set units to millimeters
G90 ; use absolute coordinates
M83 ; use relative distances for extrusion
M900 K0.08 ; Filament gcode LA 1.5
M900 K45 ; Filament gcode LA 1.0
;BEFORE_LAYER_CHANGE
M117 INDICATOR-Layer1
G92 E0.0
;0.2


G1 E-1.40000 F2100.00000
G1 Z0.200 F10800.000
;AFTER_LAYER_CHANGE
;0.2
G1 Z0.400
G1 X96.590 Y76.395
G1 Z0.200
G1 E1.40000 F2100.00000
M204 S1000
G1 F1200.000
G1 X97.376 Y75.423 E0.03919
G1 X98.266 Y74.532 E0.03948
G1 X99.156 Y73.806 E0.03600
G1 X100.409 Y72.992 E0.04686
G1 X101.441 Y72.471 E0.03625
G1 X102.646 Y72.012 E0.04042
G1 X139.994 Y63.497 E1.20109
G1 X141.202 Y63.305 E0.03833
G1 X142.416 Y63.242 E0.03812
G1 X143.611 Y63.304 E0.03752
G1 X144.711 Y63.475 E0.03490
G1 X146.150 Y63.869 E0.04678
G1 X147.120 Y64.246 E0.03265
G1 X148.196 Y64.796 E0.03790
G1 X149.196 Y65.447 E0.03739
G1 X150.129 Y66.202 E0.03765
G1 X150.981 Y67.053 E0.03775
G1 X151.680 Y67.910 E0.03467
G1 X152.464 Y69.118 E0.04515
G1 X152.959 Y70.097 E0.03440
G1 X153.390 Y71.222 E0.03776
G1 X153.700 Y72.379 E0.03755
G1 X153.883 Y73.522 E0.03630
G1 X155.697 Y105.078 E0.99105
G1 X153.910 Y136.390 E0.98336
G1 X153.719 Y137.613 E0.03883
G1 X153.408 Y138.777 E0.03776
G1 X152.974 Y139.909 E0.03800
G1 X152.431 Y140.975 E0.03752
G1 X151.698 Y142.089 E0.04181
G1 X151.005 Y142.940 E0.03442
G1 X150.234 Y143.716 E0.03430
G1 X149.212 Y144.555 E0.04146
G1 X148.098 Y145.267 E0.04145
G1 X147.122 Y145.761 E0.03430
G1 X146.102 Y146.156 E0.03430
G1 X144.823 Y146.507 E0.04157
G1 X143.516 Y146.705 E0.04145
G1 X142.423 Y146.758 E0.03430
G1 X141.289 Y146.701 E0.03561
G1 X140.005 Y146.501 E0.04074
G1 X103.767 Y138.343 E1.16467
G1 X102.610 Y138.031 E0.03755
G1 X101.541 Y137.625 E0.03589
G1 X100.316 Y137.012 E0.04293
G1 X99.242 Y136.314 E0.04018
G1 X98.192 Y135.452 E0.04257
G1 X97.302 Y134.544 E0.03986
G1 X96.590 Y133.659 E0.03561
G1 X95.966 Y132.704 E0.03577
G1 X95.339 Y131.495 E0.04269
G1 X94.885 Y130.314 E0.03971
G1 X94.555 Y129.083 E0.03994
G1 X94.353 Y127.774 E0.04151
G1 X94.294 Y126.594 E0.03707
G1 X94.295 Y83.391 E1.35460
G1 X94.375 Y82.087 E0.04096
G1 X94.557 Y80.961 E0.03575
G1 X94.848 Y79.862 E0.03565
G1 X95.327 Y78.586 E0.04273
G1 X95.900 Y77.458 E0.03967
G1 X96.558 Y76.445 E0.03787
@Object bearing-pin.stl_1 id:0 copy 0
G1 F8640.000
G1 X97.376 Y75.423 E-0.30237
G1 X98.266 Y74.532 E-0.29071
G1 X99.156 Y73.806 E-0.26511
G1 X100.409 Y72.992 E-0.34507
G1 X100.899 Y72.745 E-0.12674
G1 E-0.07000 F2100.00000
G1 Z0.400 F10800.000
G1 X134.417 Y74.784
G1 Z0.200
G1 E1.40000 F2100.00000
G1 F1200.000
G1 X134.460 Y73.948 E0.02624
G1 X134.591 Y73.122 E0.02624
G1 X134.808 Y72.313 E0.02624
G1 X135.108 Y71.532 E0.02624
G1 X135.488 Y70.787 E0.02624
G1 X135.943 Y70.085 E0.02624
G1 X136.470 Y69.435 E0.02624
G1 X137.062 Y68.843 E0.02624
G1 X137.712 Y68.316 E0.02624
G1 X138.414 Y67.861 E0.02624
G1 X139.159 Y67.481 E0.02624
G1 X139.940 Y67.181 E0.02624
G1 X140.749 Y66.964 E0.02624
G1 X141.575 Y66.833 E0.02624
G1 X142.411 Y66.790 E0.02623
G1 X143.246 Y66.833 E0.02624
G1 X144.073 Y66.964 E0.02624
G1 X144.881 Y67.181 E0.02624
G1 X145.662 Y67.481 E0.02624
G1 X146.408 Y67.861 E0.02624
G1 X147.110 Y68.316 E0.02624
G1 X147.760 Y68.843 E0.02624
G1 X148.352 Y69.435 E0.02624
G1 X148.878 Y70.085 E0.02624
G1 X149.334 Y70.787 E0.02624
G1 X149.714 Y71.532 E0.02624
G1 X150.014 Y72.313 E0.02624
G1 X150.230 Y73.122 E0.02624
G1 X150.361 Y73.948 E0.02624
G1 X150.405 Y74.784 E0.02624
G1 X150.361 Y75.619 E0.02624
G1 X150.230 Y76.446 E0.02624
G1 X150.014 Y77.254 E0.02624
G1 X149.714 Y78.035 E0.02624
G1 X149.334 Y78.781 E0.02624
G1 X148.878 Y79.483 E0.02624
G1 X148.352 Y80.133 E0.02624
G1 X147.760 Y80.725 E0.02624
G1 X147.110 Y81.251 E0.02624
G1 X146.408 Y81.707 E0.02624
G1 X145.662 Y82.087 E0.02624
G1 X144.881 Y82.387 E0.02624
G1 X144.073 Y82.603 E0.02624
G1 X143.246 Y82.734 E0.02624
G1 X142.411 Y82.778 E0.02623
G1 X141.575 Y82.734 E0.02623
G1 X140.749 Y82.603 E0.02624
G1 X139.940 Y82.387 E0.02624
G1 X139.159 Y82.087 E0.02624
G1 X138.414 Y81.707 E0.02624
G1 X137.712 Y81.251 E0.02624
G1 X137.062 Y80.725 E0.02624
G1 X136.470 Y80.133 E0.02624
G1 X135.943 Y79.483 E0.02624
G1 X135.488 Y78.781 E0.02624
G1 X135.108 Y78.035 E0.02624
G1 X134.808 Y77.254 E0.02624
G1 X134.591 Y76.446 E0.02624
G1 X134.460 Y75.619 E0.02624
G1 X134.420 Y74.844 E0.02435
G1 X134.043 Y74.863 F10800.000
G1 F1200.000
G1 X134.085 Y73.909 E0.02996
G1 X134.222 Y73.043 E0.02748
G1 X134.449 Y72.197 E0.02748
G1 X134.763 Y71.379 E0.02748
G1 X135.161 Y70.598 E0.02747
G1 X135.638 Y69.863 E0.02747
G1 X136.189 Y69.182 E0.02748
G1 X136.809 Y68.562 E0.02747
G1 X137.490 Y68.011 E0.02748
G1 X138.225 Y67.534 E0.02748
G1 X139.006 Y67.136 E0.02747
G1 X139.824 Y66.822 E0.02748
G1 X140.670 Y66.595 E0.02748
G1 X141.536 Y66.458 E0.02748
G1 X142.411 Y66.412 E0.02747
G1 X143.286 Y66.458 E0.02747
G1 X144.151 Y66.595 E0.02748
G1 X144.998 Y66.822 E0.02748
G1 X145.816 Y67.136 E0.02748
G1 X146.597 Y67.534 E0.02747
G1 X147.332 Y68.011 E0.02748
G1 X148.013 Y68.562 E0.02748
G1 X148.632 Y69.182 E0.02747
G1 X149.184 Y69.863 E0.02748
G1 X149.661 Y70.598 E0.02747
G1 X150.059 Y71.379 E0.02747
G1 X150.373 Y72.197 E0.02748
G1 X150.600 Y73.043 E0.02748
G1 X150.737 Y73.909 E0.02748
G1 X150.783 Y74.784 E0.02748
G1 X150.737 Y75.659 E0.02748
G1 X150.600 Y76.524 E0.02748
G1 X150.373 Y77.371 E0.02748
G1 X150.059 Y78.189 E0.02748
G1 X149.661 Y78.970 E0.02747
G1 X149.184 Y79.705 E0.02747
G1 X148.632 Y80.386 E0.02748
G1 X148.013 Y81.005 E0.02747
G1 X147.332 Y81.557 E0.02748
G1 X146.597 Y82.034 E0.02748
G1 X145.816 Y82.432 E0.02747
G1 X144.998 Y82.746 E0.02748
G1 X144.151 Y82.973 E0.02748
G1 X143.286 Y83.110 E0.02748
G1 X142.411 Y83.156 E0.02747
G1 X141.536 Y83.110 E0.02747
G1 X140.670 Y82.973 E0.02748
G1 X139.824 Y82.746 E0.02748
G1 X139.006 Y82.432 E0.02748
G1 X138.225 Y82.034 E0.02747
G1 X137.490 Y81.557 E0.02748
G1 X136.809 Y81.005 E0.02748
G1 X136.189 Y80.386 E0.02747
G1 X135.638 Y79.705 E0.02748
G1 X135.161 Y78.970 E0.02747
G1 X134.763 Y78.189 E0.02747
G1 X134.449 Y77.371 E0.02748
G1 X134.222 Y76.524 E0.02748
G1 X134.085 Y75.659 E0.02748
G1 X134.046 Y74.923 E0.02309
G1 X134.388 Y74.661 F10800.000
G1 F8640.000
G1 X134.085 Y73.909 E-0.23445
G1 X134.222 Y73.043 E-0.20234
G1 X134.449 Y72.197 E-0.20234
G1 X134.763 Y71.379 E-0.20234
G1 X135.161 Y70.598 E-0.20233
G1 X135.638 Y69.863 E-0.20233
G1 X135.866 Y69.581 E-0.08386
G1 E-0.07000 F2100.00000
G1 Z0.400 F10800.000
G1 X149.015 Y70.504
G1 Z0.200
G1 E1.40000 F2100.00000
G1 F1200.000
G1 X147.541 Y69.030 E0.06671
G1 X146.943 Y68.545 E0.02462
G1 X146.266 Y68.106 E0.02583
G1 X145.872 Y67.905 E0.01414
G1 X149.289 Y71.322 E0.15462
G1 X149.455 Y71.647 E0.01169
G1 X149.695 Y72.272 E0.02140
G1 X144.923 Y67.500 E0.21594
G1 X144.159 Y67.280 E0.02543
G1 X149.914 Y73.036 E0.26045
G1 X150.036 Y73.701 E0.02165
G1 X143.493 Y67.159 E0.29606
G1 X143.217 Y67.115 E0.00896
G1 X142.888 Y67.098 E0.01053
G1 X150.097 Y74.306 E0.32621
G1 X150.117 Y74.871 E0.01808
G1 X142.323 Y67.077 E0.35269
G1 X141.806 Y67.104 E0.01657
G1 X150.090 Y75.388 E0.37486
G1 X150.034 Y75.876 E0.01573
G1 X141.318 Y67.160 E0.39442
G1 X140.848 Y67.235 E0.01522
G1 X149.960 Y76.346 E0.41232
G1 X149.848 Y76.779 E0.01430
G1 X140.416 Y67.346 E0.42685
G1 X139.990 Y67.465 E0.01414
G1 X149.730 Y77.205 E0.44076
G1 X149.579 Y77.598 E0.01348
G1 X139.597 Y67.616 E0.45172
G1 X139.209 Y67.773 E0.01337
G1 X149.422 Y77.985 E0.46215
G1 X149.238 Y78.346 E0.01295
G1 X138.849 Y67.956 E0.47015
G1 X138.555 Y68.106 E0.01054
G1 X138.494 Y68.146 E0.00234
G1 X149.049 Y78.701 E0.47764
G1 X148.835 Y79.031 E0.01259
G1 X138.164 Y68.360 E0.48288
G1 X137.838 Y68.578 E0.01255
G1 X148.616 Y79.357 E0.48775
G1 X148.373 Y79.657 E0.01238
G1 X137.537 Y68.822 E0.49034
G1 X137.238 Y69.067 E0.01238
G1 X148.128 Y79.957 E0.49280
G1 X147.856 Y80.229 E0.01231
G1 X136.966 Y69.339 E0.49280
G1 X136.694 Y69.611 E0.01231
G1 X147.584 Y80.501 E0.49280
G1 X147.284 Y80.746 E0.01238
G1 X136.449 Y69.910 E0.49034
G1 X136.205 Y70.211 E0.01238
G1 X146.984 Y80.989 E0.48775
G1 X146.658 Y81.208 E0.01255
G1 X135.987 Y70.537 E0.48288
G1 X135.773 Y70.867 E0.01259
G1 X146.328 Y81.422 E0.47764
G1 X145.973 Y81.611 E0.01287
G1 X135.583 Y71.222 E0.47015
G1 X135.400 Y71.582 E0.01295
G1 X145.612 Y81.795 E0.46215
G1 X145.225 Y81.952 E0.01337
G1 X135.243 Y71.970 E0.45172
G1 X135.092 Y72.363 E0.01348
G1 X144.832 Y82.103 E0.44076
G1 X144.406 Y82.221 E0.01414
G1 X134.973 Y72.789 E0.42685
G1 X134.862 Y73.221 E0.01430
G1 X143.973 Y82.333 E0.41231
G1 X143.503 Y82.407 E0.01522
G1 X134.787 Y73.691 E0.39442
G1 X134.731 Y74.179 E0.01573
G1 X143.015 Y82.463 E0.37486
G1 X142.498 Y82.490 E0.01657
G1 X134.704 Y74.697 E0.35268
G1 X134.725 Y75.261 E0.01808
G1 X141.933 Y82.470 E0.32620
G1 X141.605 Y82.453 E0.01052
G1 X141.328 Y82.409 E0.00897
G1 X134.786 Y75.867 E0.29605
G1 X134.907 Y76.532 E0.02165
G1 X140.662 Y82.287 E0.26044
G1 X139.898 Y82.068 E0.02544
G1 X135.127 Y77.296 E0.21593
G1 X135.366 Y77.920 E0.02139
G1 X135.532 Y78.246 E0.01170
G1 X138.949 Y81.662 E0.15460
G1 X138.555 Y81.462 E0.01413
G1 X137.878 Y81.022 E0.02583
G1 X137.280 Y80.537 E0.02465
G1 X135.806 Y79.064 E0.06667
@Objectstop bearing-pin.stl_1 id:0 copy 0
@Object 3x1 with nuts.stl id:2 copy 0
G1 F8640.000
G1 X137.280 Y80.537 E-0.48109
G1 X137.878 Y81.022 E-0.17790
G1 X138.555 Y81.462 E-0.18637
G1 X138.949 Y81.662 E-0.10197
G1 X137.777 Y80.490 E-0.38266
G1 E-0.07000 F2100.00000
G1 Z0.400 F10800.000
G1 X125.729 Y95.450
G1 Z0.200
G1 E1.40000 F2100.00000
G1 F1200.000
G1 X126.692 Y96.230 E0.03885
G1 X127.568 Y97.106 E0.03885
G1 X128.348 Y98.069 E0.03885
G1 X129.023 Y99.108 E0.03885
G1 X129.586 Y100.212 E0.03885
G1 X130.030 Y101.369 E0.03885
G1 X130.350 Y102.566 E0.03885
G1 X130.544 Y103.790 E0.03885
G1 X130.609 Y105.027 E0.03885
G1 X130.544 Y106.264 E0.03885
G1 X130.350 Y107.488 E0.03885
G1 X130.030 Y108.685 E0.03885
G1 X129.586 Y109.842 E0.03885
G1 X129.023 Y110.946 E0.03885
G1 X128.348 Y111.985 E0.03885
G1 X127.568 Y112.948 E0.03885
G1 X126.692 Y113.825 E0.03885
G1 X125.729 Y114.604 E0.03885
G1 X124.690 Y115.279 E0.03885
G1 X123.586 Y115.842 E0.03885
G1 X122.429 Y116.286 E0.03885
G1 X121.232 Y116.606 E0.03885
G1 X120.008 Y116.800 E0.03885
G1 X118.771 Y116.865 E0.03885
G1 X117.534 Y116.800 E0.03885
G1 X116.310 Y116.606 E0.03885
G1 X115.113 Y116.286 E0.03885
G1 X113.956 Y115.842 E0.03885
G1 X112.852 Y115.279 E0.03885
G1 X111.813 Y114.604 E0.03885
G1 X110.850 Y113.825 E0.03885
G1 X109.974 Y112.948 E0.03885
G1 X109.194 Y111.985 E0.03885
G1 X108.519 Y110.946 E0.03885
G1 X107.956 Y109.842 E0.03885
G1 X107.512 Y108.685 E0.03885
G1 X107.192 Y107.488 E0.03885
G1 X106.998 Y106.264 E0.03885
G1 X106.933 Y105.027 E0.03885
G1 X106.998 Y103.790 E0.03885
G1 X107.192 Y102.565 E0.03887
G1 X107.522 Y101.343 E0.03969
G1 X107.956 Y100.212 E0.03798
G1 X108.519 Y99.108 E0.03885
G1 X109.194 Y98.069 E0.03885
G1 X109.974 Y97.106 E0.03885
G1 X110.850 Y96.230 E0.03885
G1 X111.813 Y95.450 E0.03885
G1 X112.852 Y94.775 E0.03885
G1 X113.956 Y94.212 E0.03885
G1 X115.113 Y93.768 E0.03885
G1 X116.310 Y93.448 E0.03885
G1 X117.534 Y93.254 E0.03885
G1 X118.743 Y93.190 E0.03798
G1 X120.008 Y93.254 E0.03969
G1 X121.232 Y93.448 E0.03887
G1 X122.429 Y93.768 E0.03885
G1 X123.586 Y94.212 E0.03885
G1 X124.690 Y94.775 E0.03885
G1 X125.679 Y95.417 E0.03697
G1 X125.474 Y95.733 F10800.000
G1 F1200.000
G1 X126.440 Y96.510 E0.03887
G1 X127.288 Y97.358 E0.03761
G1 X128.043 Y98.291 E0.03761
G1 X128.696 Y99.297 E0.03761
G1 X129.241 Y100.366 E0.03761
G1 X129.671 Y101.486 E0.03761
G1 X129.981 Y102.644 E0.03761
G1 X130.169 Y103.829 E0.03761
G1 X130.232 Y105.027 E0.03761
G1 X130.169 Y106.225 E0.03761
G1 X129.981 Y107.410 E0.03761
G1 X129.671 Y108.569 E0.03761
G1 X129.241 Y109.688 E0.03761
G1 X128.696 Y110.757 E0.03761
G1 X128.043 Y111.763 E0.03761
G1 X127.288 Y112.696 E0.03761
G1 X126.440 Y113.544 E0.03761
G1 X125.507 Y114.299 E0.03761
G1 X124.501 Y114.952 E0.03761
G1 X123.432 Y115.497 E0.03761
G1 X122.312 Y115.927 E0.03761
G1 X121.154 Y116.237 E0.03761
G1 X119.969 Y116.425 E0.03761
G1 X118.771 Y116.488 E0.03761
G1 X117.573 Y116.425 E0.03761
G1 X116.388 Y116.237 E0.03761
G1 X115.229 Y115.927 E0.03761
G1 X114.110 Y115.497 E0.03761
G1 X113.041 Y114.952 E0.03761
G1 X112.035 Y114.299 E0.03761
G1 X111.102 Y113.544 E0.03761
G1 X110.254 Y112.696 E0.03761
G1 X109.499 Y111.763 E0.03761
G1 X108.846 Y110.757 E0.03761
G1 X108.301 Y109.688 E0.03761
G1 X107.871 Y108.569 E0.03761
G1 X107.561 Y107.410 E0.03761
G1 X107.373 Y106.225 E0.03761
G1 X107.310 Y105.027 E0.03761
G1 X107.373 Y103.829 E0.03761
G1 X107.561 Y102.644 E0.03762
G1 X107.881 Y101.460 E0.03845
G1 X108.301 Y100.366 E0.03676
G1 X108.846 Y99.297 E0.03761
G1 X109.499 Y98.291 E0.03761
G1 X110.254 Y97.358 E0.03761
G1 X111.102 Y96.510 E0.03761
G1 X112.035 Y95.755 E0.03761
G1 X113.041 Y95.102 E0.03761
G1 X114.110 Y94.557 E0.03761
G1 X115.229 Y94.127 E0.03761
G1 X116.388 Y93.817 E0.03761
G1 X117.573 Y93.629 E0.03761
G1 X118.744 Y93.568 E0.03676
G1 X119.969 Y93.629 E0.03846
G1 X121.154 Y93.817 E0.03762
G1 X122.312 Y94.127 E0.03761
G1 X123.432 Y94.557 E0.03761
G1 X124.501 Y95.102 E0.03761
G1 X125.423 Y95.701 E0.03447
G1 X125.839 Y95.570 F10800.000
G1 F8640.000
G1 X126.440 Y96.510 E-0.30002
G1 X127.288 Y97.358 E-0.27699
G1 X128.043 Y98.291 E-0.27699
G1 X128.696 Y99.297 E-0.27699
G1 X129.087 Y100.065 E-0.19901
G1 E-0.07000 F2100.00000
G1 Z0.400 F10800.000
G1 X124.935 Y94.351
G1 Z0.200
G1 E1.40000 F2100.00000
G1 F1200.000
G1 X143.663 Y96.795 E0.59220
M73 P2 R40
G1 X136.538 Y100.909 E0.25798
G1 X136.538 Y109.145 E0.25826
G1 X143.663 Y113.259 E0.25798
G1 X124.935 Y115.703 E0.59220
G1 X113.454 Y130.701 E0.59220
G1 X113.454 Y122.473 E0.25798
G1 X106.321 Y118.354 E0.25826
G1 X99.195 Y122.468 E0.25798
G1 X106.444 Y105.027 E0.59221
G1 X99.195 Y87.586 E0.59221
G1 X106.321 Y91.700 E0.25798
G1 X113.454 Y87.581 E0.25826
G1 X113.454 Y79.354 E0.25798
G1 X124.898 Y94.304 E0.59032
G1 F8640.000
G1 X130.608 Y95.062 E-1.33000
G1 E-0.07000 F2100.00000
G1 Z0.400 F10800.000
G1 X136.915 Y101.126
G1 Z0.200
G1 E1.40000 F2100.00000
G1 F1200.000
G1 X143.671 Y97.226 E0.24460
G1 X150.427 Y101.126 E0.24460
G1 X150.427 Y108.928 E0.24461
G1 X143.671 Y112.828 E0.24460
G1 X136.915 Y108.928 E0.24460
G1 X136.915 Y101.186 E0.24272
G1 X136.715 Y100.780 F10800.000
G1 F8640.000
G1 X141.884 Y98.273 E-1.33000
G1 E-0.07000 F2100.00000
G1 Z0.400 F10800.000
G1 X143.683 Y96.797
G1 Z0.200
G1 E1.40000 F2100.00000
G1 F1200.000
G1 X145.368 Y97.042 E0.05339
G1 X146.194 Y97.263 E0.02679
G1 X146.992 Y97.569 E0.02679
G1 X147.753 Y97.957 E0.02679
G1 X148.446 Y98.407 E0.02589
G1 X149.134 Y98.961 E0.02772
G1 X149.738 Y99.564 E0.02676
G1 X150.242 Y100.187 E0.02513
G1 X150.663 Y100.827 E0.02403
G1 X143.735 Y96.827 E0.25084
G1 F8640.000
G1 X145.368 Y97.042 E-0.38034
G1 X146.194 Y97.263 E-0.19730
G1 X146.992 Y97.569 E-0.19732
G1 X147.753 Y97.957 E-0.19731
G1 X148.446 Y98.407 E-0.19069
G1 X149.009 Y98.860 E-0.16704
G1 E-0.07000 F2100.00000
G1 Z0.400 F10800.000
G1 X150.804 Y101.069
G1 Z0.200
G1 E1.40000 F2100.00000
G1 F1200.000
G1 X151.129 Y101.707 E0.02244
