; generated by PrusaSlicer 2.2.0 on 2020-08-25 at 18:47:10 UTC


;
;

;
;
; 

; external perimeters extrusion width = 0.45mm
; perimeters extrusion width = 0.45mm
; infill extrusion width = 0.45mm
; solid infill extrusion width = 0.45mm
; top infill extrusion width = 0.40mm
; first layer extrusion width = 0.42mm

M73 P0 R51
M201 X9000 Y9000 Z500 E10000 ; sets maximum accelerations, mm/sec^2
M203 X500 Y500 Z12 E120 ; sets maximum feedrates, mm/sec
M204 P2000 R1500 T2000 ; sets acceleration (P, T) and retract acceleration (R), mm/sec^2
M205 X10.00 Y10.00 Z0.20 E2.50 ; sets the jerk limits, mm/sec
M205 S0 T0 ; sets the minimum extruding and travel feed rate, mm/sec
M107
M83  ; extruder relative mode
M140 S75 ; set bed temp
M109 S160 ; Set extruder temp before bed level
M190 S75 ; wait for bed temp

G28 W ; home all without mesh bed level
G80 N7 ; mesh bed leveling

M109 S240 ; wait for extruder temp

M221 S100 ; Set flow to 100

G1 Y-3.0 F1000.0 ; go outside print area
G92 E0.0
G1 E8 ; Purge Bubble
M73 P0 R51
G1 X60.0 E9.0 F1000.0 ; intro line
G1 X100.0 E12.5 F1000.0 ; intro line
G92 E0.0
G21 ; set units to millimeters
G90 ; use absolute coordinates
M83 ; use relative distances for extrusion
M900 K45; Filament gcode
;BEFORE_LAYER_CHANGE
G92 E0.0
;0.2


G1 E-0.80000 F2100.00000
G1 Z0.600 F10800.000
;AFTER_LAYER_CHANGE
;0.2
G1 X88.726 Y65.119
G1 Z0.200
G1 E0.80000 F2100.00000
M204 S1000
G1 F1200.000
G1 X89.133 Y64.492 E0.02156
G1 X90.520 Y63.130 E0.05608
G1 X91.173 Y62.767 E0.02156
G1 X91.903 Y62.624 E0.02145
G1 X157.742 Y62.623 E1.89918
G1 X158.326 Y62.697 E0.01699
G1 X158.874 Y62.912 E0.01699
G1 X159.988 Y63.643 E0.03842
G1 X160.441 Y64.092 E0.01840
G1 X161.387 Y65.974 E0.06079
G1 X161.479 Y66.655 E0.01982
G1 X161.371 Y67.338 E0.01993
G1 X132.082 Y144.610 E2.38373
G1 X131.799 Y145.087 E0.01601
G1 X130.486 Y146.695 E0.05989
G1 X129.949 Y147.092 E0.01927
G1 X129.322 Y147.324 E0.01927
G1 X128.834 Y147.377 E0.01415
G1 X121.142 Y147.377 E0.22189
G1 X120.215 Y147.172 E0.02739
G1 X119.614 Y146.788 E0.02058
G1 X118.388 Y145.574 E0.04976
G1 X117.870 Y144.764 E0.02771
G1 X88.665 Y68.527 E2.35499
G1 X88.525 Y67.850 E0.01993
G1 X88.521 Y66.042 E0.05216
G1 X88.713 Y65.177 E0.02555
@Object Bill cipher.stl id:0 copy 0
G1 F8640.000
G1 X89.133 Y64.492 E-0.18558
G1 X90.520 Y63.130 E-0.44888
G1 X90.995 Y62.866 E-0.12554
G1 E-0.04000 F2100.00000
G1 Z0.800 F10800.000
G1 X132.835 Y110.804
G1 Z0.200
G1 E0.80000 F2100.00000
G1 F1200.000
G1 X133.482 Y112.083 E0.04133
G1 X135.264 Y112.379 E0.05211
G1 X135.656 Y112.769 E0.01595
G1 X135.417 Y118.014 E0.15147
G1 X134.814 Y118.464 E0.02169
G1 X129.123 Y118.761 E0.16440
G1 X129.123 Y143.367 E0.70978
G1 X128.443 Y144.213 E0.03131
G1 X121.505 Y144.213 E0.20012
G1 X120.877 Y143.587 E0.02558
G1 X120.877 Y118.761 E0.71614
G1 X115.142 Y118.462 E0.16565
G1 X114.308 Y117.963 E0.02805
G1 X114.067 Y112.950 E0.14477
G1 X114.317 Y112.576 E0.01299
G1 X117.440 Y111.541 E0.09489
G1 X91.685 Y67.499 E1.47173
G1 X91.685 Y66.411 E0.03137
G1 X92.313 Y65.787 E0.02553
G1 X157.501 Y65.787 E1.88043
G1 X157.948 Y66.083 E0.01546
G1 X158.239 Y66.663 E0.01874
G1 X157.305 Y68.986 E0.07220
G1 X150.745 Y79.853 E0.36618
G1 X149.957 Y82.201 E0.07144
G1 X148.653 Y83.497 E0.05304
G1 X132.865 Y110.753 E0.90858
G1 X133.264 Y110.817 F10800.000
G1 F1200.000
G1 X133.732 Y111.742 E0.02992
G1 X135.444 Y112.027 E0.05006
G1 X136.040 Y112.619 E0.02424
G1 X135.785 Y118.210 E0.16144
G1 X134.948 Y118.835 E0.03014
G1 X129.500 Y119.119 E0.15738
G1 X129.500 Y143.500 E0.70329
G1 X128.624 Y144.590 E0.04035
G1 X121.349 Y144.590 E0.20983
G1 X120.500 Y143.744 E0.03459
G1 X120.500 Y119.119 E0.71033
G1 X115.029 Y118.834 E0.15803
G1 X113.941 Y118.183 E0.03658
G1 X113.684 Y112.844 E0.15419
G1 X114.076 Y112.259 E0.02031
G1 X116.879 Y111.330 E0.08519
G1 X91.308 Y67.601 E1.46125
G1 X91.308 Y66.254 E0.03884
G1 X92.157 Y65.410 E0.03455
G1 X157.615 Y65.410 E1.88819
G1 X158.240 Y65.824 E0.02163
G1 X158.653 Y66.646 E0.02655
G1 X157.644 Y69.154 E0.07798
G1 X151.090 Y80.013 E0.36586
G1 X150.286 Y82.406 E0.07281
G1 X148.954 Y83.730 E0.05417
G1 X133.294 Y110.765 E0.90125
G1 X132.947 Y111.061 F10800.000
G1 F8640.000
G1 X133.732 Y111.742 E-0.24736
G1 X135.444 Y112.027 E-0.40074
G1 X135.788 Y112.368 E-0.11190
G1 E-0.04000 F2100.00000
G1 Z0.800 F10800.000
G1 X135.510 Y113.486
G1 Z0.200
G1 E0.80000 F2100.00000
G1 F1200.000
G1 X134.575 Y112.552 E0.03820
G1 X133.935 Y112.445 E0.01876
G1 X135.324 Y113.835 E0.05678
G1 X135.301 Y114.346 E0.01477
G1 X97.024 Y76.069 E1.56400
G1 X96.272 Y74.783 E0.04305
G1 X132.748 Y111.258 E1.49041
G1 X132.514 Y110.795 E0.01499
G1 X132.626 Y110.602 E0.00645
G1 X95.520 Y73.496 E1.51616
G1 X94.768 Y72.210 E0.04305
G1 X132.822 Y110.264 E1.55490
G1 X133.017 Y109.926 E0.01129
G1 X94.015 Y70.924 E1.59364
M73 P1 R50
G1 X93.263 Y69.637 E0.04305
G1 X133.213 Y109.587 E1.63238
G1 X133.409 Y109.249 E0.01129
G1 X92.511 Y68.351 E1.67112
G1 X91.968 Y67.422 E0.03108
G1 X91.968 Y67.274 E0.00429
G1 X133.605 Y108.911 E1.70132
G1 X133.801 Y108.573 E0.01129
G1 X91.968 Y66.740 E1.70932
G1 X91.968 Y66.529 E0.00609
G1 X92.130 Y66.368 E0.00661
G1 X133.997 Y108.235 E1.71070
G1 X134.193 Y107.896 E0.01129
G1 X92.398 Y66.101 E1.70776
G1 X92.429 Y66.070 E0.00129
G1 X92.901 Y66.070 E0.01361
G1 X134.389 Y107.558 E1.69522
G1 X134.585 Y107.220 E0.01129
G1 X93.435 Y66.070 E1.68140
G1 X93.969 Y66.070 E0.01543
G1 X134.781 Y106.882 E1.66758
G1 X134.977 Y106.543 E0.01129
G1 X94.503 Y66.070 E1.65377
G1 X95.037 Y66.070 E0.01543
G1 X135.173 Y106.205 E1.63995
G1 X135.368 Y105.867 E0.01129
G1 X95.571 Y66.070 E1.62613
G1 X96.105 Y66.070 E0.01543
G1 X135.564 Y105.529 E1.61231
G1 X135.760 Y105.191 E0.01129
G1 X96.640 Y66.070 E1.59849
G1 X97.174 Y66.070 E0.01543
G1 X135.956 Y104.852 E1.58467
G1 X136.152 Y104.514 E0.01129
G1 X97.708 Y66.070 E1.57085
G1 X98.242 Y66.070 E0.01543
G1 X136.348 Y104.176 E1.55703
G1 X136.544 Y103.838 E0.01129
G1 X98.776 Y66.070 E1.54321
G1 X99.310 Y66.070 E0.01543
G1 X136.740 Y103.499 E1.52939
G1 X136.936 Y103.161 E0.01129
G1 X99.844 Y66.070 E1.51557
G1 X100.379 Y66.070 E0.01543
G1 X137.132 Y102.823 E1.50175
G1 X137.328 Y102.485 E0.01129
G1 X100.913 Y66.070 E1.48793
M73 P4 R49
G1 X101.447 Y66.070 E0.01543
G1 X137.524 Y102.147 E1.47411
G1 X137.719 Y101.808 E0.01129
G1 X101.981 Y66.070 E1.46029
G1 X102.515 Y66.070 E0.01543
G1 X137.915 Y101.470 E1.44647
G1 X138.111 Y101.132 E0.01129
G1 X103.049 Y66.070 E1.43265
G1 X103.583 Y66.070 E0.01543
G1 X138.307 Y100.794 E1.41883
G1 X138.503 Y100.456 E0.01129
G1 X104.117 Y66.070 E1.40501
G1 X104.652 Y66.070 E0.01543
G1 X138.699 Y100.117 E1.39119
G1 X138.895 Y99.779 E0.01129
G1 X105.186 Y66.070 E1.37737
G1 X105.720 Y66.070 E0.01543
G1 X139.091 Y99.441 E1.36355
G1 X139.287 Y99.103 E0.01129
G1 X106.254 Y66.070 E1.34973
G1 X106.788 Y66.070 E0.01543
G1 X139.483 Y98.764 E1.33591
G1 X139.679 Y98.426 E0.01129
G1 X107.322 Y66.070 E1.32209
G1 X107.856 Y66.070 E0.01543
G1 X139.875 Y98.088 E1.30827
G1 X140.070 Y97.750 E0.01129
G1 X108.391 Y66.070 E1.29445
G1 X108.925 Y66.070 E0.01543
G1 X140.266 Y97.412 E1.28063
G1 X140.462 Y97.073 E0.01129
G1 X109.459 Y66.070 E1.26681
G1 X109.993 Y66.070 E0.01543
G1 X140.658 Y96.735 E1.25299
G1 X140.854 Y96.397 E0.01129
G1 X110.527 Y66.070 E1.23917
G1 X111.061 Y66.070 E0.01543
G1 X141.050 Y96.059 E1.22535
G1 X141.246 Y95.720 E0.01129
G1 X111.595 Y66.070 E1.21153
G1 X112.129 Y66.070 E0.01543
G1 X141.442 Y95.382 E1.19771
G1 X141.638 Y95.044 E0.01129
G1 X112.664 Y66.070 E1.18390
G1 X113.198 Y66.070 E0.01543
G1 X141.834 Y94.706 E1.17008
G1 X142.030 Y94.368 E0.01129
G1 X113.732 Y66.070 E1.15626
G1 X114.266 Y66.070 E0.01543
G1 X142.226 Y94.029 E1.14244
G1 X142.421 Y93.691 E0.01129
G1 X114.800 Y66.070 E1.12862
G1 X115.334 Y66.070 E0.01543
G1 X142.617 Y93.353 E1.11480
M73 P6 R48
G1 X142.813 Y93.015 E0.01129
G1 X115.868 Y66.070 E1.10098
G1 X116.403 Y66.070 E0.01543
G1 X143.009 Y92.677 E1.08716
G1 X143.205 Y92.338 E0.01129
G1 X116.937 Y66.070 E1.07334
G1 X117.471 Y66.070 E0.01543
G1 X143.401 Y92.000 E1.05952
G1 X143.597 Y91.662 E0.01129
G1 X118.005 Y66.070 E1.04570
G1 X118.539 Y66.070 E0.01543
G1 X143.793 Y91.324 E1.03188
G1 X143.989 Y90.985 E0.01129
G1 X119.073 Y66.070 E1.01806
G1 X119.607 Y66.070 E0.01543
G1 X144.185 Y90.647 E1.00424
G1 X144.381 Y90.309 E0.01129
G1 X120.142 Y66.070 E0.99042
G1 X120.676 Y66.070 E0.01543
G1 X144.577 Y89.971 E0.97660
G1 X144.772 Y89.633 E0.01129
G1 X121.210 Y66.070 E0.96278
G1 X121.744 Y66.070 E0.01543
G1 X144.968 Y89.294 E0.94896
G1 X145.164 Y88.956 E0.01129
G1 X122.278 Y66.070 E0.93514
G1 X122.812 Y66.070 E0.01543
G1 X145.360 Y88.618 E0.92132
G1 X145.556 Y88.280 E0.01129
G1 X123.346 Y66.070 E0.90750
G1 X123.880 Y66.070 E0.01543
G1 X145.752 Y87.941 E0.89368
G1 X145.948 Y87.603 E0.01129
G1 X124.415 Y66.070 E0.87986
G1 X124.949 Y66.070 E0.01543
G1 X146.144 Y87.265 E0.86604
G1 X146.340 Y86.927 E0.01129
G1 X125.483 Y66.070 E0.85222
G1 X126.017 Y66.070 E0.01543
G1 X146.536 Y86.589 E0.83840
G1 X146.732 Y86.250 E0.01129
G1 X126.551 Y66.070 E0.82458
G1 X127.085 Y66.070 E0.01543
G1 X146.928 Y85.912 E0.81076
G1 X147.123 Y85.574 E0.01129
G1 X127.619 Y66.070 E0.79694
G1 X128.154 Y66.070 E0.01543
G1 X147.319 Y85.236 E0.78312
G1 X147.515 Y84.898 E0.01129
G1 X128.688 Y66.070 E0.76930
G1 X129.222 Y66.070 E0.01543
G1 X147.711 Y84.559 E0.75548
G1 X147.907 Y84.221 E0.01129
G1 X129.756 Y66.070 E0.74166
G1 X130.290 Y66.070 E0.01543
G1 X148.103 Y83.883 E0.72784
G1 X148.299 Y83.545 E0.01129
G1 X130.824 Y66.070 E0.71402
G1 X131.358 Y66.070 E0.01543
G1 X148.520 Y83.231 E0.70122
G1 X148.788 Y82.965 E0.01091
G1 X131.892 Y66.070 E0.69034
G1 X132.427 Y66.070 E0.01543
G1 X149.055 Y82.699 E0.67946
G1 X149.323 Y82.432 E0.01091
G1 X132.961 Y66.070 E0.66858
G1 X133.495 Y66.070 E0.01543
G1 X149.591 Y82.166 E0.65770
G1 X149.710 Y82.048 E0.00486
G1 X149.785 Y81.826 E0.00676
G1 X134.029 Y66.070 E0.64379
G1 X134.563 Y66.070 E0.01543
G1 X149.919 Y81.426 E0.62745
G1 X150.053 Y81.026 E0.01219
G1 X135.097 Y66.070 E0.61111
G1 X135.631 Y66.070 E0.01543
G1 X150.188 Y80.626 E0.59477
G1 X150.322 Y80.226 E0.01219
G1 X136.166 Y66.070 E0.57843
G1 X136.700 Y66.070 E0.01543
G1 X150.456 Y79.826 E0.56210
G1 X150.487 Y79.734 E0.00282
G1 X150.642 Y79.478 E0.00864
G1 X137.234 Y66.070 E0.54785
G1 X137.768 Y66.070 E0.01543
G1 X150.843 Y79.145 E0.53425
M73 P7 R47
G1 X151.044 Y78.812 E0.01124
G1 X138.302 Y66.070 E0.52064
G1 X138.836 Y66.070 E0.01543
G1 X151.245 Y78.479 E0.50703
G1 X151.446 Y78.146 E0.01124
G1 X139.370 Y66.070 E0.49342
G1 X139.904 Y66.070 E0.01543
G1 X151.647 Y77.812 E0.47981
G1 X151.848 Y77.479 E0.01124
G1 X140.439 Y66.070 E0.46620
G1 X140.973 Y66.070 E0.01543
G1 X152.049 Y77.146 E0.45259
G1 X152.250 Y76.813 E0.01124
G1 X141.507 Y66.070 E0.43898
G1 X142.041 Y66.070 E0.01543
G1 X152.451 Y76.480 E0.42537
G1 X152.652 Y76.147 E0.01124
G1 X142.575 Y66.070 E0.41176
G1 X143.109 Y66.070 E0.01543
G1 X152.853 Y75.814 E0.39815
G1 X153.054 Y75.481 E0.01124
G1 X143.643 Y66.070 E0.38454
G1 X144.178 Y66.070 E0.01543
G1 X153.255 Y75.148 E0.37093
G1 X153.457 Y74.815 E0.01124
G1 X144.712 Y66.070 E0.35732
G1 X145.246 Y66.070 E0.01543
G1 X153.658 Y74.482 E0.34371
G1 X153.859 Y74.149 E0.01124
G1 X145.780 Y66.070 E0.33010
G1 X146.314 Y66.070 E0.01543
G1 X154.060 Y73.815 E0.31649
G1 X154.261 Y73.482 E0.01124
G1 X146.848 Y66.070 E0.30288
G1 X147.382 Y66.070 E0.01543
G1 X154.462 Y73.149 E0.28927
G1 X154.663 Y72.816 E0.01124
G1 X147.916 Y66.070 E0.27566
G1 X148.451 Y66.070 E0.01543
G1 X154.864 Y72.483 E0.26205
G1 X155.065 Y72.150 E0.01124
G1 X148.985 Y66.070 E0.24844
G1 X149.519 Y66.070 E0.01543
G1 X155.266 Y71.817 E0.23483
G1 X155.467 Y71.484 E0.01124
G1 X150.053 Y66.070 E0.22122
G1 X150.587 Y66.070 E0.01543
G1 X155.668 Y71.151 E0.20761
G1 X155.869 Y70.818 E0.01124
G1 X151.121 Y66.070 E0.19400
G1 X151.655 Y66.070 E0.01543
G1 X156.070 Y70.485 E0.18039
G1 X156.271 Y70.152 E0.01124
G1 X152.190 Y66.070 E0.16678
G1 X152.724 Y66.070 E0.01543
G1 X156.472 Y69.818 E0.15317
G1 X156.673 Y69.485 E0.01124
G1 X153.258 Y66.070 E0.13956
G1 X153.792 Y66.070 E0.01543
G1 X156.874 Y69.152 E0.12595
G1 X157.070 Y68.814 E0.01130
G1 X154.326 Y66.070 E0.11211
G1 X154.860 Y66.070 E0.01543
G1 X157.223 Y68.433 E0.09654
G1 X157.376 Y68.052 E0.01186
G1 X155.394 Y66.070 E0.08098
G1 X155.929 Y66.070 E0.01543
G1 X157.529 Y67.671 E0.06541
G1 X157.683 Y67.290 E0.01186
G1 X156.463 Y66.070 E0.04985
G1 X156.997 Y66.070 E0.01543
G1 X157.966 Y67.039 E0.03961
G1 F8640.000
G1 X156.997 Y66.070 E-0.31658
G1 X156.463 Y66.070 E-0.12333
G1 X157.443 Y67.050 E-0.32008
G1 E-0.04000 F2100.00000
G1 Z0.800 F10800.000
G1 X114.398 Y117.479
G1 Z0.200
G1 E0.80000 F2100.00000
G1 F1200.000
G1 X114.917 Y117.998 E0.02123
G1 X115.227 Y118.183 E0.01043
G1 X115.659 Y118.206 E0.01250
G1 X114.549 Y117.096 E0.04535
G1 X114.522 Y116.535 E0.01623
G1 X116.223 Y118.235 E0.06948
G1 X116.786 Y118.265 E0.01630
G1 X114.495 Y115.974 E0.09361
G1 X114.468 Y115.413 E0.01623
G1 X117.350 Y118.294 E0.11774
G1 X117.913 Y118.323 E0.01630
G1 X114.441 Y114.851 E0.14186
G1 X114.414 Y114.290 E0.01623
G1 X118.477 Y118.353 E0.16599
G1 X119.040 Y118.382 E0.01630
G1 X114.387 Y113.729 E0.19012
G1 X114.360 Y113.168 E0.01623
G1 X119.604 Y118.411 E0.21425
G1 X120.167 Y118.441 E0.01630
G1 X114.530 Y112.804 E0.23033
G1 X114.931 Y112.671 E0.01221
G1 X120.910 Y118.649 E0.24428
G1 F8640.000
G1 X118.582 Y116.322 E-0.76000
G1 E-0.04000 F2100.00000
G1 Z0.800 F10800.000
G1 X135.440 Y115.019
G1 Z0.200
G1 E0.80000 F2100.00000
G1 F1200.000
G1 X97.777 Y77.355 E1.53895
G1 X98.529 Y78.642 E0.04305
G1 X135.254 Y115.367 E1.50062
G1 X135.231 Y115.878 E0.01477
G1 X99.281 Y79.928 E1.46893
G1 X100.033 Y81.214 E0.04305
G1 X135.208 Y116.389 E1.43724
G1 X135.184 Y116.900 E0.01477
G1 X100.785 Y82.501 E1.40556
G1 X101.538 Y83.787 E0.04305
G1 X135.161 Y117.411 E1.37387
G1 X135.140 Y117.868 E0.01322
G1 X135.108 Y117.892 E0.00116
G1 X102.290 Y85.074 E1.34097
G1 X103.042 Y86.360 E0.04305
G1 X134.802 Y118.120 E1.29774
G1 X134.714 Y118.186 E0.00320
G1 X134.353 Y118.205 E0.01043
G1 X103.794 Y87.646 E1.24865
G1 X104.547 Y88.933 E0.04305
G1 X133.846 Y118.232 E1.19717
G1 X133.338 Y118.258 E0.01469
G1 X105.299 Y90.219 E1.14569
G1 X106.051 Y91.505 E0.04305
G1 X132.830 Y118.285 E1.09421
G1 X132.323 Y118.311 E0.01469
G1 X106.803 Y92.792 E1.04273
G1 X107.555 Y94.078 E0.04305
G1 X131.815 Y118.337 E0.99125
G1 X131.307 Y118.364 E0.01469
G1 X108.308 Y95.364 E0.93977
G1 X109.060 Y96.651 E0.04305
G1 X130.799 Y118.390 E0.88829
G1 X130.292 Y118.417 E0.01469
G1 X109.812 Y97.937 E0.83681
G1 X110.564 Y99.223 E0.04305
G1 X129.784 Y118.443 E0.78533
M73 P9 R46
G1 X129.276 Y118.470 E0.01469
G1 X111.317 Y100.510 E0.73385
G1 X112.069 Y101.796 E0.04305
G1 X128.840 Y118.568 E0.68528
G1 X128.840 Y119.102 E0.01543
G1 X112.821 Y103.083 E0.65455
G1 X113.573 Y104.369 E0.04305
G1 X128.840 Y119.636 E0.62381
G1 X128.840 Y120.170 E0.01543
G1 X114.325 Y105.655 E0.59307
G1 X115.078 Y106.942 E0.04305
G1 X128.840 Y120.704 E0.56234
G1 X128.840 Y121.238 E0.01543
G1 X115.830 Y108.228 E0.53160
G1 X116.582 Y109.514 E0.04305
G1 X128.840 Y121.772 E0.50087
G1 X128.840 Y122.306 E0.01543
G1 X117.334 Y110.801 E0.47013
G1 X117.860 Y111.700 E0.03010
G1 X117.740 Y111.740 E0.00367
G1 X128.840 Y122.841 E0.45357
G1 X128.840 Y123.375 E0.01543
G1 X117.338 Y111.873 E0.46996
G1 X116.937 Y112.006 E0.01221
G1 X128.840 Y123.909 E0.48636
G1 X128.840 Y124.443 E0.01543
G1 X116.536 Y112.139 E0.50275
G1 X116.135 Y112.272 E0.01221
G1 X128.840 Y124.977 E0.51914
G1 X128.840 Y125.511 E0.01543
G1 X115.734 Y112.405 E0.53553
G1 X115.333 Y112.538 E0.01221
G1 X128.840 Y126.045 E0.55192
G1 X128.840 Y126.580 E0.01543
G1 X121.160 Y118.899 E0.31382
G1 X121.160 Y119.433 E0.01543
G1 X128.840 Y127.114 E0.31382
G1 X128.840 Y127.648 E0.01543
G1 X121.160 Y119.968 E0.31382
G1 X121.160 Y120.502 E0.01543
G1 X128.840 Y128.182 E0.31382
G1 X128.840 Y128.716 E0.01543
G1 X121.160 Y121.036 E0.31382
G1 X121.160 Y121.570 E0.01543
G1 X128.840 Y129.250 E0.31382
G1 X128.840 Y129.784 E0.01543
G1 X121.160 Y122.104 E0.31382
G1 X121.160 Y122.638 E0.01543
G1 X128.840 Y130.318 E0.31382
G1 X128.840 Y130.853 E0.01543
G1 X121.160 Y123.172 E0.31382
