; generated by PrusaSlicer 2.4.1+win64 on 2022-04-08 at 20:11:22 UTC


;
;

;
;
; 

; external perimeters extrusion width = 0.45mm
; perimeters extrusion width = 0.45mm
; infill extrusion width = 0.45mm
; solid infill extrusion width = 0.45mm
; top infill extrusion width = 0.40mm
; first layer extrusion width = 0.42mm

M73 P0 R26
M107
;TYPE:Custom
M83  ; extruder relative mode
M140 S85 ; set bed temp
M109 S160 ; Set extruder temp before bed level
M190 S85 ; wait for bed temp

G28 W ; home all without mesh bed level
G80 N7 ; mesh bed leveling

M109 S240 ; wait for extruder temp

M221 S100 ; Set flow to 100

G1 Y-3.0 F1000.0 ; go outside print area
G92 E0.0
G1 E8 ; Purge Bubble
G1 X60.0 E9.0 F1000.0 ; intro line
G1 X100.0 E12.5 F1000.0 ; intro line
G92 E0.0
G21 ; set units to millimeters
G90 ; use absolute coordinates
M83 ; use relative distances for extrusion
M900 K0.08 ; Filament gcode LA 1.5
M900 K45 ; Filament gcode LA 1.0
M107
;LAYER_CHANGE
;Z:0.2
;HEIGHT:0.2
;BEFORE_LAYER_CHANGE
G92 E0.0
;0.2


G1 E-1 F2100
G1 Z.2 F720
;AFTER_LAYER_CHANGE
;0.2
G1 Z.4
G1 X101.136 Y84.324 F6000
G1 Z.2 F720
G1 E1 F2100
M204 S800
;TYPE:Skirt/Brim
;WIDTH:0.42
G1 F1200
G1 X101.566 Y83.833 E.02046
G1 X102.43 Y83.277 E.03223
G1 X103.009 Y83.094 E.01902
G1 X103.642 Y83.023 E.01999
G1 X146.358 Y83.023 E1.33931
G1 X146.991 Y83.094 E.01999
G1 X147.57 Y83.277 E.01902
G1 X148.429 Y83.829 E.03203
G1 X148.823 Y84.267 E.01847
G1 X149.139 Y84.803 E.01952
G1 X149.331 Y85.353 E.01824
G1 X149.423 Y85.981 E.01991
G1 X149.426 Y123.926 E1.18973
G1 X149.356 Y124.541 E.01941
G1 X149.154 Y125.164 E.02053
G1 X148.864 Y125.676 E.01844
G1 X148.434 Y126.167 E.02047
G1 X147.57 Y126.723 E.03223
G1 X146.991 Y126.906 E.01903
G1 X146.358 Y126.977 E.01999
G1 X103.687 Y126.977 E1.3379
G1 X103.009 Y126.906 E.02139
G1 X102.43 Y126.723 E.01903
G1 X101.874 Y126.414 E.01994
G1 X101.384 Y125.984 E.02046
G1 X100.827 Y125.12 E.03223
G1 X100.644 Y124.541 E.01903
G1 X100.574 Y123.926 E.01941
G1 X100.573 Y86.137 E1.18483
G1 X100.644 Y85.459 E.02139
M73 P1 R26
G1 X100.827 Y84.88 E.01903
G1 X101.107 Y84.377 E.01805
M204 S1000
; printing object y_end_caps.stl id:0 copy 0
;WIPE_START
G1 F4800
G1 X101.566 Y83.833 E-.2957
G1 X102.43 Y83.277 E-.42722
G1 X102.951 Y83.113 E-.22708
;WIPE_END
G1 E-.05 F2100
G1 Z.4 F720
G1 X108.772 Y91.521 F6000
G1 Z.2 F720
G1 E1 F2100
M204 S800
;TYPE:Perimeter
G1 F1200
G1 X109.004 Y91.551 E.00733
G1 X109.361 Y91.653 E.01163
G1 X109.936 Y91.922 E.01991
G1 X111.079 Y92.63 E.04216
G1 X111.744 Y92.982 E.02358
G1 X112.23 Y93.171 E.01636
G1 X112.553 Y93.23 E.01031
G1 X112.865 Y93.173 E.00992
G1 X113.223 Y93.043 E.01195
G1 X113.929 Y92.683 E.02484
G1 X115.04 Y91.994 E.04101
G1 X115.402 Y91.798 E.01289
G1 X115.871 Y91.607 E.01589
G1 X116.372 Y91.514 E.01598
G1 X116.969 Y91.561 E.01877
G1 X117.249 Y91.628 E.00901
G1 X117.618 Y91.771 E.01243
G1 X117.972 Y91.97 E.01271
G1 X118.209 Y92.141 E.00918
G1 X118.525 Y92.419 E.01318
G1 X118.735 Y92.643 E.00964
G1 X119.012 Y92.998 E.01411
G1 X119.195 Y93.276 E.01042
G1 X119.496 Y93.852 E.02039
G1 X119.688 Y94.342 E.01649
G1 X119.798 Y94.698 E.0117
G1 X119.881 Y95.054 E.01145
G1 X119.936 Y95.416 E.01147
G1 X119.966 Y95.935 E.01631
G1 X119.944 Y96.441 E.01589
G1 X119.904 Y96.779 E.01069
G1 X119.781 Y97.398 E.01977
G1 X119.611 Y97.981 E.01904
G1 X119.413 Y98.52 E.01799
G1 X118.927 Y99.614 E.03754
G1 X118.821 Y99.893 E.00936
G1 X118.734 Y100.219 E.01057
G1 X118.703 Y100.478 E.0082
G1 X118.724 Y100.861 E.01204
G1 X118.822 Y101.241 E.0123
G1 X119.062 Y101.847 E.02042
G1 X119.862 Y103.51 E.05788
G1 X120.174 Y104.237 E.0248
G1 X120.392 Y104.993 E.02467
G1 X120.494 Y105.758 E.0242
G1 X120.496 Y106.284 E.0165
G1 X120.442 Y106.81 E.01656
G1 X120.261 Y107.571 E.02452
G1 X119.964 Y108.306 E.02485
G1 X119.147 Y109.827 E.05414
G1 X118.961 Y110.212 E.01343
G1 X118.761 Y110.761 E.01832
G1 X118.704 Y111.065 E.00968
G1 X118.702 Y111.312 E.00777
G1 X118.778 Y111.704 E.01252
G1 X119.391 Y113.307 E.0538
G1 X119.58 Y114.028 E.02336
G1 X119.658 Y114.587 E.01771
G1 X119.68 Y115.116 E.01661
G1 X119.639 Y115.627 E.01606
G1 X119.533 Y116.117 E.01572
G1 X119.356 Y116.58 E.01554
G1 X119.109 Y117.009 E.01549
G1 X118.799 Y117.396 E.01555
G1 X118.434 Y117.74 E.01574
G1 X118.027 Y118.034 E.01574
G1 X117.595 Y118.266 E.01538
G1 X117.146 Y118.43 E.01501
G1 X116.816 Y118.505 E.0106
G1 X116.345 Y118.553 E.01484
G1 X115.764 Y118.539 E.01821
G1 X115.335 Y118.49 E.01353
G1 X115.034 Y118.427 E.00964
G1 X114.731 Y118.34 E.0099
G1 X114.268 Y118.167 E.0155
G1 X113.251 Y117.683 E.03531
G1 X112.884 Y117.526 E.01252
G1 X112.575 Y117.439 E.01006
G1 X112.479 Y117.445 E.00303
G1 X112.212 Y117.527 E.00874
G1 X110.832 Y118.167 E.04768
G1 X110.364 Y118.342 E.01567
G1 X109.912 Y118.463 E.01468
G1 X109.341 Y118.538 E.01805
G1 X108.755 Y118.553 E.01839
G1 X108.277 Y118.505 E.01507
G1 X107.814 Y118.387 E.01499
G1 X107.498 Y118.263 E.01062
G1 X107.073 Y118.034 E.01515
G1 X106.667 Y117.74 E.01574
G1 X106.301 Y117.396 E.01574
G1 X105.991 Y117.008 E.01555
G1 X105.75 Y116.59 E.01513
G1 X105.644 Y116.341 E.00848
G1 X105.508 Y115.885 E.01493
G1 X105.46 Y115.617 E.00854
G1 X105.421 Y115.116 E.01573
G1 X105.442 Y114.587 E.01661
G1 X105.521 Y114.028 E.01771
G1 X105.709 Y113.307 E.02336
G1 X106.322 Y111.704 E.0538
G1 X106.398 Y111.312 E.01252
G1 X106.396 Y111.065 E.00777
G1 X106.339 Y110.761 E.00968
G1 X106.14 Y110.212 E.01832
G1 X105.953 Y109.828 E.01338
G1 X105.249 Y108.533 E.04623
G1 X104.93 Y107.828 E.02425
G1 X104.763 Y107.309 E.0171
G1 X104.624 Y106.551 E.02415
G1 X104.598 Y106.025 E.01652
G1 X104.627 Y105.507 E.01626
G1 X104.709 Y104.993 E.01633
G1 X104.844 Y104.479 E.01666
G1 X105.127 Y103.753 E.02445
G1 X106.131 Y101.63 E.07362
G1 X106.329 Y101.071 E.01859
G1 X106.391 Y100.727 E.01098
G1 X106.4 Y100.544 E.00572
G1 X106.389 Y100.368 E.00555
G1 X106.305 Y99.978 E.0125
G1 X106.172 Y99.61 E.01227
G1 X105.687 Y98.52 E.03742
G1 X105.489 Y97.981 E.01799
G1 X105.319 Y97.398 E.01904
G1 X105.194 Y96.771 E.02005
G1 X105.136 Y96.111 E.02078
G1 X105.148 Y95.586 E.01645
G1 X105.219 Y95.049 E.017
G1 X105.408 Y94.351 E.02266
G1 X105.602 Y93.856 E.01667
G1 X105.828 Y93.408 E.01575
G1 X106.088 Y92.997 E.01522
G1 X106.465 Y92.532 E.01879
G1 X106.785 Y92.227 E.01387
G1 X107.129 Y91.969 E.01346
G1 X107.599 Y91.718 E.01672
G1 X107.981 Y91.593 E.01259
G1 X108.252 Y91.544 E.00865
G1 X108.713 Y91.517 E.01445
M204 S1000
G1 X108.723 Y91.895 F6000
M204 S800
;TYPE:External perimeter
G1 F1200
G1 X108.928 Y91.921 E.00647
G1 X109.229 Y92.007 E.00981
G1 X109.756 Y92.254 E.01827
G1 X110.891 Y92.957 E.04187
G1 X111.58 Y93.322 E.02443
M73 P1 R25
G1 X112.127 Y93.535 E.0184
G1 X112.362 Y93.588 E.00755
G1 X112.554 Y93.609 E.00606
G1 X112.742 Y93.589 E.00595
G1 X112.972 Y93.535 E.0074
G1 X113.373 Y93.389 E.01339
G1 X114.114 Y93.012 E.02605
G1 X115.23 Y92.32 E.04117
G1 X115.563 Y92.139 E.01189
G1 X115.978 Y91.971 E.01404
G1 X116.392 Y91.893 E.01321
G1 X116.91 Y91.935 E.01628
G1 X117.136 Y91.989 E.0073
G1 X117.457 Y92.113 E.01078
G1 X117.769 Y92.289 E.01121
G1 X117.974 Y92.436 E.00793
G1 X118.262 Y92.69 E.01202
G1 X118.448 Y92.889 E.00856
G1 X118.706 Y93.218 E.01308
G1 X118.869 Y93.467 E.00935
G1 X119.153 Y94.009 E.01917
G1 X119.332 Y94.466 E.01541
G1 X119.511 Y95.125 E.0214
G1 X119.561 Y95.455 E.01046
G1 X119.589 Y95.938 E.01516
G1 X119.568 Y96.411 E.01484
G1 X119.531 Y96.72 E.00978
G1 X119.414 Y97.308 E.01879
G1 X119.253 Y97.863 E.01812
G1 X119.064 Y98.378 E.01719
G1 X118.578 Y99.471 E.03749
G1 X118.462 Y99.777 E.01029
G1 X118.363 Y100.147 E.012
G1 X118.325 Y100.466 E.01008
G1 X118.35 Y100.92 E.01424
G1 X118.463 Y101.358 E.01421
G1 X118.717 Y101.998 E.02158
G1 X119.519 Y103.666 E.05804
G1 X119.818 Y104.364 E.02381
G1 X120.022 Y105.071 E.02306
G1 X120.117 Y105.784 E.02255
G1 X120.119 Y106.266 E.0151
G1 X120.069 Y106.747 E.01516
G1 X119.901 Y107.456 E.02285
G1 X119.622 Y108.145 E.02331
G1 X118.812 Y109.655 E.05374
G1 X118.613 Y110.065 E.01428
G1 X118.396 Y110.661 E.0199
G1 X118.327 Y111.028 E.0117
G1 X118.324 Y111.347 E.01
G1 X118.412 Y111.801 E.01449
G1 X118.519 Y112.117 E.01046
G1 X119.032 Y113.424 E.04403
G1 X119.209 Y114.102 E.02197
G1 X119.282 Y114.621 E.01644
G1 X119.302 Y115.109 E.01532
G1 X119.265 Y115.572 E.01455
G1 X119.17 Y116.009 E.01402
G1 X119.014 Y116.418 E.01373
G1 X118.797 Y116.796 E.01366
G1 X118.522 Y117.139 E.0138
G1 X118.193 Y117.448 E.01415
G1 X117.826 Y117.714 E.01419
G1 X117.441 Y117.921 E.01373
G1 X117.039 Y118.068 E.01342
G1 X116.755 Y118.132 E.00913
G1 X116.331 Y118.175 E.01337
G1 X115.79 Y118.162 E.01696
G1 X115.395 Y118.117 E.01245
G1 X115.125 Y118.061 E.00866
G1 X114.849 Y117.982 E.009
G1 X114.415 Y117.82 E.01452
G1 X113.016 Y117.172 E.04833
G1 X112.739 Y117.082 E.00915
G1 X112.59 Y117.061 E.0047
G1 X112.41 Y117.072 E.00566
G1 X112.082 Y117.173 E.01076
G1 X110.685 Y117.82 E.04828
G1 X110.249 Y117.983 E.01458
G1 X109.839 Y118.092 E.01333
G1 X109.312 Y118.162 E.01665
G1 X108.77 Y118.175 E.01702
G1 X108.343 Y118.132 E.01345
G1 X107.93 Y118.027 E.01337
G1 X107.657 Y117.92 E.00918
G1 X107.274 Y117.714 E.01364
G1 X106.907 Y117.448 E.01419
G1 X106.578 Y117.139 E.01415
G1 X106.303 Y116.796 E.0138
G1 X106.088 Y116.421 E.01353
G1 X105.999 Y116.213 E.0071
G1 X105.876 Y115.797 E.0136
G1 X105.834 Y115.568 E.0073
G1 X105.798 Y115.109 E.01443
G1 X105.818 Y114.621 E.01532
G1 X105.891 Y114.102 E.01643
G1 X106.068 Y113.424 E.02197
G1 X106.582 Y112.117 E.04403
G1 X106.688 Y111.801 E.01045
G1 X106.776 Y111.347 E.01449
G1 X106.773 Y111.028 E.01
G1 X106.704 Y110.661 E.0117
G1 X106.487 Y110.065 E.0199
G1 X106.289 Y109.656 E.01426
G1 X105.587 Y108.365 E.04607
G1 X105.282 Y107.693 E.02314
G1 X105.13 Y107.217 E.01566
G1 X105 Y106.508 E.02261
G1 X104.976 Y106.026 E.01512
G1 X105.002 Y105.548 E.01503
G1 X105.079 Y105.071 E.01513
G1 X105.204 Y104.596 E.0154
G1 X105.473 Y103.902 E.02335
G1 X106.48 Y101.774 E.07379
G1 X106.695 Y101.169 E.02016
G1 X106.767 Y100.769 E.01273
G1 X106.777 Y100.542 E.00711
G1 X106.764 Y100.317 E.00708
G1 X106.669 Y99.874 E.01422
G1 X106.522 Y99.469 E.01349
G1 X106.037 Y98.378 E.03744
G1 X105.848 Y97.863 E.01719
G1 X105.686 Y97.308 E.01812
G1 X105.568 Y96.717 E.01889
G1 X105.513 Y96.098 E.01948
G1 X105.524 Y95.615 E.01514
G1 X105.589 Y95.123 E.01557
G1 X105.767 Y94.47 E.02123
G1 X105.947 Y94.01 E.01548
G1 X106.157 Y93.594 E.01463
G1 X106.394 Y93.217 E.01395
G1 X106.743 Y92.788 E.01733
G1 X107.029 Y92.515 E.01241
G1 X107.332 Y92.288 E.01186
G1 X107.748 Y92.066 E.01479
G1 X108.073 Y91.959 E.01075
G1 X108.297 Y91.919 E.00712
G1 X108.663 Y91.898 E.0115
M204 S1000
G1 X108.836 Y91.722 F6000
G1 X108.751 Y91.138
M204 S800
;TYPE:Perimeter
G1 F1200
G1 X108.208 Y91.169 E.01705
G1 X107.888 Y91.227 E.01019
G1 X107.451 Y91.37 E.01444
G1 X106.926 Y91.65 E.01865
G1 X106.541 Y91.938 E.01507
G1 X106.187 Y92.276 E.01532
G1 X105.781 Y92.777 E.02024
G1 X105.5 Y93.222 E.01649
G1 X105.258 Y93.702 E.01687
G1 X105.05 Y94.233 E.01786
G1 X104.848 Y94.974 E.0241
G1 X104.771 Y95.557 E.01843
G1 X104.758 Y96.123 E.01775
G1 X104.821 Y96.824 E.02208
G1 X104.953 Y97.488 E.0212
G1 X105.131 Y98.099 E.01996
G1 X105.337 Y98.661 E.01878
G1 X105.822 Y99.752 E.03741
G1 X105.942 Y100.083 E.01106
G1 X106.015 Y100.419 E.01077
G1 X106.016 Y100.685 E.00834
G1 X105.964 Y100.974 E.00923
G1 X105.782 Y101.486 E.01702
G1 X104.78 Y103.603 E.07345
G1 X104.485 Y104.363 E.02554
G1 X104.394 Y104.708 E.01121
G1 X104.394 Y86.844 E.56012
G1 X120.706 Y86.847 E.51144
G1 X120.706 Y104.721 E.56045
G1 X120.529 Y104.11 E.01994
G1 X120.206 Y103.354 E.02579
G1 X119.408 Y101.695 E.05772
G1 X119.181 Y101.125 E.01925
G1 X119.099 Y100.803 E.01039
G1 X119.081 Y100.49 E.00984
G1 X119.105 Y100.29 E.00631
G1 X119.181 Y100.009 E.00913
G1 X119.763 Y98.661 E.04603
G1 X119.969 Y98.099 E.01878
G1 X120.148 Y97.488 E.01996
G1 X120.277 Y96.839 E.02075
G1 X120.32 Y96.472 E.01159
G1 X120.344 Y95.932 E.01693
G1 X120.312 Y95.376 E.01745
G1 X120.252 Y94.982 E.01249
G1 X120.163 Y94.599 E.01233
G1 X120.044 Y94.217 E.01255
G1 X119.84 Y93.695 E.01758
G1 X119.52 Y93.085 E.02161
G1 X119.319 Y92.778 E.0115
G1 X119.021 Y92.398 E.01514
G1 X118.787 Y92.148 E.01073
G1 X118.445 Y91.846 E.01433
G1 X118.175 Y91.652 E.01042
G1 X117.78 Y91.429 E.01421
G1 X117.361 Y91.267 E.01407
G1 X117.029 Y91.188 E.01072
G1 X116.352 Y91.134 E.02127
G1 X115.765 Y91.243 E.01874
G1 X115.24 Y91.457 E.01775
G1 X114.851 Y91.668 E.01389
G1 X113.744 Y92.354 E.04085
G1 X113.072 Y92.696 E.02362
G1 X112.757 Y92.811 E.01051
G1 X112.616 Y92.844 E.00455
G1 X112.487 Y92.843 E.00405
G1 X112.138 Y92.742 E.0114
G1 X111.907 Y92.642 E.00787
G1 X111.267 Y92.303 E.02273
G1 X110.116 Y91.59 E.04245
G1 X109.493 Y91.298 E.02155
G1 X109.081 Y91.181 E.01345
G1 X108.81 Y91.145 E.00855
M204 S1000
;WIPE_START
G1 F4800
G1 X108.208 Y91.169 E-.25054
G1 X107.888 Y91.227 E-.13506
G1 X107.451 Y91.37 E-.19145
G1 X106.926 Y91.65 E-.24726
G1 X106.684 Y91.832 E-.1257
;WIPE_END
G1 E-.05 F2100
G1 Z.4 F720
G1 X104.394 Y107.387 F6000
G1 Z.2 F720
G1 E1 F2100
M204 S800
G1 F1200
G1 X104.578 Y107.964 E.019
G1 X104.911 Y108.701 E.02536
G1 X105.618 Y110.001 E.04638
G1 X105.792 Y110.359 E.0125
G1 X105.974 Y110.861 E.01675
G1 X106.019 Y111.101 E.00766
G1 X106.021 Y111.278 E.00553
G1 X105.957 Y111.608 E.01055
G1 X105.35 Y113.19 E.05313
G1 X105.15 Y113.954 E.02475
G1 X105.066 Y114.553 E.01898
G1 X105.043 Y115.124 E.0179
G1 X105.085 Y115.665 E.01703
G1 X105.141 Y115.972 E.00979
G1 X105.289 Y116.469 E.01627
G1 X105.412 Y116.759 E.00986
G1 X105.678 Y117.221 E.01674
G1 X106.023 Y117.652 E.0173
G1 X106.426 Y118.031 E.01733
G1 X106.872 Y118.354 E.01728
G1 X107.34 Y118.606 E.01665
G1 X107.698 Y118.746 E.01207
G1 X108.211 Y118.877 E.0166
G1 X108.741 Y118.93 E.01669
G1 X109.371 Y118.915 E.01975
G1 X109.986 Y118.834 E.01946
G1 X110.48 Y118.702 E.01602
G1 X110.98 Y118.514 E.01675
G1 X112.004 Y118.026 E.03558
G1 X112.342 Y117.882 E.01151
G1 X112.559 Y117.818 E.0071
G1 X112.752 Y117.879 E.00632
G1 X113.096 Y118.026 E.01174
G1 X114.12 Y118.514 E.03558
G1 X114.613 Y118.699 E.01648
G1 X114.944 Y118.794 E.01081
G1 X115.276 Y118.863 E.01063
G1 X115.738 Y118.915 E.0146
G1 X116.359 Y118.93 E.01947
G1 X116.877 Y118.878 E.01631
G1 X117.252 Y118.792 E.01207
G1 X117.75 Y118.611 E.0166
G1 X118.228 Y118.354 E.01703
G1 X118.674 Y118.031 E.01728
G1 X119.077 Y117.652 E.01733
G1 X119.422 Y117.222 E.0173
G1 X119.697 Y116.742 E.01733
G1 X119.895 Y116.225 E.01736
M73 P2 R25
G1 X120.013 Y115.682 E.01742
G1 X120.057 Y115.124 E.01757
G1 X120.034 Y114.553 E.0179
G1 X119.95 Y113.954 E.01898
G1 X119.751 Y113.19 E.02475
G1 X119.143 Y111.608 E.05313
G1 X119.079 Y111.278 E.01055
G1 X119.081 Y111.101 E.00553
G1 X119.126 Y110.861 E.00766
G1 X119.308 Y110.359 E.01675
G1 X119.483 Y109.998 E.01258
G1 X120.306 Y108.466 E.05454
G1 X120.621 Y107.685 E.02638
G1 X120.706 Y107.33 E.01147
G1 X120.706 Y123.156 E.49622
G1 X104.394 Y123.156 E.51144
G1 X104.394 Y107.447 E.49255
M204 S1000
;WIPE_START
G1 F4800
G1 X104.578 Y107.964 E-.22825
G1 X104.911 Y108.701 E-.33613
G1 X105.354 Y109.516 E-.38562
;WIPE_END
G1 E-.05 F2100
G1 Z.4 F720
G1 X104.017 Y86.467 F6000
G1 Z.2 F720
G1 E1 F2100
M204 S800
G1 F1200
G1 X121.083 Y86.47 E.53509
G1 X121.083 Y123.533 E1.16209
G1 X104.017 Y123.533 E.53509
G1 X104.017 Y86.527 E1.16029
M204 S1000
G1 X103.68 Y86.239 F6000
M204 S800
;TYPE:External perimeter
G1 F1200
G1 X103.725 Y86.175 E.00245
G1 X103.789 Y86.13 E.00245
G1 X103.977 Y86.09 E.00602
G1 X121.166 Y86.093 E.53897
G1 X121.31 Y86.131 E.00466
G1 X121.39 Y86.195 E.00321
G1 X121.443 Y86.302 E.00375
G1 X121.46 Y86.435 E.00418
G1 X121.46 Y123.57 E1.16436
G1 X121.42 Y123.761 E.00612
G1 X121.375 Y123.825 E.00245
G1 X121.311 Y123.87 E.00245
G1 X121.12 Y123.91 E.00612
G1 X103.98 Y123.91 E.53742
G1 X103.789 Y123.87 E.00612
G1 X103.725 Y123.825 E.00245
G1 X103.68 Y123.761 E.00245
G1 X103.64 Y123.57 E.00612
G1 X103.64 Y86.43 E1.1645
G1 X103.661 Y86.296 E.00426
M204 S1000
G1 X103.757 Y86.23 F6000
;WIPE_START
G1 F4800
G1 X103.725 Y86.175 E-.05673
G1 X103.789 Y86.13 E-.03242
G1 X103.977 Y86.09 E-.07984
G1 X105.856 Y86.09 E-.78101
;WIPE_END
G1 E-.05 F2100
G1 Z.4 F720
G1 X104.734 Y94.095 F6000
G1 Z.2 F720
G1 E1 F2100
M204 S800
