; generated by PrusaSlicer 2.2.0+ on 2020-04-30 at 14:59:17 UTC


;
;

;
;
; 

; external perimeters extrusion width = 0.60mm
; perimeters extrusion width = 0.43mm
; infill extrusion width = 0.45mm
; solid infill extrusion width = 0.70mm
; top infill extrusion width = 0.43mm
; first layer extrusion width = 0.42mm

M73 P0 R92
M201 X9000 Y9000 Z500 E10000 ; sets maximum accelerations, mm/sec^2
M203 X500 Y500 Z12 E120 ; sets maximum feedrates, mm/sec
M204 P2000 R1500 T2000 ; sets acceleration (P, T) and retract acceleration (R), mm/sec^2
M205 X10.00 Y10.00 Z0.20 E4.50 ; sets the jerk limits, mm/sec
M205 S0 T0 ; sets the minimum extruding and travel feed rate, mm/sec
M107
M83  ; extruder relative mode
M140 S100 ; set bed temp
M109 S160 ; Set extruder temp before bed level
M190 S100 ; wait for bed temp

G28 W ; home all without mesh bed level
G80 N7 ; mesh bed leveling

M109 S270 ; wait for extruder temp

M221 S100 ; Set flow to 100

G1 Y-3.0 F1000.0 ; go outside print area
G92 E0.0
G1 E8 ; Purge Bubble
M73 P0 R92
G1 X60.0 E9.0 F1000.0 ; intro line
G1 X100.0 E12.5 F1000.0 ; intro line
G92 E0.0
G21 ; set units to millimeters
G90 ; use absolute coordinates
M83 ; use relative distances for extrusion
M900 K30 ; Filament gcode
;BEFORE_LAYER_CHANGE
G92 E0.0
;0.2


G1 E-0.80000 F2100.00000
G1 Z0.600 F10800.000
;AFTER_LAYER_CHANGE
;0.2
G1 X40.816 Y98.930
G1 Z0.200
G1 E0.80000 F2100.00000
M204 S1000
G1 F1200.000
G1 X41.297 Y98.181 E0.02790
G1 X45.675 Y93.807 E0.19402
G1 X85.308 Y70.445 E1.44249
G1 X85.765 Y70.238 E0.01574
G1 X86.504 Y70.117 E0.02348
G1 X169.016 Y69.831 E2.58714
G1 X169.848 Y69.983 E0.02649
G1 X170.570 Y70.413 E0.02637
G1 X211.858 Y106.813 E1.72582
G1 X212.322 Y107.371 E0.02272
G1 X212.570 Y107.946 E0.01965
G1 X212.660 Y108.570 E0.01977
G1 X212.660 Y138.651 E0.94318
G1 X212.571 Y139.241 E0.01870
G1 X212.338 Y139.790 E0.01870
G1 X211.975 Y140.264 E0.01870
G1 X211.506 Y140.632 E0.01870
G1 X210.920 Y140.884 E0.02000
G1 X210.288 Y140.971 E0.02000
G1 X65.520 Y140.942 E4.53910
G1 X64.816 Y140.716 E0.02319
G1 X64.216 Y140.283 E0.02319
G1 X38.325 Y114.392 E1.14805
G1 X37.990 Y113.964 E0.01704
G1 X37.761 Y113.472 E0.01704
G1 X37.643 Y112.856 E0.01965
G1 X37.690 Y112.235 E0.01953
G1 X40.803 Y98.988 E0.42665
@Object Mount.stl id:1 copy 0
G1 F8640.000
G1 X41.297 Y98.181 E-0.21858
G1 X42.956 Y96.524 E-0.54142
G1 E-0.04000 F2100.00000
G1 Z0.800 F10800.000
G1 X87.300 Y91.707
G1 Z0.200
G1 E0.80000 F2100.00000
G1 F1200.000
G1 X87.300 Y73.282 E0.57773
G1 X164.800 Y73.282 E2.42996
G1 X164.800 Y73.061 E0.00691
G1 X168.226 Y73.061 E0.10741
G1 X168.226 Y91.907 E0.59090
G1 X164.800 Y91.907 E0.10741
G1 X164.800 Y91.707 E0.00626
G1 X87.360 Y91.707 E2.42808
G1 F8640.000
G1 X87.349 Y88.416 E-0.76000
G1 E-0.04000 F2100.00000
G1 Z0.800 F10800.000
G1 X164.423 Y72.904
G1 Z0.200
G1 E0.80000 F2100.00000
G1 F1200.000
G1 X164.423 Y72.684 E0.00691
G1 X168.603 Y72.684 E0.13106
G1 X168.603 Y92.284 E0.61454
G1 X164.423 Y92.284 E0.13106
G1 X164.423 Y92.084 E0.00626
G1 X86.923 Y92.084 E2.42996
G1 X86.923 Y72.904 E0.60138
G1 X164.363 Y72.904 E2.42808
G1 X164.642 Y72.887 F10800.000
G1 F8640.000
G1 X164.423 Y72.684 E-0.05277
G1 X167.485 Y72.684 E-0.70723
G1 E-0.04000 F2100.00000
G1 Z0.800 F10800.000
G1 X88.175 Y91.594
G1 Z0.200
G1 E0.80000 F2100.00000
G1 F1200.000
G1 X87.582 Y91.002 E0.02628
G1 X87.582 Y90.468 E0.01672
G1 X88.539 Y91.425 E0.04240
G1 X89.072 Y91.425 E0.01672
G1 X87.582 Y89.935 E0.06605
G1 X87.582 Y89.402 E0.01672
G1 X89.605 Y91.425 E0.08970
G1 X90.139 Y91.425 E0.01672
G1 X87.582 Y88.869 E0.11335
G1 X87.582 Y88.335 E0.01672
G1 X90.672 Y91.425 E0.13700
G1 X91.205 Y91.425 E0.01672
G1 X87.582 Y87.802 E0.16065
G1 X87.582 Y87.269 E0.01672
G1 X91.738 Y91.425 E0.18430
G1 X92.272 Y91.425 E0.01672
G1 X87.582 Y86.735 E0.20795
G1 X87.582 Y86.202 E0.01672
G1 X92.805 Y91.425 E0.23160
G1 X93.338 Y91.425 E0.01672
G1 X87.582 Y85.669 E0.25524
G1 X87.582 Y85.135 E0.01672
G1 X93.872 Y91.425 E0.27889
G1 X94.405 Y91.425 E0.01672
G1 X87.582 Y84.602 E0.30254
G1 X87.582 Y84.069 E0.01672
G1 X94.938 Y91.425 E0.32619
G1 X95.472 Y91.425 E0.01672
G1 X87.582 Y83.535 E0.34984
G1 X87.582 Y83.002 E0.01672
G1 X96.005 Y91.425 E0.37349
G1 X96.538 Y91.425 E0.01672
G1 X87.582 Y82.469 E0.39714
G1 X87.582 Y81.936 E0.01672
G1 X97.072 Y91.425 E0.42079
G1 X97.605 Y91.425 E0.01672
G1 X87.582 Y81.402 E0.44444
G1 X87.582 Y80.869 E0.01672
G1 X98.138 Y91.425 E0.46809
G1 X98.671 Y91.425 E0.01672
G1 X87.582 Y80.336 E0.49174
M73 P1 R91
G1 X87.582 Y79.802 E0.01672
G1 X99.205 Y91.425 E0.51539
G1 X99.738 Y91.425 E0.01672
G1 X87.582 Y79.269 E0.53904
G1 X87.582 Y78.736 E0.01672
G1 X100.271 Y91.425 E0.56269
G1 X100.805 Y91.425 E0.01672
G1 X87.582 Y78.202 E0.58633
G1 X87.582 Y77.669 E0.01672
G1 X101.338 Y91.425 E0.60998
G1 X101.871 Y91.425 E0.01672
G1 X87.582 Y77.136 E0.63363
G1 X87.582 Y76.602 E0.01672
G1 X102.405 Y91.425 E0.65728
G1 X102.938 Y91.425 E0.01672
G1 X87.582 Y76.069 E0.68093
G1 X87.582 Y75.536 E0.01672
G1 X103.471 Y91.425 E0.70458
G1 X104.005 Y91.425 E0.01672
G1 X87.582 Y75.003 E0.72823
G1 X87.582 Y74.469 E0.01672
G1 X104.538 Y91.425 E0.75188
G1 X105.071 Y91.425 E0.01672
G1 X87.582 Y73.936 E0.77553
G1 X87.582 Y73.564 E0.01165
G1 X87.744 Y73.564 E0.00507
G1 X105.604 Y91.425 E0.79201
G1 X106.138 Y91.425 E0.01672
G1 X88.278 Y73.564 E0.79201
G1 X88.811 Y73.564 E0.01672
G1 X106.671 Y91.425 E0.79201
G1 X107.204 Y91.425 E0.01672
G1 X89.344 Y73.564 E0.79201
G1 X89.877 Y73.564 E0.01672
G1 X107.738 Y91.425 E0.79201
G1 X108.271 Y91.425 E0.01672
G1 X90.411 Y73.564 E0.79201
G1 X90.944 Y73.564 E0.01672
G1 X108.804 Y91.425 E0.79201
G1 X109.338 Y91.425 E0.01672
G1 X91.477 Y73.564 E0.79201
G1 X92.011 Y73.564 E0.01672
G1 X109.871 Y91.425 E0.79201
G1 X110.404 Y91.425 E0.01672
G1 X92.544 Y73.564 E0.79201
G1 X93.077 Y73.564 E0.01672
G1 X110.938 Y91.425 E0.79201
G1 X111.471 Y91.425 E0.01672
G1 X93.611 Y73.564 E0.79201
G1 X94.144 Y73.564 E0.01672
G1 X112.004 Y91.425 E0.79201
G1 X112.537 Y91.425 E0.01672
G1 X94.677 Y73.564 E0.79201
G1 X95.210 Y73.564 E0.01672
G1 X113.071 Y91.425 E0.79201
G1 X113.604 Y91.425 E0.01672
G1 X95.744 Y73.564 E0.79201
G1 X96.277 Y73.564 E0.01672
G1 X114.137 Y91.425 E0.79201
G1 X114.671 Y91.425 E0.01672
G1 X96.810 Y73.564 E0.79201
G1 X97.344 Y73.564 E0.01672
G1 X115.204 Y91.425 E0.79201
G1 X115.737 Y91.425 E0.01672
G1 X97.877 Y73.564 E0.79201
G1 X98.410 Y73.564 E0.01672
G1 X116.271 Y91.425 E0.79201
G1 X116.804 Y91.425 E0.01672
G1 X98.944 Y73.564 E0.79201
G1 X99.477 Y73.564 E0.01672
G1 X117.337 Y91.425 E0.79201
G1 X117.871 Y91.425 E0.01672
G1 X100.010 Y73.564 E0.79201
G1 X100.544 Y73.564 E0.01672
G1 X118.404 Y91.425 E0.79201
G1 X118.937 Y91.425 E0.01672
G1 X101.077 Y73.564 E0.79201
G1 X101.610 Y73.564 E0.01672
G1 X119.470 Y91.425 E0.79201
G1 X120.004 Y91.425 E0.01672
G1 X102.143 Y73.564 E0.79201
G1 X102.677 Y73.564 E0.01672
G1 X120.537 Y91.425 E0.79201
G1 X121.070 Y91.425 E0.01672
G1 X103.210 Y73.564 E0.79201
G1 X103.743 Y73.564 E0.01672
G1 X121.604 Y91.425 E0.79201
G1 X122.137 Y91.425 E0.01672
G1 X104.277 Y73.564 E0.79201
G1 X104.810 Y73.564 E0.01672
G1 X122.670 Y91.425 E0.79201
G1 X123.204 Y91.425 E0.01672
G1 X105.343 Y73.564 E0.79201
G1 X105.877 Y73.564 E0.01672
G1 X123.737 Y91.425 E0.79201
G1 X124.270 Y91.425 E0.01672
G1 X106.410 Y73.564 E0.79201
G1 X106.943 Y73.564 E0.01672
G1 X124.803 Y91.425 E0.79201
M73 P2 R90
G1 X125.337 Y91.425 E0.01672
G1 X107.477 Y73.564 E0.79201
G1 X108.010 Y73.564 E0.01672
G1 X125.870 Y91.425 E0.79201
G1 X126.403 Y91.425 E0.01672
G1 X108.543 Y73.564 E0.79201
G1 X109.076 Y73.564 E0.01672
G1 X126.937 Y91.425 E0.79201
G1 X127.470 Y91.425 E0.01672
G1 X109.610 Y73.564 E0.79201
G1 X110.143 Y73.564 E0.01672
G1 X128.003 Y91.425 E0.79201
G1 X128.537 Y91.425 E0.01672
G1 X110.676 Y73.564 E0.79201
G1 X111.210 Y73.564 E0.01672
G1 X129.070 Y91.425 E0.79201
G1 X129.603 Y91.425 E0.01672
G1 X111.743 Y73.564 E0.79201
G1 X112.276 Y73.564 E0.01672
G1 X130.137 Y91.425 E0.79201
G1 X130.670 Y91.425 E0.01672
G1 X112.810 Y73.564 E0.79201
G1 X113.343 Y73.564 E0.01672
G1 X131.203 Y91.425 E0.79201
G1 X131.736 Y91.425 E0.01672
G1 X113.876 Y73.564 E0.79201
G1 X114.410 Y73.564 E0.01672
G1 X132.270 Y91.425 E0.79201
G1 X132.803 Y91.425 E0.01672
G1 X114.943 Y73.564 E0.79201
G1 X115.476 Y73.564 E0.01672
G1 X133.336 Y91.425 E0.79201
G1 X133.870 Y91.425 E0.01672
G1 X116.009 Y73.564 E0.79201
G1 X116.543 Y73.564 E0.01672
G1 X134.403 Y91.425 E0.79201
G1 X134.936 Y91.425 E0.01672
G1 X117.076 Y73.564 E0.79201
G1 X117.609 Y73.564 E0.01672
G1 X135.470 Y91.425 E0.79201
G1 X136.003 Y91.425 E0.01672
G1 X118.143 Y73.564 E0.79201
G1 X118.676 Y73.564 E0.01672
G1 X136.536 Y91.425 E0.79201
G1 X137.070 Y91.425 E0.01672
G1 X119.209 Y73.564 E0.79201
G1 X119.743 Y73.564 E0.01672
G1 X137.603 Y91.425 E0.79201
G1 X138.136 Y91.425 E0.01672
G1 X120.276 Y73.564 E0.79201
G1 X120.809 Y73.564 E0.01672
G1 X138.669 Y91.425 E0.79201
G1 X139.203 Y91.425 E0.01672
G1 X121.343 Y73.564 E0.79201
G1 X121.876 Y73.564 E0.01672
G1 X139.736 Y91.425 E0.79201
G1 X140.269 Y91.425 E0.01672
G1 X122.409 Y73.564 E0.79201
G1 X122.942 Y73.564 E0.01672
G1 X140.803 Y91.425 E0.79201
G1 X141.336 Y91.425 E0.01672
G1 X123.476 Y73.564 E0.79201
G1 X124.009 Y73.564 E0.01672
G1 X141.869 Y91.425 E0.79201
G1 X142.403 Y91.425 E0.01672
G1 X124.542 Y73.564 E0.79201
G1 X125.076 Y73.564 E0.01672
G1 X142.936 Y91.425 E0.79201
G1 X143.469 Y91.425 E0.01672
G1 X125.609 Y73.564 E0.79201
G1 X126.142 Y73.564 E0.01672
G1 X144.003 Y91.425 E0.79201
G1 X144.536 Y91.425 E0.01672
G1 X126.676 Y73.564 E0.79201
G1 X127.209 Y73.564 E0.01672
G1 X145.069 Y91.425 E0.79201
G1 X145.602 Y91.425 E0.01672
G1 X127.742 Y73.564 E0.79201
G1 X128.276 Y73.564 E0.01672
G1 X146.136 Y91.425 E0.79201
G1 X146.669 Y91.425 E0.01672
G1 X128.809 Y73.564 E0.79201
G1 X129.342 Y73.564 E0.01672
G1 X147.202 Y91.425 E0.79201
G1 X147.736 Y91.425 E0.01672
G1 X129.875 Y73.564 E0.79201
G1 X130.409 Y73.564 E0.01672
G1 X148.269 Y91.425 E0.79201
G1 X148.802 Y91.425 E0.01672
G1 X130.942 Y73.564 E0.79201
G1 X131.475 Y73.564 E0.01672
G1 X149.336 Y91.425 E0.79201
G1 X149.869 Y91.425 E0.01672
G1 X132.009 Y73.564 E0.79201
M73 P3 R89
G1 X132.542 Y73.564 E0.01672
G1 X150.402 Y91.425 E0.79201
G1 X150.936 Y91.425 E0.01672
G1 X133.075 Y73.564 E0.79201
G1 X133.609 Y73.564 E0.01672
G1 X151.469 Y91.425 E0.79201
G1 X152.002 Y91.425 E0.01672
G1 X134.142 Y73.564 E0.79201
G1 X134.675 Y73.564 E0.01672
G1 X152.535 Y91.425 E0.79201
G1 X153.069 Y91.425 E0.01672
G1 X135.209 Y73.564 E0.79201
G1 X135.742 Y73.564 E0.01672
G1 X153.602 Y91.425 E0.79201
G1 X154.135 Y91.425 E0.01672
G1 X136.275 Y73.564 E0.79201
G1 X136.808 Y73.564 E0.01672
G1 X154.669 Y91.425 E0.79201
G1 X155.202 Y91.425 E0.01672
G1 X137.342 Y73.564 E0.79201
G1 X137.875 Y73.564 E0.01672
G1 X155.735 Y91.425 E0.79201
G1 X156.269 Y91.425 E0.01672
G1 X138.408 Y73.564 E0.79201
G1 X138.942 Y73.564 E0.01672
G1 X156.802 Y91.425 E0.79201
G1 X157.335 Y91.425 E0.01672
G1 X139.475 Y73.564 E0.79201
G1 X140.008 Y73.564 E0.01672
G1 X157.869 Y91.425 E0.79201
G1 X158.402 Y91.425 E0.01672
G1 X140.542 Y73.564 E0.79201
G1 X141.075 Y73.564 E0.01672
G1 X158.935 Y91.425 E0.79201
G1 X159.468 Y91.425 E0.01672
G1 X141.608 Y73.564 E0.79201
G1 X142.142 Y73.564 E0.01672
G1 X160.002 Y91.425 E0.79201
G1 X160.535 Y91.425 E0.01672
G1 X142.675 Y73.564 E0.79201
G1 X143.208 Y73.564 E0.01672
G1 X161.068 Y91.425 E0.79201
G1 X161.602 Y91.425 E0.01672
G1 X143.741 Y73.564 E0.79201
G1 X144.275 Y73.564 E0.01672
G1 X162.135 Y91.425 E0.79201
G1 X162.668 Y91.425 E0.01672
G1 X144.808 Y73.564 E0.79201
G1 X145.341 Y73.564 E0.01672
G1 X163.202 Y91.425 E0.79201
G1 X163.735 Y91.425 E0.01672
G1 X145.875 Y73.564 E0.79201
G1 X146.408 Y73.564 E0.01672
G1 X164.268 Y91.425 E0.79201
G1 X164.802 Y91.425 E0.01672
G1 X146.941 Y73.564 E0.79201
G1 X147.475 Y73.564 E0.01672
G1 X165.534 Y91.624 E0.80085
G1 X166.068 Y91.624 E0.01672
G1 X148.008 Y73.564 E0.80085
G1 X148.541 Y73.564 E0.01672
G1 X166.601 Y91.624 E0.80085
G1 X167.134 Y91.624 E0.01672
G1 X149.075 Y73.564 E0.80085
G1 X149.608 Y73.564 E0.01672
G1 X167.668 Y91.624 E0.80085
G1 X167.943 Y91.624 E0.00863
G1 X167.943 Y91.366 E0.00810
G1 X150.141 Y73.564 E0.78941
G1 X150.674 Y73.564 E0.01672
G1 X167.943 Y90.833 E0.76576
G1 X167.943 Y90.299 E0.01672
G1 X151.208 Y73.564 E0.74211
G1 X151.741 Y73.564 E0.01672
G1 X167.943 Y89.766 E0.71846
G1 X167.943 Y89.233 E0.01672
G1 X152.274 Y73.564 E0.69481
G1 X152.808 Y73.564 E0.01672
G1 X167.943 Y88.699 E0.67116
G1 X167.943 Y88.166 E0.01672
G1 X153.341 Y73.564 E0.64751
G1 X153.874 Y73.564 E0.01672
G1 X167.943 Y87.633 E0.62386
G1 X167.943 Y87.100 E0.01672
G1 X154.408 Y73.564 E0.60021
G1 X154.941 Y73.564 E0.01672
G1 X167.943 Y86.566 E0.57656
G1 X167.943 Y86.033 E0.01672
G1 X155.474 Y73.564 E0.55291
G1 X156.007 Y73.564 E0.01672
G1 X167.943 Y85.500 E0.52926
G1 X167.943 Y84.966 E0.01672
G1 X156.541 Y73.564 E0.50561
G1 X157.074 Y73.564 E0.01672
G1 X167.943 Y84.433 E0.48196
G1 X167.943 Y83.900 E0.01672
G1 X157.607 Y73.564 E0.45831
G1 X158.141 Y73.564 E0.01672
G1 X167.943 Y83.366 E0.43467
G1 X167.943 Y82.833 E0.01672
G1 X158.674 Y73.564 E0.41102
G1 X159.207 Y73.564 E0.01672
G1 X167.943 Y82.300 E0.38737
M73 P4 R88
G1 X167.943 Y81.766 E0.01672
G1 X159.741 Y73.564 E0.36372
G1 X160.274 Y73.564 E0.01672
G1 X167.943 Y81.233 E0.34007
G1 X167.943 Y80.700 E0.01672
G1 X160.807 Y73.564 E0.31642
G1 X161.341 Y73.564 E0.01672
G1 X167.943 Y80.167 E0.29277
G1 X167.943 Y79.633 E0.01672
G1 X161.874 Y73.564 E0.26912
G1 X162.407 Y73.564 E0.01672
G1 X167.943 Y79.100 E0.24547
G1 X167.943 Y78.567 E0.01672
G1 X162.940 Y73.564 E0.22182
G1 X163.474 Y73.564 E0.01672
G1 X167.943 Y78.033 E0.19817
G1 X167.943 Y77.500 E0.01672
G1 X164.007 Y73.564 E0.17452
G1 X164.540 Y73.564 E0.01672
G1 X167.943 Y76.967 E0.15087
G1 X167.943 Y76.433 E0.01672
G1 X165.074 Y73.564 E0.12722
G1 X165.082 Y73.344 E0.00692
G1 X165.387 Y73.344 E0.00953
G1 X167.943 Y75.900 E0.11335
G1 X167.943 Y75.367 E0.01672
G1 X165.920 Y73.344 E0.08970
G1 X166.453 Y73.344 E0.01672
G1 X167.943 Y74.833 E0.06605
G1 X167.943 Y74.300 E0.01672
G1 X166.986 Y73.344 E0.04241
G1 X167.520 Y73.344 E0.01672
G1 X168.112 Y73.937 E0.02628
; stop printing object Mount.stl id:1 copy 0
@Object Bed Arm.stl id:0 copy 0
G1 F8640.000
G1 X167.520 Y73.344 E-0.19352
G1 X166.986 Y73.344 E-0.12314
G1 X167.943 Y74.300 E-0.31226
G1 X167.943 Y74.833 E-0.12314
G1 X167.918 Y74.809 E-0.00793
G1 E-0.04000 F2100.00000
G1 Z0.800 F10800.000
G1 X140.223 Y132.355
G1 Z0.200
G1 E0.80000 F2100.00000
G1 F1200.000
G1 X140.223 Y135.929 E0.11207
G1 X132.649 Y135.929 E0.23748
G1 X132.649 Y132.355 E0.11207
G1 X140.163 Y132.355 E0.23560
G1 X139.846 Y132.732 F10800.000
G1 F1200.000
G1 X139.846 Y135.552 E0.08842
G1 X133.026 Y135.552 E0.21384
G1 X133.026 Y132.732 E0.08842
G1 X139.786 Y132.732 E0.21196
G1 X140.242 Y132.679 F10800.000
G1 F8640.000
G1 X139.846 Y135.552 E-0.65129
G1 X139.375 Y135.552 E-0.10871
G1 E-0.04000 F2100.00000
G1 Z0.800 F10800.000
G1 X82.649 Y132.355
G1 Z0.200
G1 E0.80000 F2100.00000
G1 F1200.000
G1 X90.223 Y132.355 E0.23748
G1 X90.223 Y135.929 E0.11207
G1 X82.649 Y135.929 E0.23748
G1 X82.649 Y132.415 E0.11018
G1 X83.026 Y132.732 F10800.000
G1 F1200.000
G1 X89.846 Y132.732 E0.21384
G1 X89.846 Y135.552 E0.08842
G1 X83.026 Y135.552 E0.21384
G1 X83.026 Y132.792 E0.08654
G1 X82.873 Y132.362 F10800.000
G1 F8640.000
G1 X86.317 Y132.763 E-0.76000
G1 E-0.04000 F2100.00000
G1 Z0.800 F10800.000
G1 X182.649 Y132.355
G1 Z0.200
G1 E0.80000 F2100.00000
G1 F1200.000
G1 X190.223 Y132.355 E0.23748
G1 X190.223 Y135.929 E0.11207
G1 X182.649 Y135.929 E0.23748
G1 X182.649 Y132.415 E0.11018
G1 X183.026 Y132.732 F10800.000
G1 F1200.000
G1 X189.846 Y132.732 E0.21384
G1 X189.846 Y135.552 E0.08842
G1 X183.026 Y135.552 E0.21384
G1 X183.026 Y132.792 E0.08654
G1 X182.873 Y132.362 F10800.000
G1 F8640.000
G1 X186.317 Y132.763 E-0.76000
G1 E-0.04000 F2100.00000
G1 Z0.800 F10800.000
G1 X198.976 Y124.567
G1 Z0.200
G1 E0.80000 F2100.00000
G1 F1200.000
G1 X198.807 Y124.205 E0.01252
G1 X198.704 Y123.820 E0.01252
G1 X198.669 Y123.422 E0.01252
G1 X198.704 Y123.024 E0.01252
G1 X198.807 Y122.639 E0.01252
G1 X198.976 Y122.277 E0.01252
G1 X199.205 Y121.950 E0.01252
