; generated by PrusaSlicer 2.4.2+x64 on 2022-07-27 at 16:53:54 UTC
;
;
;
;
; 
; external perimeters extrusion width = 0.45mm
; perimeters extrusion width = 0.45mm
; infill extrusion width = 0.45mm
; solid infill extrusion width = 0.45mm
; top infill extrusion width = 0.40mm
; first layer extrusion width = 0.42mm
M73 P0 R20
M201 X9000 Y9000 Z500 E10000 ; sets maximum accelerations, mm/sec^2
M203 X500 Y500 Z12 E120 ; sets maximum feedrates, mm / sec
M204 P2000 R1500 T2000 ; sets acceleration (P, T) and retract acceleration (R), mm/sec^2
M205 X10.00 Y10.00 Z0.20 E4.50 ; sets the jerk limits, mm/sec
M205 S0 T0 ; sets the minimum extruding and travel feed rate, mm/sec
M107
;TYPE:Custom
M83  ; extruder relative mode
M140 S85 ; set bed temp
M109 S160 ; Set extruder temp before bed level
M190 S85 ; wait for bed temp
G28 W ; home all without mesh bed level
G80 N7 ; mesh bed leveling
M109 S240 ; wait for extruder temp
M221 S100 ; Set flow to 100
G1 Y-3.0 F1000.0 ; go outside print area
G92 E0.0
G1 E8 ; Purge Bubble
G1 X60.0 E9.0 F1000.0 ; intro line
G1 X100.0 E12.5 F1000.0 ; intro line
G92 E0.0
G21 ; set units to millimeters
G90 ; use absolute coordinates
M83 ; use relative distances for extrusion
M900 K0.08 ; Filament gcode LA 1.5
M900 K45 ; Filament gcode LA 1.0
M107
;LAYER_CHANGE
M117 INDICATOR-Layer1
;Z:0.2
;HEIGHT:0.2
;BEFORE_LAYER_CHANGE
M117 DASHBOARD_LAYER_INDICATOR 1
G92 E0.0
;0.2
M73 P0 R19
G1 E-1 F2100
G1 Z.2 F720
;AFTER_LAYER_CHANGE
;0.2
G1 Z.4
G1 X105.139 Y95.113 F6000
G1 Z.2 F720
G1 E1 F2100
M204 S800
;TYPE:Skirt/Brim
;WIDTH:0.42
G1 F1200
G1 X106.205 Y94.099 E.04612
G1 X107.34 Y93.78 E.03698
G1 X137.34 Y92.038 E.94221
G1 X142.5 Y92.033 E.16178
G1 X143.917 Y92.426 E.04612
G1 X144.931 Y93.492 E.04612
G1 X145.254 Y94.788 E.04186
G1 X145.254 Y115.288 E.64276
G1 X144.861 Y116.705 E.04612
G1 X143.795 Y117.718 E.04612
G1 X142.5 Y118.042 E.04186
G1 X137.359 Y118.038 E.16119
G1 X107.359 Y116.501 E.94186
G1 X105.964 Y116.036 E.04612
M73 P1 R19
G1 X105.006 Y114.919 E.04612
G1 X104.746 Y113.75 E.03756
G1 X104.746 Y96.53 E.53992
G1 X105.123 Y95.17 E.04424
M204 S1000
G1 X105.497 Y95.282 F6000
M204 S800
G1 F1200
G1 X105.515 Y95.223 E.00195
G1 X106.56 Y94.347 E.04278
G1 X107.362 Y94.157 E.02584
G1 X137.362 Y92.414 E.94221
G1 X142.5 Y92.41 E.16109
G1 X143.807 Y92.802 E.04278
G1 X144.683 Y93.848 E.04278
G1 X144.877 Y94.788 E.03008
G1 X144.877 Y115.288 E.64276
G1 X144.485 Y116.595 E.04278
G1 X143.44 Y117.471 E.04278
G1 X142.5 Y117.665 E.03008
G1 X137.378 Y117.661 E.16059
G1 X107.378 Y116.124 E.94186
G1 X106.093 Y115.666 E.04278
G1 X105.271 Y114.577 E.04278
G1 X105.123 Y113.75 E.02634
G1 X105.123 Y96.53 E.53992
G1 X105.479 Y95.34 E.03895
M204 S1000
@Object Mount.stl id:0 copy 0
;WIPE_START
G1 F4800
G1 X105.515 Y95.223 E-.05076
G1 X106.56 Y94.347 E-.56709
G1 X107.338 Y94.163 E-.33215
;WIPE_END
G1 E-.05 F2100
G1 Z.4 F720
G1 X110.642 Y101.296 F6000
G1 Z.2 F720
G1 E1 F2100
M204 S800
;TYPE:Perimeter
G1 F1200
G1 X113.917 Y101.296 E.10266
G1 X113.917 Y108.67 E.23121
G1 X110.642 Y108.67 E.10266
G1 X110.642 Y101.356 E.22933
M204 S1000
G1 X111.019 Y101.673 F6000
M204 S800
;TYPE:External perimeter
G1 F1200
G1 X113.539 Y101.673 E.07901
G1 X113.539 Y108.293 E.20757
G1 X111.019 Y108.293 E.07901
G1 X111.019 Y101.733 E.20568
M204 S1000
G1 X110.971 Y101.276 F6000
;WIPE_START
G1 F4800
G1 X113.305 Y101.679 E-.95
;WIPE_END
G1 E-.05 F2100
G1 Z.4 F720
G1 X138.287 Y95.837 F6000
G1 Z.2 F720
G1 E1 F2100
M204 S800
;TYPE:Perimeter
G1 F1200
G1 X138.287 Y95.617 E.00691
G1 X141.713 Y95.617 E.10741
G1 X141.713 Y114.462 E.5909
G1 X138.287 Y114.462 E.10741
M73 P2 R19
G1 X138.287 Y114.263 E.00626
G1 X137.017 Y114.263 E.03981
G1 X108.287 Y112.997 E.90169
G1 X108.287 Y97.279 E.49284
G1 X137.02 Y95.837 E.90203
G1 X138.227 Y95.837 E.03786
M204 S1000
G1 X137.91 Y95.46 F6000
M204 S800
;TYPE:External perimeter
G1 F1200
G1 X137.91 Y95.239 E.00691
G1 X142.09 Y95.239 E.13106
G1 X142.09 Y114.84 E.61454
G1 X137.91 Y114.84 E.13106
G1 X137.91 Y114.64 E.00626
G1 X137.009 Y114.64 E.02825
G1 X107.91 Y113.358 E.91327
G1 X107.91 Y96.92 E.51539
G1 X137.01 Y95.46 E.91357
G1 X137.85 Y95.46 E.02633
M204 S1000
G1 X138.13 Y95.456 F6000
;WIPE_START
G1 F4800
G1 X137.91 Y95.239 E-.09498
G1 X139.967 Y95.239 E-.85502
;WIPE_END
G1 E-.05 F2100
G1 Z.4 F720
G1 X141.6 Y96.497 F6000
G1 Z.2 F720
G1 E1 F2100
M204 S800
;TYPE:Solid infill
;WIDTH:0.422298
G1 F1200
G1 X141.002 Y95.899 E.02665
G1 X140.466 Y95.899 E.01692
G1 X141.43 Y96.864 E.04302
G1 X141.43 Y97.4 E.01692
G1 X139.929 Y95.899 E.06695
G1 X139.393 Y95.899 E.01692
G1 X141.43 Y97.937 E.09089
G1 X141.43 Y98.473 E.01692
G1 X138.856 Y95.899 E.11482
G1 X138.57 Y95.899 E.00903
G1 X138.57 Y96.12 E.00696
G1 X138.54 Y96.12 E.00093
G1 X141.43 Y99.01 E.12892
G1 X141.43 Y99.546 E.01692
G1 X138.004 Y96.12 E.15286
G1 X137.467 Y96.12 E.01692
G1 X141.43 Y100.083 E.17679
G1 X141.43 Y100.619 E.01692
G1 X136.935 Y96.124 E.20052
G1 X136.424 Y96.15 E.01614
G1 X141.43 Y101.156 E.22332
G1 X141.43 Y101.692 E.01692
M73 P3 R19
G1 X135.913 Y96.176 E.24611
G1 X135.403 Y96.201 E.01614
G1 X141.43 Y102.229 E.2689
G1 X141.43 Y102.765 E.01692
G1 X134.892 Y96.227 E.29169
G1 X134.381 Y96.253 E.01614
G1 X141.43 Y103.302 E.31448
G1 X141.43 Y103.838 E.01692
G1 X133.87 Y96.278 E.33728
G1 X133.359 Y96.304 E.01614
G1 X141.43 Y104.375 E.36007
G1 X141.43 Y104.911 E.01692
G1 X132.848 Y96.33 E.38286
G1 X132.337 Y96.355 E.01614
G1 X141.43 Y105.448 E.40565
G1 X141.43 Y105.985 E.01692
G1 X131.826 Y96.381 E.42844
G1 X131.315 Y96.406 E.01614
G1 X141.43 Y106.521 E.45123
G1 X141.43 Y107.058 E.01692
G1 X130.805 Y96.432 E.47403
G1 X130.294 Y96.458 E.01614
G1 X141.43 Y107.594 E.49682
G1 X141.43 Y108.131 E.01692
G1 X129.783 Y96.483 E.51961
G1 X129.272 Y96.509 E.01614
G1 X141.43 Y108.667 E.5424
G1 X141.43 Y109.204 E.01692
G1 X128.761 Y96.535 E.56519
G1 X128.25 Y96.56 E.01614
G1 X141.43 Y109.74 E.58799
G1 X141.43 Y110.277 E.01692
G1 X127.739 Y96.586 E.61078
G1 X127.228 Y96.611 E.01614
M73 P4 R19
G1 X141.43 Y110.813 E.63357
G1 X141.43 Y111.35 E.01692
G1 X126.717 Y96.637 E.65636
G1 X126.207 Y96.663 E.01614
G1 X141.43 Y111.886 E.67915
G1 X141.43 Y112.423 E.01692
G1 X125.696 Y96.688 E.70194
G1 X125.185 Y96.714 E.01614
G1 X141.43 Y112.959 E.72474
G1 X141.43 Y113.496 E.01692
G1 X124.674 Y96.74 E.74753
G1 X124.163 Y96.765 E.01614
G1 X141.43 Y114.032 E.77032
G1 X141.43 Y114.18 E.00465
G1 X141.041 Y114.18 E.01228
G1 X123.652 Y96.791 E.77575
G1 X123.141 Y96.817 E.01614
G1 X140.504 Y114.18 E.7746
G1 X139.968 Y114.18 E.01692
G1 X122.63 Y96.842 E.77346
G1 X122.119 Y96.868 E.01614
M73 P5 R19
G1 X139.431 Y114.18 E.77232
G1 X138.895 Y114.18 E.01692
M73 P5 R18
G1 X121.609 Y96.893 E.77117
G1 X121.098 Y96.919 E.01614
G1 X138.159 Y113.98 E.76113
G1 X137.622 Y113.98 E.01692
G1 X120.587 Y96.945 E.75998
G1 X120.076 Y96.97 E.01614
G1 X137.086 Y113.98 E.75884
G1 X136.527 Y113.958 E.01763
G1 X119.565 Y96.996 E.75672
G1 X119.054 Y97.022 E.01614
G1 X135.966 Y113.934 E.75448
G1 X135.405 Y113.909 E.01772
G1 X118.543 Y97.047 E.75223
G1 X118.032 Y97.073 E.01614
G1 X134.844 Y113.884 E.74998
G1 X134.282 Y113.859 E.01772
G1 X117.521 Y97.098 E.74774
G1 X117.011 Y97.124 E.01614
M73 P6 R18
G1 X133.721 Y113.835 E.74549
G1 X133.16 Y113.81 E.01772
G1 X116.5 Y97.15 E.74324
G1 X115.989 Y97.175 E.01614
G1 X132.599 Y113.785 E.74099
G1 X132.037 Y113.76 E.01772
G1 X115.478 Y97.201 E.73875
G1 X114.967 Y97.227 E.01614
G1 X131.476 Y113.736 E.7365
G1 X130.915 Y113.711 E.01772
G1 X114.456 Y97.252 E.73425
G1 X113.945 Y97.278 E.01614
G1 X130.354 Y113.686 E.73201
G1 X129.792 Y113.661 E.01772
G1 X113.434 Y97.304 E.72976
G1 X112.923 Y97.329 E.01614
G1 X129.231 Y113.637 E.72751
G1 X128.67 Y113.612 E.01772
G1 X112.413 Y97.355 E.72527
G1 X111.902 Y97.38 E.01614
M73 P7 R18
G1 X128.109 Y113.587 E.72302
G1 X127.547 Y113.563 E.01772
G1 X111.391 Y97.406 E.72077
G1 X110.88 Y97.432 E.01614
G1 X126.986 Y113.538 E.71853
G1 X126.425 Y113.513 E.01772
G1 X110.369 Y97.457 E.71628
G1 X109.858 Y97.483 E.01614
G1 X113.388 Y101.013 E.15749
G1 X112.852 Y101.013 E.01692
G1 X109.347 Y97.509 E.15634
G1 X108.836 Y97.534 E.01614
G1 X112.315 Y101.013 E.1552
G1 X111.779 Y101.013 E.01692
G1 X108.57 Y97.804 E.14315
G1 X108.57 Y98.341 E.01692
G1 X111.242 Y101.013 E.11922
G1 X110.706 Y101.013 E.01692
G1 X108.57 Y98.877 E.09528
G1 X108.57 Y99.414 E.01692
G1 X110.36 Y101.204 E.07984
G1 X110.36 Y101.74 E.01692
G1 X108.57 Y99.95 E.07984
G1 X108.57 Y100.487 E.01692
G1 X110.36 Y102.277 E.07984
G1 X110.36 Y102.813 E.01692
G1 X108.57 Y101.023 E.07984
G1 X108.57 Y101.56 E.01692
G1 X110.36 Y103.35 E.07984
G1 X110.36 Y103.886 E.01692
G1 X108.57 Y102.096 E.07984
G1 X108.57 Y102.633 E.01692
G1 X110.36 Y104.423 E.07984
G1 X110.36 Y104.959 E.01692
G1 X108.57 Y103.169 E.07984
G1 X108.57 Y103.706 E.01692
G1 X110.36 Y105.496 E.07984
G1 X110.36 Y106.032 E.01692
G1 X108.57 Y104.243 E.07984
G1 X108.57 Y104.779 E.01692
G1 X110.36 Y106.569 E.07984
G1 X110.36 Y107.105 E.01692
G1 X108.57 Y105.316 E.07984
G1 X108.57 Y105.852 E.01692
G1 X110.36 Y107.642 E.07984
G1 X110.36 Y108.178 E.01692
G1 X108.4 Y106.219 E.08741
M204 S1000
;WIPE_START
G1 F4800
G1 X110.016 Y107.835 E-.95
;WIPE_END
G1 E-.05 F2100
G1 Z.4 F720
G1 X114.03 Y101.654 F6000
G1 Z.2 F720
G1 E1 F2100
M204 S800
G1 F1200
G1 X125.863 Y113.488 E.52793
G1 X125.302 Y113.464 E.01772
G1 X114.199 Y102.361 E.49532
G1 X114.199 Y102.897 E.01692
G1 X124.741 Y113.439 E.47028
G1 X124.18 Y113.414 E.01772
G1 X114.199 Y103.434 E.44524
G1 X114.199 Y103.97 E.01692
M73 P8 R18
G1 X123.618 Y113.389 E.42021
G1 X123.057 Y113.365 E.01772
G1 X114.199 Y104.507 E.39517
G1 X114.199 Y105.043 E.01692
G1 X122.496 Y113.34 E.37013
G1 X121.935 Y113.315 E.01772
G1 X114.199 Y105.58 E.34509
G1 X114.199 Y106.116 E.01692
G1 X121.373 Y113.29 E.32005
G1 X120.812 Y113.266 E.01772
G1 X114.199 Y106.653 E.29501
G1 X114.199 Y107.189 E.01692
G1 X120.251 Y113.241 E.26997
G1 X119.69 Y113.216 E.01772
G1 X114.199 Y107.726 E.24494
G1 X114.199 Y108.262 E.01692
G1 X119.128 Y113.192 E.2199
G1 X118.567 Y113.167 E.01772
G1 X114.199 Y108.799 E.19486
G1 X114.199 Y108.953 E.00485
G1 X113.817 Y108.953 E.01207
G1 X118.006 Y113.142 E.18689
G1 X117.445 Y113.117 E.01772
G1 X113.28 Y108.953 E.18579
G1 X112.744 Y108.953 E.01692
G1 X116.883 Y113.093 E.18468
G1 X116.322 Y113.068 E.01772
G1 X112.207 Y108.953 E.18358
G1 X111.671 Y108.953 E.01692
G1 X115.761 Y113.043 E.18248
G1 X115.2 Y113.018 E.01772
G1 X110.964 Y108.783 E.18894
M204 S1000
;WIPE_START
G1 F4800
G1 X112.581 Y110.399 E-.95
;WIPE_END
G1 E-.05 F2100
G1 Z.4 F720
G1 X108.4 Y106.755 F6000
G1 Z.2 F720
G1 E1 F2100
M204 S800
G1 F1200
G1 X114.638 Y112.994 E.2783
G1 X114.077 Y112.969 E.01772
G1 X108.57 Y107.462 E.24569
G1 X108.57 Y107.998 E.01692
G1 X113.516 Y112.944 E.22065
G1 X112.955 Y112.919 E.01772
G1 X108.57 Y108.535 E.19561
G1 X108.57 Y109.071 E.01692
G1 X112.393 Y112.895 E.17057
G1 X111.832 Y112.87 E.01772
G1 X108.57 Y109.608 E.14553
G1 X108.57 Y110.144 E.01692
G1 X111.271 Y112.845 E.1205
G1 X110.71 Y112.821 E.01772
G1 X108.57 Y110.681 E.09546
G1 X108.57 Y111.217 E.01692
G1 X110.148 Y112.796 E.07042
G1 X109.587 Y112.771 E.01772
G1 X108.57 Y111.754 E.04538
G1 X108.57 Y112.29 E.01692
G1 X109.204 Y112.924 E.02827
M204 S1000
@Objectstop Mount.stl id:0 copy 0
;LAYER_CHANGE
M117 INDICATOR-Layer2
;Z:0.4
;HEIGHT:0.2
;BEFORE_LAYER_CHANGE
M117 DASHBOARD_LAYER_INDICATOR 2
G92 E0.0
;0.4
;WIPE_START
G1 F4800
G1 X108.57 Y112.29 E-.37245
G1 X108.57 Y111.754 E-.22299
G1 X109.173 Y112.357 E-.35456
;WIPE_END
G1 E-.05 F2100
G1 Z.4 F720
;AFTER_LAYER_CHANGE
;0.4
M104 S250 ; set temperature
M140 S90 ; set bed temperature
G1 Z.6
G1 X108.957 Y116.582 F6000
G1 Z.4 F720
G1 E1 F2100
;TYPE:Skirt/Brim
;WIDTH:0.42
G1 F3600
G1 X107.359 Y116.501 E.05015
G1 X105.964 Y116.036 E.04612
G1 X105.006 Y114.919 E.04612
G1 X104.746 Y113.75 E.03756
G1 X104.746 Y96.53 E.53992
G1 X105.139 Y95.113 E.04612
G1 X106.205 Y94.099 E.04612
M73 P9 R18
G1 X107.34 Y93.78 E.03698
G1 X137.34 Y92.038 E.94221
G1 X142.5 Y92.033 E.16178
G1 X143.917 Y92.426 E.04612
G1 X144.931 Y93.492 E.04612
G1 X145.254 Y94.788 E.04186
G1 X145.254 Y115.288 E.64276
G1 X144.861 Y116.705 E.04612
G1 X143.795 Y117.718 E.04612
G1 X142.5 Y118.042 E.04186
G1 X137.359 Y118.038 E.16119
G1 X109.016 Y116.585 E.88983
G1 X109.036 Y116.209 F6000
G1 F3600
G1 X107.378 Y116.124 E.05204
G1 X106.093 Y115.666 E.04278
G1 X105.271 Y114.577 E.04278
G1 X105.123 Y113.75 E.02634
G1 X105.123 Y96.53 E.53992
G1 X105.515 Y95.223 E.04278
G1 X106.56 Y94.347 E.04278
G1 X107.362 Y94.157 E.02584
G1 X137.362 Y92.414 E.94221
G1 X142.5 Y92.41 E.16109
G1 X143.807 Y92.802 E.04278
G1 X144.683 Y93.848 E.04278
G1 X144.877 Y94.788 E.03008
G1 X144.877 Y115.288 E.64276
G1 X144.485 Y116.595 E.04278
G1 X143.44 Y117.471 E.04278
G1 X142.5 Y117.665 E.03008
G1 X137.378 Y117.661 E.16059
G1 X109.096 Y116.212 E.88795
@Object Mount.stl id:0 copy 0
;WIPE_START
G1 F4800
G1 X107.378 Y116.124 E-.71471
G1 X106.845 Y115.934 E-.23529
;WIPE_END
G1 E-.05 F2100
G1 Z.6 F720
G1 X110.797 Y108.515 F6000
G1 Z.4 F720
G1 E1 F2100
M204 S800
;TYPE:Perimeter
;WIDTH:0.45
G1 F1800
G1 X110.797 Y101.451 E.23911
G1 X113.762 Y101.451 E.10033
G1 X113.762 Y108.515 E.23911
G1 X110.857 Y108.515 E.0983
M204 S1000
G1 X111.204 Y108.108 F6000
M204 S800
;TYPE:External perimeter
G1 F1800
G1 X111.204 Y101.858 E.21156
G1 X113.354 Y101.858 E.07277
G1 X113.354 Y108.108 E.21156
G1 X111.264 Y108.108 E.07074
M204 S1000
G1 X110.838 Y108.269 F6000
;WIPE_START
G1 F4800
G1 X111.243 Y105.822 E-.95
;WIPE_END
G1 E-.05 F2100
G1 Z.6 F720
G1 X138.132 Y114.418 F6000
G1 Z.4 F720
G1 E1 F2100
M204 S800
;TYPE:Perimeter
G1 F3600
G1 X137.014 Y114.418 E.03785
G1 X108.132 Y113.145 E.97856
G1 X108.132 Y97.131 E.54205
G1 X137.016 Y95.682 E.97891
G1 X138.132 Y95.682 E.03778
G1 X138.132 Y95.441 E.00817
G1 X141.868 Y95.441 E.12645
G1 X141.868 Y114.636 E.64976
G1 X138.132 Y114.636 E.12645
G1 X138.132 Y114.478 E.00537
M204 S1000
G1 X137.725 Y114.825 F6000
M204 S800
;TYPE:External perimeter
G1 F3000
G1 X137.005 Y114.825 E.02437
G1 X107.725 Y113.535 E.99205
G1 X107.725 Y96.744 E.56835
G1 X137.006 Y95.275 E.99236
G1 X137.725 Y95.275 E.02435
G1 X137.725 Y95.033 E.00817
G1 X142.275 Y95.033 E.15401
G1 X142.275 Y115.044 E.67731
G1 X137.725 Y115.044 E.15401
G1 X137.725 Y114.885 E.00537
M204 S1000
G1 X137.531 Y114.475 F6000
;WIPE_START
G1 F4800
G1 X137.005 Y114.825 E-.30031
G1 X135.443 Y114.756 E-.64969
;WIPE_END
G1 E-.05 F2100
G1 Z.6 F720
G1 X140.92 Y114.514 F6000
G1 Z.4 F720
G1 E1 F2100
M204 S2000
;TYPE:Solid infill
;WIDTH:0.451426
G1 F5875.067
G1 X141.563 Y113.872 E.03088
G1 X141.563 Y113.294 E.01962
G1 X140.525 Y114.331 E.04983
G1 X139.948 Y114.331 E.01962
G1 X141.563 Y112.716 E.07758
G1 X141.563 Y112.138 E.01962
G1 X139.37 Y114.331 E.10533
G1 X138.792 Y114.331 E.01962
G1 X141.563 Y111.561 E.13308
G1 X141.563 Y110.983 E.01962
G1 X138.433 Y114.113 E.15034
G1 X137.855 Y114.113 E.01962
G1 X141.563 Y110.405 E.17809
G1 X141.563 Y109.828 E.01962
G1 X137.278 Y114.113 E.20584
G1 X136.713 Y114.099 E.01917
M73 P10 R18
G1 X141.563 Y109.25 E.23294
G1 X141.563 Y108.672 E.01962
G1 X136.16 Y114.075 E.25952
G1 X135.607 Y114.05 E.01881
G1 X141.563 Y108.094 E.2861
G1 X141.563 Y107.517 E.01962
G1 X135.053 Y114.026 E.31269
G1 X134.5 Y114.002 E.01881
G1 X141.563 Y106.939 E.33927
G1 X141.563 Y106.361 E.01962
G1 X133.947 Y113.977 E.36585
G1 X133.393 Y113.953 E.01881
M73 P10 R17
G1 X141.563 Y105.784 E.39243
G1 X141.563 Y105.206 E.01962
G1 X132.84 Y113.928 E.41901
G1 X132.287 Y113.904 E.01881
G1 X141.563 Y104.628 E.44559
G1 X141.563 Y104.05 E.01962
G1 X131.733 Y113.88 E.47217
G1 X131.18 Y113.855 E.01881
G1 X141.563 Y103.473 E.49875
G1 X141.563 Y102.895 E.01962
G1 X130.627 Y113.831 E.52533
G1 X130.073 Y113.806 E.01881
G1 X141.563 Y102.317 E.55191
G1 X141.563 Y101.74 E.01962
G1 X129.52 Y113.782 E.57849
G1 X128.967 Y113.758 E.01881
G1 X141.563 Y101.162 E.60507
G1 X141.563 Y100.584 E.01962
G1 X128.413 Y113.733 E.63165
G1 X127.86 Y113.709 E.01881
G1 X141.563 Y100.006 E.65823
G1 X141.563 Y99.429 E.01962
G1 X127.307 Y113.685 E.68481
G1 X126.753 Y113.66 E.01881
G1 X141.563 Y98.851 E.71139
G1 X141.563 Y98.273 E.01962
G1 X126.2 Y113.636 E.73797
G1 X125.647 Y113.611 E.01881
