; generated by PrusaSlicer 2.5.0+MacOS-x64 on 2022-11-05 at 23:05:23 UTC


;
;

;
;
; 

; external perimeters extrusion width = 0.45mm
; perimeters extrusion width = 0.45mm
; infill extrusion width = 0.45mm
; solid infill extrusion width = 0.45mm
; top infill extrusion width = 0.40mm
; first layer extrusion width = 0.42mm

M73 P0 R51
M201 X9000 Y9000 Z500 E10000 ; sets maximum accelerations, mm/sec^2
M203 X500 Y500 Z12 E120 ; sets maximum feedrates, mm / sec
M204 P2000 R1500 T2000 ; sets acceleration (P, T) and retract acceleration (R), mm/sec^2
M205 X10.00 Y10.00 Z0.20 E4.50 ; sets the jerk limits, mm/sec
M205 S0 T0 ; sets the minimum extruding and travel feed rate, mm/sec
M107
;TYPE:Custom
M83  ; extruder relative mode
M140 S85 ; set bed temp
M109 S160 ; Set extruder temp before bed level
M190 S85 ; wait for bed temp

G28 W ; home all without mesh bed level
G80 N7 ; mesh bed leveling

M109 S240 ; wait for extruder temp

M221 S100 ; Set flow to 100

G1 Y-3.0 F1000.0 ; go outside print area
G92 E0.0
G1 E8 ; Purge Bubble
G1 X60.0 E9.0 F1000.0 ; intro line
G1 X100.0 E12.5 F1000.0 ; intro line
G92 E0.0
G21 ; set units to millimeters
G90 ; use absolute coordinates
M83 ; use relative distances for extrusion
M900 K0.08 ; Filament gcode LA 1.5
M900 K45 ; Filament gcode LA 1.0
M107
;LAYER_CHANGE
;Z:0.2
;HEIGHT:0.2
;BEFORE_LAYER_CHANGE
G92 E0.0
;0.2


G1 E-1 F2100
G1 Z.2 F720
;AFTER_LAYER_CHANGE
;0.2
G1 Z.4
G1 X111.237 Y93.123 F6000
G1 Z.2 F720
G1 E1 F2100
M204 S800
;TYPE:Skirt/Brim
;WIDTH:0.42
G1 F1200
G1 X112.051 Y92.209 E.03837
G1 X113.029 Y91.313 E.04158
G1 X114.01 Y90.582 E.03837
G1 X115.52 Y89.71 E.05466
G1 X116.532 Y89.269 E.0346
G1 X118.025 Y88.798 E.04909
G1 X120.203 Y88.455 E.06913
G1 X127.987 Y88.425 E.24407
G1 X129.122 Y88.669 E.03638
G1 X135.408 Y91.51 E.21629
G1 X136.418 Y92.035 E.03571
G1 X137.997 Y93.181 E.06116
G1 X138.964 Y94.148 E.04289
G1 X139.538 Y94.862 E.02872
G1 X140.222 Y95.92 E.03949
G1 X140.685 Y96.848 E.03252
G1 X141.186 Y98.248 E.04663
G1 X141.451 Y99.48 E.03952
G1 X141.57 Y100.842 E.04285
G1 X141.524 Y102.1 E.03948
G1 X141.273 Y103.568 E.0467
G1 X140.978 Y104.562 E.0325
G1 X140.111 Y106.422 E.06434
G1 X138.965 Y108.001 E.06118
G1 X128.422 Y118.576 E.46819
G1 X127.19 Y119.61 E.05043
G1 X126.124 Y120.28 E.03949
G1 X124.882 Y120.859 E.04295
G1 X123.686 Y121.244 E.03943
G1 X122.669 Y121.451 E.03254
G1 X121.308 Y121.571 E.04284
G1 X120.049 Y121.523 E.03948
G1 X118.581 Y121.273 E.0467
G1 X117.587 Y120.978 E.0325
G1 X116.026 Y120.28 E.05363
G1 X114.863 Y119.538 E.04325
G1 X113.727 Y118.576 E.04667
G1 X112.608 Y117.284 E.05359
G1 X111.604 Y115.61 E.06119
G1 X108.669 Y109.122 E.2233
G1 X108.425 Y107.987 E.03638
G1 X108.43 Y100.792 E.2256
G1 X108.636 Y98.769 E.06378
M73 P0 R50
G1 X109.15 Y96.853 E.06219
G1 X109.657 Y95.628 E.04158
G1 X110.238 Y94.55 E.03837
G1 X111.203 Y93.172 E.05276
M204 S1000
G1 X111.511 Y93.388 F6000
M204 S800
G1 F1200
G1 X112.318 Y92.475 E.03818
G1 X113.271 Y91.602 E.04055
G1 X114.213 Y90.9 E.03683
G1 X115.126 Y90.34 E.03357
G1 X116.676 Y89.618 E.05363
G1 X118.107 Y89.167 E.04703
G1 X120.22 Y88.832 E.06707
G1 X127.987 Y88.802 E.24356
G1 X128.966 Y89.013 E.03139
G1 X135.248 Y91.851 E.21615
G1 X136.229 Y92.362 E.03468
G1 X137.742 Y93.459 E.05858
G1 X138.686 Y94.403 E.04186
G1 X139.239 Y95.092 E.02769
G1 X139.895 Y96.108 E.03794
G1 X140.336 Y96.992 E.03098
G1 X140.793 Y98.246 E.04184
G1 X141.077 Y99.53 E.04122
G1 X141.194 Y100.858 E.04182
G1 X141.148 Y102.067 E.03793
G1 X140.905 Y103.486 E.04515
G1 X140.624 Y104.433 E.03096
G1 X140.201 Y105.454 E.03464
G1 X139.73 Y106.322 E.03096
G1 X139.24 Y107.057 E.02772
G1 X138.381 Y108.081 E.04188
G1 X128.156 Y118.309 E.45347
G1 X126.974 Y119.301 E.04837
G1 X125.95 Y119.945 E.03794
G1 X124.738 Y120.51 E.04192
G1 X123.588 Y120.88 E.03788
G1 X122.62 Y121.078 E.03099
G1 X121.291 Y121.194 E.04182
G1 X120.082 Y121.148 E.03793
G1 X118.663 Y120.905 E.04515
G1 X117.716 Y120.623 E.03096
G1 X116.2 Y119.945 E.05209
G1 X115.092 Y119.239 E.04119
G1 X113.994 Y118.309 E.04513
G1 X112.907 Y117.054 E.05205
G1 X111.946 Y115.451 E.05861
G1 X109.013 Y108.966 E.22316
G1 X108.802 Y107.987 E.03139
G1 X108.806 Y100.809 E.22508
G1 X109.008 Y98.834 E.06223
G1 X109.504 Y96.982 E.06013
G1 X109.999 Y95.787 E.04055
G1 X110.556 Y94.753 E.03683
G1 X111.477 Y93.437 E.05036
M204 S1000
;WIPE_START
G1 F4800
G1 X112.318 Y92.475 E-.5309
G1 X113.061 Y91.794 E-.4191
;WIPE_END
G1 E-.05 F2100
G1 Z.4 F720
G1 X113.582 Y95.07 F6000
G1 Z.2 F720
G1 E1 F2100
M204 S800
G1 F1200
G1 X113.732 Y94.877 E.00765
G1 X114.33 Y94.23 E.02763
G1 X114.991 Y93.636 E.02786
G1 X115.57 Y93.199 E.02275
G1 X116.167 Y92.813 E.02229
G1 X117.02 Y92.363 E.03022
G1 X117.807 Y92.038 E.02671
G1 X118.607 Y91.788 E.02629
G1 X119.427 Y91.608 E.0263
G1 X120.253 Y91.501 E.02613
G1 X121.023 Y91.465 E.02416
G1 X126.278 Y91.469 E.16475
G1 X127.449 Y91.717 E.03754
G1 X128.517 Y92.238 E.03726
G1 X129.516 Y93.118 E.04174
G1 X129.942 Y93.711 E.02288
G1 X130.816 Y93.62 E.02758
G1 X131.821 Y93.652 E.03151
G1 X132.774 Y93.812 E.03029
G1 X133.649 Y94.073 E.02865
G1 X134.703 Y94.558 E.03636
G1 X135.509 Y95.078 E.03007
G1 X136.257 Y95.709 E.03068
G1 X137.291 Y96.952 E.05068
G1 X137.867 Y97.994 E.03735
G1 X138.269 Y99.111 E.03723
G1 X138.521 Y100.667 E.04942
G1 X138.485 Y101.916 E.03915
G1 X138.246 Y103.123 E.03858
G1 X137.934 Y104.001 E.02922
G1 X137.517 Y104.832 E.02914
G1 X136.837 Y105.81 E.03736
G1 X135.94 Y106.728 E.04024
G1 X134.862 Y107.501 E.04158
G1 X133.604 Y108.093 E.0436
G1 X132.283 Y108.437 E.04281
G1 X131.053 Y108.536 E.03869
G1 X129.919 Y108.434 E.03567
G1 X129.443 Y109.118 E.02613
G1 X128.818 Y109.691 E.02659
G1 X128.444 Y109.949 E.01426
G1 X128.533 Y110.903 E.03004
G1 X128.485 Y111.929 E.0322
G1 X128.264 Y113.065 E.0363
G1 X127.858 Y114.178 E.03712
G1 X127.233 Y115.283 E.03983
G1 X126.536 Y116.152 E.03492
G1 X125.754 Y116.882 E.03354
G1 X124.612 Y117.641 E.04299
G1 X123.593 Y118.094 E.03496
G1 X122.536 Y118.388 E.0344
G1 X121.13 Y118.532 E.04433
G1 X120.114 Y118.469 E.03193
G1 X119.092 Y118.263 E.03268
G1 X117.8 Y117.776 E.0433
G1 X116.974 Y117.303 E.02984
G1 X116.201 Y116.719 E.03038
G1 X115.349 Y115.853 E.03808
G1 X114.647 Y114.859 E.03816
G1 X114.047 Y113.575 E.04441
G1 X113.759 Y112.533 E.03392
G1 X113.644 Y111.738 E.02519
G1 X113.616 Y110.954 E.02458
G1 X113.711 Y109.924 E.03246
G1 X113.073 Y109.478 E.0244
G1 X112.319 Y108.635 E.03547
G1 X111.744 Y107.528 E.03909
G1 X111.465 Y106.208 E.04232
G1 X111.466 Y100.999 E.16333
G1 X111.502 Y100.244 E.0237
G1 X111.598 Y99.485 E.02399
G1 X111.812 Y98.519 E.03102
G1 X112.071 Y97.718 E.02638
G1 X112.406 Y96.929 E.0269
G1 X112.81 Y96.173 E.02685
G1 X113.244 Y95.506 E.02496
G1 X113.545 Y95.117 E.01542
M204 S1000
G1 X113.843 Y95.348 F6000
M204 S800
G1 F1200
G1 X114.024 Y95.115 E.00927
G1 X114.601 Y94.493 E.02658
G1 X115.225 Y93.932 E.02632
G1 X115.781 Y93.511 E.02184
G1 X116.365 Y93.134 E.0218
G1 X117.187 Y92.701 E.02915
G1 X117.943 Y92.39 E.02561
G1 X118.712 Y92.15 E.02526
G1 X119.499 Y91.978 E.02527
G1 X120.293 Y91.876 E.02512
G1 X121.027 Y91.842 E.02302
G1 X126.257 Y91.846 E.16398
G1 X127.346 Y92.081 E.03493
G1 X128.327 Y92.565 E.03429
G1 X129.249 Y93.385 E.03869
G1 X129.76 Y94.11 E.02783
G1 X130.818 Y93.997 E.03335
G1 X131.771 Y94.026 E.02989
G1 X132.699 Y94.182 E.02951
G1 X133.528 Y94.431 E.02713
G1 X134.51 Y94.882 E.03387
G1 X135.294 Y95.389 E.02927
G1 X136.001 Y95.986 E.02902
G1 X136.97 Y97.15 E.04749
G1 X137.517 Y98.137 E.03537
G1 X137.909 Y99.223 E.0362
G1 X138.144 Y100.675 E.04613
G1 X138.112 Y101.858 E.03711
G1 X137.879 Y103.036 E.03764
G1 X137.583 Y103.863 E.02754
G1 X137.187 Y104.65 E.02763
G1 X136.537 Y105.581 E.0356
G1 X135.683 Y106.452 E.03824
G1 X134.658 Y107.184 E.03949
G1 X133.46 Y107.743 E.04144
G1 X132.205 Y108.067 E.04066
G1 X131.04 Y108.159 E.03665
G1 X129.733 Y108.038 E.04114
G1 X129.172 Y108.855 E.03107
G1 X128.574 Y109.404 E.02546
G1 X128.047 Y109.762 E.01999
G1 X128.156 Y110.9 E.03583
G1 X128.113 Y111.871 E.03047
G1 X127.897 Y112.978 E.03538
G1 X127.51 Y114.033 E.03523
G1 X126.929 Y115.06 E.03699
G1 X126.269 Y115.887 E.03318
G1 X125.531 Y116.577 E.03167
G1 X124.443 Y117.303 E.04101
G1 X123.479 Y117.735 E.03314
G1 X122.451 Y118.02 E.03345
G1 X121.138 Y118.155 E.04137
G1 X120.15 Y118.093 E.03103
G1 X119.182 Y117.897 E.03099
G1 X117.974 Y117.441 E.04047
G1 X117.172 Y116.982 E.02898
G1 X116.439 Y116.427 E.0288
G1 X115.629 Y115.601 E.0363
G1 X114.965 Y114.656 E.03619
G1 X114.396 Y113.431 E.04235
G1 X114.131 Y112.466 E.03137
G1 X114.02 Y111.714 E.02385
G1 X113.993 Y110.953 E.02386
G1 X114.108 Y109.737 E.03829
G1 X113.338 Y109.209 E.02925
G1 X112.616 Y108.402 E.03397
G1 X112.092 Y107.379 E.03604
G1 X111.842 Y106.189 E.03814
G1 X111.843 Y101.003 E.16258
G1 X111.878 Y100.269 E.02304
G1 X111.971 Y99.541 E.02301
G1 X112.178 Y98.61 E.02993
G1 X112.427 Y97.843 E.02527
G1 X112.743 Y97.099 E.02535
G1 X113.13 Y96.372 E.02583
G1 X113.547 Y95.731 E.02397
G1 X113.806 Y95.396 E.01329
M204 S1000
G1 X114.104 Y95.627 F6000
M204 S800
G1 F1200
G1 X114.317 Y95.353 E.01089
G1 X114.859 Y94.768 E.02501
G1 X115.459 Y94.228 E.0253
G1 X116.003 Y93.816 E.02137
G1 X116.562 Y93.456 E.02087
G1 X117.355 Y93.039 E.02808
G1 X118.078 Y92.742 E.02451
G1 X118.816 Y92.513 E.02422
G1 X119.571 Y92.348 E.02423
G1 X120.333 Y92.251 E.0241
G1 X121.031 Y92.22 E.02189
G1 X126.236 Y92.223 E.1632
G1 X127.241 Y92.444 E.03228
G1 X128.135 Y92.89 E.0313
G1 X128.98 Y93.65 E.03563
G1 X129.454 Y94.331 E.02605
G1 X129.552 Y94.555 E.00764
G1 X129.861 Y94.478 E.00999
G1 X130.845 Y94.374 E.03102
G1 X131.746 Y94.402 E.02826
G1 X132.624 Y94.552 E.02793
G1 X133.407 Y94.788 E.02563
G1 X134.317 Y95.207 E.03141
G1 X135.06 Y95.685 E.0277
G1 X135.745 Y96.264 E.02812
G1 X136.648 Y97.349 E.04428
G1 X137.18 Y98.306 E.03433
G1 X137.548 Y99.334 E.03422
G1 X137.767 Y100.682 E.04285
G1 X137.735 Y101.832 E.03604
G1 X137.512 Y102.948 E.03569
G1 X137.232 Y103.724 E.02587
G1 X136.856 Y104.468 E.02613
G1 X136.237 Y105.352 E.03384
G1 X135.426 Y106.175 E.03625
G1 X134.454 Y106.866 E.0374
G1 X133.318 Y107.394 E.03927
G1 X132.128 Y107.698 E.0385
G1 X131.028 Y107.781 E.0346
G1 X129.859 Y107.671 E.03681
G1 X129.574 Y107.6 E.00921
G1 X128.901 Y108.593 E.03761
G1 X128.33 Y109.116 E.0243
G1 X127.842 Y109.445 E.01843
G1 X127.592 Y109.553 E.00854
G1 X127.684 Y109.93 E.01218
G1 X127.779 Y110.923 E.03126
G1 X127.74 Y111.813 E.02794
G1 X127.538 Y112.863 E.03351
G1 X127.161 Y113.889 E.03426
G1 X126.624 Y114.837 E.03416
G1 X126 Y115.622 E.03145
G1 X125.308 Y116.273 E.02979
G1 X124.275 Y116.966 E.03901
G1 X123.338 Y117.385 E.03217
G1 X122.366 Y117.653 E.03161
G1 X121.146 Y117.778 E.03844
G1 X120.187 Y117.718 E.03013
G1 X119.272 Y117.531 E.02929
G1 X118.148 Y117.106 E.03768
G1 X117.389 Y116.674 E.02737
G1 X116.678 Y116.135 E.02797
G1 X115.909 Y115.348 E.03449
G1 X115.284 Y114.454 E.03422
G1 X114.745 Y113.287 E.04029
G1 X114.502 Y112.4 E.02884
G1 X114.395 Y111.669 E.02317
G1 X114.37 Y110.952 E.02251
G1 X114.463 Y109.947 E.03166
G1 X114.553 Y109.583 E.01176
G1 X113.603 Y108.94 E.03595
G1 X112.914 Y108.169 E.03243
M73 P1 R50
G1 X112.44 Y107.232 E.03294
G1 X112.219 Y106.17 E.03402
G1 X112.22 Y101.008 E.16184
G1 X112.254 Y100.295 E.02238
G1 X112.344 Y99.598 E.02203
G1 X112.544 Y98.7 E.02883
G1 X112.777 Y97.982 E.02368
G1 X113.08 Y97.268 E.02431
G1 X113.451 Y96.57 E.02479
G1 X113.858 Y95.943 E.02345
G1 X114.067 Y95.674 E.01066
M204 S1000
G1 X114.365 Y95.905 F6000
M204 S800
G1 F1200
G1 X114.6 Y95.603 E.01201
G1 X115.118 Y95.042 E.02395
G1 X115.694 Y94.523 E.02428
G1 X116.213 Y94.129 E.02044
G1 X116.759 Y93.777 E.02038
G1 X117.522 Y93.377 E.02701
G1 X118.213 Y93.094 E.02342
G1 X118.919 Y92.875 E.02318
G1 X119.643 Y92.719 E.0232
G1 X120.373 Y92.626 E.02309
G1 X121.035 Y92.597 E.02077
G1 X126.215 Y92.6 E.16241
G1 X127.135 Y92.806 E.02958
G1 X127.941 Y93.214 E.0283
G1 X128.709 Y93.913 E.03257
G1 X129.127 Y94.521 E.02314
G1 X129.309 Y95.01 E.01634
G1 X129.917 Y94.852 E.01969
G1 X130.847 Y94.751 E.02934
G1 X131.696 Y94.776 E.02664
G1 X132.528 Y94.916 E.02643
G1 X133.261 Y95.136 E.02402
G1 X134.147 Y95.543 E.03056
G1 X134.845 Y95.994 E.02605
G1 X135.488 Y96.54 E.02646
G1 X136.328 Y97.548 E.04112
G1 X136.83 Y98.448 E.03232
G1 X137.187 Y99.444 E.03318
G1 X137.389 Y100.691 E.03959
G1 X137.362 Y101.774 E.03397
G1 X137.145 Y102.859 E.03471
G1 X136.882 Y103.584 E.02417
G1 X136.526 Y104.285 E.02463
G1 X135.938 Y105.122 E.03208
G1 X135.17 Y105.898 E.03424
G1 X134.25 Y106.548 E.03531
G1 X133.176 Y107.044 E.03712
G1 X132.082 Y107.323 E.03538
G1 X131.047 Y107.404 E.03257
G1 X129.911 Y107.297 E.03576
G1 X129.326 Y107.142 E.01898
G1 X129.203 Y107.475 E.01113
G1 X128.629 Y108.331 E.03233
G1 X128.107 Y108.812 E.02225
G1 X127.652 Y109.119 E.01722
G1 X127.142 Y109.317 E.01714
G1 X127.31 Y109.982 E.0215
G1 X127.402 Y110.921 E.02957
G1 X127.367 Y111.757 E.02624
G1 X127.178 Y112.749 E.03165
G1 X126.825 Y113.717 E.03231
G1 X126.304 Y114.638 E.03319
G1 X125.714 Y115.376 E.02962
G1 X125.084 Y115.969 E.02712
G1 X124.105 Y116.629 E.03703
G1 X123.223 Y117.025 E.0303
G1 X122.281 Y117.285 E.03066
G1 X121.154 Y117.401 E.03551
G1 X120.224 Y117.342 E.02922
G1 X119.363 Y117.164 E.02758
G1 X118.322 Y116.771 E.0349
G1 X117.587 Y116.352 E.02651
G1 X116.918 Y115.843 E.02637
G1 X116.21 Y115.119 E.03175
G1 X115.603 Y114.252 E.03319
G1 X115.094 Y113.145 E.0382
G1 X114.874 Y112.334 E.02634
G1 X114.771 Y111.646 E.02182
G1 X114.747 Y110.951 E.02178
G1 X114.837 Y109.998 E.03003
G1 X115.01 Y109.323 E.02185
G1 X114.644 Y109.189 E.01221
G1 X113.868 Y108.671 E.02926
G1 X113.212 Y107.937 E.03086
G1 X112.788 Y107.086 E.02981
G1 X112.596 Y106.151 E.02995
G1 X112.597 Y101.012 E.16111
G1 X112.629 Y100.335 E.02125
G1 X112.716 Y99.655 E.02152
G1 X112.905 Y98.808 E.02719
G1 X113.128 Y98.121 E.02264
G1 X113.417 Y97.438 E.02328
G1 X113.772 Y96.768 E.02376
G1 X114.161 Y96.168 E.02245
G1 X114.328 Y95.953 E.00853
M204 S1000
G1 X114.626 Y96.183 F6000
M204 S800
G1 F1200
G1 X114.882 Y95.852 E.01312
G1 X115.378 Y95.316 E.02289
G1 X115.928 Y94.819 E.02326
G1 X116.423 Y94.442 E.0195
G1 X116.956 Y94.099 E.01987
G1 X117.689 Y93.716 E.02592
G1 X118.348 Y93.447 E.02232
G1 X119.023 Y93.238 E.02215
G1 X119.714 Y93.089 E.02217
G1 X120.413 Y93.001 E.02208
G1 X121.039 Y92.974 E.01965
G1 X126.194 Y92.977 E.16163
G1 X126.989 Y93.154 E.02553
G1 X127.708 Y93.512 E.0252
G1 X128.411 Y94.146 E.02967
G1 X128.802 Y94.713 E.02159
G1 X129.066 Y95.465 E.02498
G1 X129.973 Y95.225 E.0294
G1 X130.85 Y95.128 E.02767
G1 X131.648 Y95.15 E.02502
G1 X132.432 Y95.281 E.02493
G1 X133.117 Y95.485 E.02241
G1 X133.954 Y95.868 E.02886
G1 X134.629 Y96.304 E.02522
G1 X135.231 Y96.817 E.0248
G1 X136.007 Y97.747 E.03797
G1 X136.493 Y98.618 E.03127
G1 X136.826 Y99.554 E.03116
G1 X137.012 Y100.699 E.03635
G1 X136.986 Y101.748 E.03289
G1 X136.778 Y102.77 E.03271
G1 X136.532 Y103.443 E.02248
G1 X136.197 Y104.101 E.02315
G1 X135.64 Y104.891 E.03031
G1 X134.915 Y105.62 E.03223
G1 X134.048 Y106.229 E.03322
G1 X133.034 Y106.694 E.03497
G1 X132.036 Y106.949 E.03231
G1 X131.065 Y107.027 E.03052
G1 X129.963 Y106.923 E.03471
G1 X129.076 Y106.682 E.02882
G1 X128.873 Y107.29 E.0201
G1 X128.355 Y108.07 E.02937
G1 X127.884 Y108.507 E.02016
G1 X127.46 Y108.793 E.01602
G1 X126.692 Y109.081 E.02573
G1 X126.937 Y110.034 E.03086
G1 X127.025 Y110.919 E.02788
G1 X126.993 Y111.701 E.02455
G1 X126.819 Y112.634 E.02976
G1 X126.477 Y113.572 E.03131
G1 X125.984 Y114.438 E.03123
G1 X125.429 Y115.129 E.0278
G1 X124.837 Y115.683 E.02541
G1 X123.935 Y116.291 E.03411
G1 X123.082 Y116.675 E.02933
G1 X122.197 Y116.917 E.02879
G1 X121.162 Y117.023 E.03259
G1 X120.262 Y116.967 E.0283
G1 X119.454 Y116.798 E.02586
G1 X118.495 Y116.436 E.03216
G1 X117.805 Y116.044 E.02486
G1 X117.157 Y115.552 E.02552
G1 X116.491 Y114.868 E.02995
G1 X115.922 Y114.051 E.03122
G1 X115.454 Y113.031 E.03518
G1 X115.24 Y112.246 E.0255
G1 X115.146 Y111.601 E.02043
G1 X115.124 Y110.974 E.01967
G1 X115.211 Y110.049 E.02915
G1 X115.466 Y109.073 E.03161
G1 X114.829 Y108.859 E.02107
G1 X114.131 Y108.399 E.02622
G1 X113.538 Y107.745 E.02768
G1 X113.137 Y106.941 E.02819
G1 X112.974 Y106.132 E.02586
