; generated by PrusaSlicer 2.5.0+MacOS-x64 on 2022-11-03 at 19:46:01 UTC


;
;

;
;
; 

; external perimeters extrusion width = 0.45mm
; perimeters extrusion width = 0.45mm
; infill extrusion width = 0.45mm
; solid infill extrusion width = 0.45mm
; top infill extrusion width = 0.40mm
; first layer extrusion width = 0.42mm

M73 P0 R91
M201 X9000 Y9000 Z500 E10000 ; sets maximum accelerations, mm/sec^2
M203 X500 Y500 Z12 E120 ; sets maximum feedrates, mm / sec
M204 P2000 R1500 T2000 ; sets acceleration (P, T) and retract acceleration (R), mm/sec^2
M205 X10.00 Y10.00 Z0.20 E4.50 ; sets the jerk limits, mm/sec
M205 S0 T0 ; sets the minimum extruding and travel feed rate, mm/sec
M107
;TYPE:Custom
M83  ; extruder relative mode
M140 S85 ; set bed temp
M109 S160 ; Set extruder temp before bed level
M190 S85 ; wait for bed temp

G28 W ; home all without mesh bed level
G80 N7 ; mesh bed leveling

M109 S240 ; wait for extruder temp

M221 S100 ; Set flow to 100

G1 Y-3.0 F1000.0 ; go outside print area
G92 E0.0
G1 E8 ; Purge Bubble
G1 X60.0 E9.0 F1000.0 ; intro line
G1 X100.0 E12.5 F1000.0 ; intro line
G92 E0.0
G21 ; set units to millimeters
G90 ; use absolute coordinates
M83 ; use relative distances for extrusion
M900 K0.08 ; Filament gcode LA 1.5
M900 K45 ; Filament gcode LA 1.0
M107
;LAYER_CHANGE
;Z:0.2
;HEIGHT:0.2
;BEFORE_LAYER_CHANGE
G92 E0.0
;0.2


G1 E-1 F2100
G1 Z.2 F720
;AFTER_LAYER_CHANGE
;0.2
G1 Z.4
G1 X95.421 Y76.93 F6000
G1 Z.2 F720
G1 E1 F2100
M204 S800
;TYPE:Skirt/Brim
;WIDTH:0.42
G1 F1200
G1 X95.984 Y76.288 E.02677
G1 X97.265 Y75.164 E.05344
G1 X98.815 Y74.234 E.05667
G1 X100.409 Y73.632 E.05344
G1 X101.562 Y73.384 E.03696
G1 X102.944 Y73.271 E.0435
G1 X109.96 Y73.27 E.21997
G1 X110.8 Y73.424 E.02678
G1 X116.905 Y75.751 E.20485
G1 X118.245 Y76.493 E.04802
G1 X119.235 Y77.254 E.03916
G1 X154.058 Y112.049 E1.54349
G1 X154.967 Y113.132 E.04433
G1 X155.754 Y114.443 E.04796
G1 X156.198 Y115.498 E.03587
G1 X156.544 Y116.759 E.04101
G1 X156.681 Y117.672 E.02895
G1 X156.724 Y118.815 E.03586
G1 X156.603 Y120.119 E.04104
G1 X156.349 Y121.234 E.03588
G1 X155.895 Y122.461 E.04102
G1 X155.361 Y123.472 E.03584
G1 X154.67 Y124.46 E.0378
G1 X154.059 Y125.151 E.02892
G1 X145.152 Y134.059 E.39496
G1 X144.069 Y134.967 E.04432
G1 X142.757 Y135.755 E.04796
G1 X141.605 Y136.232 E.03911
G1 X140.12 Y136.603 E.04801
G1 X138.816 Y136.724 E.04105
G1 X137.57 Y136.669 E.0391
G1 X136.28 Y136.435 E.0411
G1 X134.834 Y135.936 E.04795
G1 X133.729 Y135.361 E.03909
G1 X132.66 Y134.604 E.04106
G1 X97.588 Y99.597 E1.55372
G1 X96.679 Y98.513 E.04435
G1 X95.891 Y97.201 E.04798
G1 X93.424 Y90.8 E.2151
G1 X93.27 Y89.96 E.02678
G1 X93.27 Y82.996 E.21834
G1 X93.329 Y81.981 E.03187
G1 X93.55 Y80.725 E.03999
G1 X93.822 Y79.808 E.02999
G1 X94.234 Y78.815 E.03372
G1 X94.69 Y77.974 E.02999
G1 X95.386 Y76.979 E.03809
M204 S1000
;WIPE_START
G1 F4800
G1 X95.984 Y76.288 E-.3796
G1 X97.015 Y75.383 E-.5704
;WIPE_END
G1 E-.05 F2100
G1 Z.4 F720
G1 X132.215 Y112.431 F6000
G1 Z.2 F720
G1 E1 F2100
M204 S800
G1 F1200
G1 X132.994 Y111.734 E.03278
G1 X133.667 Y111.267 E.02571
G1 X134.713 Y110.749 E.03659
G1 X135.625 Y110.453 E.03005
G1 X136.41 Y110.304 E.02508
G1 X137.166 Y110.243 E.02375
G1 X142.558 Y110.243 E.16908
G1 X143.747 Y110.499 E.03814
G1 X144.857 Y111.053 E.03889
G1 X145.897 Y112.044 E.04506
G1 X147.035 Y111.898 E.03597
G1 X148.055 Y111.926 E.032
G1 X149.079 Y112.115 E.03263
G1 X150.231 Y112.538 E.03848
G1 X151.092 Y113.029 E.0311
G1 X151.759 Y113.54 E.02633
G1 X152.686 Y114.527 E.04247
G1 X153.265 Y115.428 E.03357
G1 X153.698 Y116.42 E.03395
G1 X153.943 Y117.344 E.02998
G1 X154.055 Y118.317 E.03069
G1 X154.025 Y119.303 E.03093
G1 X153.856 Y120.252 E.03024
G1 X153.476 Y121.344 E.03623
G1 X153.008 Y122.21 E.03088
G1 X152.42 Y122.999 E.03084
G1 X151.67 Y123.738 E.03303
G1 X150.688 Y124.424 E.03753
G1 X149.831 Y124.837 E.02985
G1 X148.936 Y125.122 E.02943
G1 X147.939 Y125.287 E.0317
G1 X146.826 Y125.292 E.03491
G1 X146.001 Y125.175 E.02612
G1 X144.862 Y124.862 E.03704
G1 X145.175 Y126.001 E.03704
G1 X145.296 Y126.886 E.028
G1 X145.297 Y127.804 E.0288
G1 X145.163 Y128.752 E.03
G1 X144.854 Y129.788 E.0339
G1 X144.36 Y130.798 E.03526
G1 X143.931 Y131.427 E.02389
G1 X143.418 Y132.026 E.02473
G1 X142.623 Y132.723 E.03315
G1 X141.751 Y133.276 E.03235
G1 X140.835 Y133.679 E.03138
G1 X139.749 Y133.963 E.0352
G1 X138.88 Y134.056 E.02739
G1 X137.997 Y134.035 E.02771
G1 X136.973 Y133.862 E.03256
G1 X135.715 Y133.411 E.04189
G1 X134.862 Y132.924 E.03082
G1 X134.093 Y132.322 E.03062
G1 X133.446 Y131.649 E.02927
G1 X132.907 Y130.907 E.02874
G1 X132.283 Y129.618 E.04491
G1 X131.998 Y128.555 E.03451
G1 X131.89 Y127.433 E.03533
G1 X131.978 Y126.264 E.03676
G1 X132.061 Y125.911 E.01137
G1 X131.07 Y124.88 E.04486
G1 X130.474 Y123.674 E.04217
G1 X130.262 Y122.714 E.03081
G1 X130.239 Y117.268 E.17078
G1 X130.302 Y116.423 E.02656
G1 X130.455 Y115.61 E.02593
G1 X130.773 Y114.655 E.03155
G1 X131.117 Y113.927 E.02527
G1 X131.688 Y113.054 E.0327
G1 X132.176 Y112.477 E.02368
M204 S1000
G1 X132.463 Y112.721 F6000
M204 S800
G1 F1200
G1 X133.236 Y112.024 E.03263
G1 X133.87 Y111.585 E.02418
G1 X134.867 Y111.093 E.03487
G1 X135.706 Y110.821 E.02766
G1 X136.47 Y110.676 E.02438
G1 X137.188 Y110.62 E.02256
G1 X142.537 Y110.62 E.16774
G1 X143.643 Y110.862 E.03548
G1 X144.661 Y111.376 E.03577
G1 X145.797 Y112.472 E.0495
G1 X146.158 Y112.38 E.01167
G1 X147.037 Y112.275 E.02777
G1 X148.029 Y112.303 E.03112
G1 X148.994 Y112.483 E.03075
G1 X150.057 Y112.874 E.03553
G1 X150.894 Y113.35 E.03019
G1 X151.517 Y113.829 E.02464
G1 X152.378 Y114.746 E.03945
G1 X152.926 Y115.594 E.03163
G1 X153.338 Y116.531 E.0321
G1 X153.575 Y117.427 E.02907
G1 X153.679 Y118.345 E.02895
G1 X153.648 Y119.276 E.02921
G1 X153.487 Y120.171 E.0285
G1 X153.137 Y121.178 E.03342
G1 X152.683 Y122.018 E.02996
G1 X152.127 Y122.761 E.0291
G1 X151.44 Y123.439 E.03025
G1 X150.51 Y124.091 E.03561
G1 X149.703 Y124.482 E.02811
G1 X148.835 Y124.759 E.02857
G1 X147.893 Y124.912 E.02993
G1 X146.864 Y124.917 E.03226
G1 X146.089 Y124.808 E.02456
G1 X145.253 Y124.578 E.02719
G1 X144.05 Y124.036 E.04136
G1 X144.576 Y125.246 E.04138
G1 X144.803 Y126.065 E.02665
G1 X144.921 Y126.924 E.02718
G1 X144.92 Y127.791 E.02717
G1 X144.798 Y128.657 E.02745
G1 X144.498 Y129.664 E.03295
G1 X144.028 Y130.619 E.03335
G1 X143.626 Y131.206 E.02231
G1 X143.159 Y131.752 E.02252
G1 X142.386 Y132.43 E.03226
G1 X141.563 Y132.949 E.03051
G1 X140.698 Y133.327 E.02959
G1 X139.668 Y133.594 E.03335
G1 X138.854 Y133.679 E.02569
G1 X138.02 Y133.659 E.02614
G1 X137.053 Y133.493 E.03076
G1 X135.888 Y133.075 E.0388
G1 X135.061 Y132.603 E.02986
G1 X134.336 Y132.034 E.02889
G1 X133.728 Y131.398 E.02761
G1 X133.223 Y130.7 E.02701
G1 X132.643 Y129.503 E.04169
G1 X132.366 Y128.473 E.03345
G1 X132.267 Y127.414 E.03333
G1 X132.352 Y126.31 E.03474
G1 X132.478 Y125.798 E.01653
G1 X131.394 Y124.686 E.0487
G1 X130.822 Y123.528 E.04047
G1 X130.635 Y122.655 E.02801
G1 X130.616 Y117.274 E.16872
G1 X130.677 Y116.462 E.02553
G1 X130.823 Y115.693 E.02453
G1 X131.127 Y114.786 E.03001
G1 X131.452 Y114.1 E.02379
G1 X131.997 Y113.271 E.03112
G1 X132.424 Y112.767 E.02072
M204 S1000
G1 X132.711 Y113.011 F6000
M204 S800
G1 F1200
G1 X133.477 Y112.313 E.03249
G1 X134.072 Y111.903 E.02266
G1 X135.021 Y111.438 E.03315
G1 X135.788 Y111.189 E.02528
G1 X136.53 Y111.049 E.02368
G1 X137.209 Y110.996 E.02135
G1 X142.516 Y110.997 E.16641
G1 X143.537 Y111.224 E.03277
G1 X144.463 Y111.698 E.03263
G1 X145.443 Y112.654 E.04291
G1 X145.602 Y112.915 E.00957
G1 X146.217 Y112.752 E.01994
G1 X147.042 Y112.652 E.02606
G1 X147.975 Y112.676 E.02928
G1 X148.909 Y112.85 E.02978
G1 X149.884 Y113.209 E.03258
G1 X150.696 Y113.671 E.02928
G1 X151.274 Y114.119 E.02293
G1 X152.072 Y114.966 E.03648
G1 X152.587 Y115.76 E.02969
G1 X152.977 Y116.643 E.03026
G1 X153.202 Y117.485 E.02732
G1 X153.302 Y118.347 E.02723
G1 X153.275 Y119.223 E.02748
G1 X153.119 Y120.09 E.0276
G1 X152.798 Y121.013 E.03064
G1 X152.372 Y121.805 E.0282
G1 X151.851 Y122.504 E.02735
G1 X151.21 Y123.139 E.0283
G1 X150.307 Y123.774 E.03461
G1 X149.552 Y124.136 E.02625
G1 X148.761 Y124.389 E.02604
G1 X147.847 Y124.537 E.02901
G1 X146.877 Y124.54 E.03042
G1 X146.177 Y124.441 E.02217
G1 X145.367 Y124.219 E.02633
G1 X144.42 Y123.788 E.03263
G1 X143.676 Y123.676 E.02357
G1 X143.79 Y124.431 E.02394
G1 X143.869 Y124.566 E.00491
G1 X144.216 Y125.36 E.02716
G1 X144.436 Y126.153 E.02581
G1 X144.546 Y126.962 E.02557
G1 X144.545 Y127.752 E.02478
G1 X144.432 Y128.564 E.02572
G1 X144.152 Y129.513 E.03102
G1 X143.709 Y130.417 E.03156
G1 X143.321 Y130.984 E.02155
G1 X142.882 Y131.495 E.02112
G1 X142.149 Y132.136 E.03052
G1 X141.375 Y132.622 E.02867
G1 X140.562 Y132.975 E.02779
G1 X139.589 Y133.225 E.0315
G1 X138.828 Y133.303 E.02398
G1 X138.044 Y133.282 E.02458
G1 X137.134 Y133.124 E.02897
G1 X136.06 Y132.739 E.03576
G1 X135.282 Y132.297 E.02806
G1 X134.599 Y131.763 E.0272
G1 X134.025 Y131.166 E.02595
G1 X133.538 Y130.492 E.02608
G1 X133.002 Y129.387 E.0385
G1 X132.74 Y128.421 E.03139
G1 X132.644 Y127.396 E.0323
G1 X132.727 Y126.356 E.03268
G1 X132.916 Y125.604 E.02432
G1 X132.668 Y125.453 E.00913
G1 X131.719 Y124.491 E.04237
G1 X131.171 Y123.383 E.03873
G1 X131.008 Y122.598 E.02516
G1 X130.993 Y117.28 E.16672
G1 X131.052 Y116.501 E.0245
G1 X131.191 Y115.777 E.02311
G1 X131.48 Y114.917 E.02846
G1 X131.787 Y114.275 E.02232
G1 X132.305 Y113.488 E.02953
G1 X132.672 Y113.057 E.01776
M204 S1000
G1 X132.959 Y113.302 F6000
M204 S800
G1 F1200
G1 X133.05 Y113.196 E.00438
G1 X133.718 Y112.604 E.028
G1 X134.274 Y112.222 E.02113
G1 X135.175 Y111.782 E.03143
G1 X135.87 Y111.557 E.02292
G1 X136.59 Y111.421 E.02297
G1 X137.23 Y111.373 E.02013
G1 X142.495 Y111.374 E.16507
G1 X143.429 Y111.586 E.03003
G1 X144.263 Y112.019 E.02948
G1 X145.156 Y112.901 E.03932
G1 X145.41 Y113.357 E.01638
G1 X146.277 Y113.125 E.02813
G1 X147.046 Y113.029 E.02431
G1 X147.95 Y113.053 E.02835
G1 X148.823 Y113.218 E.02787
G1 X149.711 Y113.544 E.02966
G1 X150.497 Y113.992 E.02836
G1 X151.032 Y114.407 E.02122
G1 X151.765 Y115.186 E.03355
G1 X152.249 Y115.928 E.02776
G1 X152.617 Y116.756 E.02841
G1 X152.829 Y117.542 E.02553
G1 X152.925 Y118.376 E.02634
G1 X152.898 Y119.197 E.02573
G1 X152.751 Y120.008 E.02585
G1 X152.459 Y120.848 E.02789
G1 X152.061 Y121.591 E.02644
G1 X151.574 Y122.247 E.0256
G1 X150.98 Y122.84 E.02633
G1 X150.103 Y123.456 E.03358
G1 X149.401 Y123.79 E.02437
G1 X148.686 Y124.019 E.02354
G1 X147.802 Y124.163 E.0281
G1 X146.916 Y124.165 E.02778
G1 X146.265 Y124.074 E.0206
G1 X145.48 Y123.859 E.02552
G1 X144.707 Y123.515 E.02653
G1 X144.56 Y123.428 E.00535
G1 X143.228 Y123.228 E.04224
G1 X143.428 Y124.564 E.04236
G1 X143.53 Y124.73 E.0061
G1 X143.865 Y125.498 E.02629
G1 X144.069 Y126.24 E.02413
G1 X144.17 Y126.998 E.02397
G1 X144.168 Y127.738 E.02319
G1 X144.067 Y128.471 E.02321
G1 X143.795 Y129.391 E.03006
G1 X143.377 Y130.238 E.02961
G1 X143.016 Y130.762 E.01997
G1 X142.623 Y131.221 E.01895
G1 X141.936 Y131.825 E.02868
G1 X141.187 Y132.295 E.02773
G1 X140.426 Y132.623 E.02596
G1 X139.51 Y132.856 E.02965
G1 X138.803 Y132.926 E.02229
G1 X138.095 Y132.908 E.0222
G1 X137.214 Y132.755 E.02803
G1 X136.232 Y132.403 E.03273
G1 X135.502 Y131.991 E.02626
G1 X134.861 Y131.492 E.02549
G1 X134.307 Y130.915 E.02509
G1 X133.854 Y130.285 E.02432
G1 X133.361 Y129.272 E.03532
G1 X133.109 Y128.338 E.03031
G1 X133.021 Y127.378 E.03024
G1 X133.101 Y126.404 E.03064
G1 X133.356 Y125.41 E.03218
G1 X132.912 Y125.164 E.01591
G1 X132.043 Y124.295 E.03854
G1 X131.521 Y123.239 E.03695
G1 X131.381 Y122.542 E.02227
G1 X131.37 Y117.287 E.16478
G1 X131.427 Y116.541 E.02346
G1 X131.559 Y115.862 E.02168
G1 X131.834 Y115.049 E.02691
G1 X132.121 Y114.45 E.02084
G1 X132.613 Y113.706 E.02795
G1 X132.92 Y113.347 E.0148
M204 S1000
G1 X133.206 Y113.593 F6000
M204 S800
G1 F1200
G1 X133.327 Y113.451 E.00584
G1 X133.959 Y112.895 E.02641
G1 X134.475 Y112.542 E.0196
G1 X135.327 Y112.127 E.02972
G1 X135.952 Y111.926 E.02058
G1 X136.649 Y111.794 E.02226
G1 X137.251 Y111.749 E.0189
G1 X142.473 Y111.751 E.16374
G1 X143.319 Y111.948 E.02723
G1 X144.061 Y112.339 E.02632
G1 X144.867 Y113.145 E.03575
G1 X145.243 Y113.853 E.02511
G1 X145.653 Y113.682 E.01391
G1 X146.337 Y113.497 E.02224
G1 X147.052 Y113.407 E.02259
G1 X147.895 Y113.426 E.02645
G1 X148.738 Y113.586 E.02689
G1 X149.538 Y113.88 E.02672
G1 X150.298 Y114.313 E.02744
G1 X150.788 Y114.695 E.01949
G1 X151.459 Y115.407 E.03068
G1 X151.911 Y116.096 E.02583
G1 X152.257 Y116.87 E.02657
G1 X152.457 Y117.6 E.02375
G1 X152.548 Y118.379 E.02459
G1 X152.525 Y119.143 E.02396
G1 X152.382 Y119.926 E.02494
G1 X152.119 Y120.683 E.02514
G1 X151.735 Y121.401 E.02554
G1 X151.297 Y121.991 E.02303
G1 X150.749 Y122.541 E.02435
G1 X149.9 Y123.138 E.03255
G1 X149.274 Y123.435 E.02173
G1 X148.611 Y123.649 E.02182
G1 X147.756 Y123.788 E.02717
G1 X146.954 Y123.789 E.02516
G1 X146.352 Y123.707 E.01903
G1 X145.594 Y123.499 E.02466
G1 X144.873 Y123.176 E.02477
G1 X144.693 Y123.066 E.00661
G1 X143.049 Y122.82 E.05211
G1 X142.873 Y122.873 E.00577
G1 X142.82 Y123.049 E.00577
G1 X143.067 Y124.698 E.05228
G1 X143.19 Y124.896 E.00729
G1 X143.506 Y125.613 E.02456
G1 X143.697 Y126.304 E.0225
G1 X143.793 Y127.011 E.02237
G1 X143.792 Y127.7 E.02162
G1 X143.701 Y128.379 E.02148
G1 X143.449 Y129.239 E.0281
G1 X143.059 Y130.035 E.0278
G1 X142.711 Y130.54 E.0192
G1 X142.346 Y130.965 E.01757
G1 X141.699 Y131.53 E.02693
G1 X141 Y131.967 E.02585
G1 X140.292 Y132.271 E.02415
G1 X139.432 Y132.487 E.0278
G1 X138.778 Y132.55 E.0206
G1 X138.146 Y132.534 E.01984
G1 X137.295 Y132.387 E.02708
G1 X136.402 Y132.067 E.02972
G1 X135.722 Y131.684 E.02447
G1 X135.123 Y131.22 E.02378
G1 X134.605 Y130.683 E.02338
G1 X134.169 Y130.078 E.02339
G1 X133.72 Y129.155 E.03218
G1 X133.483 Y128.287 E.0282
G1 X133.398 Y127.36 E.02918
G1 X133.476 Y126.451 E.02861
G1 X133.66 Y125.721 E.02361
G1 X133.856 Y125.244 E.01618
G1 X133.155 Y124.874 E.02486
G1 X132.366 Y124.099 E.03466
G1 X131.87 Y123.096 E.0351
G1 X131.755 Y122.49 E.01933
G1 X131.747 Y117.294 E.16292
G1 X131.802 Y116.581 E.02242
G1 X131.926 Y115.947 E.02025
G1 X132.187 Y115.182 E.02536
G1 X132.455 Y114.625 E.01936
G1 X132.92 Y113.925 E.02637
G1 X133.166 Y113.638 E.01184
M204 S1000
G1 X133.452 Y113.884 F6000
M204 S800
G1 F1200
G1 X133.604 Y113.708 E.0073
G1 X134.198 Y113.186 E.02481
G1 X134.675 Y112.862 E.01808
G1 X135.479 Y112.473 E.02801
G1 X136.033 Y112.294 E.01825
G1 X136.709 Y112.166 E.02154
G1 X137.27 Y112.126 E.01766
G1 X142.45 Y112.128 E.1624
G1 X143.207 Y112.309 E.02439
G1 X143.857 Y112.657 E.02314
G1 X144.577 Y113.388 E.03218
G1 X144.913 Y114.041 E.02301
G1 X145.004 Y114.364 E.01053
G1 X145.765 Y114.042 E.0259
G1 X146.399 Y113.869 E.02062
G1 X147.059 Y113.784 E.02086
G1 X147.842 Y113.8 E.02456
G1 X148.623 Y113.945 E.0249
G1 X149.393 Y114.228 E.02571
G1 X150.098 Y114.633 E.0255
G1 X150.544 Y114.983 E.01777
G1 X151.154 Y115.629 E.02785
G1 X151.574 Y116.265 E.02391
G1 X151.898 Y116.983 E.02469
G1 X152.089 Y117.686 E.02282
G1 X152.172 Y118.408 E.0228
G1 X152.148 Y119.116 E.02221
G1 X152.014 Y119.842 E.02316
G1 X151.768 Y120.544 E.02331
G1 X151.41 Y121.21 E.02371
G1 X151.003 Y121.754 E.0213
G1 X150.495 Y122.263 E.02257
G1 X149.723 Y122.804 E.02954
G1 X149.123 Y123.089 E.02083
G1 X148.51 Y123.285 E.0202
G1 X147.74 Y123.411 E.02445
G1 X146.967 Y123.412 E.02426
G1 X146.417 Y123.336 E.01741
G1 X145.735 Y123.149 E.02217
G1 X145.039 Y122.838 E.02387
G1 X144.827 Y122.705 E.00784
G1 X143.021 Y122.434 E.05726
G1 X142.571 Y122.571 E.01476
G1 X142.434 Y123.021 E.01476
G1 X142.706 Y124.835 E.0575
G1 X142.852 Y125.063 E.00847
G1 X143.146 Y125.727 E.02278
G1 X143.331 Y126.392 E.02166
G1 X143.416 Y127.024 E.01999
G1 X143.417 Y127.664 E.02006
G1 X143.334 Y128.289 E.01976
G1 X143.103 Y129.089 E.02613
G1 X142.74 Y129.833 E.02596
G1 X142.407 Y130.317 E.01843
G1 X142.07 Y130.708 E.01618
G1 X141.464 Y131.236 E.02519
G1 X140.814 Y131.638 E.02397
G1 X140.158 Y131.918 E.02233
G1 X139.355 Y132.118 E.02595
G1 X138.754 Y132.174 E.01893
G1 X138.196 Y132.16 E.0175
G1 X137.375 Y132.018 E.02612
G1 X136.573 Y131.73 E.02674
