; generated by PrusaSlicer 2.5.0+MacOS-x64 on 2022-11-06 at 18:19:57 UTC


;
;

;
;
; 

; external perimeters extrusion width = 0.45mm
; perimeters extrusion width = 0.45mm
; infill extrusion width = 0.45mm
; solid infill extrusion width = 0.45mm
; top infill extrusion width = 0.40mm
; first layer extrusion width = 0.42mm

M73 P0 R65
M201 X9000 Y9000 Z500 E10000 ; sets maximum accelerations, mm/sec^2
M203 X500 Y500 Z12 E120 ; sets maximum feedrates, mm / sec
M204 P2000 R1500 T2000 ; sets acceleration (P, T) and retract acceleration (R), mm/sec^2
M205 X10.00 Y10.00 Z0.20 E4.50 ; sets the jerk limits, mm/sec
M205 S0 T0 ; sets the minimum extruding and travel feed rate, mm/sec
M107
;TYPE:Custom
M83  ; extruder relative mode
M140 S85 ; set bed temp
M109 S160 ; Set extruder temp before bed level
M190 S85 ; wait for bed temp

G28 W ; home all without mesh bed level
G80 N7 ; mesh bed leveling

M109 S240 ; wait for extruder temp

M221 S100 ; Set flow to 100

G1 Y-3.0 F1000.0 ; go outside print area
G92 E0.0
G1 E8 ; Purge Bubble
G1 X60.0 E9.0 F1000.0 ; intro line
G1 X100.0 E12.5 F1000.0 ; intro line
G92 E0.0
G21 ; set units to millimeters
G90 ; use absolute coordinates
M83 ; use relative distances for extrusion
M900 K0.08 ; Filament gcode LA 1.5
M900 K45 ; Filament gcode LA 1.0
M107
;LAYER_CHANGE
;Z:0.2
;HEIGHT:0.2
;BEFORE_LAYER_CHANGE
G92 E0.0
;0.2


G1 E-1 F2100
G1 Z.2 F720
;AFTER_LAYER_CHANGE
;0.2
G1 Z.4
G1 X111.424 Y97.653 F6000
G1 Z.2 F720
G1 E1 F2100
M204 S800
;TYPE:Skirt/Brim
;WIDTH:0.42
G1 F1200
G1 X121.577 Y87.5 E.45021
G1 X123.092 Y86.271 E.06115
G1 X124.278 Y85.586 E.04295
G1 X125.117 Y85.217 E.02874
G1 X126.992 Y84.681 E.06115
G1 X128.119 Y84.532 E.03565
G1 X129.157 Y84.504 E.03255
G1 X130.637 Y84.642 E.04661
G1 X131.866 Y84.922 E.03952
G1 X133.463 Y85.532 E.0536
G1 X134.757 Y86.27 E.04672
G1 X135.851 Y87.11 E.04323
G1 X136.898 Y88.167 E.04664
G1 X137.902 Y89.553 E.05366
G1 X138.504 Y90.696 E.0405
G1 X141.331 Y96.953 E.2153
G1 X141.575 Y98.088 E.03638
G1 X141.575 Y111.912 E.43347
G1 X141.331 Y113.047 E.03638
G1 X138.396 Y119.535 E.22327
G1 X137.592 Y120.928 E.05046
G1 X136.513 Y122.256 E.05363
G1 X135.762 Y122.969 E.03246
G1 X134.858 Y123.662 E.03571
G1 X133.152 Y124.61 E.0612
G1 X131.867 Y125.077 E.04286
G1 X130.976 Y125.296 E.02877
G1 X129.951 Y125.448 E.03249
G1 X128.814 Y125.498 E.0357
G1 X127.213 Y125.358 E.05039
G1 X125.552 Y124.941 E.0537
G1 X123.876 Y124.205 E.05737
G1 X122.713 Y123.464 E.04325
G1 X121.578 Y122.501 E.04667
G1 X111.425 Y112.348 E.45021
G1 X110.196 Y110.833 E.06115
G1 X109.511 Y109.647 E.04295
G1 X109.142 Y108.808 E.02874
G1 X108.606 Y106.933 E.06114
G1 X108.427 Y104.889 E.06434
G1 X108.567 Y103.288 E.05039
G1 X108.984 Y101.627 E.0537
G1 X109.72 Y99.952 E.05737
G1 X110.461 Y98.788 E.04325
G1 X111.385 Y97.699 E.04479
M204 S1000
G1 X111.672 Y97.942 F6000
M204 S800
G1 F1200
G1 X121.844 Y87.766 E.45111
G1 X123.294 Y86.589 E.05857
G1 X124.452 Y85.921 E.04192
G1 X125.261 Y85.565 E.02771
G1 X127.057 Y85.052 E.05857
G1 X128.152 Y84.908 E.03462
G1 X129.14 Y84.881 E.031
G1 X130.469 Y84.997 E.04182
G1 X131.336 Y85.17 E.02773
G1 X133.007 Y85.738 E.05531
G1 X134.641 Y86.646 E.05863
G1 X136.163 Y87.923 E.06228
G1 X137.093 Y89.02 E.0451
G1 X137.798 Y90.128 E.04119
G1 X140.987 Y97.109 E.24063
G1 X141.198 Y98.088 E.03139
G1 X141.198 Y111.912 E.43347
G1 X140.987 Y112.891 E.03139
G1 X138.054 Y119.375 E.22314
G1 X137.283 Y120.712 E.0484
G1 X136.235 Y122.001 E.05209
G1 X135.519 Y122.68 E.03092
G1 X134.642 Y123.353 E.03468
G1 X133.008 Y124.261 E.05862
G1 X131.754 Y124.718 E.04184
G1 X130.895 Y124.928 E.02774
G1 X129.918 Y125.073 E.03094
G1 X128.814 Y125.121 E.03467
G1 X127.278 Y124.987 E.04833
G1 X125.665 Y124.582 E.05215
G1 X124.051 Y123.871 E.05531
G1 X122.943 Y123.165 E.04119
G1 X121.845 Y122.234 E.04513
G1 X111.691 Y112.081 E.45021
G1 X110.514 Y110.631 E.05858
G1 X109.846 Y109.473 E.04191
G1 X109.49 Y108.664 E.02771
G1 X108.977 Y106.868 E.05857
G1 X108.804 Y104.889 E.06228
G1 X108.938 Y103.353 E.04833
G1 X109.343 Y101.74 E.05215
G1 X110.054 Y100.126 E.05531
G1 X110.76 Y99.018 E.04119
G1 X111.633 Y97.987 E.04234
M204 S1000
;WIPE_START
G1 F4800
G1 X113.249 Y96.37 E-.95
;WIPE_END
G1 E-.05 F2100
G1 Z.4 F720
G1 X113.553 Y99.862 F6000
G1 Z.2 F720
G1 E1 F2100
M204 S800
G1 F1200
G1 X114.029 Y99.374 E.02137
G1 X114.865 Y98.745 E.0328
G1 X115.773 Y98.239 E.03259
G1 X116.968 Y97.802 E.03989
G1 X118.02 Y97.596 E.03361
G1 X118.981 Y97.539 E.0302
G1 X120.05 Y97.632 E.03365
G1 X120.309 Y97.257 E.01428
G1 X120.882 Y96.631 E.02659
G1 X121.547 Y96.169 E.02539
G1 X121.466 Y94.82 E.04237
G1 X121.589 Y93.643 E.0371
G1 X121.898 Y92.497 E.03721
G1 X122.48 Y91.244 E.04332
G1 X123.153 Y90.276 E.03696
G1 X123.955 Y89.439 E.03635
G1 X125.133 Y88.579 E.04575
G1 X126.447 Y87.966 E.04545
G1 X127.705 Y87.643 E.04072
G1 X128.835 Y87.544 E.03557
G1 X129.913 Y87.61 E.03385
G1 X130.872 Y87.801 E.03066
G1 X131.834 Y88.134 E.03193
G1 X132.877 Y88.676 E.03686
G1 X133.608 Y89.196 E.02813
G1 X134.291 Y89.821 E.02902
G1 X135.062 Y90.761 E.0381
G1 X135.723 Y91.928 E.04206
G1 X136.081 Y92.894 E.03231
G1 X136.302 Y93.894 E.03211
G1 X136.385 Y95.047 E.03623
G1 X136.289 Y96.151 E.03477
G1 X136.929 Y96.598 E.02447
G1 X137.716 Y97.492 E.03736
G1 X138.281 Y98.618 E.03951
G1 X138.531 Y99.837 E.03901
G1 X138.535 Y110.235 E.32601
G1 X138.064 Y111.903 E.05437
G1 X137.38 Y112.941 E.03897
G1 X136.517 Y113.735 E.03677
G1 X136.291 Y113.869 E.00822
G1 X136.385 Y114.899 E.03245
G1 X136.334 Y115.866 E.03035
G1 X136.153 Y116.846 E.03126
G1 X135.873 Y117.713 E.02855
G1 X135.499 Y118.522 E.02796
G1 X134.907 Y119.453 E.0346
G1 X134.047 Y120.422 E.04062
G1 X133.174 Y121.13 E.03523
G1 X132.216 Y121.693 E.03484
G1 X130.727 Y122.237 E.0497
G1 X129.668 Y122.42 E.0337
G1 X128.568 Y122.449 E.0345
G1 X127.187 Y122.251 E.04375
G1 X125.943 Y121.834 E.04113
G1 X125.014 Y121.349 E.03286
G1 X124.177 Y120.752 E.03223
G1 X123.256 Y119.846 E.0405
G1 X122.46 Y118.721 E.04321
G1 X121.896 Y117.498 E.04223
G1 X121.581 Y116.313 E.03843
G1 X121.464 Y115.051 E.03975
G1 X121.565 Y113.844 E.03797
G1 X120.882 Y113.368 E.02611
G1 X120.309 Y112.743 E.02659
G1 X120.051 Y112.369 E.01426
G1 X119.085 Y112.458 E.0304
G1 X118.061 Y112.409 E.03216
G1 X116.799 Y112.151 E.04037
G1 X115.747 Y111.748 E.03534
G1 X114.764 Y111.191 E.03541
G1 X113.657 Y110.28 E.04497
G1 X113.028 Y109.564 E.02986
G1 X112.491 Y108.772 E.03001
G1 X111.977 Y107.709 E.03701
G1 X111.596 Y106.376 E.04348
G1 X111.468 Y104.779 E.05024
G1 X111.549 Y103.906 E.02747
G1 X111.728 Y103.048 E.0275
G1 X112.111 Y101.971 E.03584
G1 X112.589 Y101.067 E.03205
G1 X113.181 Y100.243 E.0318
G1 X113.511 Y99.905 E.01482
M204 S1000
G1 X113.779 Y100.167 F6000
M204 S800
G1 F1200
G1 X114.268 Y99.667 E.02194
G1 X115.06 Y99.068 E.03112
G1 X115.943 Y98.576 E.0317
G1 X117.083 Y98.161 E.03802
G1 X118.054 Y97.972 E.03105
G1 X118.989 Y97.917 E.02937
G1 X120.238 Y98.027 E.03931
G1 X120.596 Y97.501 E.01995
G1 X121.145 Y96.903 E.02546
G1 X121.981 Y96.329 E.03181
G1 X121.916 Y96.033 E.00949
G1 X121.843 Y94.843 E.0374
G1 X121.958 Y93.725 E.03522
G1 X122.247 Y92.64 E.03521
G1 X122.8 Y91.445 E.04129
G1 X123.436 Y90.526 E.03504
G1 X124.216 Y89.711 E.03536
G1 X125.31 Y88.912 E.04249
G1 X126.559 Y88.327 E.04325
G1 X127.754 Y88.017 E.03869
G1 X128.854 Y87.921 E.03462
G1 X129.876 Y87.985 E.03211
G1 X130.784 Y88.168 E.02906
G1 X131.697 Y88.486 E.0303
G1 X132.691 Y89.004 E.03515
G1 X133.38 Y89.496 E.02655
G1 X134.008 Y90.071 E.02669
G1 X134.76 Y90.987 E.03717
G1 X135.375 Y92.074 E.03914
G1 X135.716 Y92.99 E.03064
G1 X135.927 Y93.935 E.03039
G1 X136.008 Y95.058 E.0353
G1 X135.893 Y96.338 E.04029
G1 X136.663 Y96.867 E.02929
G1 X137.391 Y97.684 E.0343
G1 X137.932 Y98.764 E.03791
G1 X138.158 Y99.892 E.03606
G1 X138.158 Y110.209 E.32347
G1 X137.732 Y111.722 E.04928
G1 X137.108 Y112.68 E.03587
G1 X136.281 Y113.44 E.0352
G1 X135.892 Y113.652 E.01389
G1 X136.007 Y114.893 E.03908
G1 X135.958 Y115.834 E.02953
G1 X135.79 Y116.743 E.02897
G1 X135.526 Y117.565 E.02709
G1 X135.162 Y118.353 E.02721
G1 X134.614 Y119.215 E.03203
G1 X133.797 Y120.14 E.03871
G1 X132.97 Y120.812 E.0334
G1 X132.039 Y121.359 E.03385
G1 X130.646 Y121.869 E.04651
G1 X129.617 Y122.046 E.03274
G1 X128.575 Y122.072 E.0327
G1 X127.258 Y121.881 E.04172
G1 X126.104 Y121.493 E.03817
G1 X125.222 Y121.034 E.03117
G1 X124.408 Y120.454 E.03134
G1 X123.533 Y119.59 E.03856
G1 X122.779 Y118.518 E.0411
G1 X122.256 Y117.385 E.03913
G1 X121.955 Y116.262 E.03643
G1 X121.842 Y115.033 E.0387
G1 X121.96 Y113.657 E.04331
G1 X121.145 Y113.097 E.03101
G1 X120.596 Y112.499 E.02546
G1 X120.237 Y111.972 E.01999
G1 X119.09 Y112.081 E.03615
G1 X118.093 Y112.033 E.03127
G1 X116.92 Y111.793 E.03756
G1 X115.895 Y111.401 E.0344
G1 X114.965 Y110.871 E.03356
G1 X113.929 Y110.019 E.04205
G1 X113.334 Y109.343 E.02826
G1 X112.811 Y108.572 E.0292
G1 X112.324 Y107.56 E.03521
G1 X111.971 Y106.326 E.04024
G1 X111.845 Y104.797 E.04811
G1 X111.924 Y103.952 E.02661
G1 X112.094 Y103.137 E.02609
G1 X112.451 Y102.135 E.03338
G1 X112.903 Y101.276 E.03041
G1 X113.479 Y100.475 E.03095
G1 X113.737 Y100.21 E.0116
M204 S1000
G1 X114.006 Y100.472 F6000
M204 S800
G1 F1200
G1 X114.507 Y99.958 E.02252
G1 X115.255 Y99.39 E.02943
G1 X116.113 Y98.913 E.03079
G1 X117.197 Y98.521 E.03613
G1 X118.113 Y98.345 E.02926
G1 X118.997 Y98.294 E.02776
G1 X120.053 Y98.388 E.03325
G1 X120.447 Y98.484 E.0127
G1 X120.555 Y98.233 E.00859
G1 X120.884 Y97.745 E.01843
G1 X121.407 Y97.174 E.0243
G1 X122.41 Y96.495 E.03796
G1 X122.291 Y95.992 E.0162
G1 X122.22 Y94.865 E.03542
G1 X122.326 Y93.808 E.03331
G1 X122.607 Y92.753 E.03422
G1 X123.119 Y91.646 E.03824
G1 X123.737 Y90.753 E.03406
G1 X124.476 Y89.985 E.03341
G1 X125.517 Y89.228 E.04036
G1 X126.671 Y88.687 E.03997
G1 X127.803 Y88.392 E.03667
G1 X128.872 Y88.298 E.03366
G1 X129.838 Y88.361 E.03036
G1 X130.696 Y88.535 E.02745
G1 X131.56 Y88.837 E.02867
G1 X132.482 Y89.319 E.03264
G1 X133.151 Y89.797 E.02578
G1 X133.743 Y90.339 E.02519
G1 X134.458 Y91.213 E.03539
G1 X135.027 Y92.22 E.03625
G1 X135.35 Y93.085 E.02895
G1 X135.556 Y94.004 E.02953
G1 X135.631 Y95.069 E.03349
G1 X135.531 Y96.157 E.03423
G1 X135.45 Y96.495 E.0109
G1 X136.397 Y97.136 E.03586
G1 X137.092 Y97.915 E.03273
G1 X137.583 Y98.908 E.03474
G1 X137.781 Y99.91 E.03201
G1 X137.781 Y110.183 E.3221
G1 X137.4 Y111.542 E.04424
G1 X136.834 Y112.419 E.03272
G1 X136.045 Y113.144 E.0336
G1 X135.438 Y113.462 E.02151
M73 P0 R64
G1 X135.536 Y113.866 E.01303
G1 X135.63 Y114.888 E.03218
G1 X135.585 Y115.778 E.02794
G1 X135.421 Y116.662 E.0282
G1 X135.179 Y117.417 E.02488
G1 X134.825 Y118.183 E.02645
G1 X134.321 Y118.977 E.02947
G1 X133.546 Y119.857 E.03677
G1 X132.743 Y120.51 E.03245
G1 X131.863 Y121.025 E.03197
G1 X130.565 Y121.5 E.04336
G1 X129.594 Y121.67 E.0309
G1 X128.582 Y121.695 E.03175
G1 X127.33 Y121.51 E.03967
G1 X126.265 Y121.152 E.03523
G1 X125.408 Y120.706 E.03029
G1 X124.64 Y120.156 E.02962
G1 X123.831 Y119.358 E.03561
G1 X123.113 Y118.343 E.03897
G1 X122.616 Y117.27 E.03709
G1 X122.329 Y116.211 E.0344
G1 X122.219 Y115.016 E.03765
G1 X122.326 Y113.798 E.03831
G1 X122.401 Y113.499 E.00967
G1 X121.407 Y112.826 E.03761
G1 X120.884 Y112.255 E.0243
G1 X120.555 Y111.767 E.01843
G1 X120.447 Y111.517 E.00854
G1 X120.071 Y111.609 E.01213
G1 X119.068 Y111.704 E.03161
G1 X118.127 Y111.657 E.02954
G1 X117.039 Y111.435 E.0348
G1 X116.069 Y111.066 E.03255
G1 X115.166 Y110.552 E.03259
G1 X114.202 Y109.758 E.03915
G1 X113.639 Y109.121 E.02666
G1 X113.131 Y108.372 E.02837
G1 X112.671 Y107.411 E.03341
G1 X112.345 Y106.276 E.03703
G1 X112.222 Y104.815 E.04599
G1 X112.295 Y104.018 E.02507
G1 X112.46 Y103.227 E.02534
G1 X112.791 Y102.298 E.03093
G1 X113.218 Y101.486 E.02876
G1 X113.777 Y100.706 E.03008
G1 X113.964 Y100.515 E.00838
M204 S1000
G1 X114.232 Y100.777 F6000
M204 S800
G1 F1200
G1 X114.747 Y100.25 E.02312
G1 X115.45 Y99.713 E.02772
G1 X116.283 Y99.25 E.02989
G1 X117.282 Y98.888 E.03332
G1 X118.172 Y98.717 E.0284
G1 X119.004 Y98.671 E.02613
G1 X120.003 Y98.762 E.03146
G1 X120.682 Y98.935 E.02197
G1 X120.881 Y98.423 E.0172
G1 X121.188 Y97.968 E.01722
G1 X121.669 Y97.446 E.02225
G1 X122.525 Y96.872 E.03233
G1 X122.86 Y96.749 E.01118
G1 X122.667 Y95.95 E.02576
G1 X122.596 Y94.887 E.03342
G1 X122.7 Y93.861 E.03232
G1 X122.967 Y92.867 E.03228
G1 X123.439 Y91.847 E.03524
G1 X124.02 Y91.003 E.03212
G1 X124.736 Y90.258 E.03239
G1 X125.723 Y89.544 E.03822
G1 X126.784 Y89.047 E.03672
G1 X127.852 Y88.766 E.03463
G1 X128.89 Y88.675 E.03268
G1 X129.8 Y88.736 E.02858
G1 X130.608 Y88.902 E.02586
G1 X131.422 Y89.188 E.02705
G1 X132.274 Y89.634 E.03016
G1 X132.905 Y90.083 E.02428
G1 X133.478 Y90.608 E.02438
G1 X134.155 Y91.439 E.0336
G1 X134.679 Y92.366 E.03338
G1 X134.993 Y93.204 E.02807
G1 X135.185 Y94.072 E.02785
G1 X135.254 Y95.05 E.03076
G1 X135.157 Y96.107 E.03327
G1 X134.995 Y96.754 E.02092
G1 X135.356 Y96.886 E.01202
G1 X136.132 Y97.405 E.02929
G1 X136.793 Y98.146 E.03113
G1 X137.233 Y99.051 E.03154
G1 X137.404 Y99.928 E.02803
G1 X137.404 Y110.156 E.3207
G1 X137.046 Y111.41 E.04087
G1 X136.533 Y112.191 E.02931
G1 X135.812 Y112.847 E.03057
G1 X134.997 Y113.261 E.02865
G1 X135.162 Y113.917 E.02118
G1 X135.253 Y114.883 E.03045
G1 X135.212 Y115.722 E.02632
G1 X135.053 Y116.582 E.02741
G1 X134.832 Y117.27 E.02266
G1 X134.488 Y118.014 E.02571
G1 X134.028 Y118.74 E.02694
G1 X133.295 Y119.575 E.03485
G1 X132.54 Y120.192 E.03058
G1 X131.688 Y120.692 E.03098
G1 X130.483 Y121.132 E.0402
G1 X129.543 Y121.296 E.02993
G1 X128.589 Y121.317 E.02991
G1 X127.402 Y121.14 E.03764
G1 X126.425 Y120.81 E.03232
G1 X125.616 Y120.391 E.02857
G1 X124.872 Y119.858 E.02873
G1 X124.129 Y119.126 E.03269
G1 X123.448 Y118.169 E.03683
G1 X122.965 Y117.127 E.03602
G1 X122.698 Y116.129 E.03237
G1 X122.596 Y115.032 E.03456
G1 X122.701 Y113.849 E.03724
G1 X122.857 Y113.251 E.01939
G1 X122.525 Y113.128 E.01109
G1 X121.669 Y112.554 E.03233
G1 X121.188 Y112.032 E.02225
G1 X120.881 Y111.577 E.01722
G1 X120.683 Y111.067 E.01714
G1 X120.02 Y111.235 E.02145
G1 X119.072 Y111.327 E.02986
G1 X118.187 Y111.285 E.02777
G1 X117.158 Y111.077 E.03292
G1 X116.242 Y110.731 E.03067
G1 X115.367 Y110.232 E.03161
G1 X114.474 Y109.497 E.03626
G1 X113.944 Y108.899 E.02505
G1 X113.452 Y108.172 E.02753
G1 X113.018 Y107.263 E.03159
G1 X112.719 Y106.225 E.03386
G1 X112.6 Y104.832 E.04385
G1 X112.67 Y104.064 E.02419
G1 X112.827 Y103.317 E.02391
G1 X113.132 Y102.461 E.02852
G1 X113.532 Y101.694 E.0271
G1 X114.075 Y100.938 E.02921
G1 X114.19 Y100.82 E.00516
M204 S1000
M73 P1 R64
G1 X114.458 Y101.082 F6000
M204 S800
G1 F1200
G1 X114.987 Y100.541 E.02374
G1 X115.646 Y100.036 E.026
G1 X116.453 Y99.587 E.02897
G1 X117.368 Y99.256 E.03051
G1 X118.23 Y99.09 E.02752
G1 X119.01 Y99.048 E.02448
G1 X119.952 Y99.136 E.02969
G1 X120.918 Y99.386 E.03127
G1 X121.207 Y98.615 E.02582
G1 X121.493 Y98.191 E.01602
G1 X121.93 Y97.72 E.02016
G1 X122.71 Y97.202 E.02937
G1 X123.311 Y97.001 E.01987
G1 X123.042 Y95.908 E.03532
G1 X122.973 Y94.908 E.03141
G1 X123.073 Y93.914 E.03132
G1 X123.327 Y92.981 E.03032
G1 X123.759 Y92.048 E.03225
G1 X124.322 Y91.23 E.03112
G1 X124.995 Y90.533 E.03039
G1 X125.929 Y89.861 E.03609
G1 X126.898 Y89.407 E.03352
G1 X127.901 Y89.14 E.03257
G1 X128.908 Y89.052 E.03169
G1 X129.76 Y89.111 E.02678
G1 X130.518 Y89.268 E.02426
G1 X131.283 Y89.539 E.02544
G1 X132.066 Y89.948 E.0277
G1 X132.677 Y90.383 E.0235
G1 X133.213 Y90.876 E.02284
G1 X133.852 Y91.664 E.03183
G1 X134.331 Y92.512 E.03052
G1 X134.635 Y93.324 E.02719
G1 X134.813 Y94.139 E.02617
G1 X134.877 Y95.031 E.02805
G1 X134.783 Y96.057 E.0323
G1 X134.542 Y97.004 E.03064
G1 X135.171 Y97.216 E.02082
G1 X135.869 Y97.676 E.02623
G1 X136.466 Y98.336 E.02788
G1 X136.883 Y99.193 E.02989
G1 X137.026 Y99.945 E.02402
G1 X137.026 Y110.129 E.3193
G1 X136.692 Y111.275 E.03743
G1 X136.234 Y111.961 E.02587
G1 X135.58 Y112.549 E.02757
G1 X134.791 Y112.941 E.02763
G1 X134.544 Y113.013 E.00806
G1 X134.788 Y113.968 E.03088
G1 X134.876 Y114.88 E.02872
G1 X134.839 Y115.666 E.02469
G1 X134.684 Y116.501 E.02663
G1 X134.485 Y117.122 E.02045
G1 X134.151 Y117.845 E.02496
G1 X133.734 Y118.503 E.02442
