; generated by PrusaSlicer 2.5.0+MacOS-x64 on 2022-11-04 at 23:53:25 UTC


;
;

;
;
; 

; external perimeters extrusion width = 0.45mm
; perimeters extrusion width = 0.45mm
; infill extrusion width = 0.45mm
; solid infill extrusion width = 0.45mm
; top infill extrusion width = 0.40mm
; first layer extrusion width = 0.42mm

M73 P0 R59
M201 X9000 Y9000 Z500 E10000 ; sets maximum accelerations, mm/sec^2
M203 X500 Y500 Z12 E120 ; sets maximum feedrates, mm / sec
M204 P2000 R1500 T2000 ; sets acceleration (P, T) and retract acceleration (R), mm/sec^2
M205 X10.00 Y10.00 Z0.20 E4.50 ; sets the jerk limits, mm/sec
M205 S0 T0 ; sets the minimum extruding and travel feed rate, mm/sec
M107
;TYPE:Custom
M83  ; extruder relative mode
M140 S85 ; set bed temp
M109 S160 ; Set extruder temp before bed level
M190 S85 ; wait for bed temp

G28 W ; home all without mesh bed level
G80 N7 ; mesh bed leveling

M109 S240 ; wait for extruder temp

M221 S100 ; Set flow to 100

G1 Y-3.0 F1000.0 ; go outside print area
G92 E0.0
G1 E8 ; Purge Bubble
G1 X60.0 E9.0 F1000.0 ; intro line
G1 X100.0 E12.5 F1000.0 ; intro line
G92 E0.0
G21 ; set units to millimeters
G90 ; use absolute coordinates
M83 ; use relative distances for extrusion
M900 K0.08 ; Filament gcode LA 1.5
M900 K45 ; Filament gcode LA 1.0
M107
;LAYER_CHANGE
;Z:0.2
;HEIGHT:0.2
;BEFORE_LAYER_CHANGE
G92 E0.0
;0.2


G1 E-1 F2100
G1 Z.2 F720
;AFTER_LAYER_CHANGE
;0.2
G1 Z.4
G1 X105.183 Y98.553 F6000
G1 Z.2 F720
G1 E1 F2100
M204 S800
;TYPE:Skirt/Brim
;WIDTH:0.42
G1 F1200
G1 X106.056 Y97.679 E.03875
G1 X106.721 Y97.143 E.02677
G1 X108.28 Y96.206 E.05703
G1 X114.614 Y93.774 E.21274
G1 X115.588 Y93.596 E.03103
G1 X134.412 Y93.596 E.59024
G1 X135.386 Y93.774 E.03103
M73 P0 R58
G1 X141.407 Y96.063 E.20197
G1 X142.277 Y96.496 E.03047
G1 X143.181 Y97.072 E.03362
G1 X144.315 Y98.023 E.04641
G1 X145.352 Y99.216 E.04955
G1 X146.236 Y100.667 E.05326
G1 X146.739 Y101.88 E.04117
G1 X147.14 Y103.532 E.05332
G1 X147.248 Y105.229 E.05331
G1 X147.059 Y106.92 E.05334
G1 X146.739 Y108.115 E.03879
G1 X146.433 Y108.908 E.02666
G1 X145.552 Y110.499 E.05703
G1 X144.473 Y111.815 E.05334
G1 X143.183 Y112.924 E.05333
G1 X141.721 Y113.79 E.05329
G1 X135.386 Y116.223 E.21276
G1 X134.412 Y116.4 E.03103
G1 X115.588 Y116.4 E.59024
G1 X114.614 Y116.223 E.03102
G1 X108.951 Y114.082 E.18983
G1 X107.529 Y113.389 E.04958
G1 X106.319 Y112.541 E.04633
G1 X105.183 Y111.444 E.04953
G1 X104.382 Y110.4 E.04123
G1 X103.71 Y109.221 E.04255
G1 X103.053 Y107.416 E.06022
G1 X102.769 Y105.618 E.05709
G1 X102.752 Y104.767 E.02669
G1 X102.86 Y103.533 E.03882
G1 X103.3 Y101.767 E.05707
G1 X104.112 Y100.026 E.06023
G1 X105.147 Y98.601 E.05523
M204 S1000
G1 X105.45 Y98.822 F6000
M204 S800
G1 F1200
G1 X106.311 Y97.957 E.03826
G1 X106.951 Y97.442 E.02573
G1 X108.439 Y96.548 E.05446
G1 X114.747 Y94.126 E.21185
G1 X115.588 Y93.973 E.02678
G1 X134.412 Y93.973 E.59024
G1 X135.253 Y94.126 E.02678
G1 X141.263 Y96.411 E.2016
G1 X142.089 Y96.823 E.02893
G1 X142.965 Y97.381 E.03259
G1 X144.049 Y98.29 E.04435
G1 X145.053 Y99.446 E.04801
G1 X145.902 Y100.841 E.0512
G1 X146.379 Y101.993 E.03911
G1 X146.766 Y103.581 E.05126
G1 X146.871 Y105.213 E.05125
G1 X146.691 Y106.838 E.05128
G1 X146.38 Y108.002 E.03776
G1 X146.084 Y108.764 E.02563
G1 X145.243 Y110.283 E.05446
G1 X144.206 Y111.549 E.05128
G1 X142.966 Y112.615 E.05127
G1 X141.561 Y113.448 E.05123
G1 X135.253 Y115.87 E.21187
G1 X134.412 Y116.023 E.02678
G1 X115.588 Y116.023 E.59024
G1 X114.747 Y115.87 E.02678
G1 X109.095 Y113.733 E.18946
G1 X107.718 Y113.062 E.04804
G1 X106.561 Y112.252 E.04427
G1 X105.461 Y111.189 E.04799
G1 X104.7 Y110.198 E.03917
G1 X104.052 Y109.062 E.04101
G1 X103.418 Y107.319 E.05816
G1 X103.146 Y105.601 E.05452
G1 X103.129 Y104.783 E.02566
G1 X103.234 Y103.582 E.03779
G1 X103.654 Y101.896 E.05449
G1 X104.438 Y100.214 E.05817
G1 X105.415 Y98.87 E.05211
M204 S1000
;WIPE_START
G1 F4800
G1 X106.311 Y97.957 E-.5318
G1 X106.951 Y97.442 E-.3411
G1 X107.11 Y97.347 E-.0771
;WIPE_END
G1 E-.05 F2100
G1 Z.4 F720
G1 X107.483 Y100.551 F6000
G1 Z.2 F720
G1 E1 F2100
M204 S800
G1 F1200
G1 X108.115 Y99.917 E.02807
G1 X109.118 Y99.202 E.0386
G1 X110.221 Y98.686 E.03821
G1 X111.314 Y98.392 E.03546
G1 X112.409 Y98.287 E.03449
G1 X113.546 Y98.368 E.03574
G1 X113.939 Y98.461 E.01267
G1 X114.961 Y97.475 E.04451
G1 X116.102 Y96.898 E.0401
G1 X117.313 Y96.641 E.03881
G1 X132.751 Y96.645 E.48405
G1 X133.902 Y96.898 E.03696
G1 X135.005 Y97.451 E.03868
G1 X136.064 Y98.461 E.04589
G1 X136.479 Y98.364 E.01337
G1 X137.534 Y98.286 E.03314
G1 X138.336 Y98.34 E.02522
G1 X139.178 Y98.499 E.02685
G1 X140.252 Y98.877 E.03571
G1 X141.433 Y99.561 E.04279
G1 X142.333 Y100.343 E.03736
G1 X143.071 Y101.256 E.03682
G1 X143.446 Y101.892 E.02314
G1 X143.767 Y102.596 E.02425
G1 X144.111 Y103.852 E.04083
G1 X144.209 Y105.054 E.03782
G1 X144.146 Y105.908 E.02686
G1 X143.992 Y106.698 E.02524
G1 X143.561 Y107.876 E.03931
G1 X142.94 Y108.928 E.03832
G1 X142.325 Y109.661 E.02999
G1 X141.694 Y110.236 E.02677
G1 X140.984 Y110.733 E.02716
G1 X140.347 Y111.075 E.02269
G1 X139.67 Y111.348 E.02287
G1 X138.625 Y111.615 E.03381
G1 X137.548 Y111.71 E.0339
G1 X136.538 Y111.64 E.03175
G1 X136.058 Y111.541 E.01538
G1 X135.363 Y112.272 E.03163
G1 X134.467 Y112.859 E.03358
G1 X132.74 Y113.36 E.05639
G1 X117.259 Y113.36 E.48539
G1 X115.471 Y112.829 E.05847
G1 X114.594 Y112.236 E.03321
G1 X113.953 Y111.553 E.02936
G1 X112.948 Y111.695 E.03181
G1 X111.856 Y111.679 E.03426
G1 X110.728 Y111.472 E.03595
G1 X109.885 Y111.178 E.02799
G1 X109.078 Y110.77 E.02836
G1 X108.163 Y110.119 E.03521
G1 X107.353 Y109.303 E.03603
G1 X106.69 Y108.355 E.03628
G1 X106.206 Y107.322 E.03576
G1 X105.89 Y106.146 E.03818
G1 X105.791 Y104.9 E.03921
G1 X105.899 Y103.794 E.03484
G1 X106.098 Y102.993 E.02589
G1 X106.392 Y102.218 E.02596
G1 X107.042 Y101.093 E.04076
G1 X107.445 Y100.597 E.02003
M204 S1000
G1 X107.738 Y100.835 F6000
M204 S800
G1 F1200
G1 X107.828 Y100.724 E.00449
G1 X108.368 Y100.197 E.02366
G1 X109.293 Y99.537 E.03564
G1 X110.366 Y99.035 E.03713
G1 X111.395 Y98.761 E.03339
G1 X112.428 Y98.664 E.03253
G1 X113.501 Y98.743 E.03375
G1 X114.053 Y98.877 E.01781
G1 X115.157 Y97.798 E.04841
G1 X116.25 Y97.245 E.03839
G1 X117.332 Y97.019 E.03466
G1 X132.729 Y97.022 E.48278
G1 X133.796 Y97.261 E.03426
G1 X134.809 Y97.774 E.03559
G1 X135.951 Y98.877 E.04979
G1 X136.523 Y98.739 E.01844
G1 X137.548 Y98.663 E.03221
G1 X138.299 Y98.715 E.02361
G1 X139.067 Y98.86 E.02451
G1 X140.079 Y99.213 E.03359
G1 X141.228 Y99.878 E.04164
G1 X142.072 Y100.616 E.03513
G1 X142.768 Y101.481 E.03483
G1 X143.116 Y102.074 E.02156
G1 X143.407 Y102.711 E.02195
G1 X143.737 Y103.901 E.03871
G1 X143.832 Y105.042 E.03588
G1 X143.774 Y105.848 E.02535
G1 X143.632 Y106.584 E.02351
G1 X143.227 Y107.7 E.03722
G1 X142.64 Y108.698 E.03632
G1 X142.061 Y109.392 E.02833
G1 X141.467 Y109.935 E.02523
G1 X140.796 Y110.406 E.02572
G1 X140.178 Y110.738 E.022
G1 X139.542 Y110.994 E.02149
G1 X138.548 Y111.245 E.03215
G1 X137.559 Y111.332 E.03111
G1 X136.578 Y111.265 E.03086
G1 X135.928 Y111.127 E.02082
G1 X135.137 Y111.969 E.03621
G1 X134.284 Y112.528 E.03197
G1 X132.713 Y112.983 E.05127
G1 X117.286 Y112.983 E.48371
G1 X115.658 Y112.501 E.05323
G1 X114.823 Y111.936 E.03161
G1 X114.068 Y111.123 E.0348
G1 X113.665 Y111.225 E.01304
G1 X112.941 Y111.318 E.0229
G1 X111.907 Y111.305 E.03241
G1 X110.838 Y111.111 E.03406
G1 X110.021 Y110.826 E.02712
G1 X109.261 Y110.441 E.02672
G1 X108.396 Y109.822 E.03337
G1 X107.633 Y109.05 E.03401
G1 X107.009 Y108.153 E.03425
G1 X106.555 Y107.178 E.03374
G1 X106.264 Y106.098 E.03506
G1 X106.168 Y104.919 E.03711
G1 X106.268 Y103.871 E.03299
G1 X106.461 Y103.095 E.02508
G1 X106.739 Y102.367 E.02442
G1 X107.344 Y101.319 E.03794
G1 X107.7 Y100.882 E.01768
M204 S1000
G1 X107.992 Y101.118 F6000
M204 S800
G1 F1200
G1 X108.099 Y100.986 E.00534
G1 X108.621 Y100.478 E.02285
G1 X109.497 Y99.854 E.03372
G1 X110.509 Y99.384 E.03498
G1 X111.475 Y99.13 E.03132
G1 X112.446 Y99.041 E.03057
G1 X113.456 Y99.118 E.03176
G1 X114.248 Y99.315 E.02559
G1 X114.4 Y99.065 E.00915
G1 X115.354 Y98.121 E.0421
G1 X116.398 Y97.593 E.03666
G1 X117.351 Y97.396 E.03052
G1 X132.708 Y97.399 E.48151
G1 X133.688 Y97.623 E.03153
G1 X134.611 Y98.096 E.03249
G1 X135.59 Y99.051 E.0429
G1 X135.751 Y99.315 E.00968
G1 X136.567 Y99.113 E.02638
G1 X137.561 Y99.04 E.03126
G1 X138.261 Y99.091 E.022
G1 X138.956 Y99.221 E.02218
G1 X139.938 Y99.563 E.03258
G1 X140.994 Y100.175 E.03829
G1 X141.789 Y100.866 E.03301
G1 X142.45 Y101.685 E.033
G1 X142.786 Y102.257 E.02081
G1 X143.058 Y102.854 E.02057
G1 X143.363 Y103.951 E.0357
G1 X143.455 Y105.029 E.03394
G1 X143.399 Y105.809 E.02452
G1 X143.265 Y106.497 E.02198
G1 X142.893 Y107.525 E.03425
G1 X142.34 Y108.469 E.03432
G1 X141.796 Y109.123 E.02666
G1 X141.24 Y109.634 E.02369
G1 X140.607 Y110.08 E.02428
G1 X140.027 Y110.392 E.02065
G1 X139.413 Y110.639 E.02076
G1 X138.499 Y110.871 E.02957
G1 X137.57 Y110.955 E.02923
G1 X136.617 Y110.89 E.02995
G1 X135.745 Y110.702 E.02799
G1 X135.622 Y110.901 E.00733
G1 X134.911 Y111.667 E.03276
G1 X134.101 Y112.197 E.03036
G1 X132.687 Y112.606 E.04616
G1 X117.313 Y112.606 E.48203
G1 X115.846 Y112.172 E.04798
G1 X115.053 Y111.636 E.02999
G1 X114.377 Y110.901 E.03131
G1 X114.247 Y110.686 E.00788
G1 X113.605 Y110.853 E.0208
G1 X112.906 Y110.942 E.0221
G1 X111.958 Y110.931 E.02973
G1 X110.947 Y110.75 E.0322
G1 X110.18 Y110.484 E.02545
G1 X109.445 Y110.111 E.02585
G1 X108.629 Y109.525 E.03149
G1 X107.914 Y108.798 E.03199
G1 X107.329 Y107.952 E.03223
G1 X106.904 Y107.034 E.03172
G1 X106.639 Y106.049 E.03198
G1 X106.545 Y104.937 E.03501
G1 X106.638 Y103.948 E.03113
G1 X106.825 Y103.197 E.02427
G1 X107.086 Y102.516 E.02288
G1 X107.647 Y101.545 E.03516
G1 X107.954 Y101.165 E.01533
M204 S1000
G1 X108.247 Y101.402 F6000
M204 S800
G1 F1200
G1 X108.385 Y101.232 E.00686
G1 X108.873 Y100.758 E.02133
G1 X109.701 Y100.172 E.03181
G1 X110.651 Y99.733 E.03283
G1 X111.554 Y99.499 E.02926
G1 X112.463 Y99.418 E.02861
G1 X113.41 Y99.492 E.02977
G1 X114.443 Y99.753 E.03341
G1 X114.689 Y99.31 E.0159
G1 X115.552 Y98.444 E.03835
G1 X116.545 Y97.941 E.0349
G1 X117.37 Y97.773 E.02638
G1 X132.686 Y97.777 E.48023
G1 X133.579 Y97.985 E.02875
G1 X134.411 Y98.417 E.02939
G1 X135.303 Y99.298 E.03932
G1 X135.557 Y99.753 E.01634
G1 X136.612 Y99.488 E.03412
G1 X137.548 Y99.417 E.02943
G1 X138.223 Y99.466 E.02121
G1 X138.872 Y99.588 E.02071
G1 X139.796 Y99.913 E.03069
G1 X140.761 Y100.472 E.03498
G1 X141.507 Y101.116 E.0309
G1 X142.132 Y101.888 E.03114
G1 X142.456 Y102.439 E.02004
G1 X142.708 Y102.996 E.01918
G1 X142.989 Y104.002 E.03272
G1 X143.078 Y105.017 E.03197
G1 X143.024 Y105.77 E.02367
G1 X142.898 Y106.41 E.02043
G1 X142.545 Y107.379 E.03235
G1 X142.04 Y108.24 E.03129
G1 X141.531 Y108.854 E.02501
M73 P1 R58
G1 X141.012 Y109.333 E.02214
G1 X140.417 Y109.753 E.02283
G1 X139.858 Y110.055 E.01994
G1 X139.285 Y110.284 E.01935
G1 X138.449 Y110.497 E.02704
G1 X137.581 Y110.578 E.02734
G1 X136.657 Y110.515 E.02902
G1 X135.961 Y110.363 E.02235
G1 X135.569 Y110.222 E.01303
G1 X135.327 Y110.665 E.01584
G1 X134.651 Y111.392 E.03113
G1 X133.92 Y111.865 E.0273
G1 X132.66 Y112.229 E.04111
G1 X117.34 Y112.229 E.48035
G1 X116.031 Y111.842 E.0428
G1 X115.315 Y111.364 E.02699
G1 X114.673 Y110.666 E.02974
G1 X114.443 Y110.244 E.01506
G1 X113.545 Y110.48 E.0291
G1 X112.871 Y110.566 E.0213
G1 X112.008 Y110.557 E.02706
G1 X111.056 Y110.388 E.03031
G1 X110.316 Y110.132 E.02456
G1 X109.629 Y109.782 E.02416
G1 X108.863 Y109.229 E.02963
G1 X108.195 Y108.546 E.02997
G1 X107.649 Y107.752 E.0302
G1 X107.253 Y106.891 E.02971
G1 X107.013 Y106 E.02895
G1 X106.922 Y104.954 E.03291
G1 X107.007 Y104.025 E.02925
G1 X107.188 Y103.3 E.02344
G1 X107.432 Y102.665 E.02132
G1 X107.949 Y101.771 E.0324
G1 X108.21 Y101.449 E.01298
M204 S1000
G1 X108.502 Y101.685 F6000
M204 S800
G1 F1200
G1 X108.656 Y101.495 E.00768
G1 X109.125 Y101.039 E.02049
G1 X109.903 Y100.491 E.02986
G1 X110.793 Y100.083 E.03068
G1 X111.604 Y99.873 E.02628
G1 X112.451 Y99.795 E.02665
G1 X113.336 Y99.863 E.02785
G1 X114.126 Y100.055 E.02548
G1 X114.61 Y100.252 E.01638
G1 X114.979 Y99.552 E.02479
G1 X115.751 Y98.766 E.03455
G1 X116.692 Y98.289 E.0331
G1 X117.388 Y98.15 E.02224
G1 X132.663 Y98.154 E.47894
G1 X133.467 Y98.345 E.02592
G1 X134.209 Y98.736 E.02628
G1 X135.015 Y99.543 E.03575
G1 X135.392 Y100.254 E.02526
G1 X135.785 Y100.085 E.01339
G1 X136.658 Y99.863 E.02826
G1 X137.536 Y99.795 E.0276
G1 X138.185 Y99.841 E.02041
G1 X138.787 Y99.956 E.01923
G1 X139.653 Y100.262 E.02881
G1 X140.529 Y100.769 E.03172
G1 X141.225 Y101.368 E.02878
G1 X141.814 Y102.092 E.02927
G1 X142.126 Y102.621 E.01926
G1 X142.359 Y103.138 E.01778
G1 X142.615 Y104.053 E.02978
G1 X142.701 Y105.006 E.03
G1 X142.648 Y105.731 E.02281
G1 X142.531 Y106.322 E.01888
G1 X142.21 Y107.205 E.02944
G1 X141.739 Y108.013 E.02932
G1 X141.266 Y108.586 E.02332
G1 X140.765 Y109.047 E.02134
G1 X140.21 Y109.438 E.02129
G1 X139.689 Y109.718 E.01854
G1 X139.157 Y109.93 E.01797
G1 X138.398 Y110.123 E.02455
G1 X137.591 Y110.201 E.02542
G1 X136.697 Y110.139 E.02808
G1 X136.055 Y109.997 E.02062
G1 X135.387 Y109.752 E.02232
G1 X135.032 Y110.43 E.02399
G1 X134.423 Y111.091 E.02818
G1 X133.785 Y111.512 E.02396
G1 X132.633 Y111.851 E.03767
G1 X117.367 Y111.851 E.47864
G1 X116.215 Y111.512 E.03767
G1 X115.577 Y111.091 E.02396
G1 X114.968 Y110.43 E.02818
G1 X114.61 Y109.746 E.02421
G1 X114.177 Y109.925 E.0147
G1 X113.462 Y110.112 E.02318
G1 X112.837 Y110.19 E.01973
G1 X112.057 Y110.183 E.02445
G1 X111.164 Y110.027 E.02843
G1 X110.475 Y109.79 E.02284
G1 X109.814 Y109.453 E.02327
G1 X109.098 Y108.933 E.02775
G1 X108.496 Y108.319 E.02696
G1 X107.969 Y107.552 E.02916
G1 X107.602 Y106.749 E.02768
G1 X107.387 Y105.949 E.02597
G1 X107.299 Y104.97 E.03082
G1 X107.377 Y104.102 E.02734
G1 X107.551 Y103.403 E.0226
G1 X107.778 Y102.815 E.01975
G1 X108.252 Y101.996 E.02967
G1 X108.465 Y101.732 E.01064
M204 S1000
G1 X108.758 Y101.968 F6000
M204 S800
G1 F1200
G1 X108.927 Y101.757 E.00847
G1 X109.377 Y101.32 E.01964
G1 X110.106 Y100.809 E.02791
G1 X110.905 Y100.444 E.02755
G1 X111.656 Y100.247 E.02435
G1 X112.44 Y100.172 E.02468
G1 X113.262 Y100.233 E.02587
G1 X114.022 Y100.418 E.02451
G1 X114.848 Y100.759 E.02802
G1 X114.937 Y100.445 E.01022
G1 X115.271 Y99.792 E.02301
G1 X115.95 Y99.088 E.03069
G1 X116.839 Y98.638 E.03125
G1 X117.406 Y98.527 E.0181
G1 X132.64 Y98.531 E.47766
G1 X133.353 Y98.706 E.02304
G1 X134.004 Y99.055 E.02316
G1 X134.725 Y99.785 E.03218
G1 X135.06 Y100.438 E.023
G1 X135.154 Y100.774 E.01096
G1 X135.894 Y100.446 E.02538
G1 X136.735 Y100.232 E.02722
G1 X137.522 Y100.172 E.02476
G1 X138.147 Y100.217 E.01962
G1 X138.702 Y100.323 E.01772
G1 X139.511 Y100.612 E.02693
G1 X140.297 Y101.067 E.02851
G1 X140.944 Y101.62 E.02667
G1 X141.497 Y102.296 E.02737
G1 X141.795 Y102.803 E.01847
G1 X142.009 Y103.28 E.01637
G1 X142.241 Y104.105 E.02688
G1 X142.323 Y104.994 E.028
G1 X142.273 Y105.692 E.02193
G1 X142.164 Y106.233 E.0173
G1 X141.862 Y107.059 E.02758
G1 X141.438 Y107.785 E.02634
G1 X141 Y108.318 E.02166
G1 X140.538 Y108.746 E.01974
G1 X140.003 Y109.123 E.02052
G1 X139.521 Y109.38 E.01712
G1 X139.051 Y109.568 E.01588
G1 X138.347 Y109.749 E.02279
G1 X137.57 Y109.824 E.02446
G1 X136.765 Y109.768 E.02531
G1 X136.149 Y109.632 E.01976
G1 X135.492 Y109.389 E.02198
G1 X135.158 Y109.211 E.01188
G1 X135.061 Y109.557 E.01128
G1 X134.735 Y110.196 E.02249
G1 X134.192 Y110.792 E.02528
G1 X133.648 Y111.16 E.0206
G1 X132.605 Y111.474 E.03417
G1 X117.395 Y111.474 E.47687
G1 X116.352 Y111.16 E.03417
G1 X115.808 Y110.792 E.0206
G1 X115.265 Y110.196 E.02528
G1 X114.939 Y109.557 E.02249
G1 X114.849 Y109.236 E.01046
G1 X114.067 Y109.564 E.02659
G1 X113.401 Y109.74 E.02159
G1 X112.828 Y109.813 E.01813
G1 X112.077 Y109.806 E.02355
G1 X111.273 Y109.665 E.02559
G1 X110.611 Y109.438 E.02195
G1 X109.999 Y109.124 E.02155
G1 X109.355 Y108.657 E.02494
G1 X108.797 Y108.09 E.02495
G1 X108.304 Y107.38 E.02711
G1 X107.962 Y106.634 E.02571
G1 X107.761 Y105.898 E.02395
G1 X107.676 Y104.986 E.02871
G1 X107.746 Y104.178 E.02541
