; generated by PrusaSlicer 2.2.0+win64 on 2020-12-11 at 15:13:12 UTC


;
;

;
;
; 

; external perimeters extrusion width = 0.45mm
; perimeters extrusion width = 0.45mm
; infill extrusion width = 0.45mm
; solid infill extrusion width = 0.45mm
; top infill extrusion width = 0.40mm
; first layer extrusion width = 0.42mm

M73 P0 R45
M201 X9000 Y9000 Z500 E10000 ; sets maximum accelerations, mm/sec^2
M203 X500 Y500 Z12 E120 ; sets maximum feedrates, mm/sec
M204 P2000 R1500 T2000 ; sets acceleration (P, T) and retract acceleration (R), mm/sec^2
M205 X10.00 Y10.00 Z0.20 E2.50 ; sets the jerk limits, mm/sec
M205 S0 T0 ; sets the minimum extruding and travel feed rate, mm/sec
M107
M83  ; extruder relative mode
M140 S85 ; set bed temp
M109 S160 ; Set extruder temp before bed level
M190 S85 ; wait for bed temp

G28 W ; home all without mesh bed level
G80 N7 ; mesh bed leveling

M109 S240 ; wait for extruder temp

M221 S100 ; Set flow to 100

G1 Y-3.0 F1000.0 ; go outside print area
G92 E0.0
G1 E8 ; Purge Bubble
M73 P0 R45
G1 X60.0 E9.0 F1000.0 ; intro line
G1 X100.0 E12.5 F1000.0 ; intro line
G92 E0.0
G21 ; set units to millimeters
G90 ; use absolute coordinates
M83 ; use relative distances for extrusion
M900 K0.08 ; Filament gcode LA 1.5
M900 K45 ; Filament gcode LA 1.0
;BEFORE_LAYER_CHANGE
G92 E0.0
;0.2


G1 E-1.40000 F2100.00000
G1 Z0.200 F10800.000
;AFTER_LAYER_CHANGE
;0.2
G1 Z0.400
G1 X90.693 Y74.503
G1 Z0.200
G1 E1.40000 F2100.00000
M204 S1000
G1 F1200.000
G1 X91.871 Y73.164 E0.05592
G1 X93.749 Y71.539 E0.07785
G1 X95.813 Y70.253 E0.07625
G1 X98.102 Y69.285 E0.07794
G1 X100.512 Y68.691 E0.07782
G1 X103.001 Y68.483 E0.07830
G1 X151.568 Y70.572 E1.52419
G1 X154.042 Y71.030 E0.07889
G1 X155.565 Y71.525 E0.05019
G1 X157.026 Y72.171 E0.05009
G1 X159.196 Y73.495 E0.07973
G1 X161.100 Y75.129 E0.07866
G1 X162.694 Y77.007 E0.07723
G1 X163.956 Y79.078 E0.07604
G1 X164.669 Y80.701 E0.05558
G1 X165.340 Y83.030 E0.07602
G1 X171.608 Y125.222 E1.33740
G1 X171.674 Y126.446 E0.03844
G1 X171.609 Y127.665 E0.03826
G1 X171.419 Y128.861 E0.03800
G1 X171.072 Y130.120 E0.04095
G1 X170.622 Y131.255 E0.03827
G1 X170.128 Y132.218 E0.03394
G1 X169.540 Y133.130 E0.03402
G1 X168.725 Y134.153 E0.04100
G1 X167.926 Y134.959 E0.03558
G1 X166.824 Y135.850 E0.04443
G1 X165.897 Y136.447 E0.03458
G1 X164.846 Y136.984 E0.03700
G1 X163.591 Y137.458 E0.04206
G1 X162.530 Y137.739 E0.03441
G1 X161.443 Y137.914 E0.03454
G1 X126.112 Y141.461 E1.11333
G1 X124.395 Y141.514 E0.05387
G1 X121.994 Y141.271 E0.07568
G1 X87.449 Y135.451 E1.09840
G1 X86.311 Y135.146 E0.03692
G1 X85.289 Y134.757 E0.03430
G1 X84.103 Y134.165 E0.04157
G1 X82.992 Y133.433 E0.04169
G1 X82.144 Y132.742 E0.03430
G1 X81.358 Y131.960 E0.03478
G1 X80.539 Y130.961 E0.04050
G1 X79.878 Y129.945 E0.03800
G1 X79.325 Y128.862 E0.03812
G1 X78.892 Y127.735 E0.03788
G1 X78.578 Y126.564 E0.03800
G1 X78.389 Y125.367 E0.03800
G1 X78.326 Y124.160 E0.03789
G1 X78.396 Y122.901 E0.03954
G1 X78.583 Y121.746 E0.03669
G1 X87.808 Y80.419 E1.32766
G1 X88.292 Y78.829 E0.05211
G1 X89.345 Y76.527 E0.07937
G1 X90.660 Y74.553 E0.07439
; printing object bearing-pin.stl_2 id:2 copy 0
G1 F8640.000
G1 X91.871 Y73.164 E-0.42552
G1 X93.749 Y71.539 E-0.57329
G1 X94.966 Y70.781 E-0.33118
G1 E-0.07000 F2100.00000
G1 Z0.400 F10800.000
G1 X89.868 Y116.171
G1 Z0.200
G1 E1.40000 F2100.00000
G1 F1200.000
G1 X90.704 Y116.215 E0.02624
G1 X91.531 Y116.346 E0.02624
G1 X92.339 Y116.563 E0.02624
G1 X93.120 Y116.862 E0.02624
G1 X93.866 Y117.242 E0.02624
G1 X94.567 Y117.698 E0.02624
G1 X95.218 Y118.225 E0.02624
G1 X95.809 Y118.816 E0.02624
G1 X96.336 Y119.467 E0.02624
G1 X96.792 Y120.168 E0.02624
G1 X97.172 Y120.914 E0.02624
G1 X97.471 Y121.695 E0.02624
G1 X97.688 Y122.503 E0.02624
G1 X97.819 Y123.330 E0.02624
G1 X97.863 Y124.166 E0.02624
G1 X97.819 Y125.001 E0.02624
G1 X97.688 Y125.828 E0.02624
G1 X97.471 Y126.636 E0.02624
G1 X97.172 Y127.417 E0.02624
G1 X96.792 Y128.163 E0.02624
G1 X96.336 Y128.864 E0.02624
G1 X95.809 Y129.515 E0.02624
G1 X95.218 Y130.106 E0.02624
G1 X94.567 Y130.633 E0.02624
G1 X93.866 Y131.089 E0.02624
G1 X93.120 Y131.469 E0.02624
G1 X92.339 Y131.768 E0.02624
G1 X91.531 Y131.985 E0.02624
G1 X90.704 Y132.116 E0.02624
G1 X89.868 Y132.160 E0.02624
G1 X89.033 Y132.116 E0.02624
G1 X88.206 Y131.985 E0.02624
G1 X87.398 Y131.768 E0.02624
G1 X86.617 Y131.469 E0.02624
G1 X85.871 Y131.089 E0.02624
G1 X85.170 Y130.633 E0.02624
G1 X84.519 Y130.106 E0.02624
G1 X83.928 Y129.515 E0.02624
G1 X83.401 Y128.864 E0.02624
G1 X82.945 Y128.163 E0.02624
G1 X82.565 Y127.417 E0.02624
G1 X82.266 Y126.636 E0.02624
G1 X82.049 Y125.828 E0.02624
G1 X81.918 Y125.001 E0.02624
G1 X81.874 Y124.166 E0.02624
G1 X81.918 Y123.330 E0.02624
G1 X82.049 Y122.503 E0.02624
G1 X82.266 Y121.695 E0.02624
G1 X82.565 Y120.914 E0.02624
G1 X82.945 Y120.168 E0.02624
G1 X83.401 Y119.467 E0.02624
G1 X83.928 Y118.816 E0.02624
G1 X84.519 Y118.225 E0.02624
G1 X85.170 Y117.698 E0.02624
G1 X85.871 Y117.242 E0.02624
G1 X86.617 Y116.862 E0.02624
G1 X87.398 Y116.563 E0.02624
G1 X88.206 Y116.346 E0.02624
G1 X89.033 Y116.215 E0.02624
G1 X89.809 Y116.174 E0.02435
G1 X89.789 Y115.798 F10800.000
G1 F1200.000
G1 X90.744 Y115.840 E0.02996
G1 X91.609 Y115.977 E0.02748
G1 X92.455 Y116.203 E0.02748
G1 X93.274 Y116.518 E0.02748
G1 X94.054 Y116.915 E0.02748
G1 X94.789 Y117.393 E0.02748
G1 X95.470 Y117.944 E0.02748
G1 X96.090 Y118.564 E0.02748
G1 X96.641 Y119.245 E0.02748
G1 X97.119 Y119.980 E0.02748
G1 X97.516 Y120.760 E0.02748
G1 X97.831 Y121.579 E0.02748
G1 X98.057 Y122.425 E0.02748
G1 X98.194 Y123.290 E0.02748
G1 X98.240 Y124.166 E0.02748
G1 X98.194 Y125.041 E0.02748
G1 X98.057 Y125.906 E0.02748
G1 X97.831 Y126.753 E0.02748
G1 X97.516 Y127.571 E0.02748
G1 X97.119 Y128.351 E0.02748
G1 X96.641 Y129.086 E0.02748
G1 X96.090 Y129.767 E0.02748
G1 X95.470 Y130.387 E0.02748
G1 X94.789 Y130.938 E0.02748
G1 X94.054 Y131.416 E0.02748
G1 X93.274 Y131.814 E0.02748
G1 X92.455 Y132.128 E0.02748
G1 X91.609 Y132.354 E0.02748
G1 X90.744 Y132.491 E0.02748
G1 X89.868 Y132.537 E0.02748
G1 X88.993 Y132.491 E0.02748
G1 X88.128 Y132.354 E0.02748
G1 X87.281 Y132.128 E0.02748
G1 X86.463 Y131.814 E0.02748
G1 X85.683 Y131.416 E0.02748
G1 X84.948 Y130.938 E0.02748
G1 X84.267 Y130.387 E0.02748
G1 X83.647 Y129.767 E0.02748
G1 X83.096 Y129.086 E0.02748
G1 X82.618 Y128.351 E0.02748
G1 X82.220 Y127.571 E0.02748
G1 X81.906 Y126.753 E0.02748
G1 X81.680 Y125.906 E0.02748
G1 X81.543 Y125.041 E0.02748
G1 X81.497 Y124.166 E0.02748
G1 X81.543 Y123.290 E0.02748
G1 X81.680 Y122.425 E0.02748
G1 X81.906 Y121.579 E0.02748
G1 X82.220 Y120.760 E0.02748
G1 X82.618 Y119.980 E0.02748
G1 X83.096 Y119.245 E0.02748
G1 X83.647 Y118.564 E0.02748
G1 X84.267 Y117.944 E0.02748
G1 X84.948 Y117.393 E0.02748
G1 X85.683 Y116.915 E0.02748
G1 X86.463 Y116.518 E0.02748
G1 X87.281 Y116.203 E0.02748
G1 X88.128 Y115.977 E0.02748
G1 X88.993 Y115.840 E0.02748
G1 X89.729 Y115.801 E0.02309
G1 X89.991 Y116.143 F10800.000
G1 F8640.000
G1 X90.744 Y115.840 E-0.23446
G1 X91.609 Y115.977 E-0.20234
G1 X92.455 Y116.203 E-0.20234
G1 X93.274 Y116.518 E-0.20234
G1 X94.054 Y116.915 E-0.20234
G1 X94.789 Y117.393 E-0.20234
G1 X95.071 Y117.621 E-0.08385
G1 E-0.07000 F2100.00000
G1 Z0.400 F10800.000
G1 X83.264 Y128.446
G1 Z0.200
G1 E1.40000 F2100.00000
G1 F1200.000
G1 X84.737 Y129.919 E0.06668
G1 X85.336 Y130.404 E0.02465
G1 X86.013 Y130.843 E0.02583
G1 X86.407 Y131.044 E0.01413
G1 X82.990 Y127.627 E0.15461
G1 X82.824 Y127.302 E0.01169
G1 X82.585 Y126.678 E0.02139
G1 X87.356 Y131.449 E0.21593
G1 X88.120 Y131.669 E0.02544
G1 X82.365 Y125.914 E0.26044
G1 X82.244 Y125.248 E0.02165
G1 X88.786 Y131.790 E0.29605
G1 X89.062 Y131.834 E0.00897
G1 X89.391 Y131.852 E0.01053
G1 X82.182 Y124.643 E0.32620
G1 X82.162 Y124.078 E0.01808
G1 X89.956 Y131.872 E0.35268
G1 X90.473 Y131.845 E0.01657
G1 X82.189 Y123.561 E0.37486
G1 X82.245 Y123.073 E0.01573
G1 X90.961 Y131.789 E0.39442
G1 X91.431 Y131.714 E0.01522
G1 X82.320 Y122.603 E0.41231
G1 X82.431 Y122.170 E0.01430
G1 X91.864 Y131.603 E0.42685
G1 X92.289 Y131.485 E0.01414
G1 X82.549 Y121.745 E0.44076
G1 X82.700 Y121.351 E0.01348
G1 X92.683 Y131.334 E0.45172
G1 X93.070 Y131.177 E0.01337
G1 X82.857 Y120.964 E0.46215
G1 X83.041 Y120.604 E0.01295
G1 X93.430 Y130.993 E0.47015
G1 X93.785 Y130.804 E0.01287
G1 X83.230 Y120.249 E0.47764
G1 X83.445 Y119.919 E0.01259
G1 X94.115 Y130.589 E0.48287
G1 X94.441 Y130.371 E0.01255
G1 X83.663 Y119.593 E0.48775
G1 X83.906 Y119.292 E0.01238
G1 X94.742 Y130.128 E0.49034
G1 X95.041 Y129.883 E0.01238
G1 X84.151 Y118.993 E0.49280
G1 X84.423 Y118.721 E0.01231
G1 X95.313 Y129.611 E0.49280
G1 X95.586 Y129.338 E0.01231
G1 X84.696 Y118.448 E0.49280
G1 X84.995 Y118.204 E0.01238
G1 X95.830 Y129.039 E0.49034
G1 X96.074 Y128.738 E0.01238
G1 X85.296 Y117.960 E0.48775
G1 X85.622 Y117.742 E0.01255
G1 X96.292 Y128.412 E0.48287
G1 X96.506 Y128.082 E0.01259
G1 X85.952 Y117.528 E0.47764
G1 X86.013 Y117.488 E0.00234
G1 X86.306 Y117.338 E0.01054
G1 X96.696 Y127.728 E0.47015
G1 X96.880 Y127.367 E0.01295
G1 X86.667 Y117.154 E0.46215
G1 X87.054 Y116.998 E0.01337
G1 X97.036 Y126.980 E0.45172
G1 X97.187 Y126.586 E0.01348
G1 X87.448 Y116.847 E0.44076
G1 X87.873 Y116.728 E0.01414
G1 X97.306 Y126.161 E0.42685
G1 X97.417 Y125.728 E0.01430
G1 X88.306 Y116.617 E0.41232
G1 X88.776 Y116.542 E0.01522
G1 X97.492 Y125.258 E0.39442
G1 X97.548 Y124.770 E0.01573
G1 X89.264 Y116.486 E0.37486
G1 X89.781 Y116.459 E0.01657
G1 X97.575 Y124.253 E0.35269
G1 X97.554 Y123.688 E0.01808
G1 X90.346 Y116.480 E0.32621
G1 X90.674 Y116.497 E0.01053
G1 X90.951 Y116.541 E0.00896
G1 X97.493 Y123.083 E0.29606
G1 X97.372 Y122.417 E0.02165
G1 X91.617 Y116.662 E0.26045
G1 X92.381 Y116.882 E0.02543
G1 X97.152 Y121.653 E0.21594
G1 X96.913 Y121.029 E0.02140
G1 X96.747 Y120.704 E0.01169
G1 X93.330 Y117.287 E0.15462
G1 X93.724 Y117.488 E0.01414
G1 X94.401 Y117.927 E0.02583
G1 X94.999 Y118.412 E0.02463
G1 X96.473 Y119.886 E0.06671
; stop printing object bearing-pin.stl_2 id:2 copy 0
; printing object Classic.stl_1 id:0 copy 0
G1 F8640.000
G1 X94.999 Y118.412 E-0.48140
G1 X94.401 Y117.927 E-0.17770
G1 X93.724 Y117.488 E-0.18637
G1 X93.330 Y117.287 E-0.10205
G1 X94.502 Y118.458 E-0.38249
G1 E-0.07000 F2100.00000
G1 Z0.400 F10800.000
G1 X113.523 Y123.611
G1 Z0.200
G1 E1.40000 F2100.00000
G1 F1200.000
G1 X113.651 Y123.025 E0.01882
G1 X113.839 Y122.359 E0.02171
G1 X114.067 Y121.705 E0.02171
G1 X114.335 Y121.066 E0.02171
G1 X114.640 Y120.445 E0.02171
G1 X114.982 Y119.843 E0.02171
G1 X115.360 Y119.263 E0.02171
G1 X115.773 Y118.707 E0.02171
G1 X116.218 Y118.177 E0.02171
G1 X116.694 Y117.675 E0.02171
G1 X117.200 Y117.202 E0.02171
G1 X117.574 Y116.893 E0.01521
G1 X118.292 Y116.353 E0.02815
G1 X118.876 Y115.979 E0.02175
G1 X119.480 Y115.641 E0.02171
G1 X120.103 Y115.340 E0.02171
G1 X120.744 Y115.077 E0.02171
G1 X121.399 Y114.854 E0.02171
G1 X122.067 Y114.670 E0.02171
G1 X122.744 Y114.528 E0.02171
G1 X123.429 Y114.426 E0.02171
G1 X124.119 Y114.366 E0.02171
G1 X124.604 Y114.353 E0.01521
G1 X125.501 Y114.371 E0.02815
G1 X126.192 Y114.436 E0.02175
G1 X126.876 Y114.543 E0.02171
G1 X127.552 Y114.691 E0.02171
G1 X128.219 Y114.879 E0.02171
G1 X128.872 Y115.107 E0.02171
G1 X129.511 Y115.375 E0.02171
G1 X130.132 Y115.680 E0.02171
G1 X130.734 Y116.022 E0.02171
G1 X131.024 Y116.211 E0.01085
G1 X131.314 Y116.400 E0.01085
G1 X131.870 Y116.813 E0.02171
G1 X132.400 Y117.258 E0.02171
G1 X132.903 Y117.734 E0.02171
G1 X133.375 Y118.240 E0.02171
G1 X133.817 Y118.774 E0.02171
G1 X134.225 Y119.333 E0.02171
G1 X134.599 Y119.916 E0.02171
G1 X134.937 Y120.520 E0.02171
G1 X135.237 Y121.143 E0.02171
G1 X135.500 Y121.784 E0.02171
G1 X135.723 Y122.439 E0.02171
G1 X135.907 Y123.107 E0.02171
G1 X136.050 Y123.784 E0.02171
G1 X136.151 Y124.469 E0.02171
G1 X136.211 Y125.159 E0.02171
G1 X136.230 Y125.851 E0.02171
G1 X136.206 Y126.543 E0.02171
G1 X136.161 Y127.026 E0.01521
G1 X136.035 Y127.915 E0.02815
G1 X135.887 Y128.592 E0.02175
G1 X135.698 Y129.259 E0.02171
G1 X135.470 Y129.912 E0.02171
G1 X135.203 Y130.551 E0.02171
G1 X134.897 Y131.172 E0.02171
G1 X134.555 Y131.774 E0.02171
G1 X134.177 Y132.354 E0.02171
G1 X133.765 Y132.910 E0.02171
G1 X133.319 Y133.440 E0.02171
G1 X132.843 Y133.943 E0.02171
G1 X132.337 Y134.415 E0.02171
G1 X131.804 Y134.857 E0.02171
G1 X131.245 Y135.265 E0.02171
G1 X130.662 Y135.639 E0.02171
G1 X130.058 Y135.977 E0.02171
G1 X129.434 Y136.277 E0.02171
G1 X128.793 Y136.540 E0.02171
G1 X128.138 Y136.763 E0.02171
G1 X127.470 Y136.947 E0.02171
G1 X126.793 Y137.090 E0.02171
G1 X126.108 Y137.191 E0.02171
G1 X125.419 Y137.251 E0.02171
G1 X124.726 Y137.270 E0.02171
G1 X124.035 Y137.246 E0.02171
G1 X123.345 Y137.181 E0.02171
G1 X122.661 Y137.074 E0.02171
G1 X121.985 Y136.927 E0.02171
G1 X121.518 Y136.795 E0.01521
G1 X120.666 Y136.511 E0.02815
G1 X120.026 Y136.243 E0.02175
G1 X119.405 Y135.937 E0.02171
G1 X118.803 Y135.595 E0.02171
G1 X118.223 Y135.217 E0.02171
G1 X117.667 Y134.805 E0.02171
G1 X117.137 Y134.359 E0.02171
G1 X116.635 Y133.883 E0.02171
G1 X116.162 Y133.377 E0.02171
G1 X115.853 Y133.003 E0.01521
G1 X115.313 Y132.286 E0.02815
G1 X114.940 Y131.704 E0.02167
G1 X114.601 Y131.097 E0.02179
G1 X114.299 Y130.471 E0.02179
G1 X114.037 Y129.833 E0.02162
G1 X113.814 Y129.178 E0.02171
G1 X113.630 Y128.510 E0.02171
G1 X113.488 Y127.833 E0.02171
G1 X113.386 Y127.148 E0.02171
G1 X113.326 Y126.459 E0.02171
G1 X113.308 Y125.766 E0.02171
G1 X113.331 Y125.074 E0.02171
G1 X113.396 Y124.385 E0.02171
G1 X113.510 Y123.670 E0.02271
G1 X113.219 Y123.350 F10800.000
G1 F8640.000
G1 X113.651 Y123.025 E-0.15248
G1 X113.839 Y122.359 E-0.15986
G1 X114.067 Y121.705 E-0.15986
G1 X114.335 Y121.066 E-0.15986
G1 X114.640 Y120.445 E-0.15986
G1 X114.982 Y119.843 E-0.15986
G1 X115.360 Y119.263 E-0.15986
G1 X115.773 Y118.707 E-0.15986
G1 X115.936 Y118.513 E-0.05850
G1 E-0.07000 F2100.00000
G1 Z0.400 F10800.000
G1 X115.885 Y117.987
G1 Z0.200
G1 E1.40000 F2100.00000
G1 F1200.000
G1 X116.266 Y117.137 E0.02920
G1 X116.525 Y116.457 E0.02281
G1 X116.752 Y115.766 E0.02281
G1 X116.947 Y115.065 E0.02281
G1 X117.108 Y114.356 E0.02281
G1 X117.236 Y113.639 E0.02281
G1 X117.330 Y112.919 E0.02277
G1 X117.391 Y112.193 E0.02285
G1 X117.417 Y111.466 E0.02281
G1 X117.409 Y110.738 E0.02281
G1 X117.368 Y110.012 E0.02281
G1 X117.292 Y109.288 E0.02281
G1 X117.182 Y108.569 E0.02281
G1 X117.039 Y107.855 E0.02281
G1 X116.862 Y107.150 E0.02281
G1 X116.652 Y106.453 E0.02281
G1 X116.411 Y105.768 E0.02277
G1 X117.036 Y106.551 E0.03142
G1 X117.524 Y107.073 E0.02242
G1 X118.043 Y107.566 E0.02242
G1 X118.591 Y108.025 E0.02242
G1 X119.165 Y108.451 E0.02242
G1 X119.765 Y108.842 E0.02242
G1 X120.386 Y109.195 E0.02242
G1 X121.028 Y109.511 E0.02242
G1 X121.688 Y109.787 E0.02242
G1 X122.363 Y110.023 E0.02242
G1 X123.051 Y110.217 E0.02242
G1 X123.749 Y110.370 E0.02242
G1 X124.456 Y110.480 E0.02242
G1 X125.168 Y110.547 E0.02242
G1 X125.883 Y110.572 E0.02242
G1 X126.598 Y110.553 E0.02242
G1 X127.310 Y110.491 E0.02242
G1 X128.017 Y110.386 E0.02242
G1 X128.717 Y110.238 E0.02242
G1 X129.407 Y110.049 E0.02242
G1 X130.083 Y109.818 E0.02242
G1 X130.745 Y109.547 E0.02242
G1 X131.389 Y109.236 E0.02242
G1 X132.013 Y108.887 E0.02242
G1 X132.615 Y108.501 E0.02242
G1 X133.193 Y108.079 E0.02242
G1 X133.744 Y107.623 E0.02242
G1 X134.266 Y107.135 E0.02242
G1 X134.810 Y106.555 E0.02492
G1 X134.428 Y107.408 E0.02931
G1 X134.170 Y108.085 E0.02270
G1 X133.942 Y108.776 E0.02281
G1 X133.748 Y109.477 E0.02281
G1 X133.587 Y110.186 E0.02281
G1 X133.469 Y110.844 E0.02094
G1 X133.364 Y111.623 E0.02465
G1 X133.304 Y112.349 E0.02285
G1 X133.278 Y113.076 E0.02281
G1 X133.285 Y113.804 E0.02281
G1 X133.328 Y114.535 E0.02296
G1 X133.458 Y115.614 E0.03407
G1 X133.655 Y116.682 E0.03407
G1 X133.833 Y117.392 E0.02296
M73 P2 R44
G1 X134.043 Y118.089 E0.02281
G1 X134.284 Y118.774 E0.02277
G1 X133.659 Y117.991 E0.03142
G1 X133.170 Y117.468 E0.02242
G1 X132.652 Y116.976 E0.02242
G1 X132.104 Y116.517 E0.02242
G1 X131.529 Y116.091 E0.02242
G1 X130.930 Y115.700 E0.02242
G1 X130.309 Y115.347 E0.02242
G1 X129.667 Y115.031 E0.02242
G1 X129.007 Y114.755 E0.02242
G1 X128.332 Y114.519 E0.02242
