; generated by PrusaSlicer 2.2.0+ on 2020-12-11 at 16:44:02 UTC


;
;

;
;
; 

; external perimeters extrusion width = 0.45mm
; perimeters extrusion width = 0.45mm
; infill extrusion width = 0.45mm
; solid infill extrusion width = 0.45mm
; top infill extrusion width = 0.40mm
; first layer extrusion width = 0.42mm

M73 P0 R91
M201 X9000 Y9000 Z500 E10000 ; sets maximum accelerations, mm/sec^2
M203 X500 Y500 Z12 E120 ; sets maximum feedrates, mm/sec
M204 P2000 R1500 T2000 ; sets acceleration (P, T) and retract acceleration (R), mm/sec^2
M205 X10.00 Y10.00 Z0.20 E4.50 ; sets the jerk limits, mm/sec
M205 S0 T0 ; sets the minimum extruding and travel feed rate, mm/sec
M107
M83  ; extruder relative mode
M140 S85 ; set bed temp
M109 S160 ; Set extruder temp before bed level
M190 S85 ; wait for bed temp

G28 W ; home all without mesh bed level
G80 N7 ; mesh bed leveling

M109 S240 ; wait for extruder temp

M221 S100 ; Set flow to 100

G1 Y-3.0 F1000.0 ; go outside print area
G92 E0.0
G1 E8 ; Purge Bubble
M73 P0 R91
G1 X60.0 E9.0 F1000.0 ; intro line
G1 X100.0 E12.5 F1000.0 ; intro line
G92 E0.0
G21 ; set units to millimeters
G90 ; use absolute coordinates
M83 ; use relative distances for extrusion
M900 K0.08 ; Filament gcode LA 1.5
M900 K45 ; Filament gcode LA 1.0
;BEFORE_LAYER_CHANGE
G92 E0.0
;0.2


G1 E-1.40000 F2100.00000
G1 Z0.200 F10800.000
;AFTER_LAYER_CHANGE
;0.2
G1 Z0.400
G1 X75.381 Y54.098
G1 Z0.200
G1 E1.40000 F2100.00000
M204 S1000
G1 F1200.000
G1 X101.026 Y18.364 E1.37909
G1 X101.795 Y17.421 E0.03816
G1 X102.762 Y16.468 E0.04257
G1 X103.651 Y15.753 E0.03576
G1 X104.599 Y15.133 E0.03554
G1 X105.722 Y14.546 E0.03970
G1 X106.989 Y14.049 E0.04269
G1 X108.208 Y13.721 E0.03959
G1 X109.463 Y13.522 E0.03983
G1 X110.724 Y13.456 E0.03959
G1 X111.992 Y13.524 E0.03982
G1 X113.340 Y13.748 E0.04285
G1 X114.437 Y14.045 E0.03561
G1 X115.503 Y14.451 E0.03577
G1 X116.710 Y15.055 E0.04233
G1 X154.125 Y36.657 E1.35460
G1 X155.142 Y37.320 E0.03808
G1 X156.115 Y38.108 E0.03923
G1 X157.002 Y38.995 E0.03935
G1 X157.745 Y39.906 E0.03686
G1 X225.629 Y149.189 E4.03375
G1 X226.200 Y150.312 E0.03951
G1 X226.677 Y151.584 E0.04258
G1 X227.048 Y153.162 E0.05082
G1 X227.230 Y155.072 E0.06018
G1 X227.168 Y156.433 E0.04271
G1 X226.971 Y157.683 E0.03969
G1 X226.643 Y158.910 E0.03983
G1 X226.169 Y160.134 E0.04114
G1 X225.625 Y161.197 E0.03744
G1 X225.004 Y162.160 E0.03592
G1 X224.143 Y163.238 E0.04325
G1 X223.163 Y164.204 E0.04317
G1 X222.271 Y164.922 E0.03589
G1 X221.268 Y165.576 E0.03755
G1 X183.826 Y187.193 E1.35556
G1 X182.743 Y187.742 E0.03808
G1 X181.575 Y188.191 E0.03923
G1 X180.363 Y188.516 E0.03935
G1 X179.199 Y188.704 E0.03697
G1 X177.866 Y188.780 E0.04186
G1 X32.785 Y189.223 E4.54893
G1 X31.535 Y189.157 E0.03926
G1 X30.284 Y188.958 E0.03971
G1 X29.068 Y188.631 E0.03947
G1 X27.848 Y188.159 E0.04102
G1 X26.678 Y187.549 E0.04138
G1 X25.723 Y186.925 E0.03577
G1 X24.834 Y186.209 E0.03578
G1 X23.865 Y185.254 E0.04268
G1 X23.060 Y184.261 E0.04008
G1 X22.322 Y183.108 E0.04293
G1 X21.807 Y182.090 E0.03578
G1 X21.396 Y181.029 E0.03565
G1 X21.032 Y179.710 E0.04292
G1 X20.832 Y178.447 E0.04008
G1 X20.766 Y177.198 E0.03922
G1 X20.767 Y134.018 E1.35388
G1 X20.833 Y132.805 E0.03810
G1 X21.031 Y131.558 E0.03957
G1 X21.358 Y130.343 E0.03947
G1 X21.829 Y129.125 E0.04095
G1 X22.380 Y128.050 E0.03788
G1 X23.054 Y127.012 E0.03880
G1 X75.346 Y54.147 E2.81207
; printing object Fidget Spinner Denny.stl id:0 copy 0
G1 F8640.000
G1 X78.704 Y49.467 E-1.33000
G1 E-0.07000 F2100.00000
G1 Z0.400 F10800.000
G1 X181.509 Y147.268
G1 Z0.200
G1 E1.40000 F2100.00000
G1 F1200.000
G1 X182.385 Y146.392 E0.03885
G1 X183.348 Y145.612 E0.03885
G1 X184.387 Y144.937 E0.03885
G1 X185.491 Y144.374 E0.03885
G1 X186.648 Y143.930 E0.03885
G1 X187.845 Y143.610 E0.03885
G1 X189.069 Y143.416 E0.03885
G1 X190.278 Y143.352 E0.03798
G1 X191.543 Y143.416 E0.03969
G1 X192.767 Y143.610 E0.03887
G1 X193.964 Y143.930 E0.03885
G1 X195.121 Y144.374 E0.03885
G1 X196.225 Y144.937 E0.03885
G1 X197.264 Y145.612 E0.03885
G1 X198.227 Y146.392 E0.03885
G1 X199.103 Y147.268 E0.03885
G1 X199.883 Y148.231 E0.03885
G1 X200.558 Y149.270 E0.03885
G1 X201.121 Y150.374 E0.03885
G1 X201.565 Y151.531 E0.03885
G1 X201.885 Y152.728 E0.03885
G1 X202.079 Y153.952 E0.03885
G1 X202.144 Y155.189 E0.03885
G1 X202.079 Y156.426 E0.03885
G1 X201.885 Y157.650 E0.03885
G1 X201.565 Y158.847 E0.03885
G1 X201.121 Y160.004 E0.03885
G1 X200.558 Y161.108 E0.03885
G1 X199.883 Y162.147 E0.03885
G1 X199.103 Y163.110 E0.03885
G1 X198.227 Y163.986 E0.03885
G1 X197.264 Y164.766 E0.03885
G1 X196.225 Y165.441 E0.03885
G1 X195.121 Y166.004 E0.03885
G1 X193.964 Y166.448 E0.03885
G1 X192.767 Y166.768 E0.03885
G1 X191.543 Y166.962 E0.03885
G1 X190.306 Y167.027 E0.03885
G1 X189.069 Y166.962 E0.03885
G1 X187.845 Y166.768 E0.03885
G1 X186.648 Y166.448 E0.03885
G1 X185.491 Y166.004 E0.03885
G1 X184.387 Y165.441 E0.03885
G1 X183.348 Y164.766 E0.03885
G1 X182.385 Y163.986 E0.03885
G1 X181.509 Y163.110 E0.03885
G1 X180.729 Y162.147 E0.03885
G1 X180.054 Y161.108 E0.03885
G1 X179.491 Y160.004 E0.03885
G1 X179.047 Y158.847 E0.03885
G1 X178.727 Y157.650 E0.03885
G1 X178.533 Y156.426 E0.03885
G1 X178.468 Y155.189 E0.03885
G1 X178.533 Y153.952 E0.03885
G1 X178.727 Y152.727 E0.03887
G1 X179.057 Y151.505 E0.03969
G1 X179.491 Y150.374 E0.03798
G1 X180.054 Y149.270 E0.03885
G1 X180.729 Y148.231 E0.03885
G1 X181.471 Y147.314 E0.03697
G1 X181.764 Y147.552 F10800.000
G1 F1200.000
G1 X182.637 Y146.672 E0.03887
G1 X183.570 Y145.917 E0.03761
G1 X184.576 Y145.264 E0.03761
G1 X185.645 Y144.719 E0.03761
G1 X186.765 Y144.289 E0.03761
G1 X187.923 Y143.979 E0.03761
G1 X189.108 Y143.791 E0.03761
G1 X190.279 Y143.730 E0.03676
G1 X191.504 Y143.791 E0.03846
G1 X192.689 Y143.979 E0.03762
G1 X193.848 Y144.289 E0.03761
G1 X194.967 Y144.719 E0.03761
G1 X196.036 Y145.264 E0.03761
G1 X197.042 Y145.917 E0.03761
G1 X197.975 Y146.672 E0.03761
G1 X198.823 Y147.520 E0.03761
G1 X199.578 Y148.453 E0.03761
G1 X200.231 Y149.459 E0.03761
G1 X200.776 Y150.528 E0.03761
G1 X201.206 Y151.647 E0.03761
G1 X201.516 Y152.806 E0.03761
G1 X201.704 Y153.991 E0.03761
G1 X201.767 Y155.189 E0.03761
G1 X201.704 Y156.387 E0.03761
G1 X201.516 Y157.572 E0.03761
G1 X201.206 Y158.731 E0.03761
G1 X200.776 Y159.850 E0.03761
G1 X200.231 Y160.919 E0.03761
G1 X199.578 Y161.925 E0.03761
G1 X198.823 Y162.858 E0.03761
G1 X197.975 Y163.706 E0.03761
G1 X197.042 Y164.461 E0.03761
G1 X196.036 Y165.114 E0.03761
G1 X194.967 Y165.659 E0.03761
G1 X193.848 Y166.089 E0.03761
G1 X192.689 Y166.399 E0.03761
G1 X191.504 Y166.587 E0.03761
G1 X190.306 Y166.650 E0.03761
G1 X189.108 Y166.587 E0.03761
G1 X187.923 Y166.399 E0.03761
G1 X186.765 Y166.089 E0.03761
G1 X185.645 Y165.659 E0.03761
G1 X184.576 Y165.114 E0.03761
G1 X183.570 Y164.461 E0.03761
G1 X182.637 Y163.706 E0.03761
G1 X181.789 Y162.858 E0.03761
G1 X181.034 Y161.925 E0.03761
G1 X180.381 Y160.919 E0.03761
G1 X179.836 Y159.850 E0.03761
G1 X179.406 Y158.731 E0.03761
G1 X179.096 Y157.572 E0.03761
G1 X178.908 Y156.387 E0.03761
G1 X178.845 Y155.189 E0.03761
G1 X178.908 Y153.991 E0.03761
G1 X179.096 Y152.806 E0.03762
G1 X179.416 Y151.622 E0.03845
G1 X179.836 Y150.528 E0.03676
G1 X180.381 Y149.459 E0.03761
G1 X181.034 Y148.453 E0.03761
G1 X181.726 Y147.598 E0.03447
G1 X181.639 Y147.172 F10800.000
G1 F8640.000
G1 X182.637 Y146.672 E-0.30002
G1 X183.570 Y145.917 E-0.27699
G1 X184.576 Y145.264 E-0.27699
G1 X185.645 Y144.719 E-0.27699
G1 X186.449 Y144.410 E-0.19901
G1 E-0.07000 F2100.00000
G1 Z0.400 F10800.000
G1 X208.073 Y151.071
G1 Z0.200
G1 E1.40000 F2100.00000
G1 F1200.000
G1 X208.073 Y159.307 E0.25826
G1 X215.198 Y163.421 E0.25798
G1 X196.470 Y165.865 E0.59220
G1 X184.989 Y180.862 E0.59220
G1 X184.989 Y172.635 E0.25798
G1 X177.856 Y168.516 E0.25826
G1 X170.730 Y172.630 E0.25798
G1 X177.979 Y155.189 E0.59221
G1 X170.730 Y137.748 E0.59221
G1 X177.856 Y141.862 E0.25798
G1 X184.989 Y137.743 E0.25826
G1 X184.989 Y129.516 E0.25798
G1 X196.470 Y144.513 E0.59220
G1 X215.198 Y146.957 E0.59220
G1 X208.125 Y151.041 E0.25610
G1 X208.450 Y151.288 F10800.000
G1 F1200.000
G1 X215.206 Y147.388 E0.24460
G1 X221.962 Y151.288 E0.24460
G1 X221.962 Y159.090 E0.24461
G1 X215.206 Y162.990 E0.24460
G1 X208.450 Y159.090 E0.24460
G1 X208.450 Y151.348 E0.24272
G1 X208.250 Y150.942 F10800.000
G1 F8640.000
G1 X213.419 Y148.435 E-1.33000
G1 E-0.07000 F2100.00000
G1 Z0.400 F10800.000
G1 X215.218 Y146.959
G1 Z0.200
G1 E1.40000 F2100.00000
G1 F1200.000
G1 X216.903 Y147.204 E0.05339
G1 X217.729 Y147.425 E0.02679
G1 X218.527 Y147.731 E0.02679
G1 X219.288 Y148.119 E0.02679
G1 X219.981 Y148.569 E0.02589
G1 X220.669 Y149.123 E0.02772
G1 X221.273 Y149.726 E0.02676
G1 X221.777 Y150.349 E0.02513
G1 X222.198 Y150.989 E0.02403
G1 X215.270 Y146.989 E0.25084
G1 F8640.000
G1 X216.903 Y147.204 E-0.38034
G1 X217.729 Y147.425 E-0.19730
G1 X218.527 Y147.731 E-0.19732
G1 X219.288 Y148.119 E-0.19731
G1 X219.981 Y148.569 E-0.19069
G1 X220.544 Y149.022 E-0.16704
G1 E-0.07000 F2100.00000
G1 Z0.400 F10800.000
G1 X222.339 Y151.231
G1 Z0.200
G1 E1.40000 F2100.00000
G1 F1200.000
G1 X222.664 Y151.868 E0.02244
G1 X222.970 Y152.666 E0.02679
G1 X223.178 Y153.440 E0.02513
G1 X223.325 Y154.337 E0.02850
G1 X223.370 Y155.189 E0.02674
M73 P1 R90
G1 X223.325 Y156.041 E0.02674
G1 X223.178 Y156.938 E0.02850
G1 X222.970 Y157.712 E0.02513
G1 X222.664 Y158.510 E0.02679
G1 X222.339 Y159.147 E0.02244
G1 X222.339 Y151.291 E0.24633
G1 F8640.000
G1 X222.664 Y151.868 E-0.15302
G1 X222.970 Y152.666 E-0.19731
G1 X223.178 Y153.440 E-0.18504
G1 X223.325 Y154.337 E-0.20991
G1 X223.370 Y155.189 E-0.19691
G1 X223.325 Y156.041 E-0.19691
G1 X223.191 Y156.856 E-0.19088
G1 E-0.07000 F2100.00000
G1 Z0.400 F10800.000
G1 X222.198 Y159.389
G1 Z0.200
G1 E1.40000 F2100.00000
G1 F1200.000
G1 X221.777 Y160.029 E0.02403
G1 X221.273 Y160.652 E0.02513
G1 X220.669 Y161.255 E0.02676
G1 X219.981 Y161.809 E0.02772
G1 X219.288 Y162.259 E0.02589
G1 X218.527 Y162.647 E0.02679
G1 X217.729 Y162.953 E0.02679
G1 X216.903 Y163.174 E0.02679
G1 X215.218 Y163.419 E0.05339
G1 X222.147 Y159.419 E0.25084
G1 F8640.000
G1 X221.777 Y160.029 E-0.16469
G1 X221.273 Y160.652 E-0.18505
G1 X220.669 Y161.255 E-0.19710
G1 X219.981 Y161.809 E-0.20411
G1 X219.288 Y162.259 E-0.19069
G1 X218.527 Y162.647 E-0.19731
G1 X217.754 Y162.944 E-0.19105
G1 E-0.07000 F2100.00000
G1 Z0.400 F10800.000
G1 X184.977 Y180.879
G1 Z0.200
G1 E1.40000 F2100.00000
G1 F1200.000
G1 X183.923 Y182.216 E0.05339
G1 X183.319 Y182.820 E0.02679
G1 X182.655 Y183.358 E0.02679
G1 X181.938 Y183.823 E0.02679
G1 X181.177 Y184.211 E0.02679
G1 X180.379 Y184.517 E0.02679
G1 X179.553 Y184.738 E0.02679
G1 X178.709 Y184.872 E0.02679
G1 X177.995 Y184.910 E0.02244
G1 X184.925 Y180.909 E0.25091
G1 F8640.000
G1 X183.923 Y182.216 E-0.38032
G1 X183.319 Y182.820 E-0.19730
G1 X182.655 Y183.358 E-0.19732
G1 X181.938 Y183.823 E-0.19731
G1 X181.177 Y184.211 E-0.19731
G1 X180.528 Y184.460 E-0.16044
G1 E-0.07000 F2100.00000
G1 Z0.400 F10800.000
G1 X177.717 Y184.910
G1 Z0.200
G1 E1.40000 F2100.00000
G1 F1200.000
G1 X177.003 Y184.872 E0.02244
G1 X176.159 Y184.738 E0.02679
G1 X175.333 Y184.517 E0.02679
G1 X174.535 Y184.211 E0.02679
G1 X173.775 Y183.824 E0.02676
G1 X173.035 Y183.340 E0.02772
G1 X172.393 Y182.820 E0.02589
G1 X171.789 Y182.216 E0.02679
G1 X171.251 Y181.552 E0.02679
G1 X170.862 Y180.952 E0.02243
G1 X177.665 Y184.880 E0.24632
G1 F8640.000
G1 X177.003 Y184.872 E-0.15301
G1 X176.159 Y184.738 E-0.19731
G1 X175.333 Y184.517 E-0.19731
G1 X174.535 Y184.211 E-0.19733
G1 X173.775 Y183.824 E-0.19709
G1 X173.035 Y183.340 E-0.20411
G1 X172.416 Y182.839 E-0.18385
G1 E-0.07000 F2100.00000
G1 Z0.400 F10800.000
G1 X170.723 Y180.711
G1 Z0.200
G1 E1.40000 F2100.00000
G1 F1200.000
G1 X170.398 Y180.074 E0.02244
G1 X170.092 Y179.276 E0.02679
G1 X169.871 Y178.450 E0.02679
G1 X169.737 Y177.606 E0.02679
G1 X169.692 Y176.753 E0.02679
G1 X169.737 Y175.900 E0.02679
G1 X169.871 Y175.056 E0.02679
G1 X170.092 Y174.230 E0.02679
G1 X170.723 Y172.649 E0.05339
G1 X170.723 Y180.651 E0.25091
G1 X171.100 Y180.654 F10800.000
G1 F1200.000
G1 X171.100 Y172.852 E0.24461
G1 X177.856 Y168.952 E0.24460
G1 X184.612 Y172.852 E0.24461
G1 X184.612 Y180.654 E0.24461
G1 X177.856 Y184.554 E0.24460
G1 X171.152 Y180.684 E0.24272
G1 X170.700 Y180.654 F10800.000
G1 F8640.000
G1 X171.114 Y174.924 E-1.33000
G1 E-0.07000 F2100.00000
G1 Z0.400 F10800.000
G1 X170.723 Y137.729
G1 Z0.200
G1 E1.40000 F2100.00000
G1 F1200.000
G1 X170.092 Y136.148 E0.05339
G1 X169.871 Y135.322 E0.02679
G1 X169.737 Y134.478 E0.02679
G1 X169.692 Y133.625 E0.02679
G1 X169.737 Y132.772 E0.02679
G1 X169.871 Y131.928 E0.02679
G1 X170.092 Y131.102 E0.02679
G1 X170.398 Y130.304 E0.02679
G1 X170.723 Y129.667 E0.02244
G1 X170.723 Y137.669 E0.25091
G1 F8640.000
G1 X170.092 Y136.148 E-0.38038
G1 X169.871 Y135.322 E-0.19730
G1 X169.737 Y134.478 E-0.19732
G1 X169.692 Y133.625 E-0.19731
G1 X169.737 Y132.772 E-0.19732
G1 X169.846 Y132.086 E-0.16037
G1 E-0.07000 F2100.00000
G1 Z0.400 F10800.000
G1 X170.862 Y129.426
G1 Z0.200
G1 E1.40000 F2100.00000
G1 F1200.000
G1 X171.251 Y128.826 E0.02243
G1 X171.789 Y128.162 E0.02679
G1 X172.393 Y127.558 E0.02679
G1 X173.057 Y127.020 E0.02679
G1 X173.774 Y126.555 E0.02679
G1 X174.535 Y126.167 E0.02679
G1 X175.333 Y125.861 E0.02679
G1 X176.159 Y125.640 E0.02679
G1 X177.003 Y125.506 E0.02679
G1 X177.717 Y125.468 E0.02244
G1 X170.914 Y129.396 E0.24632
G1 X171.100 Y129.724 F10800.000
G1 F1200.000
G1 X177.856 Y125.824 E0.24460
G1 X184.612 Y129.724 E0.24460
G1 X184.612 Y137.526 E0.24461
G1 X177.856 Y141.426 E0.24461
G1 X171.100 Y137.526 E0.24460
G1 X171.100 Y129.784 E0.24272
G1 X170.900 Y129.378 F10800.000
G1 F8640.000
G1 X176.069 Y126.871 E-1.33000
G1 E-0.07000 F2100.00000
G1 Z0.400 F10800.000
G1 X177.995 Y125.468
G1 Z0.200
G1 E1.40000 F2100.00000
G1 F1200.000
G1 X178.709 Y125.506 E0.02244
G1 X179.553 Y125.640 E0.02679
G1 X180.379 Y125.861 E0.02679
G1 X181.177 Y126.167 E0.02679
G1 X181.938 Y126.555 E0.02679
G1 X182.655 Y127.020 E0.02679
G1 X183.319 Y127.558 E0.02679
G1 X183.923 Y128.162 E0.02679
G1 X184.977 Y129.499 E0.05339
G1 X178.047 Y125.498 E0.25091
G1 F8640.000
G1 X178.709 Y125.506 E-0.15300
G1 X179.553 Y125.640 E-0.19732
G1 X180.379 Y125.861 E-0.19731
G1 X181.177 Y126.167 E-0.19732
G1 X181.938 Y126.555 E-0.19731
G1 X182.655 Y127.020 E-0.19731
G1 X183.296 Y127.539 E-0.19043
G1 E-0.07000 F2100.00000
G1 Z0.400 F10800.000
G1 X196.674 Y144.160
G1 Z0.200
G1 E1.40000 F2100.00000
G1 F1200.000
G1 X216.083 Y146.692 E0.61372
G1 X216.982 Y146.834 E0.02853
G1 X217.845 Y147.066 E0.02803
G1 X218.680 Y147.386 E0.02803
G1 X219.477 Y147.792 E0.02803
G1 X220.202 Y148.263 E0.02711
G1 X220.922 Y148.842 E0.02896
G1 X221.554 Y149.474 E0.02802
G1 X222.082 Y150.126 E0.02633
G1 X222.603 Y150.919 E0.02974
G1 X223.009 Y151.715 E0.02801
G1 X223.329 Y152.550 E0.02803
G1 X223.547 Y153.361 E0.02633
G1 X223.701 Y154.297 E0.02974
G1 X223.747 Y155.189 E0.02801
G1 X223.701 Y156.081 E0.02801
G1 X223.547 Y157.017 E0.02974
G1 X223.329 Y157.828 E0.02633
G1 X223.009 Y158.663 E0.02803
G1 X222.603 Y159.459 E0.02801
G1 X222.082 Y160.252 E0.02974
G1 X221.554 Y160.904 E0.02633
G1 X220.922 Y161.536 E0.02802
G1 X220.202 Y162.115 E0.02896
G1 X219.477 Y162.586 E0.02711
G1 X218.680 Y162.992 E0.02803
G1 X217.845 Y163.312 E0.02803
G1 X216.982 Y163.544 E0.02803
G1 X216.083 Y163.686 E0.02853
G1 X196.674 Y166.218 E0.61372
G1 X184.776 Y181.761 E0.61373
G1 X184.204 Y182.468 E0.02853
G1 X183.571 Y183.101 E0.02803
G1 X182.877 Y183.663 E0.02803
G1 X182.127 Y184.150 E0.02803
G1 X181.330 Y184.556 E0.02803
G1 X180.495 Y184.876 E0.02803
G1 X179.632 Y185.108 E0.02803
G1 X178.749 Y185.248 E0.02803
G1 X177.856 Y185.294 E0.02803
G1 X176.963 Y185.248 E0.02803
G1 X176.080 Y185.108 E0.02803
G1 X175.217 Y184.876 E0.02803
G1 X174.382 Y184.556 E0.02803
G1 X173.586 Y184.150 E0.02802
G1 X172.813 Y183.645 E0.02896
G1 X172.141 Y183.101 E0.02711
G1 X171.508 Y182.468 E0.02803
G1 X170.946 Y181.774 E0.02803
G1 X170.459 Y181.024 E0.02803
G1 X170.053 Y180.227 E0.02803
G1 X169.733 Y179.393 E0.02803
G1 X169.501 Y178.529 E0.02803
G1 X169.361 Y177.646 E0.02803
