; generated by PrusaSlicer 2.4.1+x64 on 2022-04-12 at 12:56:35 UTC
;
;
;
;
; 
; external perimeters extrusion width = 0.45mm
; perimeters extrusion width = 0.45mm
; infill extrusion width = 0.45mm
; solid infill extrusion width = 0.45mm
; top infill extrusion width = 0.40mm
; first layer extrusion width = 0.42mm
M73 P0 R49
M107
;TYPE:Custom
M83  ; extruder relative mode
M140 S85 ; set bed temp
M109 S160 ; Set extruder temp before bed level
M190 S85 ; wait for bed temp
G28 W ; home all without mesh bed level
G80 N7 ; mesh bed leveling
M109 S240 ; wait for extruder temp
M221 S100 ; Set flow to 100
G1 Y-3.0 F1000.0 ; go outside print area
G92 E0.0
G1 E8 ; Purge Bubble
G1 X60.0 E9.0 F1000.0 ; intro line
G1 X100.0 E12.5 F1000.0 ; intro line
G92 E0.0
G21 ; set units to millimeters
G90 ; use absolute coordinates
M83 ; use relative distances for extrusion
M900 K0.08 ; Filament gcode LA 1.5
M900 K45 ; Filament gcode LA 1.0
M107
;LAYER_CHANGE
M117 INDICATOR-Layer1
;Z:0.2
;HEIGHT:0.2
;BEFORE_LAYER_CHANGE
M117 DASHBOARD_LAYER_INDICATOR 1
G92 E0.0
;0.2
G1 E-1 F2100
G1 Z.2 F720
;AFTER_LAYER_CHANGE
;0.2
G1 Z.4
G1 X99.719 Y87.482 F6000
G1 Z.2 F720
G1 E1 F2100
M204 S800
;TYPE:Skirt/Brim
;WIDTH:0.42
G1 F1200
G1 X106.49 Y80.711 E.30023
G1 X108.171 Y80.015 E.05704
G1 X148.35 Y80.015 E1.25977
G1 X149.657 Y80.406 E.04278
M73 P0 R48
G1 X150.476 Y81.329 E.03868
G1 X150.726 Y81.829 E.01753
G1 X150.977 Y82.892 E.03425
G1 X150.977 Y126.392 E1.36391
G1 X150.281 Y128.073 E.05704
G1 X144.164 Y134.189 E.27121
G1 X142.963 Y134.836 E.04278
G1 X141.604 Y134.717 E.04278
G1 X140.802 Y134.189 E.03008
G1 X99.719 Y93.106 E1.82168
G1 X99.023 Y91.425 E.05704
G1 X99.023 Y89.163 E.07095
G1 X99.697 Y87.537 E.05516
M204 S1000
@Object lcd_support_a.stl id:0 copy 0
;WIPE_START
G1 F4800
G1 X101.309 Y85.917 E-.95
;WIPE_END
G1 E-.05 F2100
G1 Z.4 F720
G1 X102.905 Y91.636 F6000
G1 Z.2 F720
G1 E1 F2100
M204 S800
;TYPE:Perimeter
G1 F1200
G1 X102.814 Y91.727 E.00402
G1 X102.176 Y91.089 E.02829
G1 X102.167 Y90.848 E.00755
G1 X102.515 Y91.244 E.01652
G1 X102.863 Y91.594 E.01544
M204 S1000
;WIPE_START
G1 F4800
G1 X102.814 Y91.727 E-.05889
G1 X102.176 Y91.089 E-.37498
G1 X102.167 Y90.848 E-.10011
G1 X102.515 Y91.244 E-.21903
G1 X102.849 Y91.58 E-.197
;WIPE_END
G1 E-.05 F2100
G1 Z.4 F720
G1 X142.572 Y131.306 F6000
G1 Z.2 F720
G1 E1 F2100
M204 S800
G1 F1200
G1 X142.483 Y131.395 E.00395
G1 X141.051 Y129.963 E.06352
G1 X141.14 Y129.874 E.00395
G1 X142.53 Y131.264 E.06164
M204 S1000
;WIPE_START
G1 F4800
G1 X142.483 Y131.395 E-.05794
G1 X141.051 Y129.963 E-.84199
G1 X141.136 Y129.877 E-.05006
;WIPE_END
G1 E-.05 F2100
G1 Z.4 F720
G1 X116.622 Y86.728 F6000
G1 Z.2 F720
G1 E1 F2100
M204 S800
G1 F1200
G1 X139.355 Y86.728 E.71278
G1 X145.664 Y93.037 E.27976
G1 X145.664 Y118.756 E.80642
G1 X144.227 Y119.352 E.04878
G1 X116.622 Y91.747 E1.22405
G1 X116.622 Y86.788 E.15549
M204 S1000
G1 X116.999 Y87.105 F6000
M204 S800
G1 F1200
G1 X139.199 Y87.105 E.69606
G1 X145.287 Y93.193 E.26996
G1 X145.287 Y118.504 E.79362
G1 X144.315 Y118.907 E.03298
G1 X116.999 Y91.591 E1.21125
G1 X116.999 Y87.165 E.13877
M204 S1000
G1 X117.376 Y87.537 F6000
M204 S800
;TYPE:External perimeter
G1 F1200
G1 X117.376 Y87.482 E.00174
G1 X139.042 Y87.482 E.67934
G1 X144.91 Y93.349 E.26017
M73 P1 R48
G1 X144.91 Y118.252 E.78082
G1 X144.403 Y118.462 E.01718
G1 X117.376 Y91.434 E1.19845
G1 X117.376 Y87.597 E.12031
M204 S1000
G1 X117.323 Y87.522 F6000
;WIPE_START
G1 F4800
G1 X117.376 Y87.482 E-.04797
G1 X119.546 Y87.482 E-.90203
;WIPE_END
G1 E-.05 F2100
G1 Z.4 F720
G1 X117.376 Y83.956 F6000
G1 Z.2 F720
G1 E1 F2100
M204 S800
;TYPE:Perimeter
G1 F1200
G1 X147.436 Y83.956 E.9425
G1 X147.436 Y125.91 E1.31543
G1 X145.17 Y128.175 E.10045
G1 X142.15 Y125.154 E.13394
G1 X144.837 Y122.467 E.11915
G1 X110.31 Y87.94 E1.53098
G1 X107.623 Y90.627 E.11915
G1 X104.599 Y87.604 E.13407
G1 X108.253 Y83.956 E.16188
G1 X117.316 Y83.956 E.28416
M204 S1000
;WIPE_START
G1 F4800
G1 X119.602 Y83.956 E-.95
;WIPE_END
G1 E-.05 F2100
G1 Z.4 F720
G1 X145.17 Y128.708 F6000
G1 Z.2 F720
G1 E1 F2100
M204 S800
G1 F1200
G1 X141.616 Y125.154 E.15758
G1 X144.303 Y122.467 E.11915
G1 X110.31 Y88.474 E1.50733
G1 X107.623 Y91.161 E.11915
G1 X104.066 Y87.604 E.15773
G1 X108.097 Y83.579 E.17861
G1 X147.813 Y83.579 E1.24526
G1 X147.813 Y126.066 E1.33215
G1 X145.213 Y128.666 E.11529
M204 S1000
;WIPE_START
G1 F4800
G1 X143.577 Y127.069 E-.95
;WIPE_END
G1 E-.05 F2100
G1 Z.4 F720
G1 X142.695 Y130.896 F6000
G1 Z.2 F720
G1 E1 F2100
M204 S800
;TYPE:External perimeter
G1 F1200
G1 X144.76 Y128.831 E.09155
G1 X141.083 Y125.154 E.16304
G1 X143.77 Y122.467 E.11915
G1 X110.31 Y89.007 E1.48369
G1 X107.623 Y91.694 E.11915
G1 X103.946 Y88.017 E.16306
G1 X102.763 Y89.206 E.05259
G1 X101.995 Y90.082 E.03653
G1 X102.791 Y90.986 E.03777
G1 X103.437 Y91.637 E.02875
G1 X102.814 Y92.26 E.02762
G1 X101.804 Y91.251 E.04476
G1 X101.743 Y90.067 E.03719
G1 X101.792 Y89.341 E.02281
G1 X107.941 Y83.202 E.27242
G1 X148.19 Y83.202 E1.26197
G1 X148.19 Y126.222 E1.34887
G1 X142.483 Y131.928 E.25303
M73 P2 R48
G1 X140.517 Y129.963 E.08717
G1 X141.14 Y129.34 E.02759
G1 X142.653 Y130.854 E.0671
M204 S1000
G1 X143.012 Y131.141 F6000
G1 X142.767 Y131.234
M204 S800
;TYPE:Gap fill
;WIDTH:0.245842
G1 F1200
G1 X145.098 Y128.903 E.05563
M204 S1000
;WIPE_START
G1 F4800
G1 X143.482 Y130.519 E-.95
;WIPE_END
G1 E-.05 F2100
G1 Z.4 F720
G1 X147.322 Y84.837 F6000
G1 Z.2 F720
G1 E1 F2100
M204 S800
;TYPE:Solid infill
;WIDTH:0.422475
G1 F1200
G1 X146.725 Y84.239 E.02668
G1 X146.188 Y84.239 E.01694
G1 X147.153 Y85.204 E.04307
G1 X147.153 Y85.74 E.01694
G1 X145.651 Y84.239 E.06702
G1 X145.114 Y84.239 E.01694
G1 X147.153 Y86.277 E.09098
G1 X147.153 Y86.814 E.01694
G1 X144.577 Y84.239 E.11494
G1 X144.041 Y84.239 E.01694
G1 X147.153 Y87.351 E.1389
G1 X147.153 Y87.888 E.01694
G1 X143.504 Y84.239 E.16286
G1 X142.967 Y84.239 E.01694
G1 X147.153 Y88.424 E.18681
G1 X147.153 Y88.961 E.01694
G1 X142.43 Y84.239 E.21077
G1 X141.894 Y84.239 E.01694
G1 X147.153 Y89.498 E.23473
G1 X147.153 Y90.035 E.01694
G1 X141.357 Y84.239 E.25869
G1 X140.82 Y84.239 E.01694
G1 X147.153 Y90.571 E.28264
G1 X147.153 Y91.108 E.01694
G1 X140.283 Y84.239 E.3066
G1 X139.747 Y84.239 E.01694
G1 X147.153 Y91.645 E.33056
G1 X147.153 Y92.182 E.01694
G1 X139.21 Y84.239 E.35452
G1 X138.673 Y84.239 E.01694
G1 X147.153 Y92.718 E.37847
G1 X147.153 Y93.255 E.01694
G1 X138.136 Y84.239 E.40243
G1 X137.599 Y84.239 E.01694
G1 X147.153 Y93.792 E.42639
G1 X147.153 Y94.329 E.01694
G1 X137.063 Y84.239 E.45035
G1 X136.526 Y84.239 E.01694
G1 X138.732 Y86.445 E.09846
G1 X138.195 Y86.445 E.01694
G1 X135.989 Y84.239 E.09846
G1 X135.452 Y84.239 E.01694
G1 X137.658 Y86.445 E.09846
G1 X137.122 Y86.445 E.01694
M73 P2 R47
G1 X134.916 Y84.239 E.09846
G1 X134.379 Y84.239 E.01694
G1 X136.585 Y86.445 E.09846
G1 X136.048 Y86.445 E.01694
G1 X133.842 Y84.239 E.09846
G1 X133.305 Y84.239 E.01694
G1 X135.511 Y86.445 E.09846
G1 X134.975 Y86.445 E.01694
G1 X132.769 Y84.239 E.09846
G1 X132.232 Y84.239 E.01694
G1 X134.438 Y86.445 E.09846
G1 X133.901 Y86.445 E.01694
G1 X131.695 Y84.239 E.09846
G1 X131.158 Y84.239 E.01694
G1 X133.364 Y86.445 E.09846
G1 X132.828 Y86.445 E.01694
G1 X130.621 Y84.239 E.09846
G1 X130.085 Y84.239 E.01694
G1 X132.291 Y86.445 E.09846
G1 X131.754 Y86.445 E.01694
G1 X129.548 Y84.239 E.09846
G1 X129.011 Y84.239 E.01694
G1 X131.217 Y86.445 E.09846
G1 X130.68 Y86.445 E.01694
G1 X128.474 Y84.239 E.09846
G1 X127.938 Y84.239 E.01694
G1 X130.144 Y86.445 E.09846
G1 X129.607 Y86.445 E.01694
G1 X127.401 Y84.239 E.09846
G1 X126.864 Y84.239 E.01694
G1 X129.07 Y86.445 E.09846
G1 X128.533 Y86.445 E.01694
G1 X126.327 Y84.239 E.09846
G1 X125.79 Y84.239 E.01694
G1 X127.997 Y86.445 E.09846
G1 X127.46 Y86.445 E.01694
G1 X125.254 Y84.239 E.09846
G1 X124.717 Y84.239 E.01694
G1 X126.923 Y86.445 E.09846
G1 X126.386 Y86.445 E.01694
G1 X124.18 Y84.239 E.09846
G1 X123.643 Y84.239 E.01694
G1 X125.849 Y86.445 E.09846
G1 X125.313 Y86.445 E.01694
G1 X123.107 Y84.239 E.09846
G1 X122.57 Y84.239 E.01694
G1 X124.776 Y86.445 E.09846
G1 X124.239 Y86.445 E.01694
G1 X122.033 Y84.239 E.09846
G1 X121.496 Y84.239 E.01694
G1 X123.702 Y86.445 E.09846
G1 X123.166 Y86.445 E.01694
G1 X120.96 Y84.239 E.09846
G1 X120.423 Y84.239 E.01694
G1 X122.629 Y86.445 E.09846
G1 X122.092 Y86.445 E.01694
G1 X119.886 Y84.239 E.09846
G1 X119.349 Y84.239 E.01694
G1 X121.555 Y86.445 E.09846
G1 X121.019 Y86.445 E.01694
G1 X118.812 Y84.239 E.09846
G1 X118.276 Y84.239 E.01694
G1 X120.482 Y86.445 E.09846
G1 X119.945 Y86.445 E.01694
G1 X117.739 Y84.239 E.09846
G1 X117.202 Y84.239 E.01694
G1 X119.408 Y86.445 E.09846
G1 X118.871 Y86.445 E.01694
G1 X116.665 Y84.239 E.09846
G1 X116.129 Y84.239 E.01694
G1 X118.335 Y86.445 E.09846
G1 X117.798 Y86.445 E.01694
G1 X115.592 Y84.239 E.09846
G1 X115.055 Y84.239 E.01694
G1 X117.261 Y86.445 E.09846
G1 X116.724 Y86.445 E.01694
G1 X114.518 Y84.239 E.09846
G1 X113.982 Y84.239 E.01694
G1 X116.339 Y86.596 E.10522
G1 X116.339 Y87.133 E.01694
G1 X113.445 Y84.239 E.12917
G1 X112.908 Y84.239 E.01694
G1 X116.339 Y87.67 E.15313
G1 X116.339 Y88.206 E.01694
G1 X112.371 Y84.239 E.17709
G1 X111.834 Y84.239 E.01694
G1 X116.339 Y88.743 E.20105
G1 X116.339 Y89.28 E.01694
G1 X111.298 Y84.239 E.225
G1 X110.761 Y84.239 E.01694
G1 X116.339 Y89.817 E.24896
G1 X116.339 Y90.353 E.01694
G1 X110.224 Y84.239 E.27292
G1 X109.687 Y84.239 E.01694
G1 X116.509 Y91.06 E.30445
M204 S1000
;WIPE_START
G1 F4800
G1 X114.892 Y89.444 E-.95
;WIPE_END
G1 E-.05 F2100
G1 Z.4 F720
G1 X145.777 Y93.49 F6000
G1 Z.2 F720
G1 E1 F2100
M204 S800
G1 F1200
G1 X147.153 Y94.866 E.0614
G1 X147.153 Y95.402 E.01694
G1 X145.947 Y94.196 E.05383
G1 X145.947 Y94.733 E.01694
G1 X147.153 Y95.939 E.05383
G1 X147.153 Y96.476 E.01694
G1 X145.947 Y95.27 E.05383
G1 X145.947 Y95.807 E.01694
G1 X147.153 Y97.013 E.05383
G1 X147.153 Y97.549 E.01694
G1 X145.947 Y96.343 E.05383
G1 X145.947 Y96.88 E.01694
G1 X147.153 Y98.086 E.05383
G1 X147.153 Y98.623 E.01694
G1 X145.947 Y97.417 E.05383
G1 X145.947 Y97.954 E.01694
G1 X147.153 Y99.16 E.05383
G1 X147.153 Y99.696 E.01694
G1 X145.947 Y98.49 E.05383
G1 X145.947 Y99.027 E.01694
G1 X147.153 Y100.233 E.05383
G1 X147.153 Y100.77 E.01694
G1 X145.947 Y99.564 E.05383
G1 X145.947 Y100.101 E.01694
G1 X147.153 Y101.307 E.05383
G1 X147.153 Y101.844 E.01694
G1 X145.947 Y100.637 E.05383
G1 X145.947 Y101.174 E.01694
G1 X147.153 Y102.38 E.05383
G1 X147.153 Y102.917 E.01694
G1 X145.947 Y101.711 E.05383
G1 X145.947 Y102.248 E.01694
G1 X147.153 Y103.454 E.05383
G1 X147.153 Y103.991 E.01694
G1 X145.947 Y102.785 E.05383
G1 X145.947 Y103.321 E.01694
G1 X147.153 Y104.527 E.05383
G1 X147.153 Y105.064 E.01694
G1 X145.947 Y103.858 E.05383
G1 X145.947 Y104.395 E.01694
G1 X147.153 Y105.601 E.05383
G1 X147.153 Y106.138 E.01694
G1 X145.947 Y104.932 E.05383
G1 X145.947 Y105.468 E.01694
G1 X147.153 Y106.675 E.05383
G1 X147.153 Y107.211 E.01694
G1 X145.947 Y106.005 E.05383
G1 X145.947 Y106.542 E.01694
G1 X147.153 Y107.748 E.05383
G1 X147.153 Y108.285 E.01694
G1 X145.947 Y107.079 E.05383
G1 X145.947 Y107.616 E.01694
G1 X147.153 Y108.822 E.05383
G1 X147.153 Y109.358 E.01694
G1 X145.947 Y108.152 E.05383
G1 X145.947 Y108.689 E.01694
G1 X147.153 Y109.895 E.05383
G1 X147.153 Y110.432 E.01694
G1 X145.947 Y109.226 E.05383
G1 X145.947 Y109.763 E.01694
G1 X147.153 Y110.969 E.05383
G1 X147.153 Y111.505 E.01694
G1 X145.947 Y110.299 E.05383
G1 X145.947 Y110.836 E.01694
G1 X147.153 Y112.042 E.05383
G1 X147.153 Y112.579 E.01694
G1 X145.947 Y111.373 E.05383
G1 X145.947 Y111.91 E.01694
G1 X147.153 Y113.116 E.05383
G1 X147.153 Y113.653 E.01694
G1 X145.947 Y112.446 E.05383
G1 X145.947 Y112.983 E.01694
G1 X147.153 Y114.189 E.05383
G1 X147.153 Y114.726 E.01694
G1 X145.947 Y113.52 E.05383
G1 X145.947 Y114.057 E.01694
G1 X147.153 Y115.263 E.05383
G1 X147.153 Y115.8 E.01694
G1 X145.947 Y114.594 E.05383
G1 X145.947 Y115.13 E.01694
G1 X147.153 Y116.336 E.05383
G1 X147.153 Y116.873 E.01694
G1 X145.947 Y115.667 E.05383
G1 X145.947 Y116.204 E.01694
G1 X147.153 Y117.41 E.05383
G1 X147.153 Y117.947 E.01694
G1 X145.947 Y116.741 E.05383
G1 X145.947 Y117.277 E.01694
G1 X147.153 Y118.483 E.05383
G1 X147.153 Y119.02 E.01694
G1 X145.947 Y117.814 E.05383
G1 X145.947 Y118.351 E.01694
G1 X147.153 Y119.557 E.05383
G1 X147.153 Y120.094 E.01694
G1 X145.947 Y118.888 E.05383
G1 X145.947 Y118.945 E.00182
G1 X145.608 Y119.086 E.01158
G1 X147.153 Y120.631 E.06896
G1 X147.153 Y121.167 E.01694
G1 X145.228 Y119.243 E.0859
G1 X144.849 Y119.4 E.01297
G1 X147.153 Y121.704 E.10284
G1 X147.153 Y122.241 E.01694
G1 X144.469 Y119.557 E.11978
G1 X144.16 Y119.685 E.01055
G1 X116.339 Y91.864 E1.24174
G1 X116.339 Y91.427 E.01379
M73 P3 R47
G1 X109.151 Y84.239 E.32083
G1 X108.614 Y84.239 E.01694
G1 X147.153 Y122.778 E1.7201
G1 X147.153 Y123.314 E.01694
G1 X108.223 Y84.385 E1.73753
G1 X107.955 Y84.653 E.01198
G1 X147.153 Y123.851 E1.74951
G1 X147.153 Y124.388 E.01694
G1 X107.686 Y84.921 E1.7615
G1 X107.418 Y85.19 E.01198
G1 X110.039 Y87.811 E.11701
G1 X109.771 Y88.08 E.01198
G1 X107.149 Y85.458 E.11702
G1 X106.88 Y85.726 E.01198
G1 X109.502 Y88.348 E.11703
G1 X109.234 Y88.616 E.01198
G1 X106.612 Y85.994 E.11704
G1 X106.343 Y86.262 E.01198
G1 X108.966 Y88.885 E.11705
G1 X108.697 Y89.153 E.01198
G1 X106.075 Y86.53 E.11706
G1 X105.806 Y86.799 E.01198
G1 X108.429 Y89.422 E.11707
G1 X108.16 Y89.69 E.01198
G1 X105.537 Y87.067 E.11708
G1 X105.269 Y87.335 E.01198
G1 X107.892 Y89.958 E.11709
G1 X107.624 Y90.227 E.01198
G1 X104.88 Y87.483 E.12245
M204 S1000
;WIPE_START
G1 F4800
G1 X106.496 Y89.099 E-.95
;WIPE_END
G1 E-.05 F2100
G1 Z.4 F720
G1 X144.846 Y122.618 F6000
G1 Z.2 F720
G1 E1 F2100
M204 S800
G1 F1200
G1 X147.153 Y124.925 E.10296
G1 X147.153 Y125.462 E.01694
G1 X144.698 Y123.006 E.10958
G1 X144.429 Y123.275 E.01198
G1 X147.05 Y125.895 E.11696
G1 X146.781 Y126.164 E.01198
G1 X144.161 Y123.543 E.11696
G1 X143.892 Y123.812 E.01198
G1 X146.513 Y126.432 E.11696
G1 X146.245 Y126.701 E.01198
G1 X143.624 Y124.08 E.11696
G1 X143.356 Y124.348 E.01198
G1 X145.976 Y126.969 E.11696
G1 X145.708 Y127.237 E.01198
G1 X143.087 Y124.617 E.11696
G1 X142.819 Y124.885 E.01198
G1 X145.439 Y127.506 E.11696
G1 X145.171 Y127.774 E.01198
G1 X142.431 Y125.033 E.12232
M204 S1000
;WIPE_START
G1 F4800
G1 X144.047 Y126.65 E-.95
;WIPE_END
G1 E-.05 F2100
G1 Z.4 F720
G1 X103.872 Y87.677 F6000
G1 Z.2 F720
G1 E1 F2100
M204 S800
;TYPE:Gap fill
;WIDTH:0.255863
G1 F1200
G1 X102.549 Y89.002 E.03316
M204 S1000
M204 S800
;WIDTH:0.256101
G1 X102.544 Y89.007 E.00012
M204 S1000
M204 S800
;WIDTH:0.299679
G1 X101.962 Y89.629 E.0182
M204 S1000
@Objectstop lcd_support_a.stl id:0 copy 0
;LAYER_CHANGE
M117 INDICATOR-Layer2
;Z:0.4
;HEIGHT:0.2
;BEFORE_LAYER_CHANGE
M117 DASHBOARD_LAYER_INDICATOR 2
G92 E0.0
;0.4
;WIPE_START
G1 F4800
G1 X102.544 Y89.007 E-.3544
;WIPE_END
G1 E-.6456 F2100
G1 Z.4 F720
;AFTER_LAYER_CHANGE
;0.4
M104 S250 ; set temperature
M140 S90 ; set bed temperature
G1 Z.6
G1 X100.369 Y86.832 F6000
G1 Z.4 F720
G1 E1 F2100
;TYPE:Skirt/Brim
;WIDTH:0.42
G1 F3600
G1 X106.49 Y80.711 E.27141
G1 X108.171 Y80.015 E.05704
G1 X148.35 Y80.015 E1.25977
G1 X149.657 Y80.406 E.04278
G1 X150.476 Y81.329 E.03868
G1 X150.726 Y81.829 E.01753
G1 X150.977 Y82.892 E.03425
G1 X150.977 Y126.392 E1.36391
G1 X150.281 Y128.073 E.05704
G1 X144.164 Y134.189 E.27121
G1 X142.963 Y134.836 E.04278
G1 X141.604 Y134.717 E.04278
G1 X140.802 Y134.189 E.03008
G1 X99.719 Y93.106 E1.82168
G1 X99.023 Y91.425 E.05704
G1 X99.023 Y89.163 E.07095
G1 X99.719 Y87.482 E.05704
G1 X100.327 Y86.874 E.02694
@Object lcd_support_a.stl id:0 copy 0
;WIPE_START
G1 F4800
G1 X101.943 Y85.258 E-.95
;WIPE_END
G1 E-.05 F2100
G1 Z.6 F720
G1 X103.264 Y91.496 F6000
G1 Z.4 F720
G1 E1 F2100
M204 S800
;TYPE:Perimeter
;WIDTH:0.45
G1 F1800
G1 X102.815 Y91.946 E.02152
G1 X102.032 Y91.164 E.03744
G1 X102.032 Y90.264 E.03044
G1 X103.222 Y91.454 E.05693
M204 S1000
;WIPE_START
G1 F4800
G1 X102.815 Y91.946 E-.26545
G1 X102.032 Y91.164 E-.45973
G1 X102.032 Y90.623 E-.22483
;WIPE_END
G1 E-.05 F2100
G1 Z.6 F720
G1 X116.947 Y86.853 F6000
G1 Z.4 F720
G1 E1 F2100
M204 S800
G1 F3600
G1 X139.02 Y86.853 E.74716
G1 X145.339 Y93.171 E.30248
