; generated by PrusaSlicer 2.4.1+win64 on 2022-04-08 at 20:23:05 UTC


;
;

;
;
; 

; external perimeters extrusion width = 0.45mm
; perimeters extrusion width = 0.45mm
; infill extrusion width = 0.45mm
; solid infill extrusion width = 0.45mm
; top infill extrusion width = 0.40mm
; first layer extrusion width = 0.42mm

M73 P0 R27
M107
;TYPE:Custom
M83  ; extruder relative mode
M140 S85 ; set bed temp
M109 S160 ; Set extruder temp before bed level
M190 S85 ; wait for bed temp

G28 W ; home all without mesh bed level
G80 N7 ; mesh bed leveling

M109 S240 ; wait for extruder temp

M221 S100 ; Set flow to 100

G1 Y-3.0 F1000.0 ; go outside print area
G92 E0.0
G1 E8 ; Purge Bubble
G1 X60.0 E9.0 F1000.0 ; intro line
G1 X100.0 E12.5 F1000.0 ; intro line
G92 E0.0
G21 ; set units to millimeters
G90 ; use absolute coordinates
M83 ; use relative distances for extrusion
M900 K0.08 ; Filament gcode LA 1.5
M900 K45 ; Filament gcode LA 1.0
M107
;LAYER_CHANGE
;Z:0.2
;HEIGHT:0.2
;BEFORE_LAYER_CHANGE
G92 E0.0
;0.2


G1 E-1 F2100
G1 Z.2 F720
;AFTER_LAYER_CHANGE
;0.2
G1 Z.4
G1 X100.919 Y86.905 F6000
G1 Z.2 F720
G1 E1 F2100
M204 S800
;TYPE:Skirt/Brim
;WIDTH:0.42
G1 F1200
G1 X104.455 Y83.369 E.15677
G1 X106.136 Y82.673 E.05704
G1 X143.864 Y82.673 E1.18296
G1 X145.545 Y83.369 E.05704
G1 X149.081 Y86.905 E.15677
G1 X149.777 Y88.586 E.05704
G1 X149.777 Y121.414 E1.02933
G1 X149.081 Y123.095 E.05704
G1 X145.545 Y126.631 E.15677
G1 X143.864 Y127.327 E.05704
G1 X106.136 Y127.327 E1.18296
G1 X104.455 Y126.631 E.05704
G1 X100.919 Y123.095 E.15677
G1 X100.223 Y121.414 E.05704
G1 X100.223 Y88.586 E1.02933
G1 X100.896 Y86.96 E.05516
M204 S1000
; printing object z_end_caps.stl id:0 copy 0
;WIPE_START
G1 F4800
G1 X102.505 Y85.337 E-.95
;WIPE_END
G1 E-.05 F2100
G1 Z.4 F720
G1 X103.964 Y89.433 F6000
G1 Z.2 F720
M73 P1 R27
G1 E1 F2100
M204 S800
;TYPE:Perimeter
G1 F1200
G1 X106.983 Y86.414 E.13388
G1 X118.117 Y86.414 E.34907
G1 X121.136 Y89.433 E.13388
G1 X121.136 Y120.567 E.97616
G1 X118.117 Y123.586 E.13388
G1 X106.983 Y123.586 E.34907
G1 X103.964 Y120.567 E.13388
G1 X103.964 Y89.493 E.97428
M204 S1000
G1 X103.587 Y89.277 F6000
M204 S800
G1 F1200
G1 X106.827 Y86.037 E.14367
G1 X118.273 Y86.037 E.35887
G1 X121.513 Y89.277 E.14367
G1 X121.513 Y120.723 E.98595
G1 X118.273 Y123.963 E.14367
G1 X106.827 Y123.963 E.35887
G1 X103.587 Y120.723 E.14367
G1 X103.587 Y89.337 E.98407
M204 S1000
G1 X103.21 Y89.121 F6000
M204 S800
;TYPE:External perimeter
G1 F1200
G1 X106.671 Y85.66 E.15347
G1 X118.429 Y85.66 E.36866
G1 X121.89 Y89.121 E.15347
G1 X121.89 Y120.879 E.99575
G1 X118.429 Y124.34 E.15347
G1 X106.671 Y124.34 E.36866
G1 X103.21 Y120.879 E.15347
G1 X103.21 Y89.181 E.99387
M204 S1000
G1 X103.61 Y89.108 F6000
;WIPE_START
G1 F4800
G1 X104.812 Y87.551 E-.95
;WIPE_END
G1 E-.05 F2100
G1 Z.4 F720
G1 X121.023 Y89.721 F6000
G1 Z.2 F720
G1 E1 F2100
M204 S800
;TYPE:Solid infill
;WIDTH:0.420344
G1 F1200
G1 X117.999 Y86.697 E.13419
G1 X117.465 Y86.697 E.01675
G1 X120.853 Y90.085 E.15035
G1 X120.853 Y90.618 E.01675
M73 P2 R27
G1 X116.932 Y86.697 E.17404
G1 X116.398 Y86.697 E.01675
G1 X120.853 Y91.152 E.19773
G1 X120.853 Y91.686 E.01675
G1 X115.864 Y86.697 E.22142
G1 X115.33 Y86.697 E.01675
G1 X120.853 Y92.22 E.24511
G1 X120.853 Y92.753 E.01675
G1 X114.797 Y86.697 E.2688
G1 X114.263 Y86.697 E.01675
G1 X120.853 Y93.287 E.29249
G1 X120.853 Y93.821 E.01675
G1 X113.729 Y86.697 E.31618
G1 X113.195 Y86.697 E.01675
G1 X120.853 Y94.355 E.33987
G1 X120.853 Y94.888 E.01675
G1 X112.662 Y86.697 E.36356
G1 X112.128 Y86.697 E.01675
G1 X120.853 Y95.422 E.38725
G1 X120.853 Y95.956 E.01675
G1 X111.594 Y86.697 E.41094
G1 X111.06 Y86.697 E.01675
G1 X120.853 Y96.49 E.43463
G1 X120.853 Y97.023 E.01675
G1 X110.527 Y86.697 E.45831
G1 X109.993 Y86.697 E.01675
G1 X120.853 Y97.557 E.482
G1 X120.853 Y98.091 E.01675
G1 X109.459 Y86.697 E.50569
G1 X108.925 Y86.697 E.01675
G1 X120.853 Y98.625 E.52938
G1 X120.853 Y99.159 E.01675
G1 X108.391 Y86.697 E.55307
G1 X107.858 Y86.697 E.01675
G1 X120.853 Y99.692 E.57676
G1 X120.853 Y100.226 E.01675
G1 X107.324 Y86.697 E.60045
G1 X107.101 Y86.697 E.00701
G1 X106.945 Y86.852 E.00689
G1 X120.853 Y100.76 E.61725
G1 X120.853 Y101.294 E.01675
G1 X106.679 Y87.119 E.6291
G1 X106.412 Y87.386 E.01184
G1 X120.853 Y101.827 E.64094
G1 X120.853 Y102.361 E.01675
G1 X106.145 Y87.653 E.65279
G1 X105.878 Y87.92 E.01184
G1 X120.853 Y102.895 E.66463
G1 X120.853 Y103.429 E.01675
M73 P3 R27
G1 X105.611 Y88.187 E.67648
G1 X105.344 Y88.453 E.01184
G1 X120.853 Y103.962 E.68832
G1 X120.853 Y104.496 E.01675
G1 X105.077 Y88.72 E.70017
G1 X104.81 Y88.987 E.01184
G1 X120.853 Y105.03 E.71201
G1 X120.853 Y105.564 E.01675
G1 X104.543 Y89.254 E.72385
G1 X104.277 Y89.521 E.01184
M73 P3 R26
G1 X120.853 Y106.097 E.7357
G1 X120.853 Y106.631 E.01675
G1 X104.247 Y90.025 E.73702
G1 X104.247 Y90.559 E.01675
G1 X120.853 Y107.165 E.73702
G1 X120.853 Y107.699 E.01675
G1 X104.247 Y91.093 E.73702
G1 X104.247 Y91.626 E.01675
G1 X120.853 Y108.232 E.73702
G1 X120.853 Y108.766 E.01675
G1 X104.247 Y92.16 E.73702
G1 X104.247 Y92.694 E.01675
G1 X120.853 Y109.3 E.73702
G1 X120.853 Y109.834 E.01675
G1 X104.247 Y93.228 E.73702
G1 X104.247 Y93.761 E.01675
G1 X120.853 Y110.367 E.73702
G1 X120.853 Y110.901 E.01675
M73 P4 R26
G1 X104.247 Y94.295 E.73702
G1 X104.247 Y94.829 E.01675
G1 X120.853 Y111.435 E.73702
G1 X120.853 Y111.969 E.01675
G1 X104.247 Y95.363 E.73702
G1 X104.247 Y95.896 E.01675
G1 X120.853 Y112.502 E.73702
G1 X120.853 Y113.036 E.01675
G1 X104.247 Y96.43 E.73702
G1 X104.247 Y96.964 E.01675
G1 X120.853 Y113.57 E.73702
G1 X120.853 Y114.104 E.01675
G1 X104.247 Y97.498 E.73702
G1 X104.247 Y98.031 E.01675
G1 X120.853 Y114.638 E.73702
G1 X120.853 Y115.171 E.01675
G1 X104.247 Y98.565 E.73702
G1 X104.247 Y99.099 E.01675
G1 X120.853 Y115.705 E.73702
G1 X120.853 Y116.239 E.01675
G1 X104.247 Y99.633 E.73702
G1 X104.247 Y100.166 E.01675
G1 X120.853 Y116.773 E.73702
G1 X120.853 Y117.306 E.01675
G1 X104.247 Y100.7 E.73702
G1 X104.247 Y101.234 E.01675
G1 X120.853 Y117.84 E.73702
G1 X120.853 Y118.374 E.01675
M73 P5 R26
G1 X104.247 Y101.768 E.73702
G1 X104.247 Y102.301 E.01675
G1 X120.853 Y118.908 E.73702
G1 X120.853 Y119.441 E.01675
G1 X104.247 Y102.835 E.73702
G1 X104.247 Y103.369 E.01675
G1 X120.853 Y119.975 E.73702
G1 X120.853 Y120.449 E.01489
G1 X120.823 Y120.479 E.00132
G1 X104.247 Y103.903 E.7357
G1 X104.247 Y104.437 E.01675
G1 X120.556 Y120.746 E.72385
G1 X120.29 Y121.013 E.01184
G1 X104.247 Y104.97 E.71201
G1 X104.247 Y105.504 E.01675
G1 X120.023 Y121.28 E.70016
G1 X119.756 Y121.547 E.01184
G1 X104.247 Y106.038 E.68832
G1 X104.247 Y106.572 E.01675
G1 X119.489 Y121.814 E.67647
G1 X119.222 Y122.08 E.01184
G1 X104.247 Y107.105 E.66463
G1 X104.247 Y107.639 E.01675
G1 X118.955 Y122.347 E.65278
G1 X118.688 Y122.614 E.01184
G1 X104.247 Y108.173 E.64094
G1 X104.247 Y108.707 E.01675
G1 X118.421 Y122.881 E.62909
G1 X118.155 Y123.148 E.01184
M73 P6 R26
G1 X104.247 Y109.24 E.61725
G1 X104.247 Y109.774 E.01675
G1 X117.776 Y123.303 E.60045
G1 X117.242 Y123.303 E.01675
G1 X104.247 Y110.308 E.57676
G1 X104.247 Y110.842 E.01675
G1 X116.708 Y123.303 E.55307
G1 X116.175 Y123.303 E.01675
G1 X104.247 Y111.375 E.52938
G1 X104.247 Y111.909 E.01675
G1 X115.641 Y123.303 E.50569
G1 X115.107 Y123.303 E.01675
G1 X104.247 Y112.443 E.482
G1 X104.247 Y112.977 E.01675
G1 X114.573 Y123.303 E.45831
G1 X114.04 Y123.303 E.01675
G1 X104.247 Y113.51 E.43462
G1 X104.247 Y114.044 E.01675
G1 X113.506 Y123.303 E.41093
G1 X112.972 Y123.303 E.01675
G1 X104.247 Y114.578 E.38724
G1 X104.247 Y115.112 E.01675
G1 X112.438 Y123.303 E.36355
G1 X111.905 Y123.303 E.01675
G1 X104.247 Y115.645 E.33986
G1 X104.247 Y116.179 E.01675
G1 X111.371 Y123.303 E.31617
G1 X110.837 Y123.303 E.01675
G1 X104.247 Y116.713 E.29248
G1 X104.247 Y117.247 E.01675
G1 X110.303 Y123.303 E.26879
G1 X109.77 Y123.303 E.01675
G1 X104.247 Y117.78 E.24511
G1 X104.247 Y118.314 E.01675
G1 X109.236 Y123.303 E.22142
G1 X108.702 Y123.303 E.01675
G1 X104.247 Y118.848 E.19773
G1 X104.247 Y119.382 E.01675
G1 X108.168 Y123.303 E.17404
G1 X107.635 Y123.303 E.01675
G1 X104.247 Y119.915 E.15035
G1 X104.247 Y120.449 E.01675
G1 X107.27 Y123.473 E.13419
M204 S1000
;WIPE_START
G1 F4800
G1 X105.654 Y121.856 E-.95
;WIPE_END
G1 E-.05 F2100
G1 Z.4 F720
G1 X128.864 Y120.567 F6000
G1 Z.2 F720
G1 E1 F2100
M204 S800
;TYPE:Perimeter
;WIDTH:0.42
G1 F1200
G1 X128.864 Y89.433 E.97616
G1 X131.883 Y86.414 E.13388
M73 P6 R25
G1 X143.017 Y86.414 E.34907
G1 X146.036 Y89.433 E.13388
M73 P7 R25
G1 X146.036 Y120.567 E.97616
G1 X143.017 Y123.586 E.13388
G1 X131.883 Y123.586 E.34907
G1 X128.907 Y120.609 E.132
M204 S1000
G1 X128.487 Y120.723 F6000
M204 S800
G1 F1200
G1 X128.487 Y89.277 E.98595
G1 X131.727 Y86.037 E.14367
G1 X143.173 Y86.037 E.35887
G1 X146.413 Y89.277 E.14367
G1 X146.413 Y120.723 E.98595
G1 X143.173 Y123.963 E.14367
G1 X131.727 Y123.963 E.35887
G1 X128.53 Y120.765 E.14179
M204 S1000
G1 X128.11 Y120.879 F6000
M204 S800
;TYPE:External perimeter
G1 F1200
G1 X128.11 Y89.121 E.99575
G1 X131.571 Y85.66 E.15347
G1 X143.329 Y85.66 E.36866
G1 X146.79 Y89.121 E.15347
G1 X146.79 Y120.879 E.99575
G1 X143.329 Y124.34 E.15347
G1 X131.571 Y124.34 E.36866
G1 X128.152 Y120.921 E.15159
M204 S1000
G1 X128.335 Y120.548 F6000
;WIPE_START
G1 F4800
G1 X128.149 Y118.636 E-.95
;WIPE_END
G1 E-.05 F2100
G1 Z.4 F720
G1 X142.735 Y86.533 F6000
G1 Z.2 F720
G1 E1 F2100
M204 S800
;TYPE:Solid infill
;WIDTH:0.420344
G1 F1200
G1 X145.753 Y89.551 E.13394
G1 X145.753 Y90.085 E.01675
G1 X142.371 Y86.703 E.1501
G1 X141.837 Y86.702 E.01676
G1 X145.753 Y90.618 E.17381
G1 X145.753 Y91.152 E.01675
G1 X141.303 Y86.702 E.19751
G1 X140.769 Y86.702 E.01676
G1 X145.753 Y91.686 E.22121
G1 X145.753 Y92.22 E.01675
G1 X140.235 Y86.701 E.24491
G1 X139.701 Y86.701 E.01676
G1 X145.753 Y92.753 E.26861
G1 X145.753 Y93.287 E.01675
M73 P8 R25
G1 X139.167 Y86.701 E.29232
G1 X138.633 Y86.701 E.01676
G1 X145.753 Y93.821 E.31602
G1 X145.753 Y94.355 E.01675
G1 X138.099 Y86.7 E.33972
G1 X137.565 Y86.7 E.01676
G1 X145.753 Y94.888 E.36342
G1 X145.753 Y95.422 E.01675
G1 X137.031 Y86.7 E.38712
G1 X136.496 Y86.699 E.01676
G1 X145.753 Y95.956 E.41083
G1 X145.753 Y96.49 E.01675
G1 X135.962 Y86.699 E.43453
G1 X135.428 Y86.699 E.01676
G1 X145.753 Y97.023 E.45823
G1 X145.753 Y97.557 E.01675
G1 X134.894 Y86.699 E.48193
G1 X134.36 Y86.698 E.01676
G1 X145.753 Y98.091 E.50563
G1 X145.753 Y98.625 E.01675
G1 X133.826 Y86.698 E.52934
G1 X133.292 Y86.698 E.01676
G1 X145.753 Y99.159 E.55304
G1 X145.753 Y99.692 E.01675
G1 X132.758 Y86.697 E.57674
G1 X132.224 Y86.697 E.01676
G1 X145.753 Y100.226 E.60044
G1 X145.753 Y100.76 E.01675
G1 X131.845 Y86.852 E.61725
G1 X131.579 Y87.119 E.01184
G1 X145.753 Y101.294 E.6291
G1 X145.753 Y101.827 E.01675
G1 X131.312 Y87.386 E.64094
G1 X131.045 Y87.653 E.01184
G1 X145.753 Y102.361 E.65279
G1 X145.753 Y102.895 E.01675
G1 X130.778 Y87.92 E.66463
G1 X130.511 Y88.187 E.01184
G1 X145.753 Y103.429 E.67648
G1 X145.753 Y103.962 E.01675
M73 P9 R25
G1 X130.244 Y88.453 E.68832
G1 X129.977 Y88.72 E.01184
G1 X145.753 Y104.496 E.70017
G1 X145.753 Y105.03 E.01675
G1 X129.71 Y88.987 E.71201
G1 X129.443 Y89.254 E.01184
G1 X145.753 Y105.564 E.72385
G1 X145.753 Y106.097 E.01675
G1 X129.177 Y89.521 E.7357
G1 X129.147 Y89.551 E.00132
G1 X129.147 Y90.025 E.01489
G1 X145.753 Y106.631 E.73702
G1 X145.753 Y107.165 E.01675
G1 X129.147 Y90.559 E.73702
G1 X129.147 Y91.093 E.01675
G1 X145.753 Y107.699 E.73702
G1 X145.753 Y108.232 E.01675
G1 X129.147 Y91.626 E.73702
G1 X129.147 Y92.16 E.01675
G1 X145.753 Y108.766 E.73702
G1 X145.753 Y109.3 E.01675
G1 X129.147 Y92.694 E.73702
G1 X129.147 Y93.228 E.01675
G1 X145.753 Y109.834 E.73702
G1 X145.753 Y110.367 E.01675
G1 X129.147 Y93.761 E.73702
G1 X129.147 Y94.295 E.01675
G1 X145.753 Y110.901 E.73702
G1 X145.753 Y111.435 E.01675
M73 P10 R25
G1 X129.147 Y94.829 E.73702
G1 X129.147 Y95.363 E.01675
G1 X145.753 Y111.969 E.73702
G1 X145.753 Y112.502 E.01675
G1 X129.147 Y95.896 E.73702
G1 X129.147 Y96.43 E.01675
G1 X145.753 Y113.036 E.73702
G1 X145.753 Y113.57 E.01675
G1 X129.147 Y96.964 E.73702
G1 X129.147 Y97.498 E.01675
G1 X145.753 Y114.104 E.73702
G1 X145.753 Y114.638 E.01675
G1 X129.147 Y98.031 E.73702
G1 X129.147 Y98.565 E.01675
M73 P10 R24
G1 X145.753 Y115.171 E.73702
G1 X145.753 Y115.705 E.01675
G1 X129.147 Y99.099 E.73702
G1 X129.147 Y99.633 E.01675
G1 X145.753 Y116.239 E.73702
G1 X145.753 Y116.773 E.01675
G1 X129.147 Y100.166 E.73702
G1 X129.147 Y100.7 E.01675
G1 X145.753 Y117.306 E.73702
G1 X145.753 Y117.84 E.01675
G1 X129.147 Y101.234 E.73702
G1 X129.147 Y101.768 E.01675
G1 X145.753 Y118.374 E.73702
G1 X145.753 Y118.908 E.01675
M73 P11 R24
G1 X129.147 Y102.301 E.73702
G1 X129.147 Y102.835 E.01675
G1 X145.753 Y119.441 E.73702
G1 X145.753 Y119.975 E.01675
G1 X129.147 Y103.369 E.73702
G1 X129.147 Y103.903 E.01675
G1 X145.723 Y120.479 E.7357
G1 X145.456 Y120.746 E.01184
G1 X129.147 Y104.437 E.72385
G1 X129.147 Y104.97 E.01675
G1 X145.19 Y121.013 E.71201
G1 X144.923 Y121.28 E.01184
G1 X129.147 Y105.504 E.70016
G1 X129.147 Y106.038 E.01675
G1 X144.656 Y121.547 E.68832
G1 X144.389 Y121.814 E.01184
G1 X129.147 Y106.572 E.67647
G1 X129.147 Y107.105 E.01675
G1 X144.122 Y122.08 E.66463
G1 X143.855 Y122.347 E.01184
G1 X129.147 Y107.639 E.65278
G1 X129.147 Y108.173 E.01675
G1 X143.588 Y122.614 E.64094
G1 X143.321 Y122.881 E.01184
G1 X129.147 Y108.707 E.62909
G1 X129.147 Y109.24 E.01675
G1 X143.055 Y123.148 E.61725
G1 X142.899 Y123.303 E.00688
G1 X142.676 Y123.303 E.00701
G1 X129.147 Y109.774 E.60045
G1 X129.147 Y110.308 E.01675
M73 P12 R24
G1 X142.142 Y123.303 E.57676
G1 X141.608 Y123.303 E.01675
G1 X129.147 Y110.842 E.55307
G1 X129.147 Y111.375 E.01675
G1 X141.075 Y123.303 E.52938
G1 X140.541 Y123.303 E.01675
G1 X129.147 Y111.909 E.50569
G1 X129.147 Y112.443 E.01675
G1 X140.007 Y123.303 E.482
G1 X139.473 Y123.303 E.01675
G1 X129.147 Y112.977 E.45831
G1 X129.147 Y113.51 E.01675
G1 X138.94 Y123.303 E.43462
G1 X138.406 Y123.303 E.01675
G1 X129.147 Y114.044 E.41093
G1 X129.147 Y114.578 E.01675
G1 X137.872 Y123.303 E.38724
G1 X137.338 Y123.303 E.01675
G1 X129.147 Y115.112 E.36355
G1 X129.147 Y115.645 E.01675
G1 X136.805 Y123.303 E.33986
G1 X136.271 Y123.303 E.01675
G1 X129.147 Y116.179 E.31617
G1 X129.147 Y116.713 E.01675
G1 X135.737 Y123.303 E.29248
G1 X135.203 Y123.303 E.01675
G1 X129.147 Y117.247 E.26879
G1 X129.147 Y117.78 E.01675
G1 X134.67 Y123.303 E.2451
G1 X134.136 Y123.303 E.01675
G1 X129.147 Y118.314 E.22142
G1 X129.147 Y118.848 E.01675
G1 X133.602 Y123.303 E.19773
G1 X133.068 Y123.303 E.01675
G1 X129.147 Y119.382 E.17404
G1 X129.147 Y119.915 E.01675
G1 X132.535 Y123.303 E.15035
G1 X132.001 Y123.303 E.01675
G1 X128.977 Y120.28 E.13419
M204 S1000
; stop printing object z_end_caps.stl id:0 copy 0
;LAYER_CHANGE
;Z:0.4
;HEIGHT:0.2
;BEFORE_LAYER_CHANGE
G92 E0.0
;0.4


;WIPE_START
G1 F4800
G1 X130.594 Y121.896 E-.95
;WIPE_END
G1 E-.05 F2100
G1 Z.4 F720
;AFTER_LAYER_CHANGE
;0.4
M104 S250 ; set temperature
M140 S90 ; set bed temperature
G1 Z.6
G1 X130.594 Y127.327 F6000
G1 Z.4 F720
G1 E1 F2100
;TYPE:Skirt/Brim
;WIDTH:0.42
G1 F3600
G1 X106.136 Y127.327 E.76686
G1 X104.455 Y126.631 E.05704
G1 X100.919 Y123.095 E.15677
G1 X100.223 Y121.414 E.05704
G1 X100.223 Y88.586 E1.02933
G1 X100.919 Y86.905 E.05704
G1 X104.455 Y83.369 E.15677
G1 X106.136 Y82.673 E.05704
G1 X143.864 Y82.673 E1.18296
G1 X145.545 Y83.369 E.05704
G1 X149.081 Y86.905 E.15677
G1 X149.777 Y88.586 E.05704
G1 X149.777 Y121.414 E1.02933
G1 X149.081 Y123.095 E.05704
G1 X145.545 Y126.631 E.15677
G1 X143.864 Y127.327 E.05704
G1 X130.654 Y127.327 E.41422
; printing object z_end_caps.stl id:0 copy 0
;WIPE_START
G1 F4800
G1 X128.368 Y127.327 E-.95
;WIPE_END
G1 E-.05 F2100
G1 Z.6 F720
G1 X131.749 Y123.911 F6000
G1 Z.4 F720
G1 E1 F2100
M204 S800
;TYPE:Perimeter
;WIDTH:0.45
G1 F3600
G1 X128.539 Y120.701 E.15364
G1 X128.539 Y89.299 E1.06293
G1 X131.749 Y86.089 E.15364
M73 P13 R24
G1 X143.151 Y86.089 E.38596
G1 X146.361 Y89.299 E.15364
G1 X146.361 Y120.701 E1.06293
G1 X143.151 Y123.911 E.15364
G1 X131.809 Y123.911 E.38393
M204 S1000
G1 X131.58 Y124.318 F6000
M204 S800
G1 F3600
