; generated by PrusaSlicer 2.0.0+ on 2019-06-04 at 10:52:09

; 

; external perimeters extrusion width = 0.45mm
; perimeters extrusion width = 0.45mm
; infill extrusion width = 0.45mm
; solid infill extrusion width = 0.45mm
; top infill extrusion width = 0.40mm
; first layer extrusion width = 0.42mm

M73 P0 R47
M201 X9000 Y9000 Z500 E10000 ; sets maximum accelerations, mm/sec^2
M203 X500 Y500 Z12 E120 ; sets maximum feedrates, mm/sec
M204 P2000 R1500 T2000 ; sets acceleration (P, T) and retract acceleration (R), mm/sec^2
M205 X10.00 Y10.00 Z0.20 E2.50 ; sets the jerk limits, mm/sec
M205 S0 T0 ; sets the minimum extruding and travel feed rate, mm/sec
M107
M83  ; extruder relative mode
M140 S75 ; set bed temp
M109 S160 ; Set extruder temp before bed level
M190 S75 ; wait for bed temp

G28 W ; home all without mesh bed level
G80 ; mesh bed leveling

M109 S240 ; wait for extruder temp

M221 S100 ; Set flow to 100

G1 Y-3.0 F1000.0 ; go outside print area
G92 E0.0
G1 E8 ; Purge Bubble
M73 P0 R47
G1 X60.0 E9.0 F1000.0 ; intro line
G1 X100.0 E12.5 F1000.0 ; intro line
G92 E0.0
M900 K45; Filament gcode
G21 ; set units to millimeters
G90 ; use absolute coordinates
M83 ; use relative distances for extrusion
;BEFORE_LAYER_CHANGE
G92 E0.0
;0.2


G1 E-0.80000 F2100.00000
G1 Z0.600 F10800.000
;AFTER_LAYER_CHANGE
;0.2
G1 X94.319 Y79.823
G1 Z0.200
G1 E0.80000 F2100.00000
M204 S1000
G1 F1200
G1 X96.934 Y76.937 E0.11234
G1 X99.821 Y74.321 E0.11236
G1 X102.949 Y72.001 E0.11235
G1 X106.290 Y69.999 E0.11236
G1 X109.810 Y68.334 E0.11232
G1 X113.477 Y67.021 E0.11235
G1 X117.256 Y66.075 E0.11236
G1 X121.108 Y65.503 E0.11234
G1 X125.002 Y65.311 E0.11246
G1 X128.889 Y65.503 E0.11227
G1 X132.742 Y66.074 E0.11234
G1 X136.520 Y67.020 E0.11235
G1 X140.187 Y68.333 E0.11236
G1 X143.707 Y69.997 E0.11232
G1 X147.049 Y71.999 E0.11236
G1 X150.177 Y74.319 E0.11235
G1 X153.066 Y76.937 E0.11245
G1 X155.679 Y79.821 E0.11226
G1 X157.999 Y82.949 E0.11235
G1 X160.001 Y86.290 E0.11236
G1 X161.666 Y89.810 E0.11232
G1 X162.980 Y93.481 E0.11245
G1 X163.925 Y97.256 E0.11226
G1 X164.497 Y101.108 E0.11234
G1 X164.689 Y105.002 E0.11246
G1 X164.497 Y108.889 E0.11227
G1 X163.926 Y112.742 E0.11234
G1 X162.980 Y116.520 E0.11235
G1 X161.667 Y120.187 E0.11236
G1 X160.003 Y123.707 E0.11232
G1 X158.001 Y127.049 E0.11236
G1 X155.681 Y130.177 E0.11235
G1 X153.066 Y133.063 E0.11235
G1 X150.179 Y135.679 E0.11236
G1 X147.051 Y137.999 E0.11235
G1 X143.710 Y140.001 E0.11236
G1 X140.190 Y141.666 E0.11232
G1 X136.519 Y142.980 E0.11245
G1 X132.744 Y143.925 E0.11226
G1 X128.892 Y144.497 E0.11234
G1 X124.998 Y144.689 E0.11246
G1 X121.111 Y144.497 E0.11227
G1 X117.258 Y143.926 E0.11234
G1 X113.480 Y142.980 E0.11235
G1 X109.813 Y141.667 E0.11236
G1 X106.293 Y140.003 E0.11232
G1 X102.951 Y138.001 E0.11236
G1 X99.823 Y135.681 E0.11235
G1 X96.937 Y133.066 E0.11234
G1 X94.321 Y130.179 E0.11236
G1 X92.001 Y127.051 E0.11235
G1 X89.999 Y123.710 E0.11236
G1 X88.334 Y120.190 E0.11232
G1 X87.021 Y116.523 E0.11235
G1 X86.075 Y112.744 E0.11236
G1 X85.503 Y108.892 E0.11234
G1 X85.311 Y104.998 E0.11246
G1 X85.503 Y101.111 E0.11227
G1 X86.074 Y97.258 E0.11234
G1 X87.020 Y93.480 E0.11235
G1 X88.333 Y89.813 E0.11236
G1 X89.997 Y86.293 E0.11232
G1 X91.999 Y82.951 E0.11236
G1 X94.283 Y79.871 E0.11062
G1 F8640
G1 X96.490 Y77.429 E-0.76000
G1 E-0.04000 F2100.00000
G1 Z0.800 F10800.000
G1 X119.829 Y100.755
G1 Z0.200
G1 E0.80000 F2100.00000
G1 F1200
G1 X120.269 Y100.269 E0.01892
G1 X120.755 Y99.829 E0.01892
G1 X121.284 Y99.437 E0.01897
G1 X121.847 Y99.100 E0.01894
G1 X122.440 Y98.819 E0.01893
G1 X123.057 Y98.599 E0.01891
G1 X123.696 Y98.438 E0.01900
G1 X124.375 Y98.341 E0.01978
G1 X125.000 Y98.309 E0.01804
G1 X125.656 Y98.342 E0.01895
G1 X126.305 Y98.439 E0.01892
G1 X126.943 Y98.599 E0.01896
G1 X127.560 Y98.819 E0.01891
G1 X128.153 Y99.100 E0.01893
G1 X128.716 Y99.437 E0.01894
G1 X129.245 Y99.829 E0.01897
G1 X129.731 Y100.269 E0.01892
G1 X130.171 Y100.755 E0.01892
G1 X130.563 Y101.284 E0.01897
G1 X130.900 Y101.847 E0.01894
G1 X131.181 Y102.440 E0.01893
G1 X131.401 Y103.057 E0.01891
G1 X131.561 Y103.695 E0.01896
G1 X131.658 Y104.344 E0.01892
G1 X131.691 Y105.000 E0.01895
G1 X131.658 Y105.656 E0.01895
G1 X131.561 Y106.305 E0.01892
G1 X131.401 Y106.943 E0.01896
G1 X131.181 Y107.560 E0.01891
G1 X130.900 Y108.153 E0.01893
G1 X130.563 Y108.716 E0.01894
G1 X130.171 Y109.245 E0.01897
G1 X129.731 Y109.731 E0.01892
G1 X129.245 Y110.171 E0.01892
G1 X128.716 Y110.563 E0.01897
G1 X128.153 Y110.900 E0.01894
G1 X127.560 Y111.181 E0.01893
G1 X126.943 Y111.401 E0.01891
G1 X126.305 Y111.561 E0.01896
G1 X125.656 Y111.658 E0.01892
G1 X125.000 Y111.691 E0.01895
G1 X124.344 Y111.658 E0.01895
G1 X123.695 Y111.561 E0.01892
G1 X123.057 Y111.401 E0.01896
G1 X122.440 Y111.181 E0.01891
G1 X121.847 Y110.900 E0.01893
G1 X121.284 Y110.563 E0.01894
G1 X120.755 Y110.171 E0.01897
G1 X120.269 Y109.731 E0.01892
G1 X119.829 Y109.245 E0.01892
G1 X119.437 Y108.716 E0.01897
G1 X119.100 Y108.153 E0.01894
G1 X118.819 Y107.560 E0.01893
G1 X118.599 Y106.943 E0.01891
G1 X118.439 Y106.305 E0.01896
G1 X118.342 Y105.656 E0.01892
G1 X118.309 Y105.000 E0.01895
G1 X118.342 Y104.344 E0.01895
G1 X118.439 Y103.695 E0.01892
G1 X118.599 Y103.057 E0.01896
G1 X118.819 Y102.440 E0.01891
G1 X119.100 Y101.847 E0.01893
G1 X119.437 Y101.284 E0.01894
G1 X119.793 Y100.803 E0.01724
G1 X120.096 Y101.028 F10800.000
G1 F1200
G1 X120.536 Y100.536 E0.01904
G1 X120.995 Y100.120 E0.01785
G1 X121.493 Y99.751 E0.01790
G1 X122.025 Y99.433 E0.01788
G1 X122.585 Y99.168 E0.01786
G1 X123.167 Y98.960 E0.01784
G1 X123.769 Y98.809 E0.01791
G1 X124.412 Y98.716 E0.01872
G1 X125.000 Y98.687 E0.01699
G1 X125.619 Y98.718 E0.01787
G1 X126.231 Y98.809 E0.01786
G1 X126.833 Y98.960 E0.01790
G1 X127.415 Y99.168 E0.01784
G1 X127.975 Y99.433 E0.01786
G1 X128.507 Y99.751 E0.01788
G1 X129.005 Y100.120 E0.01790
G1 X129.464 Y100.536 E0.01785
G1 X129.880 Y100.995 E0.01785
G1 X130.249 Y101.493 E0.01790
G1 X130.567 Y102.025 E0.01788
G1 X130.832 Y102.585 E0.01786
G1 X131.040 Y103.167 E0.01784
G1 X131.191 Y103.769 E0.01790
G1 X131.282 Y104.381 E0.01786
G1 X131.313 Y105.000 E0.01787
G1 X131.282 Y105.619 E0.01787
G1 X131.191 Y106.231 E0.01786
G1 X131.040 Y106.833 E0.01790
G1 X130.832 Y107.415 E0.01784
G1 X130.567 Y107.975 E0.01786
G1 X130.249 Y108.507 E0.01788
G1 X129.880 Y109.005 E0.01790
G1 X129.464 Y109.464 E0.01785
G1 X129.005 Y109.880 E0.01785
G1 X128.507 Y110.249 E0.01790
G1 X127.975 Y110.567 E0.01788
G1 X127.415 Y110.832 E0.01786
G1 X126.833 Y111.040 E0.01784
G1 X126.231 Y111.191 E0.01790
G1 X125.619 Y111.282 E0.01786
G1 X125.000 Y111.313 E0.01787
G1 X124.381 Y111.282 E0.01787
G1 X123.769 Y111.191 E0.01786
G1 X123.167 Y111.040 E0.01790
G1 X122.585 Y110.832 E0.01784
G1 X122.025 Y110.567 E0.01786
G1 X121.493 Y110.249 E0.01788
G1 X120.995 Y109.880 E0.01790
G1 X120.536 Y109.464 E0.01785
G1 X120.120 Y109.005 E0.01785
G1 X119.751 Y108.507 E0.01790
G1 X119.433 Y107.975 E0.01788
G1 X119.168 Y107.415 E0.01786
G1 X118.960 Y106.833 E0.01784
G1 X118.809 Y106.231 E0.01790
G1 X118.718 Y105.619 E0.01786
G1 X118.687 Y105.000 E0.01787
G1 X118.718 Y104.381 E0.01787
G1 X118.809 Y103.769 E0.01786
G1 X118.960 Y103.167 E0.01790
G1 X119.168 Y102.585 E0.01784
G1 X119.433 Y102.025 E0.01786
G1 X119.751 Y101.493 E0.01788
G1 X120.060 Y101.076 E0.01498
G1 X119.953 Y100.654 F10800.000
G1 F8640
G1 X120.536 Y100.536 E-0.16617
G1 X120.995 Y100.120 E-0.14289
G1 X121.493 Y99.751 E-0.14328
G1 X122.025 Y99.433 E-0.14310
G1 X122.585 Y99.168 E-0.14298
G1 X122.673 Y99.136 E-0.02158
G1 E-0.04000 F2100.00000
G1 Z0.800 F10800.000
G1 X96.466 Y81.583
G1 Z0.200
G1 E0.80000 F2100.00000
G1 F1200
G1 X98.899 Y78.899 E0.10449
G1 X101.583 Y76.466 E0.10449
G1 X104.493 Y74.309 E0.10449
G1 X107.600 Y72.446 E0.10450
G1 X110.874 Y70.898 E0.10447
G1 X114.285 Y69.677 E0.10449
G1 X117.799 Y68.797 E0.10450
G1 X121.382 Y68.266 E0.10449
G1 X125.000 Y68.088 E0.10450
G1 X128.618 Y68.266 E0.10450
G1 X132.201 Y68.797 E0.10449
G1 X135.715 Y69.677 E0.10450
G1 X139.126 Y70.898 E0.10449
G1 X142.400 Y72.446 E0.10447
G1 X145.507 Y74.309 E0.10450
G1 X148.417 Y76.466 E0.10449
G1 X151.101 Y78.899 E0.10449
G1 X153.534 Y81.583 E0.10449
G1 X155.691 Y84.493 E0.10449
G1 X157.554 Y87.600 E0.10450
G1 X159.102 Y90.874 E0.10447
G1 X160.323 Y94.285 E0.10449
G1 X161.203 Y97.799 E0.10450
G1 X161.734 Y101.382 E0.10449
G1 X161.912 Y105.000 E0.10450
G1 X161.734 Y108.618 E0.10450
G1 X161.203 Y112.201 E0.10449
G1 X160.323 Y115.715 E0.10450
G1 X159.102 Y119.126 E0.10449
G1 X157.554 Y122.400 E0.10447
G1 X155.691 Y125.507 E0.10450
G1 X153.534 Y128.417 E0.10449
G1 X151.101 Y131.101 E0.10449
G1 X148.417 Y133.534 E0.10449
G1 X145.507 Y135.691 E0.10449
G1 X142.400 Y137.554 E0.10450
G1 X139.126 Y139.102 E0.10447
G1 X135.715 Y140.323 E0.10449
G1 X132.201 Y141.203 E0.10450
G1 X128.618 Y141.734 E0.10449
G1 X125.000 Y141.912 E0.10450
G1 X121.382 Y141.734 E0.10450
G1 X117.799 Y141.203 E0.10449
G1 X114.285 Y140.323 E0.10450
G1 X110.874 Y139.102 E0.10449
G1 X107.600 Y137.554 E0.10447
G1 X104.493 Y135.691 E0.10450
G1 X101.583 Y133.534 E0.10449
G1 X98.899 Y131.101 E0.10449
G1 X96.466 Y128.417 E0.10449
G1 X94.309 Y125.507 E0.10449
G1 X92.446 Y122.400 E0.10450
G1 X90.898 Y119.126 E0.10447
G1 X89.677 Y115.715 E0.10449
G1 X88.797 Y112.201 E0.10450
G1 X88.266 Y108.618 E0.10449
G1 X88.088 Y105.000 E0.10450
G1 X88.266 Y101.382 E0.10450
G1 X88.797 Y97.799 E0.10449
G1 X89.677 Y94.285 E0.10450
G1 X90.898 Y90.874 E0.10449
G1 X92.446 Y87.600 E0.10447
G1 X94.309 Y84.493 E0.10450
G1 X96.431 Y81.631 E0.10276
G1 X96.128 Y81.406 F10800.000
G1 F1200
G1 X98.632 Y78.632 E0.10781
G1 X101.343 Y76.175 E0.10556
G1 X104.283 Y73.995 E0.10556
G1 X107.422 Y72.113 E0.10557
G1 X110.729 Y70.549 E0.10554
G1 X114.175 Y69.316 E0.10556
G1 X117.725 Y68.427 E0.10556
G1 X121.345 Y67.890 E0.10555
G1 X125.000 Y67.710 E0.10557
G1 X128.655 Y67.890 E0.10557
G1 X132.275 Y68.427 E0.10555
G1 X135.825 Y69.316 E0.10556
G1 X139.271 Y70.549 E0.10556
G1 X142.578 Y72.113 E0.10554
G1 X145.717 Y73.995 E0.10557
G1 X148.657 Y76.175 E0.10556
G1 X151.368 Y78.632 E0.10556
G1 X153.825 Y81.343 E0.10556
G1 X156.005 Y84.283 E0.10556
G1 X157.887 Y87.422 E0.10557
G1 X159.451 Y90.729 E0.10554
G1 X160.684 Y94.175 E0.10556
G1 X161.573 Y97.725 E0.10556
G1 X162.110 Y101.345 E0.10555
G1 X162.290 Y105.000 E0.10557
G1 X162.110 Y108.655 E0.10557
G1 X161.573 Y112.275 E0.10555
G1 X160.684 Y115.825 E0.10556
G1 X159.451 Y119.271 E0.10556
G1 X157.887 Y122.578 E0.10554
G1 X156.005 Y125.717 E0.10557
G1 X153.825 Y128.657 E0.10556
G1 X151.368 Y131.368 E0.10556
G1 X148.657 Y133.825 E0.10556
G1 X145.717 Y136.005 E0.10556
G1 X142.578 Y137.887 E0.10557
G1 X139.271 Y139.451 E0.10554
G1 X135.825 Y140.684 E0.10556
G1 X132.275 Y141.573 E0.10556
G1 X128.655 Y142.110 E0.10555
G1 X125.000 Y142.290 E0.10557
G1 X121.345 Y142.110 E0.10557
G1 X117.725 Y141.573 E0.10555
G1 X114.175 Y140.684 E0.10556
G1 X110.729 Y139.451 E0.10556
G1 X107.422 Y137.887 E0.10554
G1 X104.283 Y136.005 E0.10557
G1 X101.343 Y133.825 E0.10556
G1 X98.632 Y131.368 E0.10556
G1 X96.175 Y128.657 E0.10556
G1 X93.995 Y125.717 E0.10556
G1 X92.113 Y122.578 E0.10557
G1 X90.549 Y119.271 E0.10554
G1 X89.316 Y115.825 E0.10556
G1 X88.427 Y112.275 E0.10556
G1 X87.890 Y108.655 E0.10555
G1 X87.710 Y105.000 E0.10557
G1 X87.890 Y101.345 E0.10557
G1 X88.427 Y97.725 E0.10555
G1 X89.316 Y94.175 E0.10556
G1 X90.549 Y90.729 E0.10556
G1 X92.113 Y87.422 E0.10554
G1 X93.995 Y84.283 E0.10557
G1 X96.092 Y81.455 E0.10156
G1 X96.523 Y81.471 F10800.000
G1 F8640
G1 X98.293 Y79.008 E-0.76000
G1 E-0.04000 F2100.00000
G1 Z0.800 F10800.000
G1 X118.885 Y107.964
G1 Z0.200
G1 E0.80000 F2100.00000
G1 F1200
G1 X94.981 Y84.060 E0.97654
G1 X95.209 Y83.754 E0.01103
G1 X118.277 Y106.821 E0.94240
G1 X118.161 Y106.360 E0.01373
G1 X118.128 Y106.139 E0.00647
G1 X95.436 Y83.447 E0.92704
G1 X95.664 Y83.140 E0.01103
G1 X118.053 Y105.529 E0.91467
G1 X118.028 Y104.970 E0.01617
G1 X95.891 Y82.834 E0.90436
G1 X96.118 Y82.527 E0.01103
G1 X118.053 Y104.462 E0.89611
G1 X118.110 Y103.984 E0.01389
G1 X96.346 Y82.220 E0.88913
M73 P2 R46
G1 X96.573 Y81.914 E0.01103
G1 X118.189 Y103.529 E0.88307
G1 X118.296 Y103.102 E0.01272
G1 X96.814 Y81.620 E0.87760
G1 X97.068 Y81.340 E0.01092
G1 X118.426 Y102.699 E0.87257
G1 X118.569 Y102.307 E0.01203
G1 X97.322 Y81.060 E0.86802
G1 X97.576 Y80.780 E0.01092
G1 X118.740 Y101.945 E0.86466
G1 X118.922 Y101.593 E0.01145
G1 X97.829 Y80.500 E0.86172
G1 X98.083 Y80.220 E0.01092
G1 X119.122 Y101.259 E0.85952
G1 X119.339 Y100.941 E0.01110
G1 X98.337 Y79.939 E0.85799
G1 X98.591 Y79.659 E0.01092
G1 X119.566 Y100.634 E0.85691
G1 X119.815 Y100.349 E0.01093
G1 X98.845 Y79.379 E0.85670
G1 X99.099 Y79.099 E0.01092
G1 X120.069 Y100.069 E0.85671
G1 X120.349 Y99.815 E0.01092
G1 X99.379 Y78.845 E0.85670
G1 X99.659 Y78.591 E0.01092
G1 X120.634 Y99.566 E0.85691
G1 X120.941 Y99.339 E0.01103
G1 X99.939 Y78.337 E0.85799
G1 X100.219 Y78.083 E0.01092
G1 X121.259 Y99.122 E0.85952
G1 X121.593 Y98.922 E0.01125
G1 X100.500 Y77.830 E0.86172
G1 X100.780 Y77.576 E0.01092
G1 X121.945 Y98.740 E0.86466
G1 X122.307 Y98.569 E0.01159
G1 X101.060 Y77.322 E0.86802
G1 X101.340 Y77.068 E0.01092
G1 X122.699 Y98.426 E0.87257
G1 X123.102 Y98.296 E0.01225
G1 X101.620 Y76.814 E0.87760
G1 X101.914 Y76.573 E0.01096
G1 X123.529 Y98.189 E0.88307
G1 X123.985 Y98.111 E0.01337
G1 X102.220 Y76.346 E0.88918
G1 X102.527 Y76.118 E0.01103
G1 X124.462 Y98.053 E0.89611
G1 X124.970 Y98.028 E0.01471
G1 X102.834 Y75.891 E0.90435
G1 X103.140 Y75.664 E0.01103
G1 X125.529 Y98.053 E0.91467
G1 X126.139 Y98.128 E0.01774
G1 X103.447 Y75.436 E0.92703
G1 X103.753 Y75.209 E0.01103
G1 X126.821 Y98.277 E0.94239
G1 X127.025 Y98.328 E0.00606
G1 X127.618 Y98.539 E0.01820
G1 X104.060 Y74.981 E0.96243
G1 X104.367 Y74.754 E0.01103
G1 X129.717 Y100.105 E1.03566
G1 X129.895 Y100.283 F10800.000
G1 F1200
G1 X155.246 Y125.633 E1.03566
G1 X155.471 Y125.324 E0.01104
G1 X104.676 Y74.529 E2.07518
G1 X105.009 Y74.329 E0.01125
G1 X155.671 Y124.991 E2.06971
G1 X155.871 Y124.657 E0.01125
G1 X105.343 Y74.129 E2.06425
G1 X105.677 Y73.928 E0.01125
G1 X156.072 Y124.323 E2.05878
M73 P4 R45
G1 X156.272 Y123.989 E0.01125
G1 X106.011 Y73.728 E2.05332
G1 X106.345 Y73.528 E0.01125
G1 X156.472 Y123.655 E2.04785
G1 X156.672 Y123.321 E0.01125
G1 X106.679 Y73.328 E2.04238
G1 X107.013 Y73.128 E0.01125
G1 X156.872 Y122.987 E2.03692
G1 X157.072 Y122.653 E0.01125
G1 X107.347 Y72.928 E2.03145
G1 X107.681 Y72.728 E0.01125
G1 X157.272 Y122.319 E2.02598
G1 X157.448 Y121.961 E0.01153
G1 X108.039 Y72.552 E2.01855
G1 X108.401 Y72.380 E0.01159
G1 X157.620 Y121.599 E2.01074
G1 X157.791 Y121.236 E0.01159
G1 X108.764 Y72.209 E2.00293
G1 X109.127 Y72.037 E0.01159
G1 X157.963 Y120.873 E1.99513
G1 X158.134 Y120.511 E0.01159
G1 X109.489 Y71.866 E1.98732
G1 X109.852 Y71.694 E0.01159
G1 X158.306 Y120.148 E1.97951
G1 X158.477 Y119.786 E0.01159
G1 X110.214 Y71.523 E1.97170
G1 X110.577 Y71.351 E0.01159
G1 X158.649 Y119.423 E1.96390
G1 X158.820 Y119.061 E0.01159
G1 X110.939 Y71.180 E1.95609
G1 X111.329 Y71.035 E0.01200
G1 X158.965 Y118.671 E1.94607
G1 X159.105 Y118.278 E0.01207
G1 X111.722 Y70.895 E1.93575
G1 X112.116 Y70.754 E0.01207
G1 X159.246 Y117.884 E1.92543
M73 P6 R44
G1 X159.387 Y117.491 E0.01207
G1 X112.509 Y70.613 E1.91512
G1 X112.902 Y70.473 E0.01207
G1 X159.527 Y117.098 E1.90480
G1 X159.668 Y116.704 E0.01207
G1 X113.296 Y70.332 E1.89448
G1 X113.689 Y70.191 E0.01207
G1 X159.809 Y116.311 E1.88416
G1 X159.950 Y115.918 E0.01207
G1 X114.082 Y70.050 E1.87385
G1 X114.485 Y69.919 E0.01224
G1 X160.081 Y115.515 E1.86277
G1 X160.188 Y115.088 E0.01272
G1 X114.912 Y69.812 E1.84969
G1 X115.339 Y69.705 E0.01272
G1 X160.295 Y114.661 E1.83661
G1 X160.402 Y114.234 E0.01272
G1 X115.766 Y69.598 E1.82353
G1 X116.193 Y69.491 E0.01272
G1 X160.509 Y113.807 E1.81045
G1 X160.616 Y113.380 E0.01272
G1 X116.620 Y69.384 E1.79737
G1 X117.047 Y69.277 E0.01272
G1 X160.723 Y112.953 E1.78429
G1 X160.830 Y112.526 E0.01272
G1 X117.474 Y69.170 E1.77122
G1 X117.906 Y69.067 E0.01281
G1 X160.933 Y112.094 E1.75779
G1 X161.002 Y111.629 E0.01358
G1 X118.371 Y68.998 E1.74161
G1 X118.836 Y68.930 E0.01358
