; generated by PrusaSlicer 2.0.0+ on 2019-06-04 at 10:53:05

; 

; external perimeters extrusion width = 0.45mm
; perimeters extrusion width = 0.45mm
; infill extrusion width = 0.45mm
; solid infill extrusion width = 0.45mm
; top infill extrusion width = 0.40mm
; first layer extrusion width = 0.42mm

M73 P0 R3
M201 X9000 Y9000 Z500 E10000 ; sets maximum accelerations, mm/sec^2
M203 X500 Y500 Z12 E120 ; sets maximum feedrates, mm/sec
M204 P2000 R1500 T2000 ; sets acceleration (P, T) and retract acceleration (R), mm/sec^2
M205 X10.00 Y10.00 Z0.20 E2.50 ; sets the jerk limits, mm/sec
M205 S0 T0 ; sets the minimum extruding and travel feed rate, mm/sec
M107
M83  ; extruder relative mode
M140 S65 ; set bed temp
M109 S160 ; Set extruder temp before bed level
M190 S65 ; wait for bed temp

G28 W ; home all without mesh bed level
G80 ; mesh bed leveling

M109 S215 ; wait for extruder temp

M221 S100 ; Set flow to 100

G1 Y-3.0 F1000.0 ; go outside print area
G92 E0.0
G1 E8 ; Purge Bubble
M73 P0 R3
G1 X60.0 E9.0 F1000.0 ; intro line
G1 X100.0 E12.5 F1000.0 ; intro line
G92 E0.0
M900 K30; Filament gcode
G21 ; set units to millimeters
G90 ; use absolute coordinates
M83 ; use relative distances for extrusion
;BEFORE_LAYER_CHANGE
G92 E0.0
;0.2


G1 E-0.80000 F2100.00000
G1 Z0.600 F10800.000
;AFTER_LAYER_CHANGE
;0.2
G1 X118.825 Y96.088
G1 Z0.200
G1 E0.80000 F2100.00000
M204 S1000
G1 F1200
G1 X120.653 Y95.074 E0.06226
G1 X121.846 Y94.621 E0.03800
G1 X123.077 Y94.338 E0.03763
G1 X125.004 Y94.155 E0.05765
G1 X127.023 Y94.347 E0.06042
G1 X128.759 Y94.841 E0.05375
G1 X130.486 Y95.655 E0.05687
G1 X131.706 Y96.482 E0.04390
G1 X132.622 Y97.291 E0.03641
G1 X133.963 Y98.901 E0.06240
G1 X134.884 Y100.564 E0.05664
G1 X135.329 Y101.712 E0.03667
G1 X135.587 Y102.686 E0.03000
G1 X135.829 Y104.777 E0.06270
G1 X135.720 Y106.548 E0.05286
G1 X135.043 Y109.077 E0.07797
G1 X134.538 Y110.152 E0.03541
G1 X133.924 Y111.133 E0.03444
G1 X132.733 Y112.595 E0.05618
G1 X131.257 Y113.842 E0.05756
G1 X130.196 Y114.517 E0.03744
G1 X129.157 Y115.012 E0.03431
G1 X127.262 Y115.599 E0.05908
G1 X126.153 Y115.781 E0.03348
G1 X124.993 Y115.845 E0.03459
G1 X123.912 Y115.790 E0.03226
G1 X122.886 Y115.637 E0.03088
G1 X121.837 Y115.374 E0.03224
G1 X120.804 Y115.001 E0.03269
G1 X119.846 Y114.544 E0.03162
G1 X118.940 Y113.994 E0.03157
G1 X118.076 Y113.350 E0.03209
G1 X117.215 Y112.554 E0.03495
G1 X115.933 Y110.954 E0.06107
G1 X115.415 Y110.078 E0.03032
G1 X114.951 Y109.060 E0.03332
G1 X114.605 Y108.102 E0.03034
G1 X114.333 Y106.960 E0.03496
G1 X114.185 Y105.839 E0.03369
G1 X114.171 Y104.569 E0.03784
G1 X114.237 Y103.648 E0.02750
G1 X114.526 Y102.194 E0.04414
G1 X115.144 Y100.481 E0.05425
G1 X116.072 Y98.840 E0.05616
G1 X116.856 Y97.843 E0.03778
G1 X117.443 Y97.239 E0.02510
G1 X118.779 Y96.126 E0.05179
G1 X119.019 Y96.414 F10800.000
G1 F1200
G1 X120.795 Y95.424 E0.06056
G1 X121.954 Y94.983 E0.03695
G1 X123.150 Y94.708 E0.03654
G1 X125.000 Y94.532 E0.05535
G1 X126.948 Y94.716 E0.05829
G1 X128.611 Y95.188 E0.05150
G1 X130.274 Y95.968 E0.05471
G1 X131.469 Y96.776 E0.04297
G1 X132.355 Y97.557 E0.03517
G1 X133.650 Y99.111 E0.06026
G1 X134.536 Y100.709 E0.05442
G1 X134.969 Y101.824 E0.03562
G1 X135.217 Y102.759 E0.02881
G1 X135.452 Y104.775 E0.06048
G1 X135.350 Y106.475 E0.05071
G1 X134.694 Y108.935 E0.07585
G1 X134.207 Y109.971 E0.03409
G1 X133.608 Y110.927 E0.03360
G1 X132.463 Y112.333 E0.05400
G1 X131.044 Y113.532 E0.05533
G1 X130.012 Y114.188 E0.03642
G1 X129.009 Y114.665 E0.03310
G1 X127.190 Y115.228 E0.05671
G1 X126.116 Y115.406 E0.03242
G1 X124.996 Y115.468 E0.03343
G1 X122.963 Y115.267 E0.06085
G1 X121.948 Y115.014 E0.03115
G1 X120.953 Y114.654 E0.03154
G1 X120.027 Y114.213 E0.03054
G1 X119.155 Y113.684 E0.03038
G1 X118.318 Y113.061 E0.03108
G1 X117.487 Y112.292 E0.03373
G1 X116.841 Y111.561 E0.02906
G1 X116.175 Y110.631 E0.03405
G1 X115.674 Y109.754 E0.03010
G1 X115.102 Y108.398 E0.04384
G1 X114.782 Y107.281 E0.03461
G1 X114.612 Y106.308 E0.02942
G1 X114.548 Y104.574 E0.05167
G1 X114.612 Y103.696 E0.02622
G1 X114.894 Y102.275 E0.04316
G1 X115.490 Y100.633 E0.05203
G1 X116.381 Y99.056 E0.05396
G1 X117.141 Y98.090 E0.03661
G1 X117.705 Y97.510 E0.02410
G1 X118.973 Y96.453 E0.04919
G1 X119.214 Y96.741 F10800.000
G1 F1200
G1 X120.937 Y95.773 E0.05887
G1 X122.063 Y95.344 E0.03588
G1 X123.223 Y95.078 E0.03545
G1 X125.001 Y94.909 E0.05323
G1 X126.879 Y95.087 E0.05617
G1 X128.474 Y95.540 E0.04940
G1 X130.074 Y96.287 E0.05259
G1 X131.242 Y97.077 E0.04202
G1 X132.092 Y97.827 E0.03377
G1 X133.337 Y99.322 E0.05795
G1 X134.189 Y100.855 E0.05221
G1 X134.611 Y101.942 E0.03473
G1 X134.848 Y102.840 E0.02768
G1 X135.075 Y104.780 E0.05818
G1 X134.979 Y106.408 E0.04857
G1 X134.344 Y108.794 E0.07355
G1 X133.873 Y109.795 E0.03295
G1 X133.292 Y110.721 E0.03257
G1 X132.196 Y112.066 E0.05167
G1 X130.835 Y113.218 E0.05311
G1 X129.833 Y113.856 E0.03540
G1 X128.861 Y114.318 E0.03205
G1 X127.113 Y114.859 E0.05451
G1 X126.074 Y115.031 E0.03137
G1 X124.992 Y115.091 E0.03226
G1 X123.033 Y114.897 E0.05864
G1 X122.060 Y114.653 E0.02990
G1 X121.100 Y114.307 E0.03038
G1 X119.364 Y113.371 E0.05876
G1 X118.559 Y112.771 E0.02989
G1 X117.754 Y112.026 E0.03267
G1 X117.136 Y111.327 E0.02781
G1 X116.494 Y110.430 E0.03285
G1 X116.014 Y109.590 E0.02883
G1 X115.453 Y108.258 E0.04304
G1 X115.147 Y107.186 E0.03321
G1 X114.984 Y106.241 E0.02857
G1 X114.925 Y104.574 E0.04968
G1 X114.986 Y103.745 E0.02477
G1 X115.261 Y102.362 E0.04201
G1 X115.835 Y100.784 E0.05000
G1 X116.691 Y99.272 E0.05177
G1 X117.430 Y98.332 E0.03560
G1 X117.971 Y97.778 E0.02309
G1 X119.168 Y96.779 E0.04642
G1 X119.411 Y97.068 F10800.000
G1 F1200
G1 X119.474 Y97.015 E0.00246
G1 X121.016 Y96.145 E0.05272
G1 X122.426 Y95.631 E0.04472
G1 X123.803 Y95.366 E0.04176
G1 X125.313 Y95.293 E0.04502
G1 X127.034 Y95.501 E0.05164
G1 X128.133 Y95.810 E0.03402
G1 X129.202 Y96.253 E0.03446
G1 X129.929 Y96.641 E0.02456
G1 X130.893 Y97.286 E0.03454
G1 X131.865 Y98.132 E0.03837
G1 X132.553 Y98.917 E0.03109
G1 X132.991 Y99.480 E0.02124
G1 X133.842 Y100.997 E0.05181
G1 X134.216 Y101.948 E0.03044
G1 X134.479 Y102.906 E0.02960
G1 X134.701 Y104.813 E0.05720
G1 X134.599 Y106.412 E0.04771
G1 X134.187 Y108.086 E0.05135
G1 X134.005 Y108.626 E0.01697
G1 X133.531 Y109.635 E0.03323
G1 X132.936 Y110.578 E0.03321
G1 X131.882 Y111.847 E0.04911
G1 X130.685 Y112.866 E0.04685
G1 X129.759 Y113.465 E0.03283
G1 X128.783 Y113.944 E0.03240
G1 X127.161 Y114.464 E0.05073
G1 X126.019 Y114.657 E0.03450
G1 X124.871 Y114.713 E0.03424
G1 X123.920 Y114.653 E0.02838
G1 X123.004 Y114.506 E0.02764
G1 X122.057 Y114.258 E0.02915
G1 X121.160 Y113.923 E0.02853
G1 X120.302 Y113.504 E0.02844
G1 X119.500 Y113.007 E0.02808
G1 X118.727 Y112.420 E0.02891
G1 X117.985 Y111.723 E0.03034
G1 X117.471 Y111.141 E0.02314
G1 X116.999 Y110.513 E0.02341
G1 X116.525 Y109.754 E0.02663
G1 X116.115 Y108.916 E0.02779
G1 X115.778 Y108.055 E0.02756
G1 X115.515 Y107.103 E0.02941
G1 X115.345 Y106.121 E0.02968
G1 X115.301 Y104.552 E0.04674
G1 X115.369 Y103.720 E0.02488
G1 X115.626 Y102.440 E0.03888
G1 X116.129 Y101.047 E0.04413
G1 X116.983 Y99.507 E0.05245
G1 X117.422 Y98.934 E0.02150
G1 X118.129 Y98.149 E0.03145
G1 X119.365 Y97.107 E0.04817
G1 X119.607 Y97.392 F10800.000
G1 F1200
G1 X119.676 Y97.334 E0.00269
G1 X121.160 Y96.494 E0.05081
G1 X122.513 Y95.999 E0.04291
G1 X123.836 Y95.742 E0.04013
G1 X125.284 Y95.670 E0.04320
G1 X126.946 Y95.868 E0.04986
G1 X127.999 Y96.162 E0.03257
G1 X129.049 Y96.598 E0.03385
G1 X129.728 Y96.960 E0.02291
G1 X130.674 Y97.592 E0.03390
G1 X131.589 Y98.390 E0.03617
G1 X132.266 Y99.161 E0.03055
G1 X132.684 Y99.700 E0.02032
G1 X133.496 Y101.147 E0.04941
G1 X133.861 Y102.076 E0.02975
G1 X134.111 Y102.992 E0.02827
G1 X134.324 Y104.807 E0.05444
G1 X134.229 Y106.338 E0.04570
G1 X133.823 Y107.988 E0.05062
G1 X133.659 Y108.476 E0.01531
G1 X133.205 Y109.444 E0.03186
G1 X132.623 Y110.367 E0.03249
G1 X131.625 Y111.570 E0.04658
G1 X130.469 Y112.557 E0.04526
G1 X129.583 Y113.131 E0.03147
G1 X128.629 Y113.600 E0.03165
G1 X127.084 Y114.094 E0.04832
G1 X125.989 Y114.281 E0.03310
G1 X124.884 Y114.336 E0.03296
G1 X123.970 Y114.279 E0.02726
G1 X123.090 Y114.139 E0.02655
G1 X122.180 Y113.901 E0.02803
G1 X121.317 Y113.580 E0.02743
G1 X120.492 Y113.178 E0.02733
G1 X119.721 Y112.701 E0.02700
G1 X118.978 Y112.138 E0.02777
G1 X118.261 Y111.467 E0.02925
G1 X117.758 Y110.897 E0.02264
G1 X117.305 Y110.293 E0.02249
G1 X116.851 Y109.563 E0.02562
G1 X116.458 Y108.758 E0.02669
G1 X116.133 Y107.927 E0.02658
G1 X115.881 Y107.012 E0.02826
G1 X115.719 Y106.071 E0.02845
G1 X115.678 Y104.552 E0.04524
G1 X115.741 Y103.783 E0.02298
G1 X115.993 Y102.528 E0.03813
G1 X116.479 Y101.189 E0.04242
G1 X117.291 Y99.725 E0.04990
G1 X117.708 Y99.180 E0.02044
G1 X118.382 Y98.428 E0.03007
G1 X119.561 Y97.431 E0.04599
G1 X119.803 Y97.716 F10800.000
G1 F1200
G1 X119.878 Y97.653 E0.00291
G1 X121.305 Y96.842 E0.04890
G1 X122.600 Y96.366 E0.04111
G1 X123.869 Y96.118 E0.03850
G1 X125.256 Y96.046 E0.04138
G1 X126.860 Y96.235 E0.04809
G1 X127.866 Y96.515 E0.03110
G1 X128.896 Y96.943 E0.03323
G1 X129.526 Y97.279 E0.02126
G1 X130.454 Y97.899 E0.03327
G1 X131.314 Y98.648 E0.03397
G1 X131.979 Y99.405 E0.03000
G1 X132.377 Y99.920 E0.01939
G1 X133.149 Y101.297 E0.04701
G1 X133.506 Y102.204 E0.02906
G1 X133.744 Y103.077 E0.02694
G1 X133.947 Y104.801 E0.05172
G1 X133.859 Y106.265 E0.04368
G1 X133.459 Y107.890 E0.04986
G1 X133.306 Y108.345 E0.01428
G1 X132.869 Y109.273 E0.03054
G1 X132.311 Y110.155 E0.03109
G1 X131.368 Y111.294 E0.04407
G1 X130.254 Y112.247 E0.04366
G1 X129.387 Y112.808 E0.03075
G1 X128.476 Y113.255 E0.03024
G1 X127.007 Y113.725 E0.04593
G1 X125.959 Y113.905 E0.03170
G1 X124.896 Y113.959 E0.03168
G1 X124.020 Y113.905 E0.02614
G1 X123.176 Y113.772 E0.02546
G1 X122.302 Y113.544 E0.02691
G1 X121.473 Y113.236 E0.02633
G1 X120.682 Y112.852 E0.02621
G1 X119.941 Y112.395 E0.02592
G1 X119.228 Y111.856 E0.02662
G1 X118.538 Y111.210 E0.02816
G1 X118.055 Y110.665 E0.02169
G1 X117.612 Y110.073 E0.02201
G1 X117.176 Y109.372 E0.02459
G1 X116.800 Y108.600 E0.02559
G1 X116.488 Y107.799 E0.02561
G1 X116.247 Y106.921 E0.02710
G1 X116.093 Y106.021 E0.02722
G1 X116.055 Y104.553 E0.04373
G1 X116.113 Y103.847 E0.02110
G1 X116.360 Y102.617 E0.03738
G1 X116.828 Y101.333 E0.04071
G1 X117.599 Y99.943 E0.04736
G1 X117.994 Y99.425 E0.01938
G1 X118.636 Y98.707 E0.02870
G1 X119.757 Y97.755 E0.04380
G1 X120.000 Y98.040 F10800.000
G1 F1200
G1 X120.080 Y97.972 E0.00313
G1 X121.451 Y97.190 E0.04699
G1 X122.688 Y96.733 E0.03930
G1 X123.903 Y96.494 E0.03687
G1 X125.229 Y96.422 E0.03956
G1 X126.773 Y96.602 E0.04631
G1 X127.732 Y96.868 E0.02963
G1 X128.743 Y97.287 E0.03261
G1 X129.324 Y97.597 E0.01961
G1 X130.235 Y98.206 E0.03263
G1 X131.039 Y98.907 E0.03177
G1 X131.691 Y99.650 E0.02945
G1 X132.071 Y100.140 E0.01846
G1 X132.803 Y101.446 E0.04462
G1 X133.152 Y102.333 E0.02836
G1 X133.376 Y103.162 E0.02560
G1 X133.569 Y104.796 E0.04901
G1 X133.489 Y106.192 E0.04164
G1 X133.094 Y107.792 E0.04910
G1 X132.952 Y108.214 E0.01325
G1 X132.533 Y109.101 E0.02923
G1 X131.999 Y109.943 E0.02970
G1 X131.110 Y111.019 E0.04157
G1 X130.038 Y111.938 E0.04206
G1 X129.211 Y112.475 E0.02936
G1 X128.322 Y112.910 E0.02948
G1 X126.930 Y113.355 E0.04355
G1 X125.928 Y113.529 E0.03030
G1 X124.908 Y113.582 E0.03040
G1 X124.070 Y113.531 E0.02503
G1 X123.262 Y113.404 E0.02437
G1 X122.424 Y113.187 E0.02578
G1 X121.629 Y112.893 E0.02523
G1 X120.871 Y112.526 E0.02510
G1 X120.161 Y112.089 E0.02483
G1 X119.478 Y111.574 E0.02547
G1 X118.814 Y110.954 E0.02706
G1 X118.343 Y110.421 E0.02119
G1 X117.919 Y109.854 E0.02108
G1 X117.502 Y109.182 E0.02357
G1 X117.143 Y108.442 E0.02449
G1 X116.843 Y107.671 E0.02464
G1 X116.613 Y106.831 E0.02594
G1 X116.467 Y105.971 E0.02599
G1 X116.432 Y104.554 E0.04223
G1 X116.485 Y103.910 E0.01923
G1 X116.727 Y102.705 E0.03662
G1 X117.177 Y101.476 E0.03898
G1 X117.908 Y100.160 E0.04484
G1 X118.281 Y99.671 E0.01834
G1 X118.891 Y98.985 E0.02734
G1 X119.954 Y98.079 E0.04162
G1 X120.198 Y98.363 F10800.000
G1 F1200
G1 X120.283 Y98.290 E0.00334
G1 X121.597 Y97.538 E0.04508
G1 X122.777 Y97.100 E0.03750
G1 X123.937 Y96.870 E0.03524
G1 X125.202 Y96.799 E0.03773
G1 X126.687 Y96.970 E0.04454
G1 X127.598 Y97.221 E0.02814
G1 X128.590 Y97.632 E0.03199
G1 X129.122 Y97.916 E0.01797
G1 X130.015 Y98.513 E0.03200
G1 X130.764 Y99.165 E0.02957
G1 X131.404 Y99.894 E0.02889
G1 X131.764 Y100.359 E0.01752
G1 X132.457 Y101.596 E0.04224
G1 X132.797 Y102.461 E0.02767
G1 X133.009 Y103.247 E0.02425
G1 X133.192 Y104.792 E0.04635
G1 X133.118 Y106.119 E0.03959
G1 X132.730 Y107.694 E0.04832
G1 X132.598 Y108.082 E0.01219
G1 X132.198 Y108.929 E0.02791
G1 X131.687 Y109.731 E0.02831
G1 X130.852 Y110.743 E0.03911
G1 X129.822 Y111.628 E0.04046
G1 X129.015 Y112.152 E0.02863
G1 X128.169 Y112.565 E0.02805
G1 X126.853 Y112.986 E0.04117
G1 X125.874 Y113.156 E0.02958
G1 X124.920 Y113.205 E0.02845
G1 X124.119 Y113.157 E0.02392
G1 X123.347 Y113.037 E0.02328
G1 X122.545 Y112.830 E0.02466
G1 X121.785 Y112.549 E0.02413
G1 X121.060 Y112.199 E0.02398
G1 X120.380 Y111.782 E0.02375
G1 X119.728 Y111.291 E0.02432
G1 X119.090 Y110.697 E0.02596
G1 X118.640 Y110.189 E0.02022
G1 X118.226 Y109.635 E0.02059
G1 X117.828 Y108.992 E0.02254
G1 X117.486 Y108.285 E0.02339
G1 X117.198 Y107.544 E0.02367
G1 X116.980 Y106.742 E0.02478
G1 X116.841 Y105.922 E0.02476
G1 X116.810 Y104.555 E0.04073
G1 X116.857 Y103.974 E0.01737
G1 X117.094 Y102.794 E0.03585
G1 X117.525 Y101.620 E0.03724
G1 X118.216 Y100.378 E0.04234
G1 X118.568 Y99.915 E0.01731
G1 X119.147 Y99.263 E0.02598
G1 X120.152 Y98.402 E0.03944
G1 X120.396 Y98.686 F10800.000
G1 F1200
G1 X120.487 Y98.608 E0.00355
G1 X121.743 Y97.886 E0.04317
G1 X122.866 Y97.466 E0.03569
G1 X123.973 Y97.245 E0.03362
G1 X125.176 Y97.175 E0.03590
G1 X126.602 Y97.337 E0.04276
G1 X127.465 Y97.573 E0.02664
G1 X128.437 Y97.977 E0.03136
G1 X128.921 Y98.235 E0.01632
G1 X129.796 Y98.820 E0.03136
G1 X130.489 Y99.423 E0.02737
G1 X131.117 Y100.138 E0.02834
G1 X131.457 Y100.579 E0.01658
G1 X132.111 Y101.746 E0.03986
G1 X132.442 Y102.589 E0.02696
G1 X132.641 Y103.331 E0.02290
G1 X132.815 Y104.788 E0.04371
G1 X132.748 Y106.046 E0.03752
G1 X132.366 Y107.596 E0.04754
G1 X132.245 Y107.949 E0.01113
G1 X131.862 Y108.756 E0.02660
G1 X131.376 Y109.518 E0.02693
G1 X130.593 Y110.468 E0.03666
G1 X129.605 Y111.319 E0.03884
G1 X128.820 Y111.830 E0.02790
G1 X128.017 Y112.220 E0.02660
G1 X126.775 Y112.617 E0.03883
G1 X125.843 Y112.780 E0.02818
G1 X124.932 Y112.828 E0.02718
G1 X124.168 Y112.783 E0.02280
G1 X123.431 Y112.669 E0.02219
G1 X122.666 Y112.473 E0.02353
G1 X121.940 Y112.206 E0.02304
G1 X121.249 Y111.872 E0.02287
G1 X120.599 Y111.475 E0.02268
G1 X119.977 Y111.008 E0.02317
G1 X119.367 Y110.440 E0.02485
G1 X118.928 Y109.945 E0.01971
G1 X118.533 Y109.416 E0.01964
G1 X118.154 Y108.802 E0.02150
G1 X117.829 Y108.128 E0.02228
G1 X117.553 Y107.417 E0.02271
G1 X117.350 Y106.670 E0.02307
G1 X117.216 Y105.873 E0.02407
G1 X117.187 Y104.556 E0.03922
G1 X117.229 Y104.037 E0.01552
G1 X117.460 Y102.882 E0.03507
G1 X117.874 Y101.765 E0.03550
G1 X118.524 Y100.595 E0.03987
G1 X118.855 Y100.160 E0.01629
G1 X119.402 Y99.540 E0.02462
G1 X120.351 Y98.725 E0.03725
G1 X120.595 Y99.008 F10800.000
G1 F1200
G1 X120.691 Y98.925 E0.00376
G1 X121.891 Y98.233 E0.04127
G1 X122.955 Y97.833 E0.03387
G1 X124.009 Y97.621 E0.03201
G1 X125.150 Y97.552 E0.03407
G1 X126.517 Y97.705 E0.04098
G1 X127.332 Y97.926 E0.02513
G1 X128.284 Y98.322 E0.03072
G1 X128.719 Y98.554 E0.01467
G1 X129.576 Y99.127 E0.03072
G1 X130.214 Y99.681 E0.02517
G1 X130.829 Y100.382 E0.02778
G1 X131.150 Y100.798 E0.01563
G1 X131.764 Y101.896 E0.03749
G1 X132.087 Y102.717 E0.02626
G1 X132.273 Y103.415 E0.02154
G1 X132.437 Y104.786 E0.04111
G1 X132.377 Y105.974 E0.03543
G1 X132.002 Y107.497 E0.04673
G1 X131.892 Y107.816 E0.01005
G1 X131.527 Y108.583 E0.02530
G1 X131.064 Y109.305 E0.02555
G1 X130.335 Y110.194 E0.03424
G1 X129.389 Y111.010 E0.03721
G1 X128.624 Y111.507 E0.02716
G1 X127.865 Y111.875 E0.02515
G1 X126.697 Y112.248 E0.03652
G1 X125.811 Y112.404 E0.02679
G1 X124.943 Y112.451 E0.02590
