; generated by Slic3r 1.36.2-prusa3d on 2017-08-28 at 22:13:19

; 

; external perimeters extrusion width = 0.45mm
; perimeters extrusion width = 0.45mm
; infill extrusion width = 0.45mm
; solid infill extrusion width = 0.45mm
; top infill extrusion width = 0.40mm
; first layer extrusion width = 0.42mm

M107
M115 U3.0.12 ; tell printer latest fw version
M83  ; extruder relative mode
M104 S215 ; set extruder temp
M140 S55 ; set bed temp
M190 S55 ; wait for bed temp
M109 S215 ; wait for extruder temp
G28 W ; home all without mesh bed level
G80 ; mesh bed leveling
G1 Y-3.0 F1000.0 ; go outside pritn area
G1 X60.0 E9.0  F1000.0 ; intro line
G1 X100.0 E12.5  F1000.0 ; intro line
; Filament gcode

G21 ; set units to millimeters
G90 ; use absolute coordinates
M83 ; use relative distances for extrusion
G1 E-0.80000 F2100.00000
G1 Z0.200 F7200.000
G1 X89.747 Y84.944 F7200.000
G1 E0.80000 F2100.00000
M204 S1000
G1 F2100
G1 X92.003 Y83.036 E0.08888
G1 X132.677 Y55.458 E1.47817
G1 X134.417 Y54.358 E0.06192
G1 X137.615 Y52.663 E0.10887
G1 X139.097 Y52.053 E0.04821
G1 X140.390 Y51.638 E0.04087
G1 X141.591 Y51.387 E0.03688
G1 X144.949 Y51.383 E0.10103
G1 X146.465 Y51.690 E0.04650
G1 X148.299 Y52.336 E0.05849
G1 X150.005 Y53.119 E0.05647
G1 X152.209 Y54.332 E0.07568
G1 X154.344 Y55.695 E0.07618
G1 X156.063 Y56.951 E0.06405
G1 X157.613 Y58.270 E0.06123
G1 X159.072 Y59.742 E0.06234
G1 X160.265 Y61.160 E0.05574
G1 X161.341 Y62.670 E0.05575
G1 X162.290 Y64.294 E0.05658
G1 X162.997 Y65.813 E0.05039
G1 X163.620 Y67.553 E0.05560
G1 X164.075 Y69.363 E0.05614
G1 X164.317 Y71.035 E0.05083
G1 X164.379 Y72.709 E0.05039
G1 X164.276 Y74.343 E0.04925
G1 X163.953 Y76.594 E0.06840
G1 X151.275 Y151.402 E2.28229
G1 X150.778 Y152.934 E0.04845
G1 X150.086 Y154.355 E0.04754
G1 X149.230 Y155.606 E0.04560
G1 X148.194 Y156.695 E0.04521
G1 X147.077 Y157.528 E0.04191
G1 X145.816 Y158.154 E0.04236
G1 X144.480 Y158.520 E0.04165
G1 X143.159 Y158.615 E0.03986
G1 X142.194 Y158.521 E0.02915
G1 X141.216 Y158.282 E0.03029
G1 X140.277 Y157.905 E0.03044
G1 X139.365 Y157.382 E0.03162
G1 X98.370 Y128.954 E1.50060
G1 X97.965 Y128.597 E0.01623
G1 X97.524 Y127.894 E0.02496
G1 X86.638 Y100.591 E0.88413
G1 X85.867 Y97.898 E0.08425
G1 X85.619 Y95.041 E0.08626
G1 X85.921 Y92.199 E0.08599
G1 X86.849 Y89.290 E0.09185
G1 X88.096 Y86.981 E0.07893
G1 X89.710 Y84.991 E0.07706
G1 F5760
G1 X91.379 Y83.567 E-0.76000
G1 E-0.04000 F2100.00000
G1 X110.422 Y99.574 F7200.000
G1 E0.80000 F2100.00000
G1 F1680
G1 X101.148 Y99.496 E0.27898
G1 X101.184 Y95.269 E0.12715
G1 X101.568 Y94.883 E0.01638
G1 X101.815 Y93.973 E0.02838
G1 X101.583 Y93.057 E0.02841
G1 X101.205 Y92.665 E0.01639
G1 X101.281 Y83.661 E0.27084
G1 X102.315 Y83.774 E0.03128
G1 X104.448 Y84.454 E0.06735
G1 X106.411 Y85.546 E0.06757
G1 X108.129 Y87.008 E0.06785
G1 X109.534 Y88.785 E0.06814
G1 X110.573 Y90.808 E0.06842
G1 X111.205 Y93.001 E0.06863
G1 X111.406 Y95.277 E0.06875
G1 X111.167 Y97.550 E0.06872
G1 X110.498 Y99.731 E0.06863
G1 X109.941 Y100.772 E0.03550
G1 X110.400 Y99.630 E0.03701
G1 F5760
G1 X108.206 Y99.598 E-0.76000
G1 E-0.04000 F2100.00000
G1 X98.768 Y99.476 F7200.000
G1 E0.80000 F2100.00000
G1 F1680
G1 X89.495 Y99.398 E0.27892
G1 X89.957 Y100.604 E0.03882
G1 X89.417 Y99.554 E0.03550
G1 X88.785 Y97.362 E0.06863
G1 X88.585 Y95.086 E0.06872
G1 X88.824 Y92.812 E0.06875
G1 X89.492 Y90.631 E0.06863
G1 X90.565 Y88.625 E0.06842
G1 X92.000 Y86.872 E0.06814
G1 X93.742 Y85.439 E0.06785
G1 X95.723 Y84.381 E0.06757
G1 X97.868 Y83.737 E0.06735
G1 X98.901 Y83.642 E0.03122
G1 X98.825 Y92.648 E0.27091
G1 X98.443 Y93.030 E0.01628
G1 X98.196 Y93.943 E0.02843
G1 X98.428 Y94.857 E0.02839
G1 X98.803 Y95.247 E0.01627
G1 X98.768 Y99.416 E0.12543
G1 F5760
G1 X96.574 Y99.412 E-0.76000
G1 E-0.04000 F2100.00000
G1 X90.045 Y99.780 F7200.000
G1 E0.80000 F2100.00000
G1 F1260
G1 X99.743 Y125.132 E0.81646
G1 X109.866 Y99.947 E0.81646
G1 X100.768 Y99.870 E0.27369
G1 X100.808 Y95.112 E0.14313
G1 X101.230 Y94.688 E0.01801
G1 X101.425 Y93.970 E0.02240
G1 X101.242 Y93.247 E0.02243
G1 X100.827 Y92.816 E0.01801
G1 X100.908 Y83.241 E0.28801
G1 X102.393 Y83.403 E0.04495
G1 X104.598 Y84.106 E0.06962
G1 X106.627 Y85.234 E0.06983
G1 X108.402 Y86.745 E0.07009
G1 X109.853 Y88.580 E0.07037
G1 X110.925 Y90.669 E0.07063
G1 X111.577 Y92.931 E0.07083
G1 X111.785 Y95.281 E0.07094
G1 X111.538 Y97.625 E0.07091
G1 X110.848 Y99.877 E0.07083
G1 X109.982 Y101.495 E0.05522
G1 X99.732 Y126.438 E0.81115
G1 X89.908 Y101.334 E0.81091
G1 X89.065 Y99.693 E0.05547
G1 X88.413 Y97.431 E0.07083
G1 X88.207 Y95.082 E0.07091
G1 X88.452 Y92.737 E0.07094
G1 X89.143 Y90.486 E0.07083
G1 X90.250 Y88.415 E0.07063
G1 X91.732 Y86.605 E0.07037
G1 X93.531 Y85.124 E0.07009
G1 X95.579 Y84.030 E0.06983
G1 X97.795 Y83.364 E0.06962
G1 X99.282 Y83.228 E0.04489
G1 X99.201 Y92.805 E0.28809
G1 X98.781 Y93.226 E0.01790
G1 X98.585 Y93.946 E0.02243
G1 X98.768 Y94.668 E0.02240
G1 X99.182 Y95.096 E0.01790
G1 X99.142 Y99.857 E0.14322
G1 X90.105 Y99.781 E0.27183
G1 X89.677 Y99.936 F7200.000
G1 X90.244 Y99.292 F7200.000
G1 F1680
G1 X89.390 Y98.438 E0.03693
G1 X89.170 Y97.676 E0.02423
G1 X90.619 Y99.125 E0.06265
G1 X91.165 Y99.130 E0.01671
G1 X89.038 Y97.002 E0.09202
G1 X88.985 Y96.408 E0.01823
G1 X91.712 Y99.134 E0.11791
G1 X92.258 Y99.139 E0.01671
G1 X88.933 Y95.814 E0.14379
G1 X88.881 Y95.220 E0.01823
G1 X92.805 Y99.143 E0.16968
G1 X93.351 Y99.148 E0.01671
G1 X88.909 Y94.706 E0.19208
G1 X88.961 Y94.216 E0.01508
G1 X93.897 Y99.153 E0.21348
G1 X94.444 Y99.157 E0.01671
G1 X89.012 Y93.726 E0.23489
G1 X89.064 Y93.235 E0.01508
G1 X94.990 Y99.162 E0.25629
G1 X95.536 Y99.166 E0.01671
G1 X89.134 Y92.764 E0.27687
G1 X89.261 Y92.350 E0.01326
G1 X96.083 Y99.171 E0.29500
G1 X96.629 Y99.176 E0.01671
G1 X89.388 Y91.935 E0.31313
G1 X89.516 Y91.520 E0.01326
G1 X97.175 Y99.180 E0.33125
G1 X97.722 Y99.185 E0.01671
G1 X89.643 Y91.106 E0.34938
G1 X89.777 Y90.698 E0.01312
G1 X98.268 Y99.189 E0.36720
G1 X98.488 Y99.191 E0.00671
G1 X98.490 Y98.870 E0.00983
G1 X89.966 Y90.345 E0.36863
G1 X90.155 Y89.992 E0.01224
G1 X98.495 Y98.332 E0.36067
G1 X98.499 Y97.795 E0.01643
G1 X90.344 Y89.639 E0.35270
G1 X90.532 Y89.286 E0.01224
G1 X98.504 Y97.258 E0.34473
G1 X98.508 Y96.721 E0.01643
G1 X90.721 Y88.934 E0.33676
G1 X90.802 Y88.783 E0.00522
G1 X90.942 Y88.612 E0.00675
G1 X98.513 Y96.183 E0.32742
G1 X98.517 Y95.646 E0.01643
G1 X91.185 Y88.314 E0.31708
G1 X91.429 Y88.016 E0.01177
G1 X98.090 Y94.677 E0.28806
G1 X97.906 Y93.951 E0.02290
G1 X91.673 Y87.718 E0.26955
G1 X91.917 Y87.420 E0.01177
G1 X98.017 Y93.521 E0.26381
G1 X98.133 Y93.094 E0.01350
G1 X92.161 Y87.122 E0.25826
G1 X92.449 Y86.869 E0.01174
G1 X98.327 Y92.747 E0.25419
G1 X98.544 Y92.530 E0.00938
G1 X98.544 Y92.423 E0.00327
G1 X92.746 Y86.624 E0.25075
G1 X93.043 Y86.380 E0.01177
G1 X98.549 Y91.885 E0.23809
G1 X98.553 Y91.348 E0.01643
G1 X93.341 Y86.135 E0.22543
G1 X93.638 Y85.891 E0.01177
G1 X98.558 Y90.811 E0.21277
G1 X98.562 Y90.274 E0.01643
G1 X93.942 Y85.653 E0.19982
G1 X94.295 Y85.464 E0.01224
G1 X98.567 Y89.736 E0.18474
G1 X98.572 Y89.199 E0.01643
G1 X94.648 Y85.276 E0.16967
G1 X95.001 Y85.087 E0.01224
G1 X98.576 Y88.662 E0.15459
G1 X98.581 Y88.125 E0.01643
G1 X95.354 Y84.898 E0.13952
G1 X95.708 Y84.710 E0.01224
G1 X98.585 Y87.587 E0.12444
G1 X98.590 Y87.050 E0.01643
G1 X96.102 Y84.562 E0.10759
G1 X96.518 Y84.437 E0.01330
G1 X98.594 Y86.513 E0.08977
G1 X98.599 Y85.976 E0.01643
G1 X96.935 Y84.312 E0.07195
G1 X97.352 Y84.187 E0.01330
G1 X98.603 Y85.438 E0.05412
G1 X98.608 Y84.901 E0.01643
G1 X97.768 Y84.062 E0.03630
G1 X97.922 Y84.016 E0.00490
G1 X98.235 Y83.987 E0.00962
G1 X98.780 Y84.532 E0.02359
G1 F5760
G1 X98.235 Y83.987 E-0.26717
G1 F5760
G1 X97.922 Y84.016 E-0.10895
G1 F5760
G1 X97.768 Y84.062 E-0.05555
G1 F5760
G1 X98.438 Y84.732 E-0.32833
G1 E-0.04000 F2100.00000
G1 X105.129 Y84.962 F7200.000
G1 E0.80000 F2100.00000
G1 F1680
G1 X109.887 Y89.720 E0.20787
G1 F5760
G1 X108.336 Y88.169 E-0.76000
G1 E-0.04000 F2100.00000
G1 X110.464 Y90.845 F7200.000
G1 E0.80000 F2100.00000
G1 F1680
G1 X104.334 Y84.715 E0.26780
G1 X103.531 Y84.459 E0.02604
G1 X110.440 Y91.367 E0.30180
G1 X110.661 Y92.136 E0.02471
G1 X102.728 Y84.202 E0.34657
G1 X102.256 Y84.052 E0.01530
G1 X102.003 Y84.024 E0.00787
G1 X110.883 Y92.905 E0.38794
G1 X110.926 Y93.053 E0.00477
G1 X110.968 Y93.537 E0.01502
G1 X101.560 Y84.129 E0.41102
G1 X101.555 Y84.671 E0.01676
G1 X111.021 Y94.137 E0.41353
G1 X111.074 Y94.737 E0.01861
G1 X101.551 Y85.214 E0.41604
G1 X101.546 Y85.756 E0.01676
G1 X111.116 Y95.326 E0.41808
G1 X111.064 Y95.821 E0.01537
G1 X101.542 Y86.299 E0.41600
G1 X101.537 Y86.841 E0.01676
G1 X111.012 Y96.316 E0.41393
G1 X110.960 Y96.811 E0.01537
G1 X101.533 Y87.384 E0.41185
G1 X101.528 Y87.926 E0.01676
G1 X110.908 Y97.306 E0.40977
G1 X110.888 Y97.493 E0.00580
G1 X110.808 Y97.754 E0.00843
G1 X101.523 Y88.469 E0.40562
G1 X101.519 Y89.011 E0.01676
G1 X110.680 Y98.172 E0.40021
G1 X110.552 Y98.591 E0.01353
G1 X101.514 Y89.554 E0.39480
G1 X101.510 Y90.096 E0.01676
G1 X110.423 Y99.010 E0.38939
G1 X110.337 Y99.291 E0.00909
G1 X110.156 Y99.289 E0.00560
G1 X101.505 Y90.639 E0.37791
G1 X101.501 Y91.181 E0.01676
G1 X109.604 Y99.285 E0.35401
G1 X109.052 Y99.280 E0.01704
G1 X101.496 Y91.724 E0.33011
G1 X101.492 Y92.266 E0.01676
G1 X108.501 Y99.275 E0.30620
G1 X107.949 Y99.271 E0.01704
G1 X101.922 Y93.244 E0.26328
G1 X102.107 Y93.976 E0.02333
G1 X107.397 Y99.266 E0.23109
G1 X106.846 Y99.261 E0.01704
G1 X101.991 Y94.406 E0.21210
G1 X101.874 Y94.837 E0.01377
G1 X106.294 Y99.257 E0.19310
G1 X105.742 Y99.252 E0.01704
G1 X101.671 Y95.181 E0.17786
G1 X101.465 Y95.387 E0.00900
G1 X101.464 Y95.521 E0.00414
G1 X105.191 Y99.248 E0.16279
G1 X104.639 Y99.243 E0.01704
G1 X101.460 Y96.064 E0.13889
G1 X101.455 Y96.606 E0.01676
G1 X104.087 Y99.238 E0.11499
G1 X103.535 Y99.234 E0.01704
G1 X101.451 Y97.149 E0.09108
G1 X101.446 Y97.691 E0.01676
G1 X102.984 Y99.229 E0.06718
G1 X102.432 Y99.224 E0.01704
G1 X101.441 Y98.234 E0.04328
G1 X101.437 Y98.776 E0.01676
G1 X102.052 Y99.391 E0.02685
G1 F5760
G1 X101.437 Y98.776 E-0.30108
G1 F5760
G1 X101.441 Y98.234 E-0.18790
G1 F5760
G1 X101.995 Y98.787 E-0.27102
G1 E-0.04000 F2100.00000
G1 X109.861 Y100.943 F7200.000
G1 E0.80000 F2100.00000
G1 F1680
G1 X109.669 Y101.356 E0.01062
G1 X107.693 Y106.219 E0.12214
G1 F1680
G1 X103.740 Y115.943 E0.18241
G1 F1680
G1 X99.788 Y125.668 E0.11193
G1 X99.738 Y125.725 E0.00081
G1 X99.690 Y125.667 E0.00081
G1 X94.009 Y110.987 E0.16784
G1 F1680
G1 X90.216 Y101.186 E0.18199
G1 F1680
G1 X90.033 Y100.776 E0.01045
G1 F5760
G1 X90.216 Y101.186 E-0.15558
G1 E-0.64442 F2100.00000
G1 X106.389 Y85.676 F7200.000
G1 E0.80000 F2100.00000
G1 F1680
G1 X108.979 Y88.265 E0.11312
M106 S249.9
G1 F5760
G1 X107.427 Y86.714 E-0.76000
G1 E-0.04000 F2100.00000
G1 Z0.400 F7200.000
M104 S210 ; set temperature
G1 X97.965 Y128.597 F7200.000
G1 E0.80000 F2100.00000
G1 F3000
G1 X97.524 Y127.894 E0.02496
G1 X86.638 Y100.591 E0.88413
G1 X85.867 Y97.898 E0.08425
G1 X85.619 Y95.041 E0.08626
G1 X85.921 Y92.199 E0.08599
G1 X86.849 Y89.290 E0.09185
G1 X88.096 Y86.981 E0.07893
G1 X89.747 Y84.944 E0.07887
G1 X92.003 Y83.036 E0.08888
G1 X132.677 Y55.458 E1.47817
G1 X134.417 Y54.358 E0.06192
G1 X137.615 Y52.663 E0.10887
G1 X139.097 Y52.053 E0.04821
G1 X140.390 Y51.638 E0.04087
G1 X141.591 Y51.387 E0.03688
G1 X144.949 Y51.383 E0.10103
G1 X146.465 Y51.690 E0.04650
G1 X148.299 Y52.336 E0.05849
G1 X150.005 Y53.119 E0.05647
G1 X152.209 Y54.332 E0.07568
G1 X154.344 Y55.695 E0.07618
G1 X156.063 Y56.951 E0.06405
G1 X157.613 Y58.270 E0.06123
G1 X159.072 Y59.742 E0.06234
G1 X160.265 Y61.160 E0.05574
G1 X161.341 Y62.670 E0.05575
G1 X162.290 Y64.294 E0.05658
G1 X162.997 Y65.813 E0.05039
G1 X163.620 Y67.553 E0.05560
G1 X164.075 Y69.363 E0.05614
G1 X164.317 Y71.035 E0.05083
G1 X164.379 Y72.709 E0.05039
G1 X164.276 Y74.343 E0.04925
G1 X163.953 Y76.594 E0.06840
G1 X151.275 Y151.402 E2.28229
G1 X150.778 Y152.934 E0.04845
G1 X150.086 Y154.355 E0.04754
G1 X149.230 Y155.606 E0.04560
G1 X148.194 Y156.695 E0.04521
G1 X147.077 Y157.528 E0.04191
G1 X145.816 Y158.154 E0.04236
G1 X144.480 Y158.520 E0.04165
G1 X143.159 Y158.615 E0.03986
G1 X142.194 Y158.521 E0.02915
G1 X141.216 Y158.282 E0.03029
G1 X140.277 Y157.905 E0.03044
G1 X139.365 Y157.382 E0.03162
G1 X98.370 Y128.954 E1.50060
G1 X98.010 Y128.637 E0.01443
G1 F5760
G1 X97.524 Y127.894 E-0.30741
G1 F5760
G1 X97.040 Y126.680 E-0.45259
G1 E-0.04000 F2100.00000
G1 X101.193 Y99.452 F7200.000
G1 E0.80000 F2100.00000
M204 S800
G1 F2400
G1 X101.228 Y95.288 E0.13563
G1 X101.608 Y94.907 E0.01753
G1 X101.862 Y93.973 E0.03151
G1 X101.624 Y93.035 E0.03154
G1 X101.251 Y92.647 E0.01754
G1 X101.326 Y83.711 E0.29108
G1 X102.305 Y83.818 E0.03210
G1 X104.430 Y84.496 E0.07264
G1 X106.386 Y85.583 E0.07289
G1 X108.096 Y87.039 E0.07319
G1 X109.496 Y88.809 E0.07350
G1 X110.531 Y90.825 E0.07381
G1 X111.161 Y93.009 E0.07404
G1 X111.361 Y95.277 E0.07417
G1 X111.122 Y97.541 E0.07414
G1 X110.456 Y99.714 E0.07404
G1 X110.291 Y100.023 E0.01143
G1 X110.489 Y99.530 E0.01731
G1 X101.253 Y99.452 E0.30085
M204 S1000
G1 F5760
G1 X101.240 Y97.258 E-0.76000
G1 E-0.04000 F2100.00000
G1 X98.723 Y99.431 F7200.000
G1 E0.80000 F2100.00000
M204 S800
G1 F2400
G1 X89.430 Y99.353 E0.30274
G1 X89.620 Y99.849 E0.01731
G1 X89.459 Y99.537 E0.01142
G1 X88.830 Y97.353 E0.07404
G1 X88.631 Y95.086 E0.07414
G1 X88.868 Y92.821 E0.07417
G1 X89.534 Y90.649 E0.07404
G1 X90.603 Y88.650 E0.07381
G1 X92.032 Y86.904 E0.07350
G1 X93.767 Y85.477 E0.07319
G1 X95.741 Y84.423 E0.07289
G1 X97.876 Y83.781 E0.07264
G1 X98.856 Y83.691 E0.03204
G1 X98.780 Y92.629 E0.29116
G1 X98.403 Y93.007 E0.01742
G1 X98.149 Y93.942 E0.03156
G1 X98.387 Y94.880 E0.03152
G1 X98.758 Y95.265 E0.01741
G1 X98.724 Y99.371 E0.13377
M204 S1000
G1 F5760
G1 X96.530 Y99.367 E-0.76000
G1 E-0.04000 F2100.00000
G1 X90.023 Y99.765 F7200.000
G1 E0.80000 F2100.00000
M204 S800
G1 F1800
G1 X99.743 Y125.173 E0.88614
G1 X109.888 Y99.932 E0.88614
G1 X100.783 Y99.855 E0.29662
G1 X100.823 Y95.118 E0.15431
G1 X101.244 Y94.696 E0.01943
G1 X101.441 Y93.970 E0.02451
G1 X101.256 Y93.239 E0.02455
G1 X100.842 Y92.810 E0.01943
G1 X100.922 Y83.258 E0.31115
G1 X102.390 Y83.418 E0.04809
G1 X104.592 Y84.120 E0.07529
G1 X106.619 Y85.247 E0.07552
G1 X108.391 Y86.755 E0.07581
G1 X109.840 Y88.588 E0.07611
G1 X110.911 Y90.674 E0.07639
G1 X111.563 Y92.934 E0.07661
G1 X111.770 Y95.281 E0.07673
G1 X111.523 Y97.622 E0.07670
G1 X110.834 Y99.871 E0.07661
G1 X109.968 Y101.489 E0.05978
G1 X99.733 Y126.398 E0.87723
G1 X89.921 Y101.328 E0.87696
G1 X89.079 Y99.688 E0.06005
G1 X88.428 Y97.428 E0.07661
G1 X88.222 Y95.083 E0.07670
G1 X88.467 Y92.740 E0.07673
G1 X89.157 Y90.491 E0.07661
G1 X90.263 Y88.423 E0.07639
G1 X91.742 Y86.615 E0.07611
G1 X93.540 Y85.137 E0.07581
G1 X95.585 Y84.044 E0.07552
G1 X97.798 Y83.379 E0.07529
G1 X99.266 Y83.244 E0.04803
G1 X99.186 Y92.799 E0.31124
G1 X98.767 Y93.218 E0.01931
G1 X98.570 Y93.946 E0.02455
G1 X98.755 Y94.675 E0.02452
G1 X99.167 Y95.102 E0.01931
G1 X99.127 Y99.841 E0.15440
G1 X90.083 Y99.765 E0.29460
M204 S1000
G1 X89.655 Y99.921 F7200.000
G1 X89.703 Y100.035 F7200.000
G1 F2400
G1 X89.874 Y100.419 E0.01073
G1 F2400
G1 X90.217 Y101.187 E0.01598
G1 F2400
G1 X94.765 Y112.940 E0.14701
G1 F2400
G1 X99.308 Y124.681 E0.04599
G1 X100.183 Y124.697 F7200.000
G1 F2400
G1 X102.554 Y118.861 E0.02313
G1 F2400
G1 X107.298 Y107.191 E0.14767
G1 F2400
G1 X109.669 Y101.355 E0.11994
G1 X109.851 Y100.965 E0.00820
G1 F2400
G1 X110.205 Y100.207 E0.02132
G1 F5760
G1 X109.851 Y100.965 E-0.28951
G1 E-0.51049 F2100.00000
G1 X109.586 Y99.400 F7200.000
G1 E0.80000 F2100.00000
M204 S2000
G1 F2400
G1 X110.519 Y98.467 E0.04380
G1 X110.778 Y97.622 E0.02934
G1 X109.186 Y99.214 E0.07471
G1 X108.605 Y99.209 E0.01928
G1 X110.879 Y96.935 E0.10672
G1 X110.948 Y96.280 E0.02185
G1 X108.024 Y99.204 E0.13723
G1 X107.443 Y99.199 E0.01928
G1 X111.017 Y95.625 E0.16774
G1 X111.054 Y95.275 E0.01168
G1 X111.032 Y95.024 E0.00835
G1 X106.862 Y99.194 E0.19570
G1 X106.280 Y99.189 E0.01928
G1 X110.984 Y94.485 E0.22074
G1 X110.937 Y93.947 E0.01794
G1 X105.699 Y99.184 E0.24578
G1 X105.118 Y99.179 E0.01928
