; generated by PrusaSlicer 2.9.3 on 2025-10-20 at 13:20:26 UTC


;
;

;
;
; 

; external perimeters extrusion width = 0.45mm
; perimeters extrusion width = 0.45mm
; infill extrusion width = 0.45mm
; solid infill extrusion width = 0.45mm
; top infill extrusion width = 0.45mm
; support material extrusion width = 0.35mm
; first layer extrusion width = 0.42mm

M73 P0 R49
M201 X9000 Y9000 Z500 E10000 ; sets maximum accelerations, mm/sec^2
M203 X500 Y500 Z12 E120 ; sets maximum feedrates, mm / sec
M204 S2000 T1500 ; sets acceleration (S) and retract acceleration (R), mm/sec^2
M205 X10.00 Y10.00 Z0.20 E4.50 ; sets the jerk limits, mm/sec
M205 S0 T0 ; sets the minimum extruding and travel feed rate, mm/sec

@Object 46-48mm male to male lens adapter.stl id:0 copy 0
@Objectstop 46-48mm male to male lens adapter.stl id:0 copy 0

;TYPE:Custom
M83  ; extruder relative mode
M140 S85 ; set bed temp
M109 S160 ; Set extruder temp before bed level
M190 S85 ; wait for bed temp

G28 W ; home all without mesh bed level
G80 N7 ; mesh bed leveling

M109 S250 ; wait for extruder temp

M221 S100 ; Set flow to 100

G1 Y-3.0 F1000.0 ; go outside print area
G92 E0.0
G1 E8 ; Purge Bubble
G1 X60.0 E9.0 F1000.0 ; intro line
G1 X100.0 E12.5 F1000.0 ; intro line
G92 E0.0
G21 ; set units to millimeters
G90 ; use absolute coordinates
M83 ; use relative distances for extrusion

M900 K0.08 ; Filament gcode LA 1.5
M900 K45 ; Filament gcode LA 1.0




M107
;LAYER_CHANGE
M117 INDICATOR-Layer1
;Z:0.2
;HEIGHT:0.2
G1 E-1 F2100
G1 Z.4 F720
G1 X99.353 Y81.792 F6000
G1 Z.2 F720
G1 E1 F2100
M204 S800
;TYPE:Skirt/Brim
;WIDTH:0.42
G1 F1200
G1 X102.125 Y79.079 E.12161
G1 X109.111 Y74.422 E.26325
G1 X110.325 Y74.055 E.03977
G1 X139.675 Y74.055 E.92025
G1 X140.889 Y74.422 E.03977
G1 X147.875 Y79.079 E.26325
G1 X150.647 Y81.792 E.12161
G1 X155.578 Y89.111 E.27671
G1 X155.945 Y90.325 E.03977
G1 X155.945 Y119.675 E.92025
G1 X155.578 Y120.889 E.03977
G1 X150.647 Y128.208 E.27671
G1 X147.875 Y130.921 E.12161
G1 X140.889 Y135.578 E.26325
G1 X139.675 Y135.945 E.03977
G1 X110.325 Y135.945 E.92025
G1 X109.111 Y135.578 E.03977
G1 X101.792 Y130.647 E.27671
G1 X99.079 Y127.875 E.12161
G1 X94.422 Y120.889 E.26325
G1 X94.055 Y119.675 E.03977
G1 X94.055 Y90.325 E.92025
G1 X94.422 Y89.111 E.03977
G1 X99.319 Y81.842 E.27481
M204 S1000
;WIPE_START
G1 F4800
G1 X99.353 Y81.792 E-.02513
G1 X101.03 Y80.152 E-.97487
;WIPE_END
G1 Z.4 F720
G1 X104.714 Y86.673 F6000
G1 Z.2 F720
G1 E1 F2100
M204 S800
G1 F1200
G1 X106.7 Y84.69 E.088
G1 X108.894 Y82.91 E.08858
G1 X111.292 Y81.347 E.08975
G1 X113.013 Y80.43 E.06114
G1 X115.64 Y79.314 E.08949
G1 X117.442 Y78.727 E.05942
G1 X120.208 Y78.085 E.08903
G1 X123.047 Y77.731 E.0897
G1 X125.957 Y77.678 E.09126
G1 X128.8 Y77.927 E.08948
G1 X131.669 Y78.488 E.09166
G1 X134.391 Y79.325 E.08929
G1 X136.974 Y80.423 E.088
G1 X139.449 Y81.792 E.08868
G1 X141.795 Y83.429 E.08969
G1 X143.327 Y84.714 E.06269
G1 X145.318 Y86.709 E.08837
G1 X147.091 Y88.894 E.08823
G1 X148.653 Y91.292 E.08973
G1 X149.956 Y93.839 E.0897
G1 X150.704 Y95.69 E.0626
G1 X151.537 Y98.43 E.08979
G1 X152.072 Y101.191 E.08818
G1 X152.32 Y104 E.08842
G1 X152.32 Y106 E.06271
G1 X152.066 Y108.847 E.08962
G1 X151.528 Y111.609 E.08823
G1 X150.705 Y114.308 E.08847
G1 X149.592 Y116.943 E.08969
G1 X148.653 Y118.709 E.06271
G1 X147.091 Y121.106 E.08971
G1 X145.288 Y123.325 E.08965
G1 X143.302 Y125.309 E.08802
G1 X141.106 Y127.09 E.08865
G1 X138.708 Y128.653 E.08975
G1 X136.987 Y129.57 E.06114
G1 X134.36 Y130.686 E.08949
G1 X131.57 Y131.537 E.09146
G1 X128.802 Y132.073 E.0884
G1 X126 Y132.32 E.0882
G1 X123.999 Y132.32 E.06274
G1 X121.153 Y132.066 E.08959
G1 X118.391 Y131.528 E.08823
G1 X115.692 Y130.705 E.08847
G1 X113.057 Y129.592 E.08969
G1 X111.291 Y128.653 E.06271
G1 X108.894 Y127.091 E.08971
G1 X106.675 Y125.288 E.08965
G1 X104.655 Y123.261 E.08973
G1 X102.89 Y121.078 E.08802
G1 X101.347 Y118.709 E.08864
G1 X100.408 Y116.943 E.06271
G1 X99.319 Y114.374 E.08749
G1 X98.463 Y111.57 E.09192
G1 X97.929 Y108.814 E.08802
G1 X97.68 Y106 E.08858
G1 X97.68 Y104 E.06271
G1 X97.934 Y101.153 E.08962
G1 X98.484 Y98.344 E.08975
G1 X99.309 Y95.654 E.08822
G1 X100.408 Y93.056 E.08845
G1 X101.792 Y90.552 E.08971
G1 X103.429 Y88.205 E.08972
G1 X104.675 Y86.719 E.0608
M204 S1000
G1 X104.974 Y86.997 F6000
M204 S800
G1 F1200
G1 X106.241 Y85.635 E.05833
G1 X107.702 Y84.319 E.06165
G1 X109.958 Y82.625 E.08846
G1 X112.379 Y81.175 E.08848
G1 X114.926 Y79.991 E.08807
G1 X117.549 Y79.089 E.08697
G1 X120.277 Y78.456 E.08781
G1 X123.077 Y78.107 E.08847
G1 X125.053 Y78.039 E.06199
G1 X127.858 Y78.191 E.08808
G1 X130.605 Y78.628 E.08721
G1 X133.294 Y79.346 E.08727
G1 X135.928 Y80.353 E.08842
G1 X137.694 Y81.214 E.0616
G1 X140.111 Y82.671 E.08849
G1 X142.33 Y84.346 E.08717
G1 X144.365 Y86.241 E.08719
G1 X145.681 Y87.702 E.06165
G1 X147.375 Y89.958 E.08846
G1 X148.824 Y92.377 E.08841
G1 X149.995 Y94.893 E.08701
M73 P1 R49
G1 X150.905 Y97.528 E.08741
G1 X151.544 Y100.276 E.08846
G1 X151.818 Y102.223 E.06165
G1 X151.961 Y105.041 E.08847
G1 X151.816 Y107.793 E.08641
G1 X151.381 Y110.564 E.08795
G1 X150.906 Y112.47 E.06159
G1 X149.983 Y115.137 E.08849
G1 X148.803 Y117.663 E.08742
G1 X147.367 Y120.054 E.08745
G1 X145.681 Y122.298 E.08801
G1 X143.759 Y124.365 E.0885
G1 X142.3 Y125.679 E.06156
G1 X140.044 Y127.374 E.08848
G1 X137.621 Y128.825 E.08855
G1 X135.082 Y130.005 E.08779
G1 X132.453 Y130.911 E.08719
G1 X129.724 Y131.544 E.08784
G1 X127.777 Y131.818 E.06165
G1 X124.957 Y131.961 E.08853
G1 X122.209 Y131.817 E.08628
G1 X119.436 Y131.381 E.08801
G1 X117.531 Y130.906 E.06156
G1 X114.863 Y129.983 E.08852
G1 X112.331 Y128.799 E.08764
G1 X109.946 Y127.367 E.08722
G1 X107.702 Y125.681 E.08801
G1 X105.633 Y123.758 E.08857
G1 X103.78 Y121.632 E.08843
G1 X102.625 Y120.042 E.06162
G1 X101.184 Y117.638 E.08788
G1 X100.002 Y115.101 E.08776
G1 X99.093 Y112.466 E.0874
G1 X98.456 Y109.724 E.08826
G1 X98.182 Y107.777 E.06165
G1 X98.039 Y104.959 E.08847
G1 X98.185 Y102.2 E.08663
G1 X98.62 Y99.433 E.08782
G1 X99.346 Y96.707 E.08845
G1 X100.018 Y94.861 E.0616
G1 X101.213 Y92.307 E.08841
G1 X102.658 Y89.908 E.08781
G1 X104.332 Y87.687 E.0872
G1 X104.933 Y87.041 E.02767
M204 S1000
G1 X105.201 Y87.265 F6000
M204 S800
G1 F1200
G1 X105.27 Y87.183 E.00336
G1 X107.21 Y85.246 E.08596
G1 X109.343 Y83.516 E.08611
G1 X111.675 Y81.996 E.08728
G1 X114.152 Y80.73 E.08722
G1 X115.904 Y80.02 E.05927
G1 X117.657 Y79.45 E.0578
G1 X120.346 Y78.826 E.08655
G1 X123.107 Y78.483 E.08723
G1 X125.93 Y78.432 E.08853
G1 X128.696 Y78.674 E.08706
G1 X131.479 Y79.218 E.08891
G1 X134.126 Y80.031 E.08682
G1 X136.65 Y81.104 E.08599
G1 X139.055 Y82.435 E.08618
G1 X141.337 Y84.028 E.08726
G1 X142.817 Y85.27 E.06058
G1 X144.753 Y87.208 E.08589
G1 X146.485 Y89.343 E.0862
G1 X148.003 Y91.675 E.08724
G1 X149.27 Y94.152 E.08723
G1 X149.993 Y95.942 E.06053
G1 X150.804 Y98.605 E.08728
G1 X151.324 Y101.289 E.08572
G1 X151.567 Y104.034 E.0864
G1 X151.567 Y105.967 E.06061
G1 X151.321 Y108.735 E.08713
G1 X150.796 Y111.427 E.086
G1 X149.994 Y114.056 E.08618
G1 X148.911 Y116.619 E.08724
G1 X148.003 Y118.325 E.06059
G1 X146.485 Y120.657 E.08724
G1 X144.732 Y122.815 E.08717
G1 X142.797 Y124.748 E.08576
G1 X140.657 Y126.484 E.0864
G1 X138.325 Y128.003 E.08726
G1 X136.662 Y128.89 E.0591
G1 X134.101 Y129.978 E.08724
G1 X131.394 Y130.804 E.08874
G1 X128.704 Y131.325 E.08591
G1 X125.966 Y131.567 E.08618
G1 X124.033 Y131.567 E.06061
G1 X121.265 Y131.321 E.08713
G1 X118.573 Y130.796 E.086
G1 X115.944 Y129.994 E.08618
G1 X113.381 Y128.911 E.08724
G1 X111.674 Y128.003 E.06062
G1 X109.343 Y126.485 E.08722
G1 X107.185 Y124.732 E.08717
G1 X105.22 Y122.761 E.08726
G1 X103.5 Y120.635 E.08574
M73 P1 R48
G1 X101.997 Y118.325 E.08641
G1 X101.089 Y116.619 E.06059
G1 X100.025 Y114.11 E.08545
G1 X99.196 Y111.395 E.08901
G1 X98.675 Y108.702 E.086
G1 X98.433 Y105.966 E.08612
G1 X98.433 Y104.033 E.06061
G1 X98.679 Y101.265 E.08713
G1 X99.214 Y98.534 E.08726
G1 X100.018 Y95.912 E.08599
G1 X101.089 Y93.381 E.08617
G1 X102.435 Y90.945 E.08726
G1 X104.027 Y88.664 E.08722
G1 X105.162 Y87.311 E.05537
M204 S1000
G1 X105.456 Y87.585 F6000
M204 S800
G1 F1200
G1 X106.77 Y86.172 E.0605
G1 X108.181 Y84.902 E.05952
G1 X110.374 Y83.254 E.08601
G1 X112.727 Y81.844 E.08601
G1 X115.202 Y80.693 E.08558
G1 X117.764 Y79.812 E.08495
G1 X120.415 Y79.197 E.08533
G1 X123.137 Y78.859 E.086
G1 X125.046 Y78.793 E.05989
G1 X127.772 Y78.94 E.0856
G1 X130.442 Y79.364 E.08476
G1 X133.068 Y80.065 E.08522
G1 X135.628 Y81.044 E.08594
G1 X137.334 Y81.877 E.05953
G1 X139.684 Y83.293 E.08602
G1 X141.845 Y84.923 E.08487
G1 X143.827 Y86.77 E.08494
G1 X145.098 Y88.181 E.05954
G1 X146.746 Y90.374 E.08601
G1 X148.155 Y92.725 E.08594
G1 X149.296 Y95.175 E.08474
G1 X150.182 Y97.743 E.08518
G1 X150.803 Y100.414 E.08598
G1 X151.067 Y102.295 E.05956
G1 X151.207 Y105.034 E.08599
G1 X151.065 Y107.721 E.08437
G1 X150.642 Y110.415 E.0855
G1 X150.183 Y112.255 E.05946
G1 X149.287 Y114.848 E.08602
G1 X148.137 Y117.309 E.08517
G1 X146.738 Y119.638 E.08519
G1 X145.098 Y121.819 E.08556
G1 X143.23 Y123.827 E.08599
G1 X141.82 Y125.097 E.0595
G1 X139.628 Y126.745 E.08599
G1 X137.273 Y128.156 E.08608
G1 X134.8 Y129.306 E.08551
G1 X132.244 Y130.186 E.08476
G1 X129.586 Y130.803 E.08556
G1 X127.705 Y131.067 E.05956
G1 X124.965 Y131.207 E.08602
G1 X122.281 Y131.066 E.08427
G1 X119.586 Y130.642 E.08554
G1 X117.745 Y130.183 E.05949
G1 X115.152 Y129.287 E.08602
G1 X112.685 Y128.134 E.08538
G1 X110.362 Y126.738 E.08498
G1 X108.181 Y125.098 E.08556
G1 X106.171 Y123.229 E.08606
G1 X104.37 Y121.162 E.08596
G1 X103.254 Y119.626 E.05953
G1 X101.853 Y117.29 E.08541
G1 X100.704 Y114.825 E.08527
G1 X99.816 Y112.251 E.08537
G1 X99.197 Y109.586 E.08578
G1 X98.933 Y107.705 E.05956
G1 X98.793 Y104.966 E.08599
G1 X98.935 Y102.272 E.08459
G1 X99.359 Y99.583 E.08535
G1 X100.065 Y96.933 E.08599
G1 X100.714 Y95.15 E.05949
G1 X101.876 Y92.668 E.08593
G1 X103.284 Y90.33 E.08557
G1 X104.91 Y88.171 E.08474
G1 X105.415 Y87.629 E.02323
M204 S1000
G1 X105.688 Y87.857 F6000
M204 S800
G1 F1200
G1 X105.825 Y87.693 E.0067
G1 X107.714 Y85.806 E.08372
G1 X109.792 Y84.122 E.08386
G1 X112.058 Y82.646 E.08479
G1 X113.675 Y81.785 E.05744
G1 X116.162 Y80.729 E.08472
G1 X117.871 Y80.173 E.05635
G1 X120.484 Y79.568 E.0841
G1 X123.167 Y79.235 E.08477
G1 X125.904 Y79.186 E.08583
G1 X128.591 Y79.421 E.08457
G1 X131.29 Y79.948 E.08622
G1 X133.862 Y80.738 E.08436
G1 X136.325 Y81.785 E.08391
G1 X138.661 Y83.078 E.08372
G1 X140.878 Y84.626 E.08478
G1 X142.307 Y85.825 E.05849
G1 X144.193 Y87.713 E.08367
G1 X145.879 Y89.792 E.08393
G1 X147.354 Y92.058 E.08477
G1 X148.584 Y94.465 E.08475
G1 X149.282 Y96.193 E.05843
G1 X150.07 Y98.781 E.08482
G1 X150.578 Y101.401 E.08368
G1 X150.813 Y104.067 E.08391
G1 X150.813 Y105.933 E.05851
G1 X150.575 Y108.623 E.08467
G1 X150.064 Y111.245 E.08376
G1 X149.283 Y113.805 E.08392
G1 X148.23 Y116.295 E.08477
G1 X147.354 Y117.942 E.05849
G1 X145.879 Y120.208 E.08477
G1 X144.176 Y122.305 E.0847
G1 X142.287 Y124.193 E.08374
G1 X140.208 Y125.878 E.08391
G1 X137.942 Y127.354 E.08479
G1 X136.325 Y128.215 E.05744
G1 X133.843 Y129.269 E.08455
G1 X131.219 Y130.07 E.08602
G1 X128.599 Y130.578 E.08368
G1 X125.933 Y130.813 E.08391
G1 X124.067 Y130.813 E.05851
G1 X121.377 Y130.575 E.08467
G1 X118.762 Y130.066 E.08353
G1 X116.195 Y129.283 E.08415
G1 X113.705 Y128.23 E.08477
G1 X112.058 Y127.354 E.05849
G1 X109.792 Y125.879 E.08477
G1 X107.695 Y124.176 E.0847
G1 X105.785 Y122.262 E.08478
G1 X104.106 Y120.186 E.08372
G1 X102.646 Y117.942 E.08394
G1 X101.77 Y116.295 E.05849
G1 X100.732 Y113.845 E.08343
G1 X99.93 Y111.219 E.08609
G1 X99.423 Y108.604 E.08352
G1 X99.187 Y105.933 E.08407
G1 X99.187 Y104.067 E.05851
G1 X99.425 Y101.376 E.0847
M73 P2 R48
G1 X99.944 Y98.723 E.08476
G1 X100.728 Y96.163 E.08395
G1 X101.77 Y93.705 E.08371
G1 X103.078 Y91.339 E.08477
G1 X104.626 Y89.122 E.08478
G1 X105.649 Y87.903 E.0499
M204 S1000
G1 X105.938 Y88.172 F6000
M204 S800
G1 F1200
G1 X107.299 Y86.71 E.06263
G1 X108.66 Y85.484 E.05743
G1 X110.79 Y83.883 E.08355
G1 X113.075 Y82.513 E.08354
G1 X115.485 Y81.392 E.08334
G1 X117.978 Y80.535 E.08266
G1 X120.553 Y79.938 E.08288
G1 X123.197 Y79.611 E.08353
G1 X125.039 Y79.547 E.05779
G1 X127.686 Y79.689 E.08311
G1 X130.285 Y80.102 E.08251
G1 X132.841 Y80.785 E.08295
G1 X135.327 Y81.736 E.08346
G1 X136.974 Y82.539 E.05745
G1 X139.256 Y83.914 E.08354
G1 X141.355 Y85.497 E.08243
G1 X143.29 Y87.299 E.0829
G1 X144.516 Y88.661 E.05746
G1 X146.117 Y90.79 E.08352
G1 X147.486 Y93.073 E.08347
G1 X148.597 Y95.458 E.0825
G1 X149.459 Y97.957 E.08288
G1 X150.061 Y100.552 E.08353
G1 X150.316 Y102.367 E.05747
G1 X150.453 Y105.026 E.08348
G1 X150.315 Y107.649 E.08236
G1 X149.903 Y110.265 E.08303
G1 X149.46 Y112.041 E.05739
G1 X148.59 Y114.559 E.08353
G1 X147.474 Y116.949 E.0827
G1 X146.109 Y119.221 E.0831
G1 X144.516 Y121.339 E.0831
G1 X142.701 Y123.29 E.08355
G1 X141.341 Y124.515 E.05739
G1 X139.212 Y126.116 E.08352
G1 X136.925 Y127.487 E.0836
G1 X134.517 Y128.607 E.08327
G1 X132.03 Y129.463 E.08247
G1 X129.448 Y130.061 E.0831
G1 X127.633 Y130.316 E.05747
G1 X124.972 Y130.453 E.08354
G1 X122.353 Y130.315 E.08223
G1 X119.736 Y129.903 E.08306
G1 X117.959 Y129.46 E.05742
G1 X115.441 Y128.59 E.08353
G1 X113.045 Y127.471 E.08291
G1 X110.778 Y126.109 E.08292
G1 X108.661 Y124.516 E.08307
G1 X106.709 Y122.7 E.08359
G1 X104.96 Y120.692 E.08349
G1 X103.883 Y119.21 E.05744
G1 X102.516 Y116.931 E.08333
G1 X101.401 Y114.536 E.08283
G1 X100.539 Y112.036 E.08291
G1 X99.939 Y109.448 E.0833
G1 X99.684 Y107.633 E.05747
G1 X99.547 Y104.974 E.08348
G1 X99.686 Y102.345 E.08255
G1 X100.098 Y99.733 E.08291
G1 X100.785 Y97.159 E.08353
G1 X101.411 Y95.439 E.05739
G1 X102.538 Y93.028 E.08345
G1 X103.905 Y90.757 E.08311
G1 X105.488 Y88.656 E.08248
G1 X105.897 Y88.216 E.01884
M204 S1000
G1 X106.175 Y88.449 F6000
M204 S800
G1 F1200
G1 X106.381 Y88.203 E.01006
G1 X108.219 Y86.367 E.08146
G1 X110.241 Y84.728 E.08161
G1 X112.441 Y83.296 E.08231
G1 X114.005 Y82.463 E.05556
G1 X116.42 Y81.438 E.08226
G1 X118.079 Y80.898 E.0547
G1 X120.621 Y80.309 E.08181
G1 X123.226 Y79.987 E.0823
G1 X125.878 Y79.939 E.08317
G1 X128.492 Y80.168 E.08227
G1 X131.101 Y80.678 E.08335
G1 X133.597 Y81.444 E.08186
G1 X135.989 Y82.46 E.08148
G1 X138.267 Y83.721 E.08164
G1 X140.419 Y85.225 E.08232
G1 X141.797 Y86.381 E.0564
G1 X143.632 Y88.218 E.08141
G1 X145.273 Y90.241 E.08167
G1 X146.704 Y92.441 E.08229
G1 X147.898 Y94.778 E.08228
G1 X148.571 Y96.444 E.05634
G1 X149.337 Y98.957 E.08237
G1 X149.831 Y101.506 E.08141
G1 X150.06 Y104.1 E.08165
G1 X150.06 Y105.9 E.05644
G1 X149.829 Y108.512 E.08222
G1 X149.332 Y111.062 E.08146
G1 X148.572 Y113.553 E.08166
G1 X147.549 Y115.971 E.08232
G1 X146.704 Y117.559 E.0564
G1 X145.273 Y119.759 E.08229
G1 X143.62 Y121.796 E.08225
G1 X141.782 Y123.632 E.08146
G1 X139.759 Y125.272 E.08165
G1 X137.559 Y126.704 E.08231
G1 X135.995 Y127.537 E.05556
G1 X133.585 Y128.561 E.0821
G1 X131.043 Y129.337 E.08333
G1 X128.494 Y129.831 E.08141
G1 X125.9 Y130.06 E.08165
G1 X124.1 Y130.06 E.05644
G1 X121.488 Y129.829 E.08222
G1 X118.938 Y129.332 E.08146
G1 X116.446 Y128.572 E.08169
G1 X114.03 Y127.549 E.08226
G1 X112.441 Y126.704 E.05643
G1 X110.241 Y125.273 E.08229
G1 X108.204 Y123.62 E.08225
G1 X106.35 Y121.762 E.0823
G1 X104.712 Y119.737 E.08166
G1 X103.296 Y117.559 E.08145
G1 X102.451 Y115.971 E.0564
G1 X101.44 Y113.587 E.08119
G1 X100.663 Y111.043 E.0834
G1 X100.168 Y108.492 E.08148
G1 X99.94 Y105.9 E.08158
G1 X99.94 Y104.1 E.05644
G1 X100.171 Y101.488 E.08222
G1 X100.674 Y98.912 E.08229
G1 X101.437 Y96.421 E.08169
G1 X102.451 Y94.029 E.08146
G1 X103.721 Y91.733 E.08227
G1 X105.225 Y89.581 E.08232
G1 X106.136 Y88.495 E.04444
M204 S1000
G1 X106.42 Y88.759 F6000
M204 S800
G1 F1200
G1 X107.828 Y87.248 E.06476
G1 X109.14 Y86.066 E.05537
G1 X111.206 Y84.512 E.08106
G1 X113.423 Y83.182 E.08106
G1 X115.767 Y82.092 E.08105
G1 X118.186 Y81.26 E.08021
G1 X120.69 Y80.68 E.08059
G1 X123.256 Y80.363 E.08107
G1 X125.032 Y80.301 E.05572
G1 X127.601 Y80.438 E.08066
G1 X130.128 Y80.839 E.08022
G1 X132.614 Y81.504 E.08069
