; generated by PrusaSlicer 2.9.4 on 2026-03-05 at 15:22:39 UTC


;
;

;
;
; 

; external perimeters extrusion width = 0.45mm
; perimeters extrusion width = 0.45mm
; infill extrusion width = 0.45mm
; solid infill extrusion width = 0.45mm
; top infill extrusion width = 0.40mm
; first layer extrusion width = 0.42mm

M73 P0 R85
M201 X9000 Y9000 Z500 E10000 ; sets maximum accelerations, mm/sec^2
M203 X500 Y500 Z12 E120 ; sets maximum feedrates, mm / sec
M204 S2000 T1500 ; sets acceleration (S) and retract acceleration (R), mm/sec^2
M205 X10.00 Y10.00 Z0.20 E4.50 ; sets the jerk limits, mm/sec
M205 S0 T0 ; sets the minimum extruding and travel feed rate, mm/sec

; printing object Anchor_SKR_Bear_Short_2.stl id:0 copy 0
; stop printing object Anchor_SKR_Bear_Short_2.stl id:0 copy 0

;TYPE:Custom
M83  ; extruder relative mode
M140 S85 ; set bed temp
M109 S160 ; Set extruder temp before bed level
M190 S85 ; wait for bed temp

G28 W ; home all without mesh bed level
G80 N7 ; mesh bed leveling

M109 S240 ; wait for extruder temp

M221 S100 ; Set flow to 100

G1 Y-3.0 F1000.0 ; go outside print area
G92 E0.0
G1 E8 ; Purge Bubble
G1 X60.0 E9.0 F1000.0 ; intro line
G1 X100.0 E12.5 F1000.0 ; intro line
G92 E0.0
G21 ; set units to millimeters
G90 ; use absolute coordinates
M83 ; use relative distances for extrusion

M900 K0.08 ; Filament gcode LA 1.5
M900 K45 ; Filament gcode LA 1.0




M107
;LAYER_CHANGE
;Z:0.2
;HEIGHT:0.2
G1 E-1 F2100
G1 Z.4 F720
G1 X38.617 Y80.452 F6000
G1 Z.2 F720
G1 E1 F2100
M204 S800
;TYPE:Skirt/Brim
;WIDTH:0.42
G1 F1200
G1 X40.165 Y79.811 E.05253
G1 X207.335 Y79.811 E5.2415
G1 X208.583 Y80.202 E.04101
M73 P0 R84
G1 X209.484 Y81.585 E.05175
G1 X212.524 Y97.529 E.50892
G1 X212.524 Y128.5 E.97107
G1 X212.133 Y129.748 E.04101
G1 X211.1 Y130.551 E.04102
G1 X210.335 Y130.689 E.02437
G1 X39.765 Y130.689 E5.3481
G1 X38.517 Y130.298 E.04101
G1 X37.714 Y129.265 E.04102
G1 X37.576 Y128.5 E.02437
G1 X37.576 Y82.4 E1.44543
G1 X38.217 Y80.852 E.05253
G1 X38.575 Y80.495 E.01585
M204 S1000
;WIPE_START
G1 F4800
G1 X38.617 Y80.452 E-.02498
G1 X40.165 Y79.811 E-.69637
G1 X40.835 Y79.811 E-.27865
;WIPE_END
G1 Z.4 F720
; printing object Anchor_SKR_Bear_Short_2.stl id:0 copy 0
G1 X111.232 Y116.033 F6000
G1 Z.2 F720
G1 E1 F2100
M204 S800
;TYPE:Perimeter
;WIDTH:0.419999
G1 F1200
G1 X111.475 Y115.597 E.01565
G1 X111.816 Y115.163 E.01731
G1 X112.245 Y114.774 E.01816
G1 X112.71 Y114.473 E.01737
G1 X113.229 Y114.248 E.01774
G1 X113.729 Y114.118 E.0162
G1 X114.268 Y114.066 E.01698
G1 X114.85 Y114.103 E.01829
G1 X115.377 Y114.226 E.01697
G1 X115.88 Y114.431 E.01703
G1 X116.373 Y114.734 E.01814
G1 X116.791 Y115.098 E.01738
G1 X117.144 Y115.522 E.0173
G1 X117.412 Y115.972 E.01642
G1 X117.624 Y116.507 E.01804
G1 X117.741 Y117.05 E.01742
G1 X117.769 Y117.6 E.01727
G1 X117.709 Y118.149 E.01732
G1 X117.57 Y118.655 E.01645
G1 X117.333 Y119.178 E.018
G1 X117.024 Y119.639 E.0174
G1 X116.624 Y120.06 E.01821
G1 X116.21 Y120.38 E.01641
G1 X115.728 Y120.641 E.01719
G1 X115.193 Y120.827 E.01776
G1 X114.638 Y120.922 E.01765
G1 X114.076 Y120.925 E.01762
G1 X113.565 Y120.849 E.0162
G1 X113.049 Y120.685 E.01698
G1 X112.54 Y120.43 E.01785
G1 X112.091 Y120.102 E.01743
G1 X111.703 Y119.71 E.01729
G1 X111.37 Y119.234 E.01821
G1 X111.14 Y118.765 E.01638
G1 X110.979 Y118.238 E.01728
G1 X110.904 Y117.691 E.01731
G1 X110.924 Y117.075 E.01932
G1 X111.028 Y116.57 E.01617
G1 X111.205 Y116.086 E.01616
M204 S1000
G1 X111.57 Y116.192 F6000
M204 S800
;TYPE:External perimeter
G1 F1200
G1 X111.573 Y116.184 E.00027
G1 X111.819 Y115.759 E.0154
G1 X112.131 Y115.378 E.01544
G1 X112.508 Y115.045 E.01577
G1 X112.938 Y114.778 E.01587
G1 X113.401 Y114.587 E.0157
G1 X113.848 Y114.479 E.01442
G1 X114.33 Y114.441 E.01516
G1 X114.831 Y114.48 E.01576
G1 X115.315 Y114.602 E.01565
G1 X115.76 Y114.793 E.01518
G1 X116.184 Y115.062 E.01574
G1 X116.561 Y115.401 E.0159
G1 X116.868 Y115.783 E.01537
G1 X117.098 Y116.188 E.0146
G1 X117.278 Y116.661 E.01587
G1 X117.375 Y117.154 E.01575
G1 X117.391 Y117.645 E.0154
G1 X117.329 Y118.132 E.01539
G1 X117.197 Y118.578 E.01458
G1 X116.976 Y119.046 E.01623
G1 X116.693 Y119.45 E.01547
G1 X116.333 Y119.816 E.0161
G1 X115.958 Y120.094 E.01464
G1 X115.525 Y120.319 E.0153
G1 X115.047 Y120.476 E.01578
G1 X114.55 Y120.552 E.01576
G1 X114.05 Y120.545 E.01568
G1 X113.597 Y120.469 E.0144
G1 X113.139 Y120.316 E.01514
G1 X112.686 Y120.078 E.01604
G1 X112.295 Y119.781 E.0154
G1 X111.955 Y119.424 E.01546
G1 X111.668 Y118.997 E.01613
G1 X111.47 Y118.575 E.01462
G1 X111.335 Y118.103 E.01539
G1 X111.277 Y117.615 E.01541
G1 X111.299 Y117.123 E.01544
G1 X111.403 Y116.626 E.01592
G1 X111.548 Y116.248 E.01269
M204 S1000
;WIPE_START
G1 F4800
G1 X111.57 Y116.192 E-.02501
G1 X111.573 Y116.184 E-.00355
G1 X111.819 Y115.759 E-.2041
G1 X112.131 Y115.378 E-.20467
G1 X112.508 Y115.045 E-.20906
G1 X112.938 Y114.778 E-.21037
G1 X113.257 Y114.647 E-.14324
;WIPE_END
G1 Z.4 F720
G1 X84.293 Y99.333 F6000
G1 Z.2 F720
G1 E1 F2100
M204 S800
;TYPE:Perimeter
G1 F1200
G1 X83.997 Y99.739 E.01575
G1 X83.605 Y100.128 E.01732
G1 X83.131 Y100.462 E.01818
G1 X82.64 Y100.701 E.01712
G1 X82.143 Y100.852 E.01629
G1 X81.593 Y100.929 E.01741
G1 X81.031 Y100.917 E.01763
G1 X80.472 Y100.81 E.01785
G1 X79.964 Y100.626 E.01694
G1 X79.483 Y100.357 E.01728
G1 X79.05 Y100.015 E.0173
G1 X78.678 Y99.608 E.01729
G1 X78.363 Y99.121 E.01819
G1 X78.151 Y98.641 E.01645
G1 X78.01 Y98.11 E.01723
G1 X77.956 Y97.561 E.0173
G1 X77.995 Y96.983 E.01816
G1 X78.122 Y96.443 E.01739
G1 X78.333 Y95.934 E.01728
G1 X78.623 Y95.465 E.01729
G1 X78.966 Y95.067 E.01647
G1 X79.405 Y94.696 E.01802
G1 X79.883 Y94.413 E.01742
G1 X80.385 Y94.215 E.01692
G1 X80.957 Y94.093 E.01834
G1 X81.475 Y94.065 E.01627
G1 X82.013 Y94.122 E.01696
G1 X82.553 Y94.267 E.01753
G1 X83.076 Y94.506 E.01803
G1 X83.535 Y94.815 E.01735
G1 X83.937 Y95.193 E.0173
G1 X84.274 Y95.63 E.0173
G1 X84.524 Y96.092 E.01647
G1 X84.716 Y96.632 E.01797
G1 X84.813 Y97.178 E.01739
G1 X84.82 Y97.731 E.01734
G1 X84.73 Y98.305 E.01822
G1 X84.571 Y98.802 E.01636
G1 X84.327 Y99.284 E.01694
M204 S1000
G1 X83.978 Y99.133 F6000
M204 S800
;TYPE:External perimeter
G1 F1200
G1 X83.972 Y99.144 E.00039
G1 X83.675 Y99.536 E.01542
G1 X83.319 Y99.876 E.01543
G1 X82.901 Y100.161 E.01586
G1 X82.452 Y100.37 E.01553
G1 X82.01 Y100.496 E.01441
G1 X81.514 Y100.557 E.01567
G1 X81.013 Y100.536 E.01572
G1 X80.518 Y100.432 E.01586
G1 X80.071 Y100.26 E.01502
G1 X79.646 Y100.013 E.01541
G1 X79.21 Y99.638 E.01803
G1 X78.941 Y99.332 E.01277
G1 X78.674 Y98.906 E.01576
G1 X78.488 Y98.465 E.01501
G1 X78.371 Y97.988 E.0154
G1 X78.332 Y97.498 E.01541
G1 X78.373 Y96.998 E.01573
G1 X78.498 Y96.506 E.01592
G1 X78.702 Y96.044 E.01583
G1 X78.959 Y95.643 E.01493
G1 X79.438 Y95.158 E.02137
G1 X79.733 Y94.934 E.01161
G1 X80.098 Y94.727 E.01316
G1 X80.548 Y94.559 E.01506
G1 X81.06 Y94.459 E.01636
G1 X81.52 Y94.443 E.01443
G1 X81.998 Y94.502 E.0151
G1 X82.48 Y94.641 E.01573
G1 X82.941 Y94.862 E.01603
G1 X83.344 Y95.144 E.01542
G1 X83.696 Y95.487 E.01541
G1 X83.988 Y95.881 E.01538
G1 X84.202 Y96.293 E.01456
G1 X84.364 Y96.769 E.01577
G1 X84.443 Y97.269 E.01587
G1 X84.44 Y97.763 E.01549
G1 X84.355 Y98.258 E.01575
G1 X84.202 Y98.71 E.01496
G1 X84.006 Y99.08 E.01313
M204 S1000
;WIPE_START
G1 F4800
G1 X83.978 Y99.133 E-.02491
G1 X83.972 Y99.144 E-.00521
G1 X83.675 Y99.536 E-.20441
G1 X83.319 Y99.876 E-.2046
G1 X82.901 Y100.161 E-.21027
G1 X82.452 Y100.37 E-.20584
G1 X82.117 Y100.465 E-.14476
;WIPE_END
G1 Z.4 F720
G1 X73.288 Y86.497 F6000
G1 Z.2 F720
G1 E1 F2100
M204 S800
G1 F1200
G1 X73.235 Y86.567 E.00275
G1 X72.802 Y86.922 E.01756
G1 X72.471 Y87.077 E.01146
G1 X72.149 Y87.16 E.01043
G1 X71.817 Y87.187 E.01044
G1 X71.4 Y87.132 E.01319
G1 X70.892 Y86.939 E.01704
G1 X70.593 Y86.729 E.01146
G1 X70.359 Y86.492 E.01044
G1 X70.171 Y86.217 E.01044
G1 X70.033 Y85.914 E.01044
G1 X69.949 Y85.592 E.01043
G1 X69.923 Y85.26 E.01044
G1 X69.955 Y84.929 E.01043
G1 X70.044 Y84.608 E.01044
G1 X70.171 Y84.336 E.00941
G1 X70.38 Y84.036 E.01146
G1 X70.618 Y83.803 E.01044
G1 X70.892 Y83.614 E.01044
G1 X71.21 Y83.473 E.01091
;WIDTH:0.466924
G1 X71.478 Y83.399 E.0098
;WIDTH:0.513849
G1 X71.747 Y83.326 E.01091
;WIDTH:0.530616
G1 X72.195 Y83.345 E.01818
G1 X72.388 Y83.434 E.00862
;WIDTH:0.493744
G1 X72.581 Y83.524 E.00798
;WIDTH:0.456872
G1 X72.774 Y83.614 E.00733
;WIDTH:0.419999
G1 X73.073 Y83.824 E.01146
G1 X73.307 Y84.061 E.01044
G1 X73.496 Y84.336 E.01046
G1 X73.634 Y84.639 E.01044
G1 X73.717 Y84.961 E.01043
G1 X73.743 Y85.293 E.01044
G1 X73.711 Y85.624 E.01043
G1 X73.622 Y85.945 E.01044
G1 X73.479 Y86.246 E.01045
G1 X73.325 Y86.45 E.00801
M204 S1000
;WIPE_START
G1 F4800
G1 X73.288 Y86.497 E-.02486
G1 X73.235 Y86.567 E-.03649
G1 X72.802 Y86.922 E-.23272
G1 X72.471 Y87.077 E-.15191
G1 X72.149 Y87.16 E-.13821
G1 X71.817 Y87.187 E-.13844
G1 X71.4 Y87.132 E-.17482
G1 X71.169 Y87.044 E-.10255
;WIPE_END
G1 Z.4 F720
G1 X72.221 Y121.015 F6000
G1 Z.2 F720
G1 E1 F2100
M204 S800
;TYPE:Perimeter
G1 F1200
G1 X72.653 Y121.133 E.01404
G1 X73.01 Y121.309 E.01248
G1 X73.331 Y121.545 E.01249
G1 X73.676 Y121.931 E.01623
G1 X73.956 Y122.436 E.0181
G1 X74.084 Y122.916 E.01558
G1 X74.11 Y123.313 E.01247
G1 X74.067 Y123.71 E.01252
G1 X73.956 Y124.092 E.01247
G1 X73.779 Y124.45 E.01252
G1 X73.544 Y124.771 E.01247
G1 X73.256 Y125.047 E.01251
G1 X72.925 Y125.268 E.01248
G1 X72.56 Y125.429 E.01251
G1 X72.173 Y125.524 E.01249
G1 X71.775 Y125.55 E.01251
G1 X71.379 Y125.507 E.01249
G1 X70.996 Y125.395 E.01251
G1 X70.639 Y125.219 E.01248
G1 X70.317 Y124.983 E.01252
G1 X70.042 Y124.696 E.01246
G1 X69.82 Y124.364 E.01252
G1 X69.66 Y124 E.01247
G1 X69.565 Y123.612 E.01252
G1 X69.539 Y123.215 E.01247
G1 X69.582 Y122.819 E.01249
G1 X69.676 Y122.479 E.01106
G1 X69.87 Y122.079 E.01394
G1 X70.105 Y121.757 E.0125
G1 X70.393 Y121.481 E.01251
G1 X70.724 Y121.26 E.01248
G1 X71.133 Y121.089 E.0139
G1 X71.682 Y120.989 E.0175
G1 X72.163 Y121.005 E.01509
M204 S1000
G1 X72.156 Y121.385 F6000
M204 S800
;TYPE:External perimeter
G1 F1200
G1 X72.172 Y121.386 E.0005
G1 X72.493 Y121.475 E.01044
G1 X72.794 Y121.618 E.01045
G1 X73.065 Y121.811 E.01043
G1 X73.367 Y122.147 E.01417
G1 X73.614 Y122.595 E.01604
G1 X73.708 Y122.949 E.01148
G1 X73.735 Y123.281 E.01044
G1 X73.703 Y123.612 E.01043
G1 X73.614 Y123.933 E.01044
G1 X73.47 Y124.233 E.01043
G1 X73.277 Y124.504 E.01043
G1 X73.04 Y124.738 E.01044
G1 X72.765 Y124.927 E.01046
G1 X72.462 Y125.065 E.01044
G1 X72.14 Y125.148 E.01043
G1 X71.808 Y125.174 E.01044
G1 X71.477 Y125.142 E.01043
G1 X71.156 Y125.053 E.01044
G1 X70.855 Y124.91 E.01045
G1 X70.584 Y124.717 E.01043
G1 X70.351 Y124.479 E.01044
G1 X70.162 Y124.205 E.01044
G1 X70.024 Y123.902 E.01044
G1 X69.94 Y123.58 E.01043
G1 X69.914 Y123.248 E.01044
G1 X69.946 Y122.916 E.01046
G1 X70.029 Y122.61 E.00994
G1 X70.178 Y122.295 E.01093
G1 X70.372 Y122.024 E.01045
G1 X70.609 Y121.79 E.01044
G1 X70.884 Y121.602 E.01044
G1 X71.201 Y121.46 E.01089
G1 X71.748 Y121.36 E.01744
G1 X72.096 Y121.381 E.01093
M204 S1000
;WIPE_START
G1 F4800
G1 X72.156 Y121.385 E-.02499
G1 X72.172 Y121.386 E-.00666
G1 X72.493 Y121.475 E-.13845
G1 X72.794 Y121.618 E-.1385
G1 X73.065 Y121.811 E-.13828
G1 X73.367 Y122.147 E-.18777
G1 X73.614 Y122.595 E-.21262
G1 X73.708 Y122.949 E-.15223
G1 X73.708 Y122.95 E-.0005
;WIPE_END
G1 Z.4 F720
G1 X153.2 Y98.591 F6000
G1 Z.2 F720
G1 E1 F2100
M204 S800
;TYPE:Perimeter
G1 F1200
G1 X153.073 Y98.11 E.0156
G1 X153.019 Y97.561 E.0173
G1 X153.058 Y96.983 E.01816
G1 X153.185 Y96.443 E.01739
G1 X153.396 Y95.934 E.01728
G1 X153.686 Y95.465 E.01729
G1 X154.029 Y95.067 E.01647
G1 X154.468 Y94.696 E.01802
G1 X154.945 Y94.413 E.01739
G1 X155.447 Y94.215 E.01692
G1 X156.02 Y94.093 E.01837
G1 X156.537 Y94.065 E.01623
G1 X157.076 Y94.122 E.01699
G1 X157.616 Y94.267 E.01753
G1 X158.139 Y94.506 E.01803
G1 X158.598 Y94.815 E.01735
G1 X159 Y95.193 E.0173
G1 X159.336 Y95.63 E.01728
G1 X159.587 Y96.092 E.01649
G1 X159.779 Y96.632 E.01797
G1 X159.875 Y97.178 E.01738
G1 X159.883 Y97.731 E.01734
G1 X159.793 Y98.305 E.01822
G1 X159.634 Y98.802 E.01636
G1 X159.385 Y99.294 E.01729
G1 X159.06 Y99.739 E.01728
G1 X158.668 Y100.128 E.01732
G1 X158.194 Y100.462 E.01818
G1 X157.702 Y100.701 E.01715
G1 X157.206 Y100.852 E.01626
G1 X156.655 Y100.929 E.01744
G1 X156.093 Y100.917 E.01763
G1 X155.584 Y100.82 E.01625
G1 X155.027 Y100.626 E.01849
G1 X154.546 Y100.357 E.01728
G1 X154.113 Y100.015 E.0173
G1 X153.741 Y99.608 E.01729
G1 X153.426 Y99.121 E.01819
G1 X153.217 Y98.649 E.01619
M204 S1000
G1 X153.555 Y98.472 F6000
M204 S800
;TYPE:External perimeter
G1 F1200
G1 X153.436 Y98.004 E.01514
G1 X153.395 Y97.498 E.01592
G1 X153.437 Y96.993 E.01589
G1 X153.561 Y96.506 E.01576
G1 X153.757 Y96.056 E.01539
G1 X154.022 Y95.643 E.01539
G1 X154.332 Y95.297 E.01457
G1 X154.734 Y94.97 E.01625
G1 X155.161 Y94.727 E.0154
G1 X155.611 Y94.559 E.01506
G1 X156.123 Y94.459 E.01636
G1 X156.582 Y94.443 E.0144
G1 X157.172 Y94.533 E.01871
G1 X157.542 Y94.641 E.01209
G1 X158.004 Y94.862 E.01606
G1 X158.406 Y95.144 E.0154
G1 X158.758 Y95.487 E.01541
G1 X159.051 Y95.881 E.0154
G1 X159.265 Y96.294 E.01458
G1 X159.428 Y96.775 E.01592
G1 X159.506 Y97.269 E.01568
G1 X159.503 Y97.763 E.01549
G1 X159.418 Y98.259 E.01578
G1 X159.265 Y98.71 E.01493
G1 X159.035 Y99.144 E.0154
G1 X158.738 Y99.536 E.01542
G1 X158.382 Y99.876 E.01543
G1 X157.968 Y100.159 E.01572
G1 X157.514 Y100.37 E.0157
G1 X157.073 Y100.496 E.01438
G1 X156.576 Y100.557 E.0157
G1 X156.076 Y100.536 E.01569
G1 X155.581 Y100.432 E.01586
G1 X155.133 Y100.26 E.01505
G1 X154.709 Y100.013 E.01539
G1 X154.329 Y99.701 E.01542
G1 X154.004 Y99.332 E.01542
G1 X153.735 Y98.903 E.01588
G1 X153.575 Y98.529 E.01275
M204 S1000
;WIPE_START
G1 F4800
G1 X153.555 Y98.472 E-.02511
G1 X153.436 Y98.004 E-.2007
G1 X153.395 Y97.498 E-.211
G1 X153.437 Y96.993 E-.21062
G1 X153.561 Y96.506 E-.20887
G1 X153.699 Y96.189 E-.1437
;WIPE_END
G1 Z.4 F720
G1 X164.381 Y86.473 F6000
G1 Z.2 F720
G1 E1 F2100
M204 S800
G1 F1200
G1 X164.184 Y86.201 E.01053
G1 X164.04 Y85.886 E.01086
G1 X163.957 Y85.563 E.01046
G1 X163.93 Y85.231 E.01044
G1 X163.962 Y84.9 E.01043
G1 X164.051 Y84.579 E.01044
G1 X164.195 Y84.279 E.01043
G1 X164.388 Y84.007 E.01046
G1 X164.625 Y83.774 E.01042
G1 X164.9 Y83.585 E.01046
G1 X165.217 Y83.444 E.01088
;WIDTH:0.459805
G1 X165.487 Y83.374 E.00967
;WIDTH:0.499611
G1 X165.756 Y83.305 E.01055
;WIDTH:0.516093
G1 X166.201 Y83.323 E.01752
G1 X166.491 Y83.454 E.01252
;WIDTH:0.468046
G1 X166.781 Y83.585 E.01125
;WIDTH:0.419999
G1 X167.081 Y83.795 E.01148
G1 X167.314 Y84.033 E.01044
G1 X167.503 Y84.307 E.01044
G1 X167.641 Y84.61 E.01044
G1 X167.725 Y84.932 E.01043
G1 X167.751 Y85.264 E.01044
G1 X167.719 Y85.596 E.01046
G1 X167.63 Y85.917 E.01044
G1 X167.487 Y86.217 E.01042
G1 X167.293 Y86.488 E.01045
G1 X167.056 Y86.722 E.01044
G1 X166.781 Y86.91 E.01044
G1 X166.478 Y87.048 E.01044
G1 X166.156 Y87.132 E.01043
G1 X165.824 Y87.158 E.01044
G1 X165.493 Y87.126 E.01043
G1 X165.172 Y87.037 E.01044
G1 X164.858 Y86.884 E.01095
G1 X164.421 Y86.517 E.01789
M204 S1000
;WIPE_START
G1 F4800
G1 X164.381 Y86.473 E-.02471
G1 X164.184 Y86.201 E-.13959
G1 X164.04 Y85.886 E-.14395
G1 X163.957 Y85.563 E-.13861
G1 X163.93 Y85.231 E-.13844
G1 X163.962 Y84.9 E-.13821
G1 X164.051 Y84.579 E-.13845
G1 X164.194 Y84.279 E-.13804
;WIPE_END
G1 Z.4 F720
G1 X165.835 Y120.987 F6000
G1 Z.2 F720
G1 E1 F2100
M204 S800
;TYPE:Perimeter
G1 F1200
G1 X166.198 Y120.999 E.01139
G1 X166.663 Y121.126 E.01511
G1 X167.075 Y121.34 E.01456
G1 X167.342 Y121.538 E.01042
G1 X167.618 Y121.825 E.01248
G1 X167.84 Y122.157 E.01252
G1 X168 Y122.521 E.01247
G1 X168.095 Y122.909 E.01252
G1 X168.121 Y123.306 E.01247
G1 X168.078 Y123.702 E.01249
G1 X167.966 Y124.085 E.01251
G1 X167.79 Y124.442 E.01248
G1 X167.555 Y124.764 E.0125
G1 X167.267 Y125.04 E.01251
G1 X166.936 Y125.261 E.01248
G1 X166.571 Y125.422 E.01251
G1 X166.184 Y125.516 E.01249
G1 X165.786 Y125.543 E.01251
G1 X165.39 Y125.499 E.01249
G1 X165.007 Y125.388 E.0125
G1 X164.65 Y125.212 E.01248
G1 X164.328 Y124.976 E.01252
G1 X164.053 Y124.688 E.01249
G1 X163.831 Y124.357 E.0125
G1 X163.671 Y123.992 E.0125
