; generated by PrusaSlicer 2.9.4 on 2026-03-05 at 15:23:12 UTC


;
;

;
;
; 

; external perimeters extrusion width = 0.45mm
; perimeters extrusion width = 0.45mm
; infill extrusion width = 0.45mm
; solid infill extrusion width = 0.45mm
; top infill extrusion width = 0.40mm
; first layer extrusion width = 0.42mm

M73 P0 R80
M201 X9000 Y9000 Z500 E10000 ; sets maximum accelerations, mm/sec^2
M203 X500 Y500 Z12 E120 ; sets maximum feedrates, mm / sec
M204 S2000 T1500 ; sets acceleration (S) and retract acceleration (R), mm/sec^2
M205 X10.00 Y10.00 Z0.20 E4.50 ; sets the jerk limits, mm/sec
M205 S0 T0 ; sets the minimum extruding and travel feed rate, mm/sec

; printing object Anchor_SKR_Bear_Short_1.stl id:0 copy 0
; stop printing object Anchor_SKR_Bear_Short_1.stl id:0 copy 0

;TYPE:Custom
M83  ; extruder relative mode
M140 S85 ; set bed temp
M109 S160 ; Set extruder temp before bed level
M190 S85 ; wait for bed temp

G28 W ; home all without mesh bed level
G80 N7 ; mesh bed leveling

M109 S240 ; wait for extruder temp

M221 S100 ; Set flow to 100

G1 Y-3.0 F1000.0 ; go outside print area
G92 E0.0
G1 E8 ; Purge Bubble
G1 X60.0 E9.0 F1000.0 ; intro line
G1 X100.0 E12.5 F1000.0 ; intro line
M73 P0 R79
G92 E0.0
G21 ; set units to millimeters
G90 ; use absolute coordinates
M83 ; use relative distances for extrusion

M900 K0.08 ; Filament gcode LA 1.5
M900 K45 ; Filament gcode LA 1.0




M107
;LAYER_CHANGE
;Z:0.2
;HEIGHT:0.2
G1 E-1 F2100
G1 Z.4 F720
G1 X44.102 Y80.452 F6000
G1 Z.2 F720
G1 E1 F2100
M204 S800
;TYPE:Skirt/Brim
;WIDTH:0.42
G1 F1200
G1 X45.65 Y79.811 E.05253
G1 X201.85 Y79.811 E4.89754
G1 X203.098 Y80.202 E.04101
G1 X203.999 Y81.585 E.05175
G1 X207.039 Y97.529 E.50892
G1 X207.039 Y128.5 E.97107
G1 X206.648 Y129.748 E.04101
G1 X205.615 Y130.551 E.04102
G1 X204.85 Y130.689 E.02437
G1 X45.25 Y130.689 E5.00415
G1 X44.002 Y130.298 E.04101
G1 X43.199 Y129.265 E.04102
G1 X43.061 Y128.5 E.02437
G1 X43.061 Y82.4 E1.44543
G1 X43.702 Y80.852 E.05253
G1 X44.06 Y80.495 E.01585
M204 S1000
;WIPE_START
G1 F4800
G1 X44.102 Y80.452 E-.02498
G1 X45.65 Y79.811 E-.69637
G1 X46.32 Y79.811 E-.27865
;WIPE_END
G1 Z.4 F720
; printing object Anchor_SKR_Bear_Short_1.stl id:0 copy 0
G1 X105.747 Y116.033 F6000
G1 Z.2 F720
G1 E1 F2100
M204 S800
;TYPE:Perimeter
;WIDTH:0.419999
G1 F1200
G1 X105.99 Y115.597 E.01565
G1 X106.331 Y115.163 E.01731
G1 X106.76 Y114.774 E.01816
G1 X107.225 Y114.473 E.01737
G1 X107.744 Y114.248 E.01774
G1 X108.244 Y114.118 E.0162
G1 X108.783 Y114.066 E.01698
G1 X109.365 Y114.103 E.01829
G1 X109.892 Y114.226 E.01697
G1 X110.395 Y114.431 E.01703
G1 X110.888 Y114.734 E.01814
G1 X111.306 Y115.098 E.01738
G1 X111.659 Y115.522 E.0173
G1 X111.927 Y115.972 E.01642
G1 X112.139 Y116.507 E.01804
G1 X112.256 Y117.05 E.01742
G1 X112.284 Y117.6 E.01727
G1 X112.224 Y118.149 E.01732
G1 X112.085 Y118.655 E.01645
G1 X111.848 Y119.178 E.018
G1 X111.539 Y119.639 E.0174
G1 X111.139 Y120.06 E.01821
G1 X110.725 Y120.38 E.01641
G1 X110.243 Y120.641 E.01719
G1 X109.708 Y120.827 E.01776
G1 X109.153 Y120.922 E.01765
G1 X108.591 Y120.925 E.01762
G1 X108.08 Y120.849 E.0162
G1 X107.564 Y120.685 E.01698
G1 X107.055 Y120.43 E.01785
G1 X106.606 Y120.102 E.01743
G1 X106.218 Y119.71 E.01729
G1 X105.885 Y119.234 E.01821
G1 X105.655 Y118.765 E.01638
G1 X105.494 Y118.238 E.01728
G1 X105.419 Y117.691 E.01731
G1 X105.433 Y117.14 E.01728
G1 X105.543 Y116.57 E.0182
G1 X105.72 Y116.086 E.01616
M204 S1000
G1 X106.085 Y116.192 F6000
M204 S800
;TYPE:External perimeter
G1 F1200
G1 X106.088 Y116.184 E.00027
G1 X106.334 Y115.759 E.0154
G1 X106.646 Y115.378 E.01544
G1 X107.023 Y115.045 E.01577
G1 X107.453 Y114.778 E.01587
G1 X107.916 Y114.587 E.0157
G1 X108.363 Y114.479 E.01442
G1 X108.845 Y114.441 E.01516
G1 X109.346 Y114.48 E.01576
G1 X109.83 Y114.602 E.01565
G1 X110.275 Y114.793 E.01518
G1 X110.699 Y115.062 E.01574
G1 X111.076 Y115.401 E.0159
G1 X111.383 Y115.783 E.01537
G1 X111.613 Y116.188 E.0146
G1 X111.793 Y116.661 E.01587
G1 X111.89 Y117.154 E.01575
G1 X111.906 Y117.645 E.0154
G1 X111.844 Y118.132 E.01539
G1 X111.712 Y118.578 E.01458
G1 X111.491 Y119.046 E.01623
G1 X111.208 Y119.45 E.01547
G1 X110.848 Y119.816 E.0161
G1 X110.473 Y120.094 E.01464
G1 X110.04 Y120.319 E.0153
G1 X109.562 Y120.476 E.01578
G1 X109.065 Y120.552 E.01576
G1 X108.565 Y120.545 E.01568
G1 X108.112 Y120.469 E.0144
G1 X107.654 Y120.316 E.01514
G1 X107.201 Y120.078 E.01604
G1 X106.81 Y119.781 E.0154
G1 X106.47 Y119.424 E.01546
G1 X106.183 Y118.997 E.01613
G1 X105.985 Y118.575 E.01462
G1 X105.85 Y118.103 E.01539
G1 X105.792 Y117.615 E.01541
G1 X105.812 Y117.133 E.01513
G1 X105.915 Y116.636 E.01591
G1 X106.063 Y116.248 E.01302
M204 S1000
;WIPE_START
G1 F4800
G1 X106.085 Y116.192 E-.02501
G1 X106.088 Y116.184 E-.00355
G1 X106.334 Y115.759 E-.2041
G1 X106.646 Y115.378 E-.20467
G1 X107.023 Y115.045 E-.20906
G1 X107.453 Y114.778 E-.21037
G1 X107.772 Y114.647 E-.14324
;WIPE_END
G1 Z.4 F720
G1 X78.808 Y99.333 F6000
G1 Z.2 F720
G1 E1 F2100
M204 S800
;TYPE:Perimeter
G1 F1200
G1 X78.512 Y99.739 E.01575
G1 X78.12 Y100.128 E.01732
G1 X77.646 Y100.462 E.01818
G1 X77.155 Y100.701 E.01712
G1 X76.658 Y100.852 E.01629
G1 X76.108 Y100.929 E.01741
G1 X75.546 Y100.917 E.01763
G1 X74.987 Y100.81 E.01785
G1 X74.479 Y100.626 E.01694
G1 X73.998 Y100.357 E.01728
G1 X73.565 Y100.015 E.0173
G1 X73.193 Y99.608 E.01729
G1 X72.878 Y99.121 E.01819
G1 X72.666 Y98.641 E.01645
G1 X72.525 Y98.11 E.01723
G1 X72.471 Y97.561 E.0173
G1 X72.51 Y96.983 E.01816
G1 X72.635 Y96.454 E.01704
G1 X72.848 Y95.934 E.01762
G1 X73.138 Y95.465 E.01729
G1 X73.481 Y95.067 E.01647
G1 X73.92 Y94.696 E.01802
G1 X74.398 Y94.413 E.01742
G1 X74.9 Y94.215 E.01692
G1 X75.472 Y94.093 E.01834
G1 X75.99 Y94.065 E.01627
G1 X76.528 Y94.122 E.01696
G1 X77.068 Y94.267 E.01753
G1 X77.591 Y94.506 E.01803
G1 X78.05 Y94.815 E.01735
G1 X78.452 Y95.193 E.0173
G1 X78.789 Y95.63 E.0173
G1 X79.039 Y96.092 E.01647
G1 X79.231 Y96.632 E.01797
G1 X79.328 Y97.178 E.01739
G1 X79.335 Y97.731 E.01734
G1 X79.245 Y98.305 E.01822
G1 X79.086 Y98.802 E.01636
G1 X78.842 Y99.284 E.01694
M204 S1000
G1 X78.493 Y99.133 F6000
M204 S800
;TYPE:External perimeter
G1 F1200
G1 X78.487 Y99.144 E.00039
G1 X78.191 Y99.536 E.0154
G1 X77.834 Y99.876 E.01546
G1 X77.416 Y100.161 E.01586
G1 X76.967 Y100.37 E.01553
G1 X76.525 Y100.496 E.01441
G1 X76.029 Y100.557 E.01567
G1 X75.528 Y100.536 E.01572
G1 X75.033 Y100.432 E.01586
G1 X74.586 Y100.26 E.01502
G1 X74.161 Y100.013 E.01541
G1 X73.725 Y99.638 E.01803
G1 X73.424 Y99.282 E.01462
G1 X73.183 Y98.894 E.01432
G1 X73.003 Y98.465 E.01459
G1 X72.885 Y97.978 E.01571
G1 X72.847 Y97.525 E.01425
G1 X72.886 Y97.013 E.0161
G1 X73.007 Y96.521 E.01589
G1 X73.209 Y96.056 E.0159
G1 X73.474 Y95.643 E.01539
G1 X73.953 Y95.158 E.02137
G1 X74.248 Y94.934 E.01161
G1 X74.613 Y94.727 E.01316
G1 X75.063 Y94.559 E.01506
G1 X75.575 Y94.459 E.01636
G1 X76.035 Y94.443 E.01443
G1 X76.513 Y94.502 E.0151
G1 X76.995 Y94.641 E.01573
G1 X77.456 Y94.862 E.01603
G1 X77.859 Y95.144 E.01542
G1 X78.211 Y95.487 E.01541
G1 X78.503 Y95.881 E.01538
G1 X78.717 Y96.294 E.01458
G1 X78.879 Y96.769 E.01574
G1 X78.958 Y97.269 E.01587
G1 X78.955 Y97.763 E.01549
G1 X78.87 Y98.258 E.01575
G1 X78.717 Y98.71 E.01496
G1 X78.521 Y99.08 E.01313
M204 S1000
;WIPE_START
G1 F4800
G1 X78.493 Y99.133 E-.02491
G1 X78.487 Y99.144 E-.00521
G1 X78.191 Y99.536 E-.20416
G1 X77.834 Y99.876 E-.2049
G1 X77.416 Y100.161 E-.21027
G1 X76.967 Y100.37 E-.20584
G1 X76.632 Y100.465 E-.14471
;WIPE_END
G1 Z.4 F720
G1 X67.803 Y86.497 F6000
G1 Z.2 F720
G1 E1 F2100
M204 S800
G1 F1200
G1 X67.75 Y86.567 E.00275
G1 X67.317 Y86.922 E.01756
G1 X66.986 Y87.077 E.01146
G1 X66.664 Y87.16 E.01043
G1 X66.332 Y87.187 E.01044
G1 X65.915 Y87.132 E.01319
G1 X65.407 Y86.939 E.01704
G1 X65.108 Y86.729 E.01146
G1 X64.874 Y86.492 E.01044
G1 X64.686 Y86.217 E.01044
G1 X64.548 Y85.914 E.01044
G1 X64.464 Y85.592 E.01043
G1 X64.438 Y85.26 E.01044
G1 X64.47 Y84.929 E.01043
G1 X64.559 Y84.608 E.01044
G1 X64.702 Y84.307 E.01045
G1 X64.895 Y84.036 E.01043
G1 X65.133 Y83.803 E.01044
G1 X65.407 Y83.614 E.01044
G1 X65.725 Y83.473 E.01091
;WIDTH:0.466922
G1 X65.993 Y83.399 E.0098
;WIDTH:0.513844
G1 X66.262 Y83.326 E.01091
;WIDTH:0.530619
G1 X66.71 Y83.345 E.01818
G1 X66.903 Y83.434 E.00862
;WIDTH:0.493746
G1 X67.096 Y83.524 E.00798
;WIDTH:0.456873
G1 X67.289 Y83.614 E.00733
;WIDTH:0.419999
G1 X67.588 Y83.824 E.01146
G1 X67.822 Y84.061 E.01044
G1 X68.011 Y84.336 E.01046
G1 X68.149 Y84.639 E.01044
G1 X68.232 Y84.961 E.01043
G1 X68.258 Y85.293 E.01044
G1 X68.226 Y85.624 E.01043
G1 X68.137 Y85.945 E.01044
G1 X67.994 Y86.246 E.01045
G1 X67.839 Y86.45 E.00803
M204 S1000
;WIPE_START
G1 F4800
G1 X67.803 Y86.497 E-.02461
G1 X67.75 Y86.567 E-.03649
G1 X67.317 Y86.922 E-.23272
G1 X66.986 Y87.077 E-.15191
G1 X66.664 Y87.16 E-.13821
G1 X66.332 Y87.187 E-.13844
G1 X65.915 Y87.132 E-.17482
G1 X65.684 Y87.044 E-.1028
;WIPE_END
G1 Z.4 F720
G1 X66.736 Y121.015 F6000
G1 Z.2 F720
G1 E1 F2100
M204 S800
;TYPE:Perimeter
G1 F1200
G1 X67.168 Y121.133 E.01404
G1 X67.525 Y121.309 E.01248
G1 X67.846 Y121.545 E.01249
G1 X68.191 Y121.931 E.01623
G1 X68.471 Y122.436 E.0181
G1 X68.599 Y122.916 E.01558
G1 X68.625 Y123.313 E.01247
G1 X68.582 Y123.71 E.01252
G1 X68.471 Y124.092 E.01247
G1 X68.294 Y124.45 E.01252
G1 X68.059 Y124.771 E.01247
G1 X67.771 Y125.047 E.01251
G1 X67.44 Y125.268 E.01248
G1 X67.075 Y125.429 E.01251
G1 X66.688 Y125.524 E.01249
G1 X66.29 Y125.55 E.01251
G1 X65.894 Y125.507 E.01249
G1 X65.511 Y125.395 E.01251
G1 X65.154 Y125.219 E.01248
G1 X64.832 Y124.983 E.01252
G1 X64.557 Y124.696 E.01246
G1 X64.335 Y124.364 E.01252
G1 X64.175 Y124 E.01247
G1 X64.08 Y123.612 E.01252
G1 X64.054 Y123.215 E.01247
G1 X64.097 Y122.819 E.01249
G1 X64.208 Y122.436 E.0125
G1 X64.385 Y122.079 E.01249
G1 X64.62 Y121.757 E.0125
G1 X64.908 Y121.481 E.01251
G1 X65.239 Y121.26 E.01248
G1 X65.648 Y121.089 E.0139
G1 X66.197 Y120.989 E.0175
G1 X66.678 Y121.005 E.01509
M204 S1000
G1 X66.671 Y121.385 F6000
M204 S800
;TYPE:External perimeter
G1 F1200
G1 X66.687 Y121.386 E.0005
G1 X67.008 Y121.475 E.01044
G1 X67.309 Y121.618 E.01045
G1 X67.58 Y121.811 E.01043
G1 X67.882 Y122.147 E.01417
G1 X68.129 Y122.595 E.01604
G1 X68.223 Y122.949 E.01148
G1 X68.25 Y123.281 E.01044
G1 X68.218 Y123.612 E.01043
G1 X68.129 Y123.933 E.01044
G1 X67.985 Y124.233 E.01043
G1 X67.792 Y124.504 E.01043
G1 X67.555 Y124.738 E.01044
G1 X67.28 Y124.927 E.01046
G1 X66.977 Y125.065 E.01044
G1 X66.655 Y125.148 E.01043
G1 X66.323 Y125.174 E.01044
G1 X65.992 Y125.142 E.01043
G1 X65.671 Y125.053 E.01044
G1 X65.37 Y124.91 E.01045
G1 X65.099 Y124.717 E.01043
G1 X64.866 Y124.479 E.01044
G1 X64.677 Y124.205 E.01044
G1 X64.539 Y123.902 E.01044
G1 X64.455 Y123.58 E.01043
G1 X64.429 Y123.248 E.01044
G1 X64.461 Y122.916 E.01046
G1 X64.55 Y122.595 E.01044
G1 X64.693 Y122.295 E.01042
G1 X64.887 Y122.024 E.01045
G1 X65.124 Y121.79 E.01044
G1 X65.399 Y121.602 E.01044
G1 X65.716 Y121.46 E.01089
G1 X66.263 Y121.36 E.01744
G1 X66.611 Y121.381 E.01093
M204 S1000
;WIPE_START
G1 F4800
G1 X66.671 Y121.385 E-.02499
G1 X66.687 Y121.386 E-.00666
G1 X67.008 Y121.475 E-.13845
G1 X67.309 Y121.618 E-.1385
G1 X67.58 Y121.811 E-.13828
G1 X67.882 Y122.147 E-.18777
G1 X68.129 Y122.595 E-.21262
G1 X68.223 Y122.949 E-.15223
G1 X68.223 Y122.95 E-.0005
;WIPE_END
G1 Z.4 F720
G1 X147.715 Y98.591 F6000
G1 Z.2 F720
G1 E1 F2100
M204 S800
;TYPE:Perimeter
G1 F1200
G1 X147.579 Y98.067 E.01697
G1 X147.534 Y97.561 E.01593
G1 X147.573 Y96.983 E.01816
G1 X147.7 Y96.443 E.01739
G1 X147.911 Y95.934 E.01728
G1 X148.201 Y95.465 E.01729
G1 X148.544 Y95.067 E.01647
G1 X148.983 Y94.696 E.01802
G1 X149.46 Y94.413 E.01739
G1 X149.962 Y94.215 E.01692
G1 X150.535 Y94.093 E.01837
G1 X151.052 Y94.065 E.01623
G1 X151.591 Y94.122 E.01699
G1 X152.131 Y94.267 E.01753
G1 X152.654 Y94.506 E.01803
G1 X153.113 Y94.815 E.01735
G1 X153.515 Y95.193 E.0173
G1 X153.851 Y95.63 E.01728
G1 X154.102 Y96.092 E.01649
G1 X154.294 Y96.632 E.01797
G1 X154.39 Y97.178 E.01738
G1 X154.398 Y97.731 E.01734
G1 X154.308 Y98.305 E.01822
G1 X154.149 Y98.802 E.01636
G1 X153.9 Y99.294 E.01729
G1 X153.575 Y99.739 E.01728
G1 X153.183 Y100.128 E.01732
G1 X152.709 Y100.462 E.01818
G1 X152.217 Y100.701 E.01715
G1 X151.721 Y100.852 E.01626
G1 X151.17 Y100.929 E.01744
G1 X150.608 Y100.917 E.01763
G1 X150.098 Y100.82 E.01628
G1 X149.542 Y100.626 E.01846
G1 X149.061 Y100.357 E.01728
G1 X148.628 Y100.015 E.0173
G1 X148.256 Y99.608 E.01729
G1 X147.941 Y99.121 E.01819
G1 X147.732 Y98.649 E.01619
M204 S1000
G1 X148.069 Y98.473 F6000
M204 S800
;TYPE:External perimeter
G1 F1200
G1 X148.066 Y98.465 E.00027
G1 X147.949 Y97.988 E.0154
G1 X147.91 Y97.498 E.01541
G1 X147.952 Y96.993 E.01589
G1 X148.076 Y96.506 E.01576
G1 X148.272 Y96.056 E.01539
G1 X148.537 Y95.643 E.01539
G1 X148.847 Y95.297 E.01457
G1 X149.249 Y94.97 E.01625
G1 X149.676 Y94.727 E.0154
G1 X150.126 Y94.559 E.01506
G1 X150.638 Y94.459 E.01636
G1 X151.097 Y94.443 E.0144
G1 X151.687 Y94.533 E.01871
G1 X152.057 Y94.641 E.01209
G1 X152.514 Y94.859 E.01588
G1 X152.921 Y95.144 E.01558
G1 X153.273 Y95.487 E.01541
G1 X153.566 Y95.881 E.0154
G1 X153.78 Y96.293 E.01456
G1 X153.943 Y96.775 E.01595
G1 X154.021 Y97.269 E.01568
G1 X154.018 Y97.763 E.01549
G1 X153.933 Y98.259 E.01578
G1 X153.78 Y98.71 E.01493
G1 X153.55 Y99.144 E.0154
G1 X153.253 Y99.536 E.01542
G1 X152.897 Y99.876 E.01543
G1 X152.483 Y100.159 E.01572
G1 X152.029 Y100.37 E.0157
G1 X151.588 Y100.496 E.01438
G1 X151.091 Y100.557 E.0157
G1 X150.591 Y100.536 E.01569
G1 X150.096 Y100.432 E.01586
G1 X149.648 Y100.26 E.01505
G1 X149.224 Y100.013 E.01539
G1 X148.844 Y99.701 E.01542
G1 X148.519 Y99.332 E.01542
G1 X148.25 Y98.903 E.01588
G1 X148.092 Y98.528 E.01276
M204 S1000
;WIPE_START
G1 F4800
G1 X148.069 Y98.473 E-.02478
G1 X148.066 Y98.465 E-.00355
G1 X147.949 Y97.988 E-.20413
G1 X147.91 Y97.498 E-.2043
G1 X147.952 Y96.993 E-.21062
G1 X148.076 Y96.506 E-.20887
G1 X148.214 Y96.189 E-.14375
;WIPE_END
G1 Z.4 F720
G1 X159.401 Y86.901 F6000
G1 Z.2 F720
G1 E1 F2100
M204 S800
G1 F1200
G1 X159.386 Y86.894 E.00052
G1 X159.115 Y86.701 E.01043
G1 X158.882 Y86.463 E.01044
G1 X158.694 Y86.191 E.01037
G1 X158.555 Y85.886 E.01051
G1 X158.472 Y85.563 E.01046
G1 X158.445 Y85.231 E.01044
G1 X158.477 Y84.9 E.01043
G1 X158.566 Y84.579 E.01044
G1 X158.71 Y84.279 E.01043
G1 X158.903 Y84.007 E.01046
G1 X159.14 Y83.774 E.01042
G1 X159.415 Y83.585 E.01046
G1 X159.732 Y83.444 E.01088
;WIDTH:0.459806
G1 X160.002 Y83.374 E.00967
;WIDTH:0.499613
G1 X160.271 Y83.305 E.01055
;WIDTH:0.516092
G1 X160.716 Y83.323 E.01752
G1 X161.006 Y83.454 E.01252
;WIDTH:0.468046
G1 X161.296 Y83.585 E.01125
;WIDTH:0.419999
G1 X161.596 Y83.795 E.01148
G1 X161.829 Y84.033 E.01044
G1 X162.018 Y84.307 E.01044
G1 X162.156 Y84.61 E.01044
G1 X162.24 Y84.932 E.01043
G1 X162.266 Y85.264 E.01044
G1 X162.234 Y85.596 E.01046
G1 X162.145 Y85.917 E.01044
G1 X162.002 Y86.217 E.01042
G1 X161.808 Y86.488 E.01045
G1 X161.571 Y86.722 E.01044
G1 X161.296 Y86.91 E.01044
G1 X160.993 Y87.048 E.01044
G1 X160.671 Y87.132 E.01043
G1 X160.339 Y87.158 E.01044
G1 X160.008 Y87.126 E.01043
G1 X159.687 Y87.037 E.01044
G1 X159.455 Y86.927 E.00805
M204 S1000
;WIPE_START
G1 F4800
G1 X159.401 Y86.901 E-.02491
G1 X159.386 Y86.894 E-.00688
G1 X159.115 Y86.701 E-.13828
G1 X158.882 Y86.463 E-.13843
G1 X158.694 Y86.191 E-.13743
G1 X158.555 Y85.886 E-.13931
G1 X158.472 Y85.563 E-.13861
G1 X158.445 Y85.231 E-.13844
G1 X158.477 Y84.901 E-.13771
;WIPE_END
G1 Z.4 F720
G1 X160.747 Y121.008 F6000
G1 Z.2 F720
G1 E1 F2100
M204 S800
;TYPE:Perimeter
G1 F1200
G1 X161.178 Y121.126 E.01401
G1 X161.59 Y121.34 E.01456
G1 X161.857 Y121.538 E.01042
G1 X162.133 Y121.825 E.01248
G1 X162.355 Y122.157 E.01252
G1 X162.515 Y122.521 E.01247
G1 X162.61 Y122.909 E.01252
G1 X162.636 Y123.306 E.01247
G1 X162.593 Y123.702 E.01249
G1 X162.481 Y124.085 E.01251
G1 X162.305 Y124.442 E.01248
G1 X162.07 Y124.764 E.0125
G1 X161.782 Y125.04 E.01251
G1 X161.451 Y125.261 E.01248
G1 X161.086 Y125.422 E.01251
G1 X160.699 Y125.516 E.01249
G1 X160.301 Y125.543 E.01251
G1 X159.905 Y125.499 E.01249
G1 X159.522 Y125.388 E.0125
