; generated by PrusaSlicer 2.9.4 on 2026-03-05 at 15:07:16 UTC


;
;

;
;
; 

; external perimeters extrusion width = 0.45mm
; perimeters extrusion width = 0.45mm
; infill extrusion width = 0.45mm
; solid infill extrusion width = 0.45mm
; top infill extrusion width = 0.40mm
; support material extrusion width = 0.35mm
; first layer extrusion width = 0.42mm

M73 P0 R85
M201 X9000 Y9000 Z500 E10000 ; sets maximum accelerations, mm/sec^2
M203 X500 Y500 Z12 E120 ; sets maximum feedrates, mm / sec
M204 S2000 T1500 ; sets acceleration (S) and retract acceleration (R), mm/sec^2
M205 X10.00 Y10.00 Z0.20 E4.50 ; sets the jerk limits, mm/sec
M205 S0 T0 ; sets the minimum extruding and travel feed rate, mm/sec

; printing object Bear_MK3_Raspberry_P4B_Cover.stl id:0 copy 0
; stop printing object Bear_MK3_Raspberry_P4B_Cover.stl id:0 copy 0

;TYPE:Custom
M83  ; extruder relative mode
M140 S85 ; set bed temp
M109 S160 ; Set extruder temp before bed level
M190 S85 ; wait for bed temp

G28 W ; home all without mesh bed level
G80 N7 ; mesh bed leveling

M109 S240 ; wait for extruder temp

M221 S100 ; Set flow to 100

G1 Y-3.0 F1000.0 ; go outside print area
G92 E0.0
G1 E8 ; Purge Bubble
G1 X60.0 E9.0 F1000.0 ; intro line
G1 X100.0 E12.5 F1000.0 ; intro line
G92 E0.0
G21 ; set units to millimeters
G90 ; use absolute coordinates
M83 ; use relative distances for extrusion

M900 K0.08 ; Filament gcode LA 1.5
M900 K45 ; Filament gcode LA 1.0




M107
;LAYER_CHANGE
;Z:0.2
;HEIGHT:0.2
G1 E-1 F2100
G1 Z.4 F720
G1 X62.546 Y74.652 F6000
G1 Z.2 F720
G1 E1 F2100
M204 S800
;TYPE:Skirt/Brim
;WIDTH:0.42
G1 F1200
G1 X67.137 Y71.406 E.17629
G1 X68.398 Y71.005 E.04149
G1 X186.231 Y70.905 E3.69457
G1 X187.479 Y71.296 E.04101
G1 X188.282 Y72.329 E.04102
G1 X188.42 Y73.093 E.02434
G1 X188.379 Y96.879 E.74579
G1 X187.738 Y98.422 E.05239
G1 X184.084 Y102.069 E.16187
G1 X146.343 Y135.501 E1.58085
G1 X144.892 Y136.052 E.04866
G1 X100.804 Y136.052 E1.38235
G1 X99.77 Y135.792 E.03343
G1 X64.779 Y117.03 E1.24488
G1 X62.545 Y115.469 E.08545
G1 X61.753 Y114.429 E.04099
G1 X61.621 Y113.683 E.02375
G1 X61.621 Y76.439 E1.16776
G1 X62.012 Y75.191 E.04101
G1 X62.504 Y74.695 E.0219
M204 S1000
;WIPE_START
G1 F4800
G1 X62.546 Y74.652 E-.02498
G1 X64.461 Y73.298 E-.97502
;WIPE_END
G1 Z.4 F720
; printing object Bear_MK3_Raspberry_P4B_Cover.stl id:0 copy 0
G1 X181.265 Y76.83 F6000
G1 Z.2 F720
G1 E1 F2100
M204 S800
;TYPE:Support material interface
;WIDTH:0.35
G1 F1200
G1 X181.701 Y77.098 E.01307
G1 X182.554 Y77.934 E.0305
G1 X182.554 Y78.651 E.01831
G1 X182.224 Y78.321 E.01192
G1 X182.224 Y77.78 E.01381
G1 X182.129 Y77.597 E.00526
G1 X181.567 Y77.2 E.01757
G1 X181.063 Y77.16 E.01291
G1 X180.733 Y76.83 E.01192
G1 X180.015 Y76.83 E.01833
G1 X180.346 Y77.16 E.01193
G1 X179.628 Y77.16 E.01833
G1 X179.298 Y76.83 E.01192
G1 X178.581 Y76.83 E.01831
G1 X178.911 Y77.16 E.01192
G1 X178.194 Y77.16 E.01831
G1 X177.864 Y76.83 E.01192
G1 X177.147 Y76.83 E.01831
G1 X177.477 Y77.16 E.01192
G1 X176.76 Y77.16 E.01831
G1 X176.43 Y76.83 E.01192
G1 X175.713 Y76.83 E.01831
G1 X176.043 Y77.16 E.01192
G1 X175.326 Y77.16 E.01831
G1 X174.996 Y76.83 E.01192
G1 X174.279 Y76.83 E.01831
G1 X174.609 Y77.16 E.01192
G1 X173.891 Y77.16 E.01833
G1 X173.561 Y76.83 E.01192
G1 X172.844 Y76.83 E.01831
G1 X173.174 Y77.16 E.01192
G1 X172.457 Y77.16 E.01831
G1 X172.127 Y76.83 E.01192
G1 X171.41 Y76.83 E.01831
G1 X171.74 Y77.16 E.01192
G1 X171.023 Y77.16 E.01831
G1 X170.693 Y76.83 E.01192
G1 X169.976 Y76.83 E.01831
G1 X170.306 Y77.16 E.01192
G1 X169.589 Y77.16 E.01831
G1 X169.259 Y76.83 E.01192
G1 X168.542 Y76.83 E.01831
G1 X168.872 Y77.16 E.01192
G1 X168.154 Y77.16 E.01833
G1 X167.824 Y76.83 E.01192
G1 X167.107 Y76.83 E.01831
G1 X167.437 Y77.16 E.01192
G1 X166.72 Y77.16 E.01831
G1 X166.39 Y76.83 E.01192
G1 X165.673 Y76.83 E.01831
G1 X166.003 Y77.16 E.01192
G1 X165.286 Y77.16 E.01831
G1 X164.956 Y76.83 E.01192
G1 X164.239 Y76.83 E.01831
G1 X164.569 Y77.16 E.01192
G1 X163.852 Y77.16 E.01831
G1 X163.522 Y76.83 E.01192
G1 X162.805 Y76.83 E.01831
G1 X163.135 Y77.16 E.01192
G1 X162.418 Y77.16 E.01831
G1 X162.088 Y76.83 E.01192
G1 X161.37 Y76.83 E.01833
G1 X161.7 Y77.16 E.01192
G1 X160.983 Y77.16 E.01831
G1 X160.653 Y76.83 E.01192
G1 X159.936 Y76.83 E.01831
G1 X160.266 Y77.16 E.01192
G1 X159.549 Y77.16 E.01831
G1 X159.219 Y76.83 E.01192
G1 X158.502 Y76.83 E.01831
G1 X158.832 Y77.16 E.01192
G1 X158.115 Y77.16 E.01831
G1 X157.785 Y76.83 E.01192
G1 X157.068 Y76.83 E.01831
G1 X157.398 Y77.16 E.01192
G1 X156.681 Y77.16 E.01831
G1 X156.351 Y76.83 E.01192
G1 X155.633 Y76.83 E.01833
G1 X155.963 Y77.16 E.01192
G1 X155.246 Y77.16 E.01831
G1 X154.916 Y76.83 E.01192
G1 X154.199 Y76.83 E.01831
G1 X154.529 Y77.16 E.01192
G1 X153.812 Y77.16 E.01831
G1 X153.482 Y76.83 E.01192
G1 X152.765 Y76.83 E.01831
G1 X153.095 Y77.16 E.01192
G1 X152.378 Y77.16 E.01831
G1 X152.048 Y76.83 E.01192
G1 X151.331 Y76.83 E.01831
G1 X151.661 Y77.16 E.01192
G1 X150.944 Y77.16 E.01831
G1 X150.614 Y76.83 E.01192
G1 X149.897 Y76.83 E.01831
G1 X150.227 Y77.16 E.01192
G1 X149.509 Y77.16 E.01833
G1 X149.179 Y76.83 E.01192
G1 X148.462 Y76.83 E.01831
G1 X148.792 Y77.16 E.01192
G1 X148.075 Y77.16 E.01831
G1 X147.745 Y76.83 E.01192
G1 X147.028 Y76.83 E.01831
G1 X147.358 Y77.16 E.01192
G1 X146.641 Y77.16 E.01831
G1 X146.311 Y76.83 E.01192
G1 X145.594 Y76.83 E.01831
G1 X145.924 Y77.16 E.01192
G1 X145.207 Y77.16 E.01831
G1 X144.877 Y76.83 E.01192
G1 X144.16 Y76.83 E.01831
G1 X144.49 Y77.16 E.01192
G1 X143.772 Y77.16 E.01833
G1 X143.442 Y76.83 E.01192
G1 X142.725 Y76.83 E.01831
G1 X143.055 Y77.16 E.01192
G1 X142.338 Y77.16 E.01831
G1 X142.008 Y76.83 E.01192
G1 X141.291 Y76.83 E.01831
G1 X141.621 Y77.16 E.01192
G1 X140.904 Y77.16 E.01831
G1 X140.574 Y76.83 E.01192
G1 X139.857 Y76.83 E.01831
G1 X140.187 Y77.16 E.01192
G1 X139.47 Y77.16 E.01831
G1 X139.14 Y76.83 E.01192
G1 X138.423 Y76.83 E.01831
G1 X138.753 Y77.16 E.01192
G1 X138.036 Y77.16 E.01831
G1 X137.705 Y76.83 E.01193
G1 X136.988 Y76.83 E.01831
G1 X137.318 Y77.16 E.01192
G1 X136.601 Y77.16 E.01831
G1 X136.271 Y76.83 E.01192
G1 X135.554 Y76.83 E.01831
G1 X135.884 Y77.16 E.01192
G1 X135.167 Y77.16 E.01831
G1 X134.837 Y76.83 E.01192
G1 X134.12 Y76.83 E.01831
G1 X134.45 Y77.16 E.01192
G1 X133.733 Y77.16 E.01831
G1 X133.403 Y76.83 E.01192
G1 X132.686 Y76.83 E.01831
G1 X133.016 Y77.16 E.01192
G1 X132.299 Y77.16 E.01831
G1 X131.969 Y76.83 E.01192
G1 X131.251 Y76.83 E.01833
G1 X131.581 Y77.16 E.01192
G1 X130.864 Y77.16 E.01831
G1 X130.534 Y76.83 E.01192
G1 X129.817 Y76.83 E.01831
G1 X130.147 Y77.16 E.01192
G1 X129.43 Y77.16 E.01831
G1 X129.1 Y76.83 E.01192
G1 X128.383 Y76.83 E.01831
G1 X128.713 Y77.16 E.01192
G1 X127.996 Y77.16 E.01831
G1 X127.666 Y76.83 E.01192
G1 X126.949 Y76.83 E.01831
G1 X127.279 Y77.16 E.01192
G1 X126.562 Y77.16 E.01831
G1 X126.232 Y76.83 E.01192
G1 X125.514 Y76.83 E.01833
G1 X125.845 Y77.16 E.01193
G1 X125.127 Y77.16 E.01833
G1 X124.797 Y76.83 E.01192
G1 X124.08 Y76.83 E.01831
G1 X124.41 Y77.16 E.01192
G1 X123.693 Y77.16 E.01831
G1 X123.363 Y76.83 E.01192
G1 X122.646 Y76.83 E.01831
G1 X122.976 Y77.16 E.01192
G1 X122.259 Y77.16 E.01831
G1 X121.929 Y76.83 E.01192
G1 X121.212 Y76.83 E.01831
G1 X121.542 Y77.16 E.01192
G1 X120.825 Y77.16 E.01831
G1 X120.495 Y76.83 E.01192
G1 X119.778 Y76.83 E.01831
G1 X120.108 Y77.16 E.01192
G1 X119.39 Y77.16 E.01833
G1 X119.06 Y76.83 E.01192
G1 X118.343 Y76.83 E.01831
G1 X118.673 Y77.16 E.01192
G1 X117.956 Y77.16 E.01831
G1 X117.626 Y76.83 E.01192
G1 X116.909 Y76.83 E.01831
G1 X117.239 Y77.16 E.01192
G1 X116.522 Y77.16 E.01831
G1 X116.192 Y76.83 E.01192
G1 X115.475 Y76.83 E.01831
G1 X115.805 Y77.16 E.01192
G1 X115.088 Y77.16 E.01831
G1 X114.758 Y76.83 E.01192
G1 X114.041 Y76.83 E.01831
G1 X114.371 Y77.16 E.01192
G1 X113.654 Y77.16 E.01831
G1 X113.323 Y76.83 E.01193
G1 X112.606 Y76.83 E.01831
G1 X112.936 Y77.16 E.01192
G1 X112.219 Y77.16 E.01831
G1 X111.889 Y76.83 E.01192
G1 X111.172 Y76.83 E.01831
G1 X111.502 Y77.16 E.01192
G1 X110.785 Y77.16 E.01831
G1 X110.455 Y76.83 E.01192
G1 X109.738 Y76.83 E.01831
G1 X110.068 Y77.16 E.01192
G1 X109.351 Y77.16 E.01831
G1 X109.021 Y76.83 E.01192
G1 X108.304 Y76.83 E.01831
G1 X108.634 Y77.16 E.01192
G1 X107.917 Y77.16 E.01831
G1 X107.587 Y76.83 E.01192
G1 X106.869 Y76.83 E.01833
G1 X107.199 Y77.16 E.01192
G1 X106.482 Y77.16 E.01831
G1 X106.152 Y76.83 E.01192
G1 X105.435 Y76.83 E.01831
G1 X105.765 Y77.16 E.01192
G1 X105.048 Y77.16 E.01831
G1 X104.718 Y76.83 E.01192
G1 X104.001 Y76.83 E.01831
G1 X104.331 Y77.16 E.01192
G1 X103.614 Y77.16 E.01831
G1 X103.284 Y76.83 E.01192
G1 X102.567 Y76.83 E.01831
G1 X102.897 Y77.16 E.01192
G1 X102.18 Y77.16 E.01831
G1 X101.85 Y76.83 E.01192
G1 X101.132 Y76.83 E.01833
G1 X101.463 Y77.16 E.01193
G1 X100.745 Y77.16 E.01833
G1 X100.415 Y76.83 E.01192
G1 X99.698 Y76.83 E.01831
G1 X100.028 Y77.16 E.01192
G1 X99.311 Y77.16 E.01831
G1 X98.981 Y76.83 E.01192
G1 X98.264 Y76.83 E.01831
G1 X98.594 Y77.16 E.01192
G1 X97.877 Y77.16 E.01831
G1 X97.547 Y76.83 E.01192
G1 X96.83 Y76.83 E.01831
G1 X97.16 Y77.16 E.01192
G1 X96.443 Y77.16 E.01831
G1 X96.113 Y76.83 E.01192
G1 X95.396 Y76.83 E.01831
G1 X95.726 Y77.16 E.01192
G1 X95.008 Y77.16 E.01833
G1 X94.678 Y76.83 E.01192
G1 X93.961 Y76.83 E.01831
G1 X94.291 Y77.16 E.01192
G1 X93.574 Y77.16 E.01831
G1 X93.244 Y76.83 E.01192
G1 X92.527 Y76.83 E.01831
G1 X92.857 Y77.16 E.01192
G1 X92.14 Y77.16 E.01831
G1 X91.81 Y76.83 E.01192
G1 X91.093 Y76.83 E.01831
G1 X91.423 Y77.16 E.01192
G1 X90.706 Y77.16 E.01831
G1 X90.376 Y76.83 E.01192
G1 X89.659 Y76.83 E.01831
G1 X89.989 Y77.16 E.01192
G1 X89.272 Y77.16 E.01831
G1 X88.941 Y76.83 E.01193
G1 X88.224 Y76.83 E.01831
G1 X88.554 Y77.16 E.01192
G1 X87.837 Y77.16 E.01831
G1 X87.507 Y76.83 E.01192
G1 X86.79 Y76.83 E.01831
G1 X87.12 Y77.16 E.01192
G1 X86.403 Y77.16 E.01831
G1 X86.073 Y76.83 E.01192
G1 X85.356 Y76.83 E.01831
G1 X85.686 Y77.16 E.01192
G1 X84.969 Y77.16 E.01831
G1 X84.639 Y76.83 E.01192
G1 X83.922 Y76.83 E.01831
G1 X84.252 Y77.16 E.01192
G1 X83.535 Y77.16 E.01831
G1 X83.205 Y76.83 E.01192
G1 X82.487 Y76.83 E.01833
G1 X82.817 Y77.16 E.01192
G1 X82.1 Y77.16 E.01831
G1 X81.77 Y76.83 E.01192
G1 X81.053 Y76.83 E.01831
G1 X81.383 Y77.16 E.01192
G1 X80.666 Y77.16 E.01831
G1 X80.336 Y76.83 E.01192
G1 X79.619 Y76.83 E.01831
G1 X79.949 Y77.16 E.01192
G1 X79.232 Y77.16 E.01831
G1 X78.902 Y76.83 E.01192
G1 X78.185 Y76.83 E.01831
G1 X78.515 Y77.16 E.01192
G1 X77.798 Y77.16 E.01831
G1 X77.468 Y76.83 E.01192
G1 X76.75 Y76.83 E.01833
G1 X77.081 Y77.16 E.01193
G1 X76.363 Y77.16 E.01833
G1 X76.033 Y76.83 E.01192
G1 X75.316 Y76.83 E.01831
G1 X75.646 Y77.16 E.01192
G1 X74.929 Y77.16 E.01831
G1 X74.599 Y76.83 E.01192
G1 X73.882 Y76.83 E.01831
G1 X74.212 Y77.16 E.01192
G1 X73.495 Y77.16 E.01831
G1 X73.165 Y76.83 E.01192
G1 X72.448 Y76.83 E.01831
G1 X72.778 Y77.16 E.01192
G1 X72.061 Y77.16 E.01831
G1 X71.731 Y76.83 E.01192
G1 X71.014 Y76.83 E.01831
G1 X71.344 Y77.16 E.01192
G1 X70.626 Y77.16 E.01833
G1 X70.296 Y76.83 E.01192
G1 X69.579 Y76.83 E.01831
G1 X69.909 Y77.16 E.01192
G1 X69.192 Y77.16 E.01831
G1 X68.89 Y76.858 E.01091
G1 X68.647 Y77.16 E.0099
G1 X69.039 Y77.16 E.01001
M204 S1000
;WIPE_START
G1 F4800
G1 X68.647 Y77.16 E-.16292
G1 X68.89 Y76.858 E-.16111
G1 X69.192 Y77.16 E-.17751
G1 X69.909 Y77.16 E-.298
G1 X69.579 Y76.83 E-.19397
G1 X69.595 Y76.83 E-.00649
;WIPE_END
G1 Z.4 F720
G1 X67.658 Y77.777 F6000
G1 Z.2 F720
G1 E1 F2100
M204 S800
G1 F1200
G1 X67.776 Y77.895 E.00426
G1 X67.776 Y78.613 E.01833
G1 X67.446 Y78.283 E.01192
G1 X67.446 Y79 E.01831
G1 X67.776 Y79.33 E.01192
G1 X67.776 Y80.047 E.01831
G1 X67.446 Y79.717 E.01192
G1 X67.446 Y80.434 E.01831
G1 X67.776 Y80.764 E.01192
G1 X67.776 Y81.481 E.01831
G1 X67.446 Y81.151 E.01192
G1 X67.446 Y81.868 E.01831
G1 X67.776 Y82.198 E.01192
G1 X67.776 Y82.915 E.01831
G1 X67.446 Y82.585 E.01192
G1 X67.446 Y83.302 E.01831
G1 X67.776 Y83.632 E.01192
G1 X67.776 Y84.349 E.01831
G1 X67.446 Y84.019 E.01192
G1 X67.446 Y84.737 E.01833
G1 X67.776 Y85.067 E.01192
G1 X67.776 Y85.784 E.01831
G1 X67.446 Y85.454 E.01192
G1 X67.446 Y86.171 E.01831
G1 X67.776 Y86.501 E.01192
G1 X67.776 Y87.218 E.01831
G1 X67.446 Y86.888 E.01192
G1 X67.446 Y87.605 E.01831
G1 X67.776 Y87.935 E.01192
G1 X67.776 Y88.652 E.01831
G1 X67.446 Y88.322 E.01192
G1 X67.446 Y89.039 E.01831
G1 X67.776 Y89.369 E.01192
G1 X67.776 Y90.086 E.01831
G1 X67.446 Y89.756 E.01192
G1 X67.446 Y90.474 E.01833
G1 X67.776 Y90.804 E.01192
G1 X67.776 Y91.521 E.01831
G1 X67.446 Y91.191 E.01192
G1 X67.446 Y91.908 E.01831
G1 X67.776 Y92.238 E.01192
G1 X67.776 Y92.955 E.01831
G1 X67.446 Y92.625 E.01192
G1 X67.446 Y93.342 E.01831
G1 X67.776 Y93.672 E.01192
G1 X67.776 Y94.389 E.01831
G1 X67.446 Y94.059 E.01192
G1 X67.446 Y94.776 E.01831
G1 X67.776 Y95.106 E.01192
G1 X67.776 Y95.823 E.01831
G1 X67.446 Y95.493 E.01192
G1 X67.446 Y96.21 E.01831
G1 X67.776 Y96.541 E.01193
G1 X67.776 Y97.258 E.01831
G1 X67.446 Y96.928 E.01192
G1 X67.446 Y97.645 E.01831
G1 X67.776 Y97.975 E.01192
G1 X67.776 Y98.692 E.01831
G1 X67.446 Y98.362 E.01192
G1 X67.446 Y99.079 E.01831
G1 X67.776 Y99.409 E.01192
G1 X67.776 Y100.126 E.01831
G1 X67.446 Y99.796 E.01192
G1 X67.446 Y100.513 E.01831
G1 X67.776 Y100.843 E.01192
G1 X67.776 Y101.56 E.01831
G1 X67.446 Y101.23 E.01192
G1 X67.446 Y101.947 E.01831
G1 X67.776 Y102.277 E.01192
G1 X67.776 Y102.995 E.01833
G1 X67.446 Y102.665 E.01192
G1 X67.446 Y103.382 E.01831
G1 X67.776 Y103.712 E.01192
G1 X67.776 Y104.429 E.01831
G1 X67.446 Y104.099 E.01192
G1 X67.446 Y104.816 E.01831
G1 X67.776 Y105.146 E.01192
G1 X67.776 Y105.863 E.01831
G1 X67.446 Y105.533 E.01192
G1 X67.446 Y106.25 E.01831
G1 X67.776 Y106.58 E.01192
G1 X67.776 Y107.297 E.01831
G1 X67.446 Y106.967 E.01192
G1 X67.446 Y107.684 E.01831
G1 X67.776 Y108.014 E.01192
G1 X67.776 Y108.732 E.01833
G1 X67.446 Y108.401 E.01193
G1 X67.446 Y109.119 E.01833
G1 X67.776 Y109.449 E.01192
G1 X67.776 Y110.166 E.01831
G1 X67.446 Y109.836 E.01192
G1 X67.446 Y110.553 E.01831
G1 X67.776 Y110.883 E.01192
G1 X67.776 Y111.6 E.01831
G1 X67.446 Y111.27 E.01192
G1 X67.446 Y111.987 E.01831
G1 X67.776 Y112.317 E.01192
G1 X67.446 Y112.224 E.00875
G1 X67.446 Y112.141 E.00212
M204 S1000
;WIPE_START
G1 F4800
G1 X67.446 Y112.224 E-.0345
G1 X67.776 Y112.317 E-.1425
G1 X67.446 Y111.987 E-.19397
G1 X67.446 Y111.27 E-.298
G1 X67.776 Y111.6 E-.19397
G1 X67.776 Y111.27 E-.13706
;WIPE_END
G1 Z.4 F720
G1 X68.989 Y112.965 F6000
G1 Z.2 F720
G1 E1 F2100
M204 S800
G1 F1200
G1 X68.889 Y112.965 E.00255
G1 X79.908 Y112.975 E.28136
G1 X80.419 Y112.999 E.01306
G1 X80.821 Y113.171 E.01116
G1 X80.626 Y112.976 E.00704
G1 X80.909 Y112.976 E.00723
G1 X100.804 Y133.863 E.73654
G1 X101.514 Y133.863 E.01813
G1 X100.749 Y133.772 E.01967
G1 X86.877 Y119.232 E.51312
M204 S1000
;WIPE_START
G1 F4800
G1 X88.538 Y120.973 E-1
;WIPE_END
G1 Z.4 F720
G1 X75.259 Y107.001 F6000
G1 Z.2 F720
G1 E1 F2100
M204 S800
G1 F1200
G1 X75.34 Y107.69 E.01771
G1 X75.65 Y108.031 E.01177
G1 X75.517 Y108.584 E.01452
G1 X75.253 Y108.32 E.00953
G1 X75.053 Y108.836 E.01413
G1 X75.297 Y109.081 E.00883
G1 X75.004 Y109.505 E.01316
G1 X74.769 Y109.27 E.00849
G1 X74.414 Y109.633 E.01296
G1 X74.65 Y109.868 E.0085
G1 X74.23 Y110.165 E.01313
G1 X73.987 Y109.922 E.00877
G1 X73.481 Y110.134 E.01401
G1 X73.743 Y110.395 E.00944
G1 X73.467 Y110.482 E.00739
G1 X73.169 Y110.538 E.00774
G1 X72.864 Y110.234 E.011
G1 X72.21 Y110.179 E.01676
M204 S1000
G1 X71.329 Y109.812 F6000
M204 S800
G1 F1200
G1 X72.06 Y110.147 E.02053
G1 X72.467 Y110.554 E.0147
G1 X71.472 Y110.275 E.02639
G1 X70.127 Y108.931 E.04855
G1 X70.032 Y108.728 E.00572
G1 X69.841 Y107.928 E.021
G1 X70.253 Y108.34 E.01488
G1 X70.158 Y107.528 E.02087
G1 X69.858 Y107.227 E.01085
G1 X69.879 Y107.082 E.00374
G1 X70.001 Y106.653 E.01139
G1 X70.261 Y106.914 E.00941
G1 X70.474 Y106.409 E.01399
G1 X70.231 Y106.166 E.00877
G1 X70.528 Y105.746 E.01313
G1 X70.761 Y105.979 E.00841
G1 X71.126 Y105.627 E.01295
G1 X70.89 Y105.391 E.00852
G1 X71.314 Y105.098 E.01316
G1 X71.557 Y105.341 E.00877
G1 X72.077 Y105.144 E.0142
G1 X71.81 Y104.877 E.00964
G1 X71.86 Y104.859 E.00136
G1 X72.396 Y104.746 E.01399
G1 X72.706 Y105.055 E.01118
