; generated by PrusaSlicer 2.9.4 on 2026-03-05 at 15:19:49 UTC


;
;

;
;
; 

; external perimeters extrusion width = 0.45mm
; perimeters extrusion width = 0.45mm
; infill extrusion width = 0.45mm
; solid infill extrusion width = 0.45mm
; top infill extrusion width = 0.40mm
; support material extrusion width = 0.35mm
; first layer extrusion width = 0.42mm

M73 P0 R129
M201 X9000 Y9000 Z500 E10000 ; sets maximum accelerations, mm/sec^2
M203 X500 Y500 Z12 E120 ; sets maximum feedrates, mm / sec
M204 S2000 T1500 ; sets acceleration (S) and retract acceleration (R), mm/sec^2
M205 X10.00 Y10.00 Z0.20 E4.50 ; sets the jerk limits, mm/sec
M205 S0 T0 ; sets the minimum extruding and travel feed rate, mm/sec

; printing object Bear_MK2x_Body.stl id:0 copy 0
; stop printing object Bear_MK2x_Body.stl id:0 copy 0

;TYPE:Custom
M83  ; extruder relative mode
M140 S85 ; set bed temp
M109 S160 ; Set extruder temp before bed level
M190 S85 ; wait for bed temp

G28 W ; home all without mesh bed level
G80 N7 ; mesh bed leveling

M109 S240 ; wait for extruder temp

M221 S100 ; Set flow to 100

G1 Y-3.0 F1000.0 ; go outside print area
G92 E0.0
G1 E8 ; Purge Bubble
G1 X60.0 E9.0 F1000.0 ; intro line
G1 X100.0 E12.5 F1000.0 ; intro line
G92 E0.0
G21 ; set units to millimeters
G90 ; use absolute coordinates
M83 ; use relative distances for extrusion

M900 K0.08 ; Filament gcode LA 1.5
M900 K45 ; Filament gcode LA 1.0




M107
;LAYER_CHANGE
;Z:0.2
;HEIGHT:0.2
G1 E-1 F2100
G1 Z.4 F720
G1 X75.799 Y84.221 F6000
G1 Z.2 F720
G1 E1 F2100
M204 S800
;TYPE:Skirt/Brim
;WIDTH:0.42
G1 F1200
G1 X85.986 Y75.052 E.42973
G1 X87.209 Y74.504 E.04202
G1 X108.214 Y72.183 E.66261
G1 X137.601 Y72.226 E.92141
G1 X149.136 Y74.533 E.36883
G1 X150.2 Y75.079 E.0375
G1 X184.807 Y107.378 E1.48424
G1 X185.134 Y107.764 E.01586
G1 X189.749 Y114.685 E.26082
G1 X190.116 Y115.899 E.03977
G1 X190.116 Y131.014 E.47392
G1 X189.475 Y132.562 E.05253
G1 X184.861 Y137.176 E.20459
G1 X183.313 Y137.817 E.05253
G1 X66.687 Y137.817 E3.65673
G1 X65.139 Y137.176 E.05253
G1 X60.525 Y132.562 E.20459
G1 X59.884 Y131.014 E.05253
G1 X59.884 Y118.206 E.40159
G1 X62.204 Y97.201 E.6626
G1 X62.916 Y95.816 E.04883
G1 X75.754 Y84.261 E.54156
M204 S1000
;WIPE_START
G1 F4800
G1 X75.799 Y84.221 E-.02502
G1 X77.543 Y82.652 E-.97498
;WIPE_END
G1 Z.4 F720
; printing object Bear_MK2x_Body.stl id:0 copy 0
G1 X113.337 Y127.023 F6000
G1 Z.2 F720
G1 E1 F2100
M204 S800
;TYPE:Support material interface
;WIDTH:0.35
G1 F1200
G1 X113.337 Y128.071 E.02676
G1 X112.83 Y128.071 E.01295
G1 X112.83 Y127.023 E.02676
G1 X112.323 Y127.023 E.01295
G1 X112.323 Y128.071 E.02676
G1 X111.816 Y128.071 E.01295
G1 X111.816 Y127.023 E.02676
G1 X111.309 Y127.023 E.01295
G1 X111.309 Y128.071 E.02676
G1 X110.802 Y128.071 E.01295
G1 X110.802 Y126.635 E.03667
M204 S1000
G1 X111.386 Y125.952 F6000
M204 S800
G1 F1200
G1 X111.495 Y125.764 E.00555
G1 X111.309 Y125.764 E.00475
G1 X111.309 Y126.085 E.0082
G1 X111.13 Y126.395 E.00914
G1 X110.93 Y126.342 E.00528
G1 X110.802 Y126.564 E.00654
G1 X110.802 Y125.764 E.02043
G1 X110.295 Y125.764 E.01295
G1 X110.295 Y128.071 E.05891
G1 X109.788 Y128.071 E.01295
G1 X109.788 Y125.764 E.05891
G1 X109.281 Y125.764 E.01295
G1 X109.281 Y128.071 E.05891
G1 X108.85 Y128.071 E.01101
G1 X108.85 Y126.038 E.05191
G1 X109.009 Y125.764 E.00809
G1 X109.127 Y125.764 E.00301
M204 S1000
;WIPE_START
G1 F4800
G1 X109.009 Y125.764 E-.04904
G1 X108.85 Y126.038 E-.13167
G1 X108.85 Y128.009 E-.81929
;WIPE_END
G1 Z.4 F720
G1 X108.487 Y128.434 F6000
G1 Z.2 F720
G1 E1 F2100
M204 S800
;TYPE:Support material
;WIDTH:0.42
G1 F1200
G1 X113.794 Y128.434 E.1664
G1 X113.794 Y128.819 E.01207
G1 X111.487 Y129.437 E.07488
G1 X111.487 Y131.014 E.04945
G1 X103.6 Y131.014 E.24729
G1 X103.6 Y127.079 E.12338
G1 X107.704 Y127.079 E.12868
G1 X107.927 Y126.951 E.00806
G1 X108.487 Y125.98 E.03515
G1 X108.487 Y128.378 E.07519
M204 S1000
G1 X112.431 Y129.009 F6000
M204 S800
G1 F1200
G1 X112.431 Y128.774 E.00737
G1 X112.012 Y128.774 E.01314
G1 X112.012 Y128.945 E.00536
G1 X111.593 Y129.058 E.01361
G1 X111.593 Y128.774 E.0089
G1 X111.174 Y128.774 E.01314
G1 X111.147 Y130.675 E.05961
G1 X110.755 Y130.675 E.01229
G1 X110.755 Y128.774 E.0596
M73 P0 R128
G1 X110.336 Y128.774 E.01314
G1 X110.336 Y130.675 E.0596
G1 X109.917 Y130.675 E.01314
G1 X109.917 Y128.774 E.0596
G1 X109.498 Y128.774 E.01314
G1 X109.498 Y130.675 E.0596
G1 X109.079 Y130.675 E.01314
G1 X109.079 Y128.774 E.0596
G1 X108.66 Y128.774 E.01314
G1 X108.66 Y130.675 E.0596
G1 X108.241 Y130.675 E.01314
G1 X108.241 Y128.774 E.0596
G1 X108.147 Y128.774 E.00295
G1 X108.147 Y127.215 E.04888
G1 X107.822 Y127.403 E.01177
G1 X107.822 Y130.675 E.10259
G1 X107.403 Y130.675 E.01314
G1 X107.403 Y127.419 E.10209
G1 X106.984 Y127.419 E.01314
G1 X106.984 Y130.675 E.10209
G1 X106.565 Y130.675 E.01314
G1 X106.565 Y127.419 E.10209
G1 X106.146 Y127.419 E.01314
G1 X106.146 Y130.675 E.10209
G1 X105.727 Y130.675 E.01314
G1 X105.727 Y127.419 E.10209
G1 X105.308 Y127.419 E.01314
G1 X105.308 Y130.675 E.10209
G1 X104.889 Y130.675 E.01314
G1 X104.889 Y127.419 E.10209
G1 X104.47 Y127.419 E.01314
G1 X104.47 Y130.675 E.10209
G1 X104.051 Y130.675 E.01314
G1 X104.051 Y127.249 E.10742
M204 S1000
;WIPE_START
G1 F4800
G1 X104.051 Y129.655 E-1
;WIPE_END
G1 Z.4 F720
G1 X90.165 Y128.071 F6000
G1 Z.2 F720
G1 E1 F2100
M204 S800
;TYPE:Support material interface
;WIDTH:0.35
G1 F1200
G1 X90.394 Y128.071 E.00585
G1 X90.394 Y125.764 E.05891
G1 X90.012 Y125.764 E.00975
G1 X90.012 Y128.071 E.05891
G1 X89.504 Y128.071 E.01297
G1 X89.504 Y125.764 E.05891
G1 X88.997 Y125.764 E.01295
G1 X88.997 Y128.071 E.05891
G1 X88.49 Y128.071 E.01295
G1 X88.49 Y127.023 E.02676
G1 X88.087 Y127.023 E.01029
G1 X88.087 Y128.071 E.02676
G1 X88.337 Y128.071 E.00638
M204 S1000
;WIPE_START
G1 F4800
G1 X88.087 Y128.071 E-.10391
G1 X88.087 Y127.023 E-.43558
G1 X88.49 Y127.023 E-.1675
G1 X88.49 Y127.728 E-.29301
;WIPE_END
G1 Z.4 F720
G1 X71.937 Y113.054 F6000
G1 Z.2 F720
G1 E1 F2100
M204 S800
G1 F1200
G1 X71.937 Y112.698 E.00909
G1 X71.757 Y112.698 E.0046
G1 X71.757 Y115.052 E.06011
G1 X71.25 Y115.052 E.01295
G1 X71.25 Y112.698 E.06011
G1 X70.743 Y112.698 E.01295
G1 X70.743 Y115.052 E.06011
G1 X70.235 Y115.052 E.01297
G1 X70.235 Y112.698 E.06011
G1 X69.728 Y112.698 E.01295
G1 X69.728 Y115.052 E.06011
G1 X69.467 Y115.11 E.00683
M204 S1000
;WIPE_START
G1 F4800
G1 X69.728 Y115.052 E-.11112
G1 X69.728 Y112.914 E-.88888
;WIPE_END
G1 Z.4 F720
G1 X67.547 Y116.535 F6000
G1 Z.2 F720
G1 E1 F2100
M204 S800
G1 F1200
G1 X67.323 Y116.535 E.00572
G1 X67.323 Y111.921 E.11781
G1 X67.7 Y111.921 E.00963
G1 X67.7 Y116.535 E.11781
G1 X68.207 Y116.535 E.01295
G1 X68.207 Y111.921 E.11781
G1 X68.714 Y111.921 E.01295
G1 X68.714 Y116.535 E.11781
G1 X69.221 Y116.535 E.01295
G1 X69.221 Y111.921 E.11781
M204 S1000
;WIPE_START
G1 F4800
G1 X69.221 Y114.327 E-1
;WIPE_END
G1 Z.4 F720
G1 X85.801 Y100.386 F6000
G1 Z.2 F720
G1 E1 F2100
M204 S800
G1 F1200
G1 X85.78 Y101.376 E.02528
G1 X85.955 Y101.376 E.00447
G1 X85.955 Y100.386 E.02528
G1 X86.462 Y100.386 E.01295
G1 X86.462 Y101.376 E.02528
G1 X86.969 Y101.376 E.01295
G1 X86.969 Y100.386 E.02528
G1 X87.476 Y100.386 E.01295
G1 X87.476 Y101.376 E.02528
G1 X87.983 Y101.376 E.01295
G1 X87.983 Y100.386 E.02528
G1 X88.49 Y100.386 E.01295
G1 X88.49 Y101.588 E.03069
G1 X88.613 Y101.8 E.00626
G1 X88.49 Y102.012 E.00626
G1 X88.49 Y102.693 E.01739
G1 X88.997 Y102.693 E.01295
G1 X88.997 Y100.386 E.05891
G1 X89.504 Y100.386 E.01295
G1 X89.504 Y102.693 E.05891
G1 X90.012 Y102.693 E.01297
G1 X90.012 Y100.386 E.05891
G1 X90.394 Y100.386 E.00975
G1 X90.394 Y102.693 E.05891
G1 X90.165 Y102.693 E.00585
M204 S1000
;WIPE_START
G1 F4800
G1 X90.394 Y102.693 E-.09518
G1 X90.394 Y100.516 E-.90482
;WIPE_END
G1 Z.4 F720
G1 X88.337 Y102.693 F6000
G1 Z.2 F720
G1 E1 F2100
M204 S800
G1 F1200
G1 X88.097 Y102.693 E.00613
G1 X88.414 Y102.145 E.01616
M204 S1000
;WIPE_START
G1 F4800
G1 X88.097 Y102.693 E-.26312
G1 X88.337 Y102.693 E-.09975
;WIPE_END
G1 E-.63713 F2100
G1 Z.4 F720
G1 X92.193 Y98.079 F6000
G1 Z.2 F720
G1 E1 F2100
M204 S800
G1 F1200
G1 X92.429 Y98.079 E.00603
G1 X92.278 Y97.928 E.00545
G1 X92.278 Y97.619 E.00789
M204 S1000
G1 X92.9 Y98.079 F6000
M204 S800
G1 F1200
G1 X92.701 Y98.079 E.00508
G1 X92.701 Y97.951 E.00327
G1 X93.054 Y97.976 E.00904
G1 X93.054 Y98.079 E.00263
G1 X93.561 Y98.079 E.01295
G1 X93.561 Y97.976 E.00263
G1 X94.068 Y97.976 E.01295
G1 X94.068 Y98.079 E.00263
G1 X94.575 Y98.079 E.01295
G1 X94.575 Y97.976 E.00263
G1 X95.008 Y97.976 E.01106
G1 X95.008 Y98.079 E.00263
G1 X94.729 Y98.079 E.00712
M204 S1000
;WIPE_START
G1 F4800
G1 X95.008 Y98.079 E-.11596
G1 X95.008 Y97.976 E-.04281
G1 X94.575 Y97.976 E-.17997
G1 X94.575 Y98.079 E-.04281
G1 X94.068 Y98.079 E-.21072
G1 X94.068 Y97.976 E-.04281
G1 X93.561 Y97.976 E-.21072
G1 X93.561 Y98.079 E-.04281
G1 X93.293 Y98.079 E-.11139
;WIPE_END
G1 Z.4 F720
G1 X92.278 Y96.232 F6000
G1 Z.2 F720
G1 E1 F2100
M204 S800
G1 F1200
G1 X92.278 Y95.772 E.01175
G1 X92.04 Y95.772 E.00608
G1 X92.04 Y98.079 E.05891
G1 X91.533 Y98.079 E.01295
G1 X91.533 Y95.772 E.05891
G1 X91.026 Y95.772 E.01295
G1 X91.026 Y98.079 E.05891
G1 X90.519 Y98.079 E.01295
G1 X90.519 Y95.772 E.05891
M204 S1000
;WIPE_START
G1 F4800
G1 X90.519 Y98.079 E-.95885
G1 X90.618 Y98.079 E-.04115
;WIPE_END
G1 Z.4 F720
G1 X111.309 Y95.772 F6000
G1 Z.2 F720
G1 E1 F2100
M204 S800
G1 F1200
G1 X111.309 Y92.035 E.09542
G1 X111.816 Y91.158 E.02587
G1 X111.816 Y95.762 E.11756
G1 X112.323 Y94.884 E.02589
G1 X112.323 Y91.158 E.09514
G1 X112.83 Y91.158 E.01295
G1 X112.83 Y94.006 E.07272
G1 X113.196 Y93.373 E.01867
G1 X113.337 Y93.411 E.00373
G1 X113.337 Y91.158 E.05753
G1 X113.844 Y91.158 E.01295
G1 X113.844 Y95.772 E.11781
G1 X114.351 Y95.772 E.01295
G1 X114.351 Y91.158 E.11781
G1 X114.858 Y91.158 E.01295
G1 X114.858 Y95.772 E.11781
G1 X115.366 Y95.772 E.01297
G1 X115.366 Y91.158 E.11781
G1 X115.772 Y91.158 E.01037
G1 X115.772 Y95.772 E.11781
G1 X115.519 Y95.772 E.00646
M204 S1000
;WIPE_START
G1 F4800
G1 X115.772 Y95.772 E-.10515
G1 X115.772 Y93.619 E-.89485
;WIPE_END
G1 Z.4 F720
G1 X113.46 Y93.82 F6000
G1 Z.2 F720
G1 E1 F2100
M204 S800
;TYPE:Support material
;WIDTH:0.42
G1 F1200
G1 X113.46 Y94.185 E.01144
G1 X113.188 Y94.113 E.00882
G1 X113.405 Y93.806 E.01179
M204 S1000
;WIPE_START
G1 F4800
G1 X113.188 Y94.113 E-.15625
G1 X113.46 Y94.185 E-.11694
G1 X113.46 Y93.82 E-.1517
;WIPE_END
G1 E-.57511 F2100
G1 Z.4 F720
G1 X115.519 Y81.929 F6000
G1 Z.2 F720
G1 E1 F2100
M204 S800
;TYPE:Support material interface
;WIDTH:0.35
G1 F1200
G1 X115.772 Y81.929 E.00646
G1 X115.772 Y79.622 E.05891
G1 X115.366 Y79.622 E.01037
G1 X115.366 Y81.929 E.05891
G1 X114.858 Y81.929 E.01297
G1 X114.858 Y79.622 E.05891
G1 X114.351 Y79.622 E.01295
G1 X114.351 Y81.929 E.05891
G1 X113.844 Y81.929 E.01295
G1 X113.844 Y79.622 E.05891
G1 X113.337 Y79.622 E.01295
G1 X113.337 Y80.477 E.02183
G1 X112.83 Y80.477 E.01295
G1 X112.83 Y79.622 E.02183
G1 X112.323 Y79.622 E.01295
G1 X112.323 Y80.477 E.02183
G1 X111.816 Y80.477 E.01295
G1 X111.816 Y79.622 E.02183
G1 X111.309 Y79.622 E.01295
G1 X111.309 Y80.477 E.02183
M204 S1000
;WIPE_START
G1 F4800
G1 X111.309 Y79.622 E-.35536
G1 X111.816 Y79.622 E-.21072
G1 X111.816 Y80.477 E-.35536
G1 X112.005 Y80.477 E-.07856
;WIPE_END
G1 Z.4 F720
G1 X136.663 Y79.622 F6000
G1 Z.2 F720
G1 E1 F2100
M204 S800
G1 F1200
G1 X136.663 Y81.929 E.05891
G1 X137.17 Y81.929 E.01295
G1 X137.17 Y79.622 E.05891
G1 X137.677 Y79.622 E.01295
G1 X137.677 Y81.929 E.05891
G1 X138.184 Y81.929 E.01295
G1 X138.184 Y79.622 E.05891
G1 X138.691 Y79.622 E.01295
G1 X138.691 Y80.577 E.02438
G1 X138.43 Y80.646 E.00689
M204 S1000
;WIPE_START
G1 F4800
G1 X138.691 Y80.577 E-.1122
G1 X138.691 Y79.622 E-.39692
G1 X138.184 Y79.622 E-.21072
G1 X138.184 Y80.296 E-.28016
;WIPE_END
G1 Z.4 F720
G1 X137.172 Y76.679 F6000
G1 Z.2 F720
G1 E1 F2100
M204 S800
;TYPE:Support material
;WIDTH:0.42
G1 F1200
G1 X148.707 Y76.679 E.36167
G1 X148.707 Y84.716 E.25199
G1 X144.691 Y80.791 E.17607
G1 X144.516 Y80.72 E.00592
G1 X139.206 Y80.72 E.16649
G1 X139.206 Y79.258 E.04584
G1 X136.172 Y79.258 E.09513
G1 X136.172 Y82.293 E.09516
G1 X138.394 Y82.293 E.06967
G1 X138.394 Y89.334 E.22077
G1 X140.531 Y93.101 E.13579
G1 X136.172 Y93.101 E.13667
G1 X136.172 Y98.442 E.16746
G1 X138.059 Y98.442 E.05917
G1 X137.689 Y99.245 E.02772
G1 X137.099 Y100.077 E.03198
G1 X136.387 Y100.761 E.03096
G1 X135.502 Y101.332 E.03302
G1 X134.09 Y101.821 E.04685
G1 X133.062 Y101.92 E.03238
G1 X118.504 Y101.896 E.45646
G1 X117.532 Y101.713 E.03101
G1 X116.643 Y101.368 E.0299
G1 X115.8 Y100.849 E.03104
G1 X115.067 Y100.181 E.03109
G1 X114.471 Y99.391 E.03103
G1 X114.033 Y98.504 E.03102
G1 X113.767 Y97.551 E.03102
G1 X113.68 Y96.135 E.04448
G1 X116.135 Y96.135 E.07697
G1 X116.135 Y90.794 E.16746
G1 X111.86 Y90.794 E.13404
G1 X113.68 Y87.576 E.11592
G1 X113.68 Y82.293 E.16564
G1 X116.135 Y82.293 E.07697
G1 X116.135 Y79.258 E.09516
G1 X110.794 Y79.258 E.16746
G1 X110.794 Y80.62 E.0427
G1 X94.291 Y80.62 E.51744
G1 X93.728 Y80.721 E.01793
G1 X93.257 Y80.985 E.01693
G1 X92.827 Y81.495 E.02092
G1 X92.622 Y82.271 E.02517
G1 X92.621 Y95.408 E.4119
G1 X90.03 Y95.408 E.08124
G1 X90.03 Y98.442 E.09513
G1 X95.372 Y98.442 E.16749
G1 X95.372 Y97.832 E.01913
G1 X107.648 Y97.832 E.38491
G1 X107.871 Y97.703 E.00808
G1 X110.794 Y92.64 E.1833
G1 X110.794 Y96.135 E.10958
G1 X111.766 Y96.135 E.03048
G1 X110.099 Y99.024 E.10458
G1 X110.099 Y99.281 E.00806
G1 X117.688 Y112.426 E.47591
G1 X117.911 Y112.555 E.00808
G1 X133.089 Y112.555 E.4759
G1 X133.312 Y112.426 E.00808
G1 X140.901 Y99.281 E.47591
G1 X140.901 Y99.024 E.00806
G1 X140.565 Y98.442 E.02107
G1 X141.513 Y98.442 E.02972
G1 X141.513 Y94.802 E.11413
G1 X143.188 Y97.703 E.10503
G1 X143.411 Y97.832 E.00808
G1 X158.589 Y97.832 E.4759
G1 X158.812 Y97.703 E.00808
G1 X159.243 Y96.957 E.02701
G1 X159.243 Y100.749 E.1189
G1 X161.947 Y100.749 E.08478
G1 X168.688 Y112.426 E.42275
G1 X168.911 Y112.555 E.00808
G1 X175.392 Y112.555 E.20321
G1 X175.392 Y114.592 E.06387
G1 X178.426 Y114.592 E.09513
G1 X178.426 Y111.558 E.09513
G1 X176.174 Y111.558 E.07061
G1 X174.508 Y109.93 E.07304
G1 X175.427 Y109.93 E.02881
G1 X175.427 Y108.978 E.02985
G1 X183.313 Y108.978 E.24726
G1 X183.313 Y115.899 E.217
G1 X187.928 Y115.899 E.1447
G1 X187.928 Y131.014 E.47392
G1 X183.313 Y131.014 E.1447
G1 X183.313 Y135.628 E.14467
G1 X172.812 Y135.628 E.32925
G1 X172.812 Y133.321 E.07233
G1 X170.505 Y133.321 E.07233
G1 X170.505 Y127.079 E.19571
G1 X183.299 Y127.079 E.40115
G1 X183.58 Y126.798 E.01246
G1 X183.58 Y118.9 E.24764
G1 X183.505 Y118.722 E.00606
G1 X179.969 Y115.266 E.15503
G1 X179.794 Y115.195 E.00592
G1 X168.911 Y115.195 E.34123
G1 X168.688 Y115.324 E.00808
G1 X162.87 Y125.4 E.36481
G1 X161.55 Y125.4 E.04139
G1 X161.55 Y128.434 E.09513
G1 X164.55 Y128.434 E.09406
G1 X164.55 Y131.014 E.08089
G1 X154.356 Y131.014 E.31963
G1 X154.356 Y127.079 E.12338
G1 X158.704 Y127.079 E.13633
G1 X158.927 Y126.951 E.00806
G1 X166.401 Y114.004 E.46873
G1 X166.401 Y113.746 E.00809
G1 X158.812 Y100.602 E.47588
G1 X158.589 Y100.473 E.00808
G1 X143.411 Y100.473 E.4759
G1 X143.188 Y100.602 E.00808
G1 X135.599 Y113.746 E.47588
G1 X135.599 Y114.004 E.00809
G1 X143.073 Y126.951 E.46873
G1 X143.296 Y127.079 E.00806
G1 X146.4 Y127.079 E.09732
G1 X146.4 Y131.014 E.12338
G1 X138.513 Y131.014 E.24729
G1 X138.513 Y128.434 E.08089
G1 X141.513 Y128.434 E.09406
G1 X141.513 Y125.4 E.09513
G1 X139.13 Y125.4 E.07472
G1 X133.312 Y115.324 E.36481
G1 X133.089 Y115.195 E.00808
G1 X117.911 Y115.195 E.4759
G1 X117.688 Y115.324 E.00808
G1 X111.87 Y125.4 E.36481
G1 X108.822 Y125.4 E.09557
G1 X115.401 Y114.004 E.41258
G1 X115.401 Y113.746 E.00809
G1 X107.812 Y100.602 E.47588
G1 X107.589 Y100.473 E.00808
M73 P1 R128
G1 X92.411 Y100.473 E.4759
G1 X92.188 Y100.602 E.00808
G1 X84.599 Y113.746 E.47588
G1 X84.599 Y114.004 E.00809
G1 X92.073 Y126.951 E.46873
G1 X92.296 Y127.079 E.00806
G1 X95.644 Y127.079 E.10497
G1 X95.644 Y131.014 E.12338
G1 X82.836 Y131.014 E.40159
G1 X82.836 Y127.079 E.12338
G1 X87.723 Y127.079 E.15323
G1 X87.723 Y128.434 E.04249
G1 X90.757 Y128.434 E.09513
G1 X90.757 Y125.4 E.09513
