; generated by PrusaSlicer 2.9.4 on 2026-03-05 at 15:16:18 UTC


;
;

;
;
; 

; external perimeters extrusion width = 0.45mm
; perimeters extrusion width = 0.45mm
; infill extrusion width = 0.45mm
; solid infill extrusion width = 0.45mm
; top infill extrusion width = 0.40mm
; support material extrusion width = 0.35mm
; first layer extrusion width = 0.42mm

M73 P0 R85
M201 X9000 Y9000 Z500 E10000 ; sets maximum accelerations, mm/sec^2
M203 X500 Y500 Z12 E120 ; sets maximum feedrates, mm / sec
M204 S2000 T1500 ; sets acceleration (S) and retract acceleration (R), mm/sec^2
M205 X10.00 Y10.00 Z0.20 E4.50 ; sets the jerk limits, mm/sec
M205 S0 T0 ; sets the minimum extruding and travel feed rate, mm/sec

; printing object Bear_MK3_Raspberry_P3B_Cover.stl id:0 copy 0
; stop printing object Bear_MK3_Raspberry_P3B_Cover.stl id:0 copy 0

;TYPE:Custom
M83  ; extruder relative mode
M140 S85 ; set bed temp
M109 S160 ; Set extruder temp before bed level
M190 S85 ; wait for bed temp

G28 W ; home all without mesh bed level
G80 N7 ; mesh bed leveling

M109 S240 ; wait for extruder temp

M221 S100 ; Set flow to 100

G1 Y-3.0 F1000.0 ; go outside print area
G92 E0.0
G1 E8 ; Purge Bubble
G1 X60.0 E9.0 F1000.0 ; intro line
G1 X100.0 E12.5 F1000.0 ; intro line
G92 E0.0
G21 ; set units to millimeters
G90 ; use absolute coordinates
M83 ; use relative distances for extrusion

M900 K0.08 ; Filament gcode LA 1.5
M900 K45 ; Filament gcode LA 1.0




M107
;LAYER_CHANGE
;Z:0.2
;HEIGHT:0.2
G1 E-1 F2100
G1 Z.4 F720
G1 X62.546 Y74.634 F6000
G1 Z.2 F720
G1 E1 F2100
M204 S800
;TYPE:Skirt/Brim
;WIDTH:0.42
G1 F1200
G1 X67.137 Y71.388 E.17629
G1 X68.398 Y70.987 E.04149
G1 X186.231 Y70.887 E3.69457
G1 X187.479 Y71.278 E.04101
G1 X188.282 Y72.311 E.04102
G1 X188.42 Y73.075 E.02434
G1 X188.379 Y96.975 E.74937
G1 X187.738 Y98.518 E.05239
G1 X184.397 Y101.852 E.14799
G1 X146.401 Y135.474 E1.59079
G1 X144.95 Y136.023 E.04864
M73 P0 R84
G1 X100.901 Y136.023 E1.38113
G1 X99.88 Y135.77 E.03298
G1 X64.792 Y117.255 E1.24393
G1 X62.545 Y115.687 E.08591
G1 X61.753 Y114.647 E.04099
G1 X61.621 Y113.901 E.02375
G1 X61.621 Y76.421 E1.17516
G1 X62.012 Y75.173 E.04101
G1 X62.504 Y74.677 E.0219
M204 S1000
;WIPE_START
G1 F4800
G1 X62.546 Y74.634 E-.02498
G1 X64.461 Y73.28 E-.97502
;WIPE_END
G1 Z.4 F720
; printing object Bear_MK3_Raspberry_P3B_Cover.stl id:0 copy 0
G1 X181.265 Y76.812 F6000
G1 Z.2 F720
G1 E1 F2100
M204 S800
;TYPE:Support material interface
;WIDTH:0.35
G1 F1200
G1 X181.695 Y77.075 E.01287
G1 X182.554 Y77.934 E.03102
G1 X182.554 Y78.651 E.01831
G1 X182.224 Y78.321 E.01192
G1 X182.224 Y77.762 E.01427
G1 X182.129 Y77.579 E.00526
G1 X181.567 Y77.182 E.01757
G1 X181.045 Y77.142 E.01337
G1 X180.715 Y76.812 E.01192
G1 X179.997 Y76.812 E.01833
G1 X180.327 Y77.142 E.01192
G1 X179.61 Y77.142 E.01831
G1 X179.28 Y76.812 E.01192
G1 X178.563 Y76.812 E.01831
G1 X178.893 Y77.142 E.01192
G1 X178.176 Y77.142 E.01831
G1 X177.846 Y76.812 E.01192
G1 X177.129 Y76.812 E.01831
G1 X177.459 Y77.142 E.01192
G1 X176.742 Y77.142 E.01831
G1 X176.412 Y76.812 E.01192
G1 X175.695 Y76.812 E.01831
G1 X176.025 Y77.142 E.01192
G1 X175.308 Y77.142 E.01831
G1 X174.978 Y76.812 E.01192
G1 X174.26 Y76.812 E.01833
G1 X174.591 Y77.142 E.01193
G1 X173.873 Y77.142 E.01833
G1 X173.543 Y76.812 E.01192
G1 X172.826 Y76.812 E.01831
G1 X173.156 Y77.142 E.01192
G1 X172.439 Y77.142 E.01831
G1 X172.109 Y76.812 E.01192
G1 X171.392 Y76.812 E.01831
G1 X171.722 Y77.142 E.01192
G1 X171.005 Y77.142 E.01831
G1 X170.675 Y76.812 E.01192
G1 X169.958 Y76.812 E.01831
G1 X170.288 Y77.142 E.01192
G1 X169.571 Y77.142 E.01831
G1 X169.241 Y76.812 E.01192
G1 X168.524 Y76.812 E.01831
G1 X168.854 Y77.142 E.01192
G1 X168.136 Y77.142 E.01833
G1 X167.806 Y76.812 E.01192
G1 X167.089 Y76.812 E.01831
G1 X167.419 Y77.142 E.01192
G1 X166.702 Y77.142 E.01831
G1 X166.372 Y76.812 E.01192
G1 X165.655 Y76.812 E.01831
G1 X165.985 Y77.142 E.01192
G1 X165.268 Y77.142 E.01831
G1 X164.938 Y76.812 E.01192
G1 X164.221 Y76.812 E.01831
G1 X164.551 Y77.142 E.01192
G1 X163.834 Y77.142 E.01831
G1 X163.504 Y76.812 E.01192
G1 X162.787 Y76.812 E.01831
G1 X163.117 Y77.142 E.01192
G1 X162.4 Y77.142 E.01831
G1 X162.069 Y76.812 E.01193
G1 X161.352 Y76.812 E.01831
G1 X161.682 Y77.142 E.01192
G1 X160.965 Y77.142 E.01831
G1 X160.635 Y76.812 E.01192
G1 X159.918 Y76.812 E.01831
G1 X160.248 Y77.142 E.01192
G1 X159.531 Y77.142 E.01831
G1 X159.201 Y76.812 E.01192
G1 X158.484 Y76.812 E.01831
G1 X158.814 Y77.142 E.01192
G1 X158.097 Y77.142 E.01831
G1 X157.767 Y76.812 E.01192
G1 X157.05 Y76.812 E.01831
G1 X157.38 Y77.142 E.01192
G1 X156.663 Y77.142 E.01831
G1 X156.333 Y76.812 E.01192
G1 X155.615 Y76.812 E.01833
G1 X155.945 Y77.142 E.01192
G1 X155.228 Y77.142 E.01831
G1 X154.898 Y76.812 E.01192
G1 X154.181 Y76.812 E.01831
G1 X154.511 Y77.142 E.01192
G1 X153.794 Y77.142 E.01831
G1 X153.464 Y76.812 E.01192
G1 X152.747 Y76.812 E.01831
G1 X153.077 Y77.142 E.01192
G1 X152.36 Y77.142 E.01831
G1 X152.03 Y76.812 E.01192
G1 X151.313 Y76.812 E.01831
G1 X151.643 Y77.142 E.01192
G1 X150.926 Y77.142 E.01831
G1 X150.596 Y76.812 E.01192
G1 X149.878 Y76.812 E.01833
G1 X150.209 Y77.142 E.01193
G1 X149.491 Y77.142 E.01833
G1 X149.161 Y76.812 E.01192
G1 X148.444 Y76.812 E.01831
G1 X148.774 Y77.142 E.01192
G1 X148.057 Y77.142 E.01831
G1 X147.727 Y76.812 E.01192
G1 X147.01 Y76.812 E.01831
G1 X147.34 Y77.142 E.01192
G1 X146.623 Y77.142 E.01831
G1 X146.293 Y76.812 E.01192
G1 X145.576 Y76.812 E.01831
G1 X145.906 Y77.142 E.01192
G1 X145.189 Y77.142 E.01831
G1 X144.859 Y76.812 E.01192
G1 X144.142 Y76.812 E.01831
G1 X144.472 Y77.142 E.01192
G1 X143.754 Y77.142 E.01833
G1 X143.424 Y76.812 E.01192
G1 X142.707 Y76.812 E.01831
G1 X143.037 Y77.142 E.01192
G1 X142.32 Y77.142 E.01831
G1 X141.99 Y76.812 E.01192
G1 X141.273 Y76.812 E.01831
G1 X141.603 Y77.142 E.01192
G1 X140.886 Y77.142 E.01831
G1 X140.556 Y76.812 E.01192
G1 X139.839 Y76.812 E.01831
G1 X140.169 Y77.142 E.01192
G1 X139.452 Y77.142 E.01831
G1 X139.122 Y76.812 E.01192
G1 X138.405 Y76.812 E.01831
G1 X138.735 Y77.142 E.01192
G1 X138.018 Y77.142 E.01831
G1 X137.687 Y76.812 E.01193
G1 X136.97 Y76.812 E.01831
G1 X137.3 Y77.142 E.01192
G1 X136.583 Y77.142 E.01831
G1 X136.253 Y76.812 E.01192
G1 X135.536 Y76.812 E.01831
G1 X135.866 Y77.142 E.01192
G1 X135.149 Y77.142 E.01831
G1 X134.819 Y76.812 E.01192
G1 X134.102 Y76.812 E.01831
G1 X134.432 Y77.142 E.01192
G1 X133.715 Y77.142 E.01831
G1 X133.385 Y76.812 E.01192
G1 X132.668 Y76.812 E.01831
G1 X132.998 Y77.142 E.01192
G1 X132.281 Y77.142 E.01831
G1 X131.951 Y76.812 E.01192
G1 X131.233 Y76.812 E.01833
G1 X131.563 Y77.142 E.01192
G1 X130.846 Y77.142 E.01831
G1 X130.516 Y76.812 E.01192
G1 X129.799 Y76.812 E.01831
G1 X130.129 Y77.142 E.01192
G1 X129.412 Y77.142 E.01831
G1 X129.082 Y76.812 E.01192
G1 X128.365 Y76.812 E.01831
G1 X128.695 Y77.142 E.01192
G1 X127.978 Y77.142 E.01831
G1 X127.648 Y76.812 E.01192
G1 X126.931 Y76.812 E.01831
G1 X127.261 Y77.142 E.01192
G1 X126.544 Y77.142 E.01831
G1 X126.214 Y76.812 E.01192
G1 X125.496 Y76.812 E.01833
G1 X125.826 Y77.142 E.01192
G1 X125.109 Y77.142 E.01831
G1 X124.779 Y76.812 E.01192
G1 X124.062 Y76.812 E.01831
G1 X124.392 Y77.142 E.01192
G1 X123.675 Y77.142 E.01831
G1 X123.345 Y76.812 E.01192
G1 X122.628 Y76.812 E.01831
G1 X122.958 Y77.142 E.01192
G1 X122.241 Y77.142 E.01831
G1 X121.911 Y76.812 E.01192
G1 X121.194 Y76.812 E.01831
G1 X121.524 Y77.142 E.01192
G1 X120.807 Y77.142 E.01831
G1 X120.477 Y76.812 E.01192
G1 X119.76 Y76.812 E.01831
G1 X120.09 Y77.142 E.01192
G1 X119.372 Y77.142 E.01833
G1 X119.042 Y76.812 E.01192
G1 X118.325 Y76.812 E.01831
G1 X118.655 Y77.142 E.01192
G1 X117.938 Y77.142 E.01831
G1 X117.608 Y76.812 E.01192
G1 X116.891 Y76.812 E.01831
G1 X117.221 Y77.142 E.01192
G1 X116.504 Y77.142 E.01831
G1 X116.174 Y76.812 E.01192
G1 X115.457 Y76.812 E.01831
G1 X115.787 Y77.142 E.01192
G1 X115.07 Y77.142 E.01831
G1 X114.74 Y76.812 E.01192
G1 X114.023 Y76.812 E.01831
G1 X114.353 Y77.142 E.01192
G1 X113.635 Y77.142 E.01833
G1 X113.305 Y76.812 E.01192
G1 X112.588 Y76.812 E.01831
G1 X112.918 Y77.142 E.01192
G1 X112.201 Y77.142 E.01831
G1 X111.871 Y76.812 E.01192
G1 X111.154 Y76.812 E.01831
G1 X111.484 Y77.142 E.01192
G1 X110.767 Y77.142 E.01831
G1 X110.437 Y76.812 E.01192
G1 X109.72 Y76.812 E.01831
G1 X110.05 Y77.142 E.01192
G1 X109.333 Y77.142 E.01831
G1 X109.003 Y76.812 E.01192
G1 X108.286 Y76.812 E.01831
G1 X108.616 Y77.142 E.01192
G1 X107.899 Y77.142 E.01831
G1 X107.569 Y76.812 E.01192
G1 X106.851 Y76.812 E.01833
G1 X107.181 Y77.142 E.01192
G1 X106.464 Y77.142 E.01831
G1 X106.134 Y76.812 E.01192
G1 X105.417 Y76.812 E.01831
G1 X105.747 Y77.142 E.01192
G1 X105.03 Y77.142 E.01831
G1 X104.7 Y76.812 E.01192
G1 X103.983 Y76.812 E.01831
G1 X104.313 Y77.142 E.01192
G1 X103.596 Y77.142 E.01831
G1 X103.266 Y76.812 E.01192
G1 X102.549 Y76.812 E.01831
G1 X102.879 Y77.142 E.01192
G1 X102.162 Y77.142 E.01831
G1 X101.832 Y76.812 E.01192
G1 X101.114 Y76.812 E.01833
G1 X101.444 Y77.142 E.01192
G1 X100.727 Y77.142 E.01831
G1 X100.397 Y76.812 E.01192
G1 X99.68 Y76.812 E.01831
G1 X100.01 Y77.142 E.01192
G1 X99.293 Y77.142 E.01831
G1 X98.963 Y76.812 E.01192
G1 X98.246 Y76.812 E.01831
G1 X98.576 Y77.142 E.01192
G1 X97.859 Y77.142 E.01831
G1 X97.529 Y76.812 E.01192
G1 X96.812 Y76.812 E.01831
G1 X97.142 Y77.142 E.01192
G1 X96.425 Y77.142 E.01831
G1 X96.095 Y76.812 E.01192
G1 X95.378 Y76.812 E.01831
G1 X95.708 Y77.142 E.01192
G1 X94.99 Y77.142 E.01833
G1 X94.66 Y76.812 E.01192
G1 X93.943 Y76.812 E.01831
G1 X94.273 Y77.142 E.01192
G1 X93.556 Y77.142 E.01831
G1 X93.226 Y76.812 E.01192
G1 X92.509 Y76.812 E.01831
G1 X92.839 Y77.142 E.01192
G1 X92.122 Y77.142 E.01831
G1 X91.792 Y76.812 E.01192
G1 X91.075 Y76.812 E.01831
G1 X91.405 Y77.142 E.01192
G1 X90.688 Y77.142 E.01831
G1 X90.358 Y76.812 E.01192
G1 X89.641 Y76.812 E.01831
G1 X89.971 Y77.142 E.01192
G1 X89.253 Y77.142 E.01833
G1 X88.923 Y76.812 E.01192
G1 X88.206 Y76.812 E.01831
G1 X88.536 Y77.142 E.01192
G1 X87.819 Y77.142 E.01831
G1 X87.489 Y76.812 E.01192
G1 X86.772 Y76.812 E.01831
G1 X87.102 Y77.142 E.01192
G1 X86.385 Y77.142 E.01831
G1 X86.055 Y76.812 E.01192
G1 X85.338 Y76.812 E.01831
G1 X85.668 Y77.142 E.01192
G1 X84.951 Y77.142 E.01831
G1 X84.621 Y76.812 E.01192
G1 X83.904 Y76.812 E.01831
G1 X84.234 Y77.142 E.01192
G1 X83.517 Y77.142 E.01831
G1 X83.186 Y76.812 E.01193
G1 X82.469 Y76.812 E.01831
G1 X82.799 Y77.142 E.01192
G1 X82.082 Y77.142 E.01831
G1 X81.752 Y76.812 E.01192
G1 X81.035 Y76.812 E.01831
G1 X81.365 Y77.142 E.01192
G1 X80.648 Y77.142 E.01831
G1 X80.318 Y76.812 E.01192
G1 X79.601 Y76.812 E.01831
G1 X79.931 Y77.142 E.01192
G1 X79.214 Y77.142 E.01831
G1 X78.884 Y76.812 E.01192
G1 X78.167 Y76.812 E.01831
G1 X78.497 Y77.142 E.01192
G1 X77.78 Y77.142 E.01831
G1 X77.45 Y76.812 E.01192
G1 X76.732 Y76.812 E.01833
G1 X77.062 Y77.142 E.01192
G1 X76.345 Y77.142 E.01831
G1 X76.015 Y76.812 E.01192
G1 X75.298 Y76.812 E.01831
G1 X75.628 Y77.142 E.01192
G1 X74.911 Y77.142 E.01831
G1 X74.581 Y76.812 E.01192
G1 X73.864 Y76.812 E.01831
G1 X74.194 Y77.142 E.01192
G1 X73.477 Y77.142 E.01831
G1 X73.147 Y76.812 E.01192
G1 X72.43 Y76.812 E.01831
G1 X72.76 Y77.142 E.01192
G1 X72.043 Y77.142 E.01831
G1 X71.713 Y76.812 E.01192
G1 X70.995 Y76.812 E.01833
G1 X71.326 Y77.142 E.01193
G1 X70.608 Y77.142 E.01833
G1 X70.278 Y76.812 E.01192
G1 X69.561 Y76.812 E.01831
G1 X69.891 Y77.142 E.01192
G1 X69.174 Y77.142 E.01831
G1 X68.882 Y76.85 E.01054
G1 X68.647 Y77.142 E.00957
G1 X69.021 Y77.142 E.00955
M204 S1000
;WIPE_START
G1 F4800
G1 X68.647 Y77.142 E-.15544
G1 X68.882 Y76.85 E-.15578
G1 X69.174 Y77.142 E-.17163
G1 X69.891 Y77.142 E-.298
G1 X69.561 Y76.812 E-.19397
G1 X69.622 Y76.812 E-.02518
;WIPE_END
G1 Z.4 F720
G1 X67.786 Y77.744 F6000
G1 Z.2 F720
G1 E1 F2100
M204 S800
G1 F1200
G1 X67.644 Y77.763 E.00366
G1 X67.776 Y77.895 E.00477
G1 X67.776 Y78.613 E.01833
G1 X67.446 Y78.283 E.01192
G1 X67.446 Y79 E.01831
G1 X67.776 Y79.33 E.01192
G1 X67.776 Y80.047 E.01831
G1 X67.446 Y79.717 E.01192
G1 X67.446 Y80.434 E.01831
G1 X67.776 Y80.764 E.01192
G1 X67.776 Y81.481 E.01831
G1 X67.446 Y81.151 E.01192
G1 X67.446 Y81.868 E.01831
G1 X67.776 Y82.198 E.01192
G1 X67.776 Y82.915 E.01831
G1 X67.446 Y82.585 E.01192
G1 X67.446 Y83.302 E.01831
G1 X67.776 Y83.632 E.01192
G1 X67.776 Y84.349 E.01831
G1 X67.446 Y84.019 E.01192
G1 X67.446 Y84.737 E.01833
G1 X67.776 Y85.067 E.01192
G1 X67.776 Y85.784 E.01831
G1 X67.446 Y85.454 E.01192
G1 X67.446 Y86.171 E.01831
G1 X67.776 Y86.501 E.01192
G1 X67.776 Y87.218 E.01831
G1 X67.446 Y86.888 E.01192
G1 X67.446 Y87.605 E.01831
G1 X67.776 Y87.935 E.01192
G1 X67.776 Y88.652 E.01831
G1 X67.446 Y88.322 E.01192
G1 X67.446 Y89.039 E.01831
G1 X67.776 Y89.369 E.01192
G1 X67.776 Y90.086 E.01831
G1 X67.446 Y89.756 E.01192
G1 X67.446 Y90.474 E.01833
G1 X67.776 Y90.804 E.01192
G1 X67.776 Y91.521 E.01831
G1 X67.446 Y91.191 E.01192
G1 X67.446 Y91.908 E.01831
G1 X67.776 Y92.238 E.01192
G1 X67.776 Y92.955 E.01831
G1 X67.446 Y92.625 E.01192
G1 X67.446 Y93.342 E.01831
G1 X67.776 Y93.672 E.01192
G1 X67.776 Y94.389 E.01831
G1 X67.446 Y94.059 E.01192
G1 X67.446 Y94.776 E.01831
G1 X67.776 Y95.106 E.01192
G1 X67.776 Y95.823 E.01831
G1 X67.446 Y95.493 E.01192
G1 X67.446 Y96.21 E.01831
G1 X67.776 Y96.541 E.01193
G1 X67.776 Y97.258 E.01831
G1 X67.446 Y96.928 E.01192
G1 X67.446 Y97.645 E.01831
G1 X67.776 Y97.975 E.01192
G1 X67.776 Y98.692 E.01831
G1 X67.446 Y98.362 E.01192
G1 X67.446 Y99.079 E.01831
G1 X67.776 Y99.409 E.01192
G1 X67.776 Y100.126 E.01831
G1 X67.446 Y99.796 E.01192
G1 X67.446 Y100.513 E.01831
G1 X67.776 Y100.843 E.01192
G1 X67.776 Y101.56 E.01831
G1 X67.446 Y101.23 E.01192
G1 X67.446 Y101.947 E.01831
G1 X67.776 Y102.277 E.01192
G1 X67.776 Y102.995 E.01833
G1 X67.446 Y102.665 E.01192
G1 X67.446 Y103.382 E.01831
G1 X67.776 Y103.712 E.01192
G1 X67.776 Y104.429 E.01831
G1 X67.446 Y104.099 E.01192
G1 X67.446 Y104.816 E.01831
G1 X67.776 Y105.146 E.01192
G1 X67.776 Y105.863 E.01831
G1 X67.446 Y105.533 E.01192
G1 X67.446 Y106.25 E.01831
G1 X67.776 Y106.58 E.01192
G1 X67.776 Y107.297 E.01831
G1 X67.446 Y106.967 E.01192
G1 X67.446 Y107.684 E.01831
G1 X67.776 Y108.014 E.01192
G1 X67.776 Y108.732 E.01833
G1 X67.446 Y108.401 E.01193
G1 X67.446 Y109.119 E.01833
G1 X67.776 Y109.449 E.01192
G1 X67.776 Y110.166 E.01831
G1 X67.446 Y109.836 E.01192
G1 X67.446 Y110.553 E.01831
G1 X67.776 Y110.883 E.01192
G1 X67.776 Y111.6 E.01831
G1 X67.446 Y111.27 E.01192
G1 X67.446 Y111.987 E.01831
G1 X67.776 Y112.317 E.01192
G1 X67.776 Y112.464 E.00375
G1 X67.446 Y112.441 E.00845
G1 X67.446 Y112.141 E.00766
M204 S1000
;WIPE_START
G1 F4800
G1 X67.446 Y112.441 E-.12469
G1 X67.776 Y112.464 E-.13749
G1 X67.776 Y112.317 E-.0611
G1 X67.446 Y111.987 E-.19397
G1 X67.446 Y111.27 E-.298
G1 X67.761 Y111.584 E-.18475
;WIPE_END
G1 Z.4 F720
G1 X71.289 Y109.766 F6000
G1 Z.2 F720
G1 E1 F2100
M204 S800
G1 F1200
G1 X72.034 Y110.121 E.02107
G1 X72.448 Y110.535 E.01495
G1 X71.435 Y110.239 E.02695
G1 X70.144 Y108.947 E.04664
G1 X70.032 Y108.71 E.00669
G1 X69.843 Y107.929 E.02052
G1 X70.262 Y108.348 E.01513
G1 X70.157 Y107.527 E.02113
G1 X69.855 Y107.225 E.01091
G1 X69.879 Y107.064 E.00416
G1 X69.996 Y106.648 E.01103
G1 X70.258 Y106.91 E.00946
G1 X70.468 Y106.403 E.01401
G1 X70.224 Y106.16 E.00879
G1 X70.519 Y105.737 E.01317
G1 X70.753 Y105.971 E.00845
G1 X71.116 Y105.617 E.01295
G1 X70.88 Y105.381 E.00852
G1 X71.303 Y105.086 E.01317
G1 X71.546 Y105.33 E.00879
G1 X72.063 Y105.13 E.01415
G1 X71.797 Y104.864 E.00961
G1 X71.86 Y104.84 E.00172
G1 X72.38 Y104.73 E.01357
G1 X72.688 Y105.037 E.0111
G1 X73.52 Y105.153 E.02145
G1 X73.094 Y104.727 E.01538
G1 X73.64 Y104.84 E.01424
G1 X74.141 Y105.056 E.01393
G1 X75.314 Y106.229 E.04236
G1 X75.53 Y106.715 E.01358
G1 X75.654 Y107.286 E.01492
G1 X75.229 Y106.862 E.01533
G1 X74.822 Y106.073 E.02267
M204 S1000
;WIPE_START
G1 F4800
G1 X75.229 Y106.862 E-.36899
G1 X75.654 Y107.286 E-.24951
G1 X75.53 Y106.715 E-.24285
G1 X75.394 Y106.41 E-.13865
;WIPE_END
G1 Z.4 F720
G1 X75.266 Y107.011 F6000
G1 Z.2 F720
G1 E1 F2100
M204 S800
G1 F1200
G1 X75.34 Y107.689 E.01741
G1 X75.651 Y108 E.01123
G1 X75.581 Y108.367 E.00954
G1 X75.512 Y108.579 E.00569
