; generated by PrusaSlicer 2.9.4 on 2026-03-05 at 15:20:31 UTC


;
;

;
;
; 

; external perimeters extrusion width = 0.45mm
; perimeters extrusion width = 0.45mm
; infill extrusion width = 0.45mm
; solid infill extrusion width = 0.45mm
; top infill extrusion width = 0.40mm
; first layer extrusion width = 0.42mm

M73 P0 R38
M201 X9000 Y9000 Z500 E10000 ; sets maximum accelerations, mm/sec^2
M203 X500 Y500 Z12 E120 ; sets maximum feedrates, mm / sec
M204 S2000 T1500 ; sets acceleration (S) and retract acceleration (R), mm/sec^2
M205 X10.00 Y10.00 Z0.20 E4.50 ; sets the jerk limits, mm/sec
M205 S0 T0 ; sets the minimum extruding and travel feed rate, mm/sec

; printing object Bear_MK2x_Cover.stl id:0 copy 0
; stop printing object Bear_MK2x_Cover.stl id:0 copy 0

;TYPE:Custom
M83  ; extruder relative mode
M140 S85 ; set bed temp
M109 S160 ; Set extruder temp before bed level
M190 S85 ; wait for bed temp

G28 W ; home all without mesh bed level
G80 N7 ; mesh bed leveling

M109 S240 ; wait for extruder temp

M221 S100 ; Set flow to 100

G1 Y-3.0 F1000.0 ; go outside print area
G92 E0.0
G1 E8 ; Purge Bubble
G1 X60.0 E9.0 F1000.0 ; intro line
G1 X100.0 E12.5 F1000.0 ; intro line
G92 E0.0
G21 ; set units to millimeters
G90 ; use absolute coordinates
M83 ; use relative distances for extrusion

M900 K0.08 ; Filament gcode LA 1.5
M900 K45 ; Filament gcode LA 1.0




M107
;LAYER_CHANGE
;Z:0.2
;HEIGHT:0.2
G1 E-1 F2100
G1 Z.4 F720
G1 X66.807 Y80.318 F6000
G1 Z.2 F720
G1 E1 F2100
M204 S800
;TYPE:Skirt/Brim
;WIDTH:0.42
G1 F1200
G1 X68.354 Y79.677 E.0525
G1 X181.999 Y79.677 E3.56326
G1 X183.247 Y80.068 E.04101
G1 X184.049 Y81.101 E.041
G1 X184.187 Y81.865 E.02434
G1 X184.187 Y86.983 E.16047
G1 X183.527 Y88.548 E.05325
G1 X142.917 Y128.201 E1.77962
G1 X141.388 Y128.824 E.05177
G1 X111.414 Y128.824 E.93981
G1 X110.466 Y128.607 E.03049
G1 X67.05 Y107.732 E1.51046
G1 X66.095 Y106.839 E.04099
G1 X65.817 Y105.933 E.02971
G1 X64.317 Y87.039 E.59427
G1 X64.31 Y83.722 E.104
G1 X64.951 Y82.175 E.0525
G1 X66.764 Y80.361 E.08041
M204 S1000
;WIPE_START
G1 F4800
G1 X66.807 Y80.318 E-.02527
G1 X68.354 Y79.677 E-.69598
G1 X69.025 Y79.677 E-.27875
;WIPE_END
G1 Z.4 F720
; printing object Bear_MK2x_Cover.stl id:0 copy 0
G1 X84.265 Y96.42 F6000
G1 Z.2 F720
G1 E1 F2100
M204 S800
;TYPE:Perimeter
;WIDTH:0.419999
G1 F1200
G1 X84.265 Y91.867 E.14276
G1 X84.325 Y91.613 E.00818
G1 X84.497 Y91.406 E.00844
G1 X88.466 Y89.115 E.14369
G1 X88.749 Y89.039 E.00919
M73 P1 R38
G1 X89.032 Y89.115 E.00919
G1 X92.95 Y91.377 E.14185
G1 X93.095 Y91.497 E.0059
G1 X93.154 Y91.655 E.00529
G1 X93.213 Y91.497 E.00529
G1 X93.358 Y91.377 E.0059
G1 X97.276 Y89.115 E.14185
G1 X97.559 Y89.039 E.00919
G1 X97.842 Y89.115 E.00919
G1 X101.76 Y91.377 E.14185
G1 X101.905 Y91.497 E.0059
G1 X101.964 Y91.655 E.00529
G1 X102.023 Y91.497 E.00529
G1 X102.168 Y91.377 E.0059
G1 X106.086 Y89.115 E.14185
G1 X106.369 Y89.039 E.00919
G1 X106.652 Y89.115 E.00919
G1 X110.57 Y91.377 E.14185
G1 X110.715 Y91.497 E.0059
G1 X110.774 Y91.655 E.00529
G1 X110.833 Y91.497 E.00529
G1 X110.978 Y91.377 E.0059
G1 X114.896 Y89.115 E.14185
G1 X115.179 Y89.039 E.00919
G1 X115.462 Y89.115 E.00919
G1 X119.38 Y91.377 E.14185
G1 X119.525 Y91.497 E.0059
G1 X119.584 Y91.655 E.00529
G1 X119.643 Y91.497 E.00529
G1 X119.788 Y91.377 E.0059
G1 X123.706 Y89.115 E.14185
G1 X123.989 Y89.039 E.00919
G1 X124.272 Y89.115 E.00919
G1 X128.19 Y91.377 E.14185
G1 X128.335 Y91.497 E.0059
G1 X128.394 Y91.655 E.00529
G1 X128.453 Y91.497 E.00529
G1 X128.598 Y91.377 E.0059
G1 X132.516 Y89.115 E.14185
G1 X132.799 Y89.039 E.00919
G1 X133.082 Y89.115 E.00919
G1 X137 Y91.377 E.14185
G1 X137.145 Y91.497 E.0059
G1 X137.204 Y91.655 E.00529
G1 X137.263 Y91.497 E.00529
G1 X137.408 Y91.377 E.0059
G1 X141.326 Y89.115 E.14185
G1 X141.609 Y89.039 E.00919
G1 X141.892 Y89.115 E.00919
G1 X145.81 Y91.377 E.14185
G1 X145.955 Y91.497 E.0059
G1 X146.014 Y91.655 E.00529
G1 X146.073 Y91.497 E.00529
G1 X146.218 Y91.377 E.0059
G1 X150.136 Y89.115 E.14185
G1 X150.419 Y89.039 E.00919
G1 X150.702 Y89.115 E.00919
G1 X154.62 Y91.377 E.14185
G1 X154.765 Y91.497 E.0059
G1 X154.824 Y91.655 E.00529
G1 X154.883 Y91.497 E.00529
G1 X155.028 Y91.377 E.0059
G1 X158.946 Y89.115 E.14185
G1 X159.229 Y89.039 E.00919
G1 X159.512 Y89.115 E.00919
G1 X163.43 Y91.377 E.14185
G1 X163.621 Y91.557 E.00823
G1 X163.713 Y91.83 E.00903
G1 X163.713 Y96.392 E.14304
G1 X163.643 Y96.665 E.00884
G1 X163.463 Y96.863 E.00839
G1 X159.512 Y99.144 E.14304
G1 X159.257 Y99.219 E.00833
G1 X159.011 Y99.181 E.0078
G1 X155.028 Y96.882 E.14419
;WIDTH:0.42592
G1 X154.876 Y96.768 E.00605
G1 X154.824 Y96.645 E.00425
G1 X154.757 Y96.803 E.00547
;WIDTH:0.419999
G1 X150.702 Y99.144 E.14681
G1 X150.466 Y99.218 E.00775
G1 X150.192 Y99.176 E.00869
G1 X146.218 Y96.882 E.14387
;WIDTH:0.42592
G1 X146.066 Y96.768 E.00605
G1 X146.014 Y96.645 E.00425
G1 X145.947 Y96.803 E.00547
;WIDTH:0.419999
G1 X141.892 Y99.144 E.14681
G1 X141.648 Y99.218 E.00799
G1 X141.361 Y99.164 E.00916
G1 X137.408 Y96.882 E.14311
;WIDTH:0.42592
G1 X137.256 Y96.768 E.00605
G1 X137.204 Y96.645 E.00425
G1 X137.137 Y96.803 E.00547
;WIDTH:0.419999
G1 X133.082 Y99.144 E.14681
G1 X132.813 Y99.22 E.00876
G1 X132.533 Y99.154 E.00902
G1 X128.598 Y96.882 E.14247
;WIDTH:0.425921
G1 X128.446 Y96.768 E.00605
G1 X128.394 Y96.645 E.00425
G1 X128.327 Y96.803 E.00547
;WIDTH:0.419999
G1 X124.272 Y99.144 E.14681
G1 X124.006 Y99.219 E.00867
G1 X123.723 Y99.154 E.0091
G1 X119.788 Y96.882 E.14247
;WIDTH:0.42592
G1 X119.636 Y96.768 E.00605
G1 X119.584 Y96.645 E.00425
G1 X119.517 Y96.803 E.00547
;WIDTH:0.419999
G1 X115.462 Y99.144 E.14681
G1 X115.211 Y99.219 E.00821
G1 X114.925 Y99.161 E.00915
G1 X110.978 Y96.882 E.1429
;WIDTH:0.42592
G1 X110.826 Y96.768 E.00605
G1 X110.774 Y96.645 E.00425
G1 X110.707 Y96.803 E.00547
;WIDTH:0.419999
G1 X106.652 Y99.144 E.14681
G1 X106.413 Y99.218 E.00784
G1 X106.086 Y99.144 E.01051
G1 X102.168 Y96.882 E.14185
;WIDTH:0.42592
G1 X102.016 Y96.768 E.00605
G1 X101.964 Y96.645 E.00425
G1 X101.897 Y96.803 E.00547
;WIDTH:0.419999
G1 X97.842 Y99.144 E.14681
G1 X97.635 Y99.215 E.00686
G1 X97.367 Y99.186 E.00845
G1 X93.358 Y96.882 E.14498
;WIDTH:0.42592
G1 X93.206 Y96.768 E.00605
G1 X93.154 Y96.645 E.00425
G1 X93.087 Y96.803 E.00547
;WIDTH:0.419999
G1 X89.032 Y99.144 E.14681
G1 X88.748 Y99.22 E.00922
G1 X88.466 Y99.144 E.00916
G1 X84.548 Y96.882 E.14185
G1 X84.354 Y96.697 E.00841
G1 X84.284 Y96.477 E.00724
M204 S1000
;WIPE_START
G1 F4800
G1 X84.265 Y96.42 E-.02497
G1 X84.265 Y94.074 E-.97503
;WIPE_END
G1 Z.4 F720
G1 X128.725 Y96.488 F6000
G1 Z.2 F720
G1 E1 F2100
M204 S800
;TYPE:External perimeter
;WIDTH:0.492895
G1 F1200
G1 X128.687 Y96.446 E.00212
;WIDTH:0.529342
G1 X128.637 Y96.392 E.00298
G1 X128.637 Y91.867 E.18302
G1 X128.687 Y91.813 E.00298
;WIDTH:0.492895
G1 X128.736 Y91.758 E.00276
;WIDTH:0.456447
G1 X128.786 Y91.704 E.00253
;WIDTH:0.419999
G1 X132.705 Y89.441 E.14189
G1 X132.865 Y89.425 E.00504
G1 X136.812 Y91.704 E.1429
;WIDTH:0.456448
G1 X136.861 Y91.758 E.00251
;WIDTH:0.492897
G1 X136.911 Y91.813 E.00278
;WIDTH:0.529346
G1 X136.961 Y91.867 E.00298
;WIDTH:0.531204
G1 X136.961 Y96.413 E.18457
G1 X136.911 Y96.46 E.00279
;WIDTH:0.494136
G1 X136.861 Y96.508 E.0026
;WIDTH:0.457068
G1 X136.812 Y96.555 E.00234
;WIDTH:0.419999
G1 X132.893 Y98.817 E.14188
G1 X132.815 Y98.842 E.00257
G1 X132.705 Y98.817 E.00354
G1 X128.786 Y96.555 E.14188
;WIDTH:0.456447
G1 X128.766 Y96.533 E.00102
M204 S1000
;WIPE_START
G1 F4800
G1 X128.725 Y96.488 E-.0253
G1 X128.687 Y96.446 E-.02354
G1 X128.637 Y96.392 E-.03059
G1 X128.637 Y94.177 E-.92057
;WIPE_END
G1 Z.4 F720
G1 X137.535 Y96.488 F6000
G1 Z.2 F720
G1 E1 F2100
M204 S800
;WIDTH:0.492897
G1 F1200
G1 X137.497 Y96.446 E.00212
;WIDTH:0.529346
G1 X137.447 Y96.392 E.00298
G1 X137.447 Y91.867 E.18302
G1 X137.497 Y91.813 E.00298
;WIDTH:0.492897
G1 X137.546 Y91.758 E.00276
;WIDTH:0.456448
G1 X137.596 Y91.704 E.00253
;WIDTH:0.419999
G1 X141.515 Y89.441 E.14189
G1 X141.675 Y89.425 E.00504
G1 X145.622 Y91.704 E.1429
;WIDTH:0.456448
G1 X145.671 Y91.758 E.00251
;WIDTH:0.492897
G1 X145.721 Y91.813 E.00278
;WIDTH:0.529346
G1 X145.771 Y91.867 E.00298
;WIDTH:0.531204
G1 X145.771 Y96.413 E.18457
G1 X145.721 Y96.46 E.00279
;WIDTH:0.494136
G1 X145.671 Y96.508 E.0026
;WIDTH:0.457068
G1 X145.622 Y96.555 E.00234
;WIDTH:0.419999
G1 X141.703 Y98.817 E.14188
G1 X141.538 Y98.831 E.00519
G1 X137.596 Y96.555 E.14272
;WIDTH:0.456448
G1 X137.576 Y96.533 E.00102
M204 S1000
;WIPE_START
G1 F4800
G1 X137.535 Y96.488 E-.0253
G1 X137.497 Y96.446 E-.02354
G1 X137.447 Y96.392 E-.03059
G1 X137.447 Y94.177 E-.92057
;WIPE_END
G1 Z.4 F720
G1 X146.345 Y96.488 F6000
G1 Z.2 F720
G1 E1 F2100
M204 S800
;WIDTH:0.492897
G1 F1200
G1 X146.307 Y96.446 E.00212
;WIDTH:0.529346
G1 X146.257 Y96.392 E.00298
G1 X146.257 Y91.867 E.18302
G1 X146.307 Y91.813 E.00298
;WIDTH:0.492897
G1 X146.356 Y91.758 E.00276
;WIDTH:0.456448
G1 X146.406 Y91.704 E.00253
;WIDTH:0.419999
G1 X150.325 Y89.441 E.14189
G1 X150.485 Y89.425 E.00504
G1 X154.432 Y91.704 E.1429
;WIDTH:0.456448
G1 X154.481 Y91.758 E.00251
;WIDTH:0.492897
G1 X154.531 Y91.813 E.00278
;WIDTH:0.529346
G1 X154.581 Y91.867 E.00298
;WIDTH:0.531204
G1 X154.581 Y96.413 E.18457
G1 X154.531 Y96.46 E.00279
;WIDTH:0.494136
G1 X154.481 Y96.508 E.0026
;WIDTH:0.457068
G1 X154.432 Y96.555 E.00234
;WIDTH:0.419999
G1 X150.513 Y98.817 E.14188
G1 X150.354 Y98.834 E.00501
G1 X146.406 Y96.555 E.14293
;WIDTH:0.456448
G1 X146.386 Y96.533 E.00102
M204 S1000
;WIPE_START
G1 F4800
G1 X146.345 Y96.488 E-.0253
G1 X146.307 Y96.446 E-.02354
G1 X146.257 Y96.392 E-.03059
G1 X146.257 Y94.177 E-.92057
;WIPE_END
G1 Z.4 F720
G1 X155.155 Y96.488 F6000
G1 Z.2 F720
G1 E1 F2100
M204 S800
;WIDTH:0.492897
G1 F1200
G1 X155.117 Y96.446 E.00212
;WIDTH:0.529346
G1 X155.067 Y96.392 E.00298
G1 X155.067 Y91.867 E.18302
G1 X155.117 Y91.813 E.00298
;WIDTH:0.492897
G1 X155.166 Y91.758 E.00276
;WIDTH:0.456448
G1 X155.216 Y91.704 E.00253
;WIDTH:0.419999
G1 X159.135 Y89.441 E.14189
G1 X159.295 Y89.425 E.00504
G1 X163.242 Y91.704 E.1429
G1 X163.336 Y91.835 E.00506
G1 X163.336 Y96.392 E.14288
G1 X163.276 Y96.536 E.00489
G1 X159.323 Y98.817 E.1431
G1 X159.154 Y98.828 E.00531
G1 X155.216 Y96.555 E.14256
;WIDTH:0.456448
G1 X155.196 Y96.533 E.00102
M204 S1000
;WIPE_START
G1 F4800
G1 X155.155 Y96.488 E-.0253
G1 X155.117 Y96.446 E-.02354
G1 X155.067 Y96.392 E-.03059
G1 X155.067 Y94.177 E-.92057
;WIPE_END
G1 Z.4 F720
G1 X179.207 Y88.7 F6000
G1 Z.2 F720
G1 E1 F2100
M204 S800
;WIDTH:0.641344
G1 F1200
G1 X179.048 Y88.875 E.01177
;WIDTH:0.614497
G1 X178.888 Y89.049 E.01123
;WIDTH:0.612679
G1 X178.589 Y89.324 E.01925
;WIDTH:0.637708
G1 X178.29 Y89.599 E.02009
;WIDTH:0.647366
G1 X178.243 Y89.637 E.00304
M204 S1000
;WIPE_START
G1 F4800
G1 X178.29 Y89.599 E-.02512
G1 X178.589 Y89.324 E-.16884
G1 X178.888 Y89.049 E-.16884
G1 X179.048 Y88.875 E-.09825
G1 X179.207 Y88.7 E-.09827
;WIPE_END
G1 E-.44068 F2100
G1 Z.4 F720
G1 X128.063 Y91.77 F6000
G1 Z.2 F720
M73 P1 R37
G1 E1 F2100
M204 S800
;WIDTH:0.492895
G1 F1200
G1 X128.101 Y91.813 E.00215
;WIDTH:0.529342
G1 X128.151 Y91.867 E.00298
;WIDTH:0.5312
G1 X128.151 Y96.413 E.18457
G1 X128.101 Y96.46 E.00279
;WIDTH:0.494133
G1 X128.051 Y96.508 E.0026
;WIDTH:0.457066
G1 X128.002 Y96.555 E.00234
;WIDTH:0.419999
G1 X124.083 Y98.817 E.14188
G1 X123.919 Y98.831 E.00516
G1 X119.976 Y96.555 E.14275
;WIDTH:0.456448
G1 X119.926 Y96.501 E.00253
;WIDTH:0.492897
G1 X119.877 Y96.446 E.00276
;WIDTH:0.529346
G1 X119.827 Y96.392 E.00298
G1 X119.827 Y91.867 E.18302
G1 X119.877 Y91.813 E.00298
;WIDTH:0.492897
G1 X119.926 Y91.758 E.00276
;WIDTH:0.456448
G1 X119.976 Y91.704 E.00253
;WIDTH:0.419999
G1 X123.895 Y89.441 E.14189
G1 X124.055 Y89.425 E.00504
G1 X128.002 Y91.704 E.1429
;WIDTH:0.456447
G1 X128.022 Y91.726 E.00102
M204 S1000
;WIPE_START
G1 F4800
G1 X128.063 Y91.77 E-.025
G1 X128.101 Y91.813 E-.02385
G1 X128.151 Y91.867 E-.03059
G1 X128.151 Y94.082 E-.92056
;WIPE_END
G1 Z.4 F720
G1 X119.253 Y91.77 F6000
G1 Z.2 F720
G1 E1 F2100
M204 S800
;WIDTH:0.492897
G1 F1200
G1 X119.291 Y91.813 E.00215
;WIDTH:0.529346
G1 X119.341 Y91.867 E.00298
;WIDTH:0.531204
G1 X119.341 Y96.413 E.18457
G1 X119.291 Y96.46 E.00279
;WIDTH:0.494136
G1 X119.241 Y96.508 E.0026
;WIDTH:0.457068
G1 X119.192 Y96.555 E.00234
;WIDTH:0.419999
G1 X115.273 Y98.817 E.14188
G1 X115.119 Y98.837 E.00487
G1 X111.166 Y96.555 E.14311
;WIDTH:0.456448
G1 X111.116 Y96.501 E.00253
;WIDTH:0.492897
G1 X111.067 Y96.446 E.00276
;WIDTH:0.529346
G1 X111.017 Y96.392 E.00298
G1 X111.017 Y91.867 E.18302
G1 X111.067 Y91.813 E.00298
;WIDTH:0.492897
G1 X111.116 Y91.758 E.00276
;WIDTH:0.456448
G1 X111.166 Y91.704 E.00253
;WIDTH:0.419999
G1 X115.085 Y89.441 E.14189
G1 X115.245 Y89.425 E.00504
G1 X119.192 Y91.704 E.1429
;WIDTH:0.456448
G1 X119.212 Y91.726 E.00102
M204 S1000
;WIPE_START
G1 F4800
G1 X119.253 Y91.77 E-.025
G1 X119.291 Y91.813 E-.02385
G1 X119.341 Y91.867 E-.03059
G1 X119.341 Y94.082 E-.92056
;WIPE_END
G1 Z.4 F720
G1 X110.443 Y91.77 F6000
G1 Z.2 F720
G1 E1 F2100
M204 S800
;WIDTH:0.492897
G1 F1200
G1 X110.481 Y91.813 E.00215
;WIDTH:0.529346
G1 X110.531 Y91.867 E.00298
;WIDTH:0.531204
G1 X110.531 Y96.413 E.18457
G1 X110.481 Y96.46 E.00279
;WIDTH:0.494136
G1 X110.431 Y96.508 E.0026
;WIDTH:0.457068
G1 X110.382 Y96.555 E.00234
;WIDTH:0.419999
G1 X106.463 Y98.817 E.14188
G1 X106.366 Y98.843 E.00315
G1 X105.657 Y98.461 E.02525
G1 X102.356 Y96.555 E.11951
;WIDTH:0.456448
G1 X102.306 Y96.501 E.00253
;WIDTH:0.492897
G1 X102.257 Y96.446 E.00276
;WIDTH:0.529346
G1 X102.207 Y96.392 E.00298
G1 X102.207 Y91.867 E.18302
G1 X102.257 Y91.813 E.00298
M73 P2 R37
;WIDTH:0.492897
G1 X102.306 Y91.758 E.00276
;WIDTH:0.456448
G1 X102.356 Y91.704 E.00253
;WIDTH:0.419999
G1 X106.275 Y89.441 E.14189
G1 X106.435 Y89.425 E.00504
G1 X110.382 Y91.704 E.1429
;WIDTH:0.456448
G1 X110.402 Y91.726 E.00102
M204 S1000
;WIPE_START
G1 F4800
G1 X110.443 Y91.77 E-.025
G1 X110.481 Y91.813 E-.02385
G1 X110.531 Y91.867 E-.03059
G1 X110.531 Y94.082 E-.92056
;WIPE_END
G1 Z.4 F720
G1 X101.633 Y91.77 F6000
G1 Z.2 F720
G1 E1 F2100
M204 S800
;WIDTH:0.492897
G1 F1200
G1 X101.671 Y91.813 E.00215
;WIDTH:0.529346
G1 X101.721 Y91.867 E.00298
;WIDTH:0.531204
G1 X101.721 Y96.413 E.18457
G1 X101.671 Y96.46 E.00279
;WIDTH:0.494136
G1 X101.621 Y96.508 E.0026
;WIDTH:0.457068
G1 X101.572 Y96.555 E.00234
;WIDTH:0.419999
G1 X97.653 Y98.817 E.14188
G1 X97.495 Y98.831 E.00497
G1 X93.546 Y96.555 E.14291
;WIDTH:0.456448
G1 X93.496 Y96.501 E.00253
;WIDTH:0.492897
G1 X93.447 Y96.446 E.00276
;WIDTH:0.529345
G1 X93.397 Y96.392 E.00298
G1 X93.397 Y91.867 E.18302
G1 X93.447 Y91.813 E.00298
;WIDTH:0.492897
G1 X93.496 Y91.758 E.00276
;WIDTH:0.456448
G1 X93.546 Y91.704 E.00253
;WIDTH:0.419999
G1 X97.465 Y89.441 E.14189
G1 X97.625 Y89.425 E.00504
G1 X101.572 Y91.704 E.1429
;WIDTH:0.456448
G1 X101.592 Y91.726 E.00102
M204 S1000
;WIPE_START
G1 F4800
G1 X101.633 Y91.77 E-.025
G1 X101.671 Y91.813 E-.02385
G1 X101.721 Y91.867 E-.03059
G1 X101.721 Y94.082 E-.92056
;WIPE_END
G1 Z.4 F720
G1 X92.823 Y91.77 F6000
G1 Z.2 F720
G1 E1 F2100
M204 S800
;WIDTH:0.492897
G1 F1200
G1 X92.861 Y91.813 E.00215
;WIDTH:0.529345
G1 X92.911 Y91.867 E.00298
;WIDTH:0.531203
G1 X92.911 Y96.413 E.18457
G1 X92.861 Y96.46 E.00279
;WIDTH:0.494135
G1 X92.811 Y96.508 E.0026
;WIDTH:0.457067
G1 X92.762 Y96.555 E.00234
;WIDTH:0.419999
G1 X88.843 Y98.817 E.14188
G1 X88.689 Y98.837 E.00487
G1 X84.736 Y96.555 E.14311
G1 X84.645 Y96.427 E.00492
G1 X84.642 Y91.867 E.14298
G1 X84.69 Y91.73 E.00455
G1 X88.655 Y89.441 E.14355
G1 X88.815 Y89.425 E.00504
G1 X92.762 Y91.704 E.1429
;WIDTH:0.456448
G1 X92.782 Y91.726 E.00102
M204 S1000
;WIPE_START
G1 F4800
G1 X92.823 Y91.77 E-.025
G1 X92.861 Y91.813 E-.02385
G1 X92.911 Y91.867 E-.03059
G1 X92.911 Y94.082 E-.92056
;WIPE_END
G1 Z.4 F720
G1 X70.798 Y82.653 F6000
G1 Z.2 F720
G1 E1 F2100
M204 S800
;TYPE:Perimeter
;WIDTH:0.419999
G1 F1200
G1 X70.053 Y82.898 E.02459
G1 X69.601 Y83.14 E.01608
G1 X69.108 Y83.503 E.0192
G1 X68.562 Y84.061 E.02448
G1 X68.255 Y84.496 E.01669
G1 X68.023 Y84.945 E.01585
;WIDTH:0.468953
G1 X67.914 Y85.196 E.00969
;WIDTH:0.517906
G1 X67.806 Y85.447 E.01079
