; generated by PrusaSlicer 2.5.0+MacOS-x64 on 2022-11-03 at 21:50:56 UTC


;
;

;
;
; 

; external perimeters extrusion width = 0.45mm
; perimeters extrusion width = 0.45mm
; infill extrusion width = 0.45mm
; solid infill extrusion width = 0.45mm
; top infill extrusion width = 0.40mm
; first layer extrusion width = 0.42mm

M73 P0 R147
M201 X9000 Y9000 Z500 E10000 ; sets maximum accelerations, mm/sec^2
M203 X500 Y500 Z12 E120 ; sets maximum feedrates, mm / sec
M204 P2000 R1500 T2000 ; sets acceleration (P, T) and retract acceleration (R), mm/sec^2
M205 X10.00 Y10.00 Z0.20 E4.50 ; sets the jerk limits, mm/sec
M205 S0 T0 ; sets the minimum extruding and travel feed rate, mm/sec
M107
;TYPE:Custom
M83  ; extruder relative mode
M140 S85 ; set bed temp
M109 S160 ; Set extruder temp before bed level
M190 S85 ; wait for bed temp

G28 W ; home all without mesh bed level
G80 N7 ; mesh bed leveling

M109 S240 ; wait for extruder temp

M221 S100 ; Set flow to 100

G1 Y-3.0 F1000.0 ; go outside print area
G92 E0.0
G1 E8 ; Purge Bubble
G1 X60.0 E9.0 F1000.0 ; intro line
G1 X100.0 E12.5 F1000.0 ; intro line
G92 E0.0
G21 ; set units to millimeters
G90 ; use absolute coordinates
M83 ; use relative distances for extrusion
M900 K0.08 ; Filament gcode LA 1.5
M900 K45 ; Filament gcode LA 1.0
M107
;LAYER_CHANGE
;Z:0.2
;HEIGHT:0.2
;BEFORE_LAYER_CHANGE
G92 E0.0
;0.2


G1 E-1 F2100
G1 Z.2 F720
;AFTER_LAYER_CHANGE
;0.2
G1 Z.4
G1 X47.81 Y99.067 F6000
G1 Z.2 F720
G1 E1 F2100
M204 S800
;TYPE:Skirt/Brim
;WIDTH:0.42
G1 F1200
G1 X48.75 Y98.873 E.03008
G1 X201.25 Y98.873 E4.78153
G1 X202.557 Y99.265 E.04278
M73 P0 R146
G1 X203.433 Y100.31 E.04278
G1 X203.627 Y101.25 E.03008
G1 X203.627 Y108.746 E.23504
G1 X203.235 Y110.053 E.04278
G1 X202.19 Y110.93 E.04278
G1 X201.25 Y111.123 E.03008
G1 X48.75 Y111.123 E4.78153
G1 X47.443 Y110.732 E.04278
G1 X46.567 Y109.686 E.04278
G1 X46.373 Y108.746 E.03008
G1 X46.373 Y101.25 E.23504
G1 X46.765 Y99.943 E.04278
G1 X47.764 Y99.105 E.0409
M204 S1000
; printing object divider_border_bottom.stl id:0 copy 0
;WIPE_START
G1 F4800
G1 X48.75 Y98.873 E-.42091
G1 X50.023 Y98.873 E-.52909
;WIPE_END
G1 E-.05 F2100
G1 Z.4 F720
G1 X57.804 Y103.858 F6000
G1 Z.2 F720
G1 E1 F2100
M204 S800
;TYPE:Perimeter
;WIDTH:0.419999
G1 F1200
G1 X57.717 Y103.836 E.0028
G1 X56.526 Y103.836 E.03736
G1 X56.336 Y103.418 E.01439
G1 X55.858 Y102.818 E.02407
G1 X55.426 Y102.473 E.01732
G1 X54.739 Y102.13 E.02408
G1 X54.225 Y102.019 E.01649
G1 X54.751 Y102.037 E.01652
G1 X195.275 Y102.037 E4.40603
G1 X195.61 Y102.023 E.0105
;WIDTH:0.391229
G1 X195.944 Y102.008 E.0097
;WIDTH:0.365926
G1 X195.92 Y102.011 E.00065
;WIDTH:0.392963
G1 X195.602 Y102.068 E.00939
;WIDTH:0.419999
G1 X195.285 Y102.125 E.01012
G1 X194.778 Y102.346 E.01733
G1 X194.34 Y102.642 E.01658
G1 X193.96 Y103.01 E.01659
G1 X193.65 Y103.438 E.01658
G1 X193.475 Y103.836 E.01364
G1 X192.283 Y103.836 E.03736
G1 X192.017 Y103.903 E.0086
G1 X191.83 Y104.063 E.00769
G1 X191.74 Y104.244 E.00634
G1 X191.717 Y104.402 E.00502
G1 X191.717 Y104.998 E.01869
G1 X191.74 Y105.753 E.02367
G1 X191.83 Y105.934 E.00634
G1 X192.017 Y106.094 E.00769
G1 X192.283 Y106.16 E.0086
G1 X193.474 Y106.16 E.03736
G1 X193.664 Y106.577 E.01436
G1 X194.161 Y107.194 E.02484
G1 X194.778 Y107.651 E.02408
G1 X195.261 Y107.866 E.01657
G1 X195.775 Y107.977 E.01651
G1 X195.249 Y107.959 E.01653
G1 X54.725 Y107.959 E4.40602
G1 X54.402 Y107.972 E.01013
;WIDTH:0.392879
G1 X54.079 Y107.986 E.0094
G1 X54.397 Y107.929 E.0094
;WIDTH:0.419999
G1 X54.715 Y107.872 E.01013
G1 X55.222 Y107.65 E.01735
G1 X55.66 Y107.354 E.01658
G1 X56.04 Y106.987 E.01657
G1 X56.351 Y106.558 E.01661
G1 X56.526 Y106.16 E.01362
G1 X57.717 Y106.16 E.03736
G1 X57.983 Y106.094 E.0086
G1 X58.17 Y105.934 E.00769
G1 X58.26 Y105.753 E.00634
G1 X58.283 Y105.594 E.00502
G1 X58.26 Y104.244 E.04236
G1 X58.17 Y104.063 E.00634
G1 X57.983 Y103.903 E.00769
G1 X57.862 Y103.873 E.00392
M204 S1000
;WIPE_START
G1 F4800
G1 X57.717 Y103.836 E-.06209
G1 X56.526 Y103.836 E-.4952
G1 X56.336 Y103.418 E-.19077
G1 X56.033 Y103.038 E-.20194
;WIPE_END
G1 E-.05 F2100
G1 Z.4 F720
G1 X197.278 Y102.088 F6000
G1 Z.2 F720
G1 E1 F2100
M204 S800
;WIDTH:0.522692
G1 F1200
G1 X198.216 Y102.088 E.0374
;WIDTH:0.560282
G1 X198.72 Y102.107 E.0217
;WIDTH:0.597872
G1 X199.224 Y102.126 E.02327
G1 X199.324 Y102.104 E.00471
;WIDTH:0.553404
G1 X199.424 Y102.082 E.00434
;WIDTH:0.508936
G1 X199.523 Y102.059 E.00396
;WIDTH:0.464468
G1 X199.623 Y102.037 E.00358
;WIDTH:0.419999
G1 X200.463 Y102.037 E.02634
G1 X200.463 Y102.96 E.02893
G1 X199.564 Y102.825 E.02849
;WIDTH:0.464468
G1 X199.469 Y102.788 E.00358
;WIDTH:0.508936
G1 X199.374 Y102.751 E.00396
;WIDTH:0.553404
G1 X199.278 Y102.715 E.00434
;WIDTH:0.597872
G1 X199.183 Y102.678 E.00471
G1 X198.682 Y102.622 E.02327
;WIDTH:0.560282
G1 X198.181 Y102.566 E.0217
;WIDTH:0.522692
G1 X197.748 Y102.299 E.02025
G1 X197.333 Y102.113 E.01815
M204 S1000
;WIPE_START
G1 F4800
G1 X198.216 Y102.088 E-.36709
G1 X198.72 Y102.107 E-.20962
G1 X199.224 Y102.126 E-.20962
G1 X199.324 Y102.104 E-.04246
G1 X199.424 Y102.082 E-.04247
G1 X199.523 Y102.059 E-.04247
G1 X199.608 Y102.04 E-.03627
;WIPE_END
G1 E-.05 F2100
G1 Z.4 F720
G1 X197.226 Y107.907 F6000
G1 Z.2 F720
G1 E1 F2100
M204 S800
;WIDTH:0.524238
G1 F1200
G1 X197.606 Y107.772 E.01611
G1 X198.202 Y107.428 E.02756
;WIDTH:0.561055
G1 X198.693 Y107.373 E.02128
;WIDTH:0.597872
G1 X199.184 Y107.318 E.02279
G1 X199.279 Y107.282 E.00471
;WIDTH:0.553404
G1 X199.375 Y107.245 E.00434
;WIDTH:0.508936
G1 X199.47 Y107.208 E.00396
;WIDTH:0.464468
G1 X199.565 Y107.171 E.00358
;WIDTH:0.419999
G1 X200.463 Y107.037 E.02846
G1 X200.463 Y107.959 E.02893
G1 X199.624 Y107.959 E.0263
;WIDTH:0.464468
G1 X199.524 Y107.937 E.00358
;WIDTH:0.508936
G1 X199.425 Y107.915 E.00396
;WIDTH:0.553404
G1 X199.325 Y107.893 E.00434
;WIDTH:0.597872
G1 X199.225 Y107.87 E.00471
G1 X198.732 Y107.889 E.02279
;WIDTH:0.561055
G1 X198.238 Y107.907 E.02128
;WIDTH:0.524238
G1 X197.286 Y107.907 E.03808
M204 S1000
;WIPE_START
G1 F4800
G1 X197.606 Y107.772 E-.144
G1 X198.202 Y107.428 E-.28623
G1 X198.693 Y107.373 E-.20528
G1 X199.184 Y107.318 E-.20528
G1 X199.279 Y107.282 E-.04246
G1 X199.375 Y107.245 E-.04247
G1 X199.429 Y107.224 E-.02426
;WIPE_END
G1 E-.05 F2100
G1 Z.4 F720
G1 X52.721 Y107.908 F6000
G1 Z.2 F720
G1 E1 F2100
M204 S800
;WIDTH:0.522604
G1 F1200
G1 X51.784 Y107.908 E.03737
;WIDTH:0.560237
G1 X51.279 Y107.889 E.02172
;WIDTH:0.59787
G1 X50.775 Y107.87 E.0233
G1 X50.675 Y107.893 E.00471
;WIDTH:0.553403
G1 X50.575 Y107.915 E.00434
;WIDTH:0.508935
G1 X50.476 Y107.937 E.00396
;WIDTH:0.464467
G1 X50.376 Y107.959 E.00358
;WIDTH:0.419999
G1 X49.537 Y107.959 E.0263
G1 X49.537 Y107.037 E.02893
G1 X50.435 Y107.171 E.02846
;WIDTH:0.464467
G1 X50.53 Y107.208 E.00358
;WIDTH:0.508935
G1 X50.625 Y107.245 E.00396
;WIDTH:0.553403
G1 X50.721 Y107.282 E.00434
;WIDTH:0.59787
G1 X50.816 Y107.318 E.00471
G1 X51.318 Y107.375 E.0233
;WIDTH:0.560237
G1 X51.82 Y107.431 E.02172
;WIDTH:0.522604
G1 X52.252 Y107.697 E.02024
G1 X52.666 Y107.883 E.01812
M204 S1000
;WIPE_START
G1 F4800
G1 X51.784 Y107.908 E-.3668
G1 X51.279 Y107.889 E-.20985
G1 X50.775 Y107.87 E-.20985
G1 X50.675 Y107.893 E-.04246
G1 X50.575 Y107.915 E-.04247
G1 X50.476 Y107.937 E-.04247
G1 X50.391 Y107.956 E-.0361
;WIPE_END
G1 E-.05 F2100
G1 Z.4 F720
G1 X52.773 Y102.089 F6000
G1 Z.2 F720
G1 E1 F2100
M204 S800
;WIDTH:0.524361
G1 F1200
G1 X52.394 Y102.224 E.01611
G1 X51.797 Y102.568 E.02758
;WIDTH:0.561117
G1 X51.307 Y102.623 E.02125
;WIDTH:0.597873
G1 X50.817 Y102.678 E.02275
G1 X50.722 Y102.715 E.00471
;WIDTH:0.553405
G1 X50.626 Y102.751 E.00434
;WIDTH:0.508936
G1 X50.531 Y102.788 E.00396
;WIDTH:0.464468
G1 X50.436 Y102.825 E.00358
;WIDTH:0.419999
G1 X49.537 Y102.96 E.02849
G1 X49.537 Y102.037 E.02893
G1 X50.377 Y102.037 E.02633
;WIDTH:0.464468
G1 X50.477 Y102.059 E.00358
;WIDTH:0.508936
G1 X50.576 Y102.082 E.00396
;WIDTH:0.553405
G1 X50.676 Y102.104 E.00434
;WIDTH:0.597873
G1 X50.776 Y102.126 E.00471
G1 X51.269 Y102.108 E.02275
;WIDTH:0.561117
G1 X51.761 Y102.089 E.02125
;WIDTH:0.524361
G1 X52.713 Y102.089 E.03811
M204 S1000
;WIPE_START
G1 F4800
G1 X52.394 Y102.224 E-.14405
G1 X51.797 Y102.568 E-.28636
G1 X51.307 Y102.623 E-.20495
G1 X50.817 Y102.678 E-.20495
G1 X50.722 Y102.715 E-.04247
G1 X50.626 Y102.751 E-.04247
G1 X50.571 Y102.773 E-.02475
;WIPE_END
G1 E-.05 F2100
G1 Z.4 F720
G1 X57.717 Y104.213 F6000
G1 Z.2 F720
G1 E1 F2100
M204 S800
;TYPE:External perimeter
;WIDTH:0.419999
G1 F1200
G1 X56.27 Y104.213 E.04537
G1 X56.037 Y103.648 E.01917
G1 X55.643 Y103.136 E.02026
G1 X55.252 Y102.807 E.01602
G1 X54.68 Y102.509 E.02024
G1 X54.226 Y102.383 E.01477
G1 X53.764 Y102.34 E.01454
G1 X53.261 Y102.385 E.01582
G1 X52.609 Y102.596 E.02151
G1 X52.039 Y102.966 E.02128
G1 X49.16 Y103.398 E.09129
G1 X49.16 Y101.66 E.05448
G1 X200.84 Y101.66 E4.75581
G1 X200.84 Y103.398 E.05448
G1 X197.956 Y102.965 E.09144
G1 X197.598 Y102.706 E.01385
G1 X197.177 Y102.506 E.01461
G1 X196.69 Y102.377 E.01581
G1 X195.996 Y102.353 E.02177
G1 X195.366 Y102.493 E.02022
G1 X194.938 Y102.688 E.01477
G1 X194.556 Y102.951 E.01453
G1 X194.227 Y103.277 E.01453
G1 X193.938 Y103.693 E.01588
G1 X193.73 Y104.213 E.01758
G1 X192.283 Y104.213 E.04537
G1 X192.132 Y104.289 E.00529
G1 X192.094 Y104.402 E.00374
G1 X192.094 Y105.594 E.03739
G1 X192.132 Y105.708 E.00374
G1 X192.283 Y105.783 E.00529
G1 X193.73 Y105.783 E.04537
G1 X193.963 Y106.348 E.01915
G1 X194.391 Y106.895 E.02177
G1 X194.903 Y107.288 E.02024
G1 X195.328 Y107.491 E.01477
G1 X195.774 Y107.613 E.01453
G1 X196.236 Y107.657 E.01453
G1 X196.738 Y107.611 E.01581
G1 X197.391 Y107.4 E.02152
G1 X197.961 Y107.031 E.02129
G1 X200.84 Y106.599 E.09129
G1 X200.84 Y108.336 E.05448
G1 X49.16 Y108.336 E4.75581
G1 X49.16 Y106.599 E.05448
G1 X52.044 Y107.031 E.09144
G1 X52.402 Y107.291 E.01386
G1 X52.822 Y107.491 E.01459
G1 X53.31 Y107.62 E.01581
G1 X54.003 Y107.643 E.02176
G1 X54.634 Y107.504 E.02024
G1 X55.063 Y107.309 E.01477
G1 X55.444 Y107.045 E.01453
G1 X55.774 Y106.72 E.01453
G1 X56.063 Y106.303 E.0159
G1 X56.27 Y105.783 E.01756
G1 X57.717 Y105.783 E.04538
G1 X57.868 Y105.708 E.00529
G1 X57.906 Y105.594 E.00374
G1 X57.906 Y104.402 E.03739
G1 X57.868 Y104.289 E.00374
G1 X57.771 Y104.24 E.00341
M204 S1000
G1 X57.614 Y103.827 F6000
;WIPE_START
G1 F4800
G1 X56.27 Y104.213 E-.62389
G1 X56.037 Y103.648 E-.25411
G1 X55.932 Y103.511 E-.072
;WIPE_END
G1 E-.05 F2100
G1 Z.4 F720
G1 X195.944 Y102.008 F6000
G1 Z.2 F720
G1 E1 F2100
M204 S800
;TYPE:Perimeter
;WIDTH:0.383002
G1 F1200
G1 X196.706 Y102.019 E.02153
;WIDTH:0.401454
G1 X196.826 Y102.028 E.00359
M204 S1000
;WIPE_START
G1 F4800
G1 X196.706 Y102.019 E-.05011
G1 X195.944 Y102.008 E-.31647
;WIPE_END
G1 E-.63342 F2100
G1 Z.4 F720
G1 X196.776 Y107.974 F6000
G1 Z.2 F720
G1 E1 F2100
M204 S800
;WIDTH:0.390562
G1 F1200
G1 X196.252 Y107.997 E.01517
;WIDTH:0.38444
G1 X195.775 Y107.977 E.01355
M204 S1000
;WIPE_START
G1 F4800
G1 X196.252 Y107.997 E-.19835
G1 X196.776 Y107.974 E-.21808
;WIPE_END
G1 E-.58357 F2100
G1 Z.4 F720
G1 X53.174 Y107.969 F6000
G1 Z.2 F720
G1 E1 F2100
M204 S800
;WIDTH:0.401244
G1 F1200
G1 X53.94 Y107.992 E.02281
;WIDTH:0.362316
G1 X54.055 Y107.988 E.00308
M204 S1000
;WIPE_START
G1 F4800
G1 X53.94 Y107.992 E-.04821
G1 X53.174 Y107.969 E-.31822
;WIPE_END
G1 E-.63358 F2100
G1 Z.4 F720
G1 X53.223 Y102.022 F6000
G1 Z.2 F720
G1 E1 F2100
M204 S800
;WIDTH:0.390732
G1 F1200
G1 X53.748 Y102 E.01519
;WIDTH:0.384528
G1 X54.225 Y102.019 E.01356
M204 S1000
;WIPE_START
G1 F4800
G1 X53.748 Y102 E-.19846
G1 X53.223 Y102.022 E-.21823
;WIPE_END
G1 E-.58331 F2100
G1 Z.4 F720
G1 X49.833 Y102.15 F6000
G1 Z.2 F720
G1 E1 F2100
M204 S800
;TYPE:Solid infill
;WIDTH:0.468232
G1 F1200
G1 X50.399 Y102.716 E.0283
M204 S1000
;WIPE_START
G1 F4800
G1 X49.833 Y102.15 E-.33265
;WIPE_END
G1 E-.66735 F2100
G1 Z.4 F720
G1 X49.65 Y107.245 F6000
G1 Z.2 F720
M73 P0 R145
G1 E1 F2100
M204 S800
;WIDTH:0.495415
G1 F1200
G1 X50.252 Y107.846 E.03201
M204 S1000
;WIPE_START
G1 F4800
G1 X49.65 Y107.245 E-.35361
;WIPE_END
G1 E-.64639 F2100
G1 Z.4 F720
G1 X193.62 Y102.15 F6000
G1 Z.2 F720
G1 E1 F2100
M204 S800
;WIDTH:0.42005
G1 F1200
G1 X194.025 Y102.556 E.01798
G1 X193.754 Y102.817 E.01183
G1 X193.256 Y102.32 E.02206
G1 X192.723 Y102.32 E.01672
G1 X193.528 Y103.125 E.03572
G1 X193.408 Y103.29 E.00638
G1 X193.33 Y103.46 E.00589
G1 X192.19 Y102.32 E.05056
G1 X191.656 Y102.32 E.01672
G1 X192.894 Y103.558 E.0549
G1 X192.366 Y103.563 E.01657
G1 X191.123 Y102.32 E.05512
G1 X190.589 Y102.32 E.01672
G1 X191.912 Y103.642 E.05865
G1 X191.616 Y103.88 E.0119
G1 X190.056 Y102.32 E.06918
G1 X189.523 Y102.32 E.01672
G1 X191.455 Y104.252 E.08568
G1 X191.434 Y104.395 E.00454
G1 X191.434 Y104.765 E.01159
G1 X188.989 Y102.32 E.10843
G1 X188.456 Y102.32 E.01672
G1 X191.604 Y105.468 E.13961
M204 S1000
;WIPE_START
G1 F4800
G1 X189.988 Y103.852 E-.95
;WIPE_END
G1 E-.05 F2100
G1 Z.4 F720
G1 X192.943 Y106.273 F6000
G1 Z.2 F720
G1 E1 F2100
M204 S800
G1 F1200
G1 X193.512 Y106.842 E.02523
G1 X193.836 Y107.266 E.01674
G1 X193.984 Y107.415 E.00659
G1 X194.298 Y107.651 E.01232
G1 X194.29 Y107.676 E.00085
G1 X193.813 Y107.676 E.01496
G1 X192.409 Y106.273 E.06223
M204 S1000
;WIPE_START
G1 F4800
G1 X193.813 Y107.676 E-.82479
G1 X194.114 Y107.676 E-.12521
;WIPE_END
G1 E-.05 F2100
G1 Z.4 F720
G1 X193.449 Y107.846 F6000
G1 Z.2 F720
G1 E1 F2100
M204 S800
G1 F1200
G1 X187.923 Y102.32 E.24508
G1 X187.389 Y102.32 E.01672
G1 X192.746 Y107.676 E.23755
G1 X192.213 Y107.676 E.01672
G1 X186.856 Y102.32 E.23755
G1 X186.323 Y102.32 E.01672
G1 X191.679 Y107.676 E.23755
G1 X191.146 Y107.676 E.01672
G1 X185.789 Y102.32 E.23755
G1 X185.256 Y102.32 E.01672
G1 X190.613 Y107.676 E.23755
G1 X190.079 Y107.676 E.01672
G1 X184.723 Y102.32 E.23755
G1 X184.189 Y102.32 E.01672
G1 X189.546 Y107.676 E.23755
G1 X189.013 Y107.676 E.01672
G1 X183.656 Y102.32 E.23755
G1 X183.123 Y102.32 E.01672
G1 X188.479 Y107.676 E.23755
G1 X187.946 Y107.676 E.01672
G1 X182.589 Y102.32 E.23755
G1 X182.056 Y102.32 E.01672
G1 X187.413 Y107.676 E.23755
G1 X186.879 Y107.676 E.01672
G1 X181.523 Y102.32 E.23755
G1 X180.989 Y102.32 E.01672
G1 X186.346 Y107.676 E.23755
G1 X185.813 Y107.676 E.01672
G1 X180.456 Y102.32 E.23755
G1 X179.923 Y102.32 E.01672
G1 X185.279 Y107.676 E.23755
G1 X184.746 Y107.676 E.01672
G1 X179.389 Y102.32 E.23755
G1 X178.856 Y102.32 E.01672
G1 X184.213 Y107.676 E.23755
G1 X183.679 Y107.676 E.01672
G1 X178.323 Y102.32 E.23755
G1 X177.789 Y102.32 E.01672
G1 X183.146 Y107.676 E.23755
G1 X182.612 Y107.676 E.01672
G1 X177.256 Y102.32 E.23755
G1 X176.723 Y102.32 E.01672
G1 X182.079 Y107.676 E.23755
G1 X181.546 Y107.676 E.01672
G1 X176.189 Y102.32 E.23755
G1 X175.656 Y102.32 E.01672
G1 X181.012 Y107.676 E.23755
G1 X180.479 Y107.676 E.01672
G1 X175.123 Y102.32 E.23755
G1 X174.589 Y102.32 E.01672
G1 X179.946 Y107.676 E.23755
G1 X179.412 Y107.676 E.01672
G1 X174.056 Y102.32 E.23755
G1 X173.523 Y102.32 E.01672
G1 X178.879 Y107.676 E.23755
G1 X178.346 Y107.676 E.01672
G1 X172.989 Y102.32 E.23755
G1 X172.456 Y102.32 E.01672
G1 X177.812 Y107.676 E.23755
G1 X177.279 Y107.676 E.01672
G1 X171.923 Y102.32 E.23755
G1 X171.389 Y102.32 E.01672
G1 X176.746 Y107.676 E.23755
G1 X176.212 Y107.676 E.01672
G1 X170.856 Y102.32 E.23755
G1 X170.322 Y102.32 E.01672
G1 X175.679 Y107.676 E.23755
G1 X175.146 Y107.676 E.01672
G1 X169.789 Y102.32 E.23755
G1 X169.256 Y102.32 E.01672
G1 X174.612 Y107.676 E.23755
G1 X174.079 Y107.676 E.01672
M73 P1 R145
G1 X168.722 Y102.32 E.23755
G1 X168.189 Y102.32 E.01672
G1 X173.546 Y107.676 E.23755
G1 X173.012 Y107.676 E.01672
G1 X167.656 Y102.32 E.23755
G1 X167.122 Y102.32 E.01672
G1 X172.479 Y107.676 E.23755
G1 X171.946 Y107.676 E.01672
G1 X166.589 Y102.32 E.23755
G1 X166.056 Y102.32 E.01672
G1 X171.412 Y107.676 E.23755
G1 X170.879 Y107.676 E.01672
G1 X165.522 Y102.32 E.23755
G1 X164.989 Y102.32 E.01672
G1 X170.346 Y107.676 E.23755
G1 X169.812 Y107.676 E.01672
G1 X164.456 Y102.32 E.23755
G1 X163.922 Y102.32 E.01672
G1 X169.279 Y107.676 E.23755
G1 X168.746 Y107.676 E.01672
G1 X163.389 Y102.32 E.23755
G1 X162.856 Y102.32 E.01672
G1 X168.212 Y107.676 E.23755
