; generated by PrusaSlicer 2.5.0+MacOS-x64 on 2022-11-06 at 18:59:11 UTC


;
;

;
;
; 

; external perimeters extrusion width = 0.45mm
; perimeters extrusion width = 0.45mm
; infill extrusion width = 0.45mm
; solid infill extrusion width = 0.45mm
; top infill extrusion width = 0.40mm
; first layer extrusion width = 0.42mm

M73 P0 R61
M201 X9000 Y9000 Z500 E10000 ; sets maximum accelerations, mm/sec^2
M203 X500 Y500 Z12 E120 ; sets maximum feedrates, mm / sec
M204 P2000 R1500 T2000 ; sets acceleration (P, T) and retract acceleration (R), mm/sec^2
M205 X10.00 Y10.00 Z0.20 E4.50 ; sets the jerk limits, mm/sec
M205 S0 T0 ; sets the minimum extruding and travel feed rate, mm/sec
M107
;TYPE:Custom
M83  ; extruder relative mode
M140 S85 ; set bed temp
M109 S160 ; Set extruder temp before bed level
M190 S85 ; wait for bed temp

G28 W ; home all without mesh bed level
G80 N7 ; mesh bed leveling

M109 S240 ; wait for extruder temp

M221 S100 ; Set flow to 100

G1 Y-3.0 F1000.0 ; go outside print area
G92 E0.0
G1 E8 ; Purge Bubble
G1 X60.0 E9.0 F1000.0 ; intro line
G1 X100.0 E12.5 F1000.0 ; intro line
G92 E0.0
G21 ; set units to millimeters
G90 ; use absolute coordinates
M83 ; use relative distances for extrusion
M900 K0.08 ; Filament gcode LA 1.5
M900 K45 ; Filament gcode LA 1.0
M107
;LAYER_CHANGE
;Z:0.2
;HEIGHT:0.2
;BEFORE_LAYER_CHANGE
G92 E0.0
;0.2


G1 E-1 F2100
G1 Z.2 F720
;AFTER_LAYER_CHANGE
;0.2
G1 Z.4
G1 X111.153 Y96.144 F6000
G1 Z.2 F720
G1 E1 F2100
M204 S800
;TYPE:Skirt/Brim
;WIDTH:0.42
G1 F1200
G1 X114.14 Y93.156 E.13247
G1 X116.088 Y92.35 E.06609
G1 X133.912 Y92.35 E.55889
G1 X135.86 Y93.156 E.06609
G1 X138.847 Y96.144 E.13247
G1 X139.654 Y98.091 E.06609
G1 X139.654 Y111.909 E.43324
G1 X138.847 Y113.856 E.06609
G1 X135.86 Y116.844 E.13247
G1 X133.912 Y117.65 E.06609
G1 X116.088 Y117.65 E.55889
G1 X114.14 Y116.844 E.06609
G1 X111.153 Y113.856 E.13247
G1 X110.346 Y111.909 E.06609
G1 X110.346 Y98.091 E.43324
G1 X111.13 Y96.199 E.06421
M204 S1000
G1 X111.419 Y96.41 F6000
M204 S800
G1 F1200
G1 X114.407 Y93.423 E.13247
G1 X116.088 Y92.727 E.05704
G1 X133.912 Y92.727 E.55889
G1 X135.593 Y93.423 E.05704
G1 X138.581 Y96.41 E.13247
G1 X139.277 Y98.091 E.05704
G1 X139.277 Y111.909 E.43324
G1 X138.581 Y113.59 E.05704
G1 X135.593 Y116.577 E.13247
G1 X133.912 Y117.273 E.05704
G1 X116.088 Y117.273 E.55889
G1 X114.407 Y116.577 E.05704
G1 X111.419 Y113.59 E.13247
G1 X110.723 Y111.909 E.05704
G1 X110.723 Y98.091 E.43324
G1 X111.396 Y96.466 E.05516
M204 S1000
;WIPE_START
G1 F4800
G1 X113.004 Y94.841 E-.95
;WIPE_END
G1 E-.05 F2100
G1 Z.4 F720
G1 X113.893 Y98.03 F6000
G1 Z.2 F720
G1 E1 F2100
M204 S800
G1 F1200
G1 X114.59 Y97.005 E.03887
G1 X115.385 Y96.282 E.03368
G1 X116.444 Y95.708 E.03778
G1 X117.858 Y95.39 E.04545
G1 X132.19 Y95.394 E.44935
G1 X133.21 Y95.588 E.03255
G1 X134.188 Y96.003 E.03332
G1 X135.312 Y96.899 E.04506
G1 X136.152 Y98.122 E.04653
G1 X136.587 Y99.587 E.04792
G1 X136.588 Y103.872 E.13436
G1 X136.308 Y105.015 E.03691
G1 X136.363 Y105.157 E.00477
G1 X136.605 Y106.277 E.0359
G1 X136.59 Y110.399 E.12926
G1 X136.107 Y111.97 E.05154
G1 X135.41 Y112.995 E.03886
G1 X134.615 Y113.718 E.03368
G1 X133.556 Y114.291 E.03777
G1 X132.142 Y114.61 E.04543
G1 X117.76 Y114.61 E.45094
G1 X116.073 Y114.127 E.05503
G1 X115.004 Y113.409 E.04038
G1 X114.279 Y112.611 E.0338
G1 X113.705 Y111.552 E.03779
G1 X113.386 Y110.13 E.04566
G1 X113.398 Y106.249 E.1217
G1 X113.624 Y105.196 E.03377
G1 X113.703 Y104.997 E.00671
G1 X113.606 Y104.757 E.00814
G1 X113.398 Y103.747 E.03232
G1 X113.41 Y99.602 E.12997
G1 X113.875 Y98.087 E.04969
M204 S1000
G1 X114.235 Y98.199 F6000
M204 S800
G1 F1200
G1 X114.861 Y97.268 E.0352
G1 X115.585 Y96.602 E.03083
G1 X116.601 Y96.053 E.0362
G1 X117.879 Y95.767 E.04106
G1 X132.171 Y95.771 E.44813
G1 X133.117 Y95.954 E.03021
G1 X134.015 Y96.339 E.03062
G1 X135.053 Y97.174 E.04177
G1 X135.823 Y98.308 E.04298
G1 X136.217 Y99.666 E.04432
G1 X136.211 Y103.85 E.13119
G1 X135.987 Y104.776 E.02989
G1 X135.89 Y105.002 E.0077
G1 X136 Y105.259 E.00877
G1 X136.227 Y106.296 E.03331
G1 X136.213 Y110.369 E.1277
G1 X135.756 Y111.83 E.04801
G1 X135.139 Y112.732 E.03427
G1 X134.415 Y113.398 E.03083
G1 X133.399 Y113.947 E.0362
G1 X132.122 Y114.233 E.04105
G1 X117.787 Y114.233 E.44945
G1 X116.207 Y113.773 E.0516
G1 X115.267 Y113.137 E.0356
G1 X114.599 Y112.411 E.03093
G1 X114.049 Y111.395 E.03622
G1 X113.763 Y110.111 E.04125
G1 X113.775 Y106.271 E.12041
G1 X113.988 Y105.296 E.03128
G1 X114.114 Y104.998 E.01015
G1 X113.971 Y104.659 E.01154
G1 X113.776 Y103.728 E.02984
G1 X113.787 Y99.632 E.12843
G1 X114.217 Y98.257 E.04518
M204 S1000
G1 X114.575 Y98.371 F6000
M204 S800
G1 F1200
G1 X114.594 Y98.311 E.00196
G1 X115.133 Y97.53 E.02977
G1 X115.786 Y96.922 E.02796
G1 X116.757 Y96.397 E.03461
G1 X117.899 Y96.144 E.03668
G1 X132.153 Y96.148 E.44691
G1 X133.024 Y96.32 E.02784
G1 X133.84 Y96.674 E.0279
G1 X134.793 Y97.448 E.03848
G1 X135.493 Y98.492 E.03942
G1 X135.847 Y99.742 E.04073
G1 X135.834 Y103.825 E.12802
G1 X135.626 Y104.667 E.02719
G1 X135.474 Y105.002 E.01152
G1 X135.636 Y105.362 E.01239
G1 X135.85 Y106.316 E.03068
G1 X135.836 Y110.338 E.1261
G1 X135.406 Y111.689 E.04444
G1 X134.867 Y112.47 E.02977
G1 X134.214 Y113.078 E.02796
G1 X133.243 Y113.603 E.0346
G1 X132.101 Y113.856 E.03666
G1 X117.815 Y113.856 E.44795
G1 X116.343 Y113.42 E.04813
G1 X115.528 Y112.865 E.03092
G1 X114.919 Y112.21 E.02805
G1 X114.393 Y111.239 E.03462
G1 X114.14 Y110.091 E.03685
G1 X114.152 Y106.292 E.11911
G1 X114.351 Y105.398 E.02873
G1 X114.528 Y104.999 E.01367
G1 X114.335 Y104.56 E.01503
G1 X114.153 Y103.708 E.02732
G1 X114.164 Y99.662 E.12686
G1 X114.557 Y98.428 E.04062
M204 S1000
G1 X114.915 Y98.545 F6000
M204 S800
G1 F1200
G1 X114.944 Y98.455 E.00294
G1 X115.406 Y97.79 E.0254
G1 X115.988 Y97.242 E.02507
G1 X116.913 Y96.741 E.03298
G1 X117.919 Y96.521 E.03229
G1 X132.133 Y96.525 E.44568
G1 X132.929 Y96.685 E.02544
G1 X133.664 Y97.009 E.02518
G1 X134.531 Y97.721 E.03518
G1 X135.162 Y98.675 E.03585
G1 X135.477 Y99.817 E.03715
G1 X135.458 Y103.799 E.12488
G1 X135.265 Y104.555 E.02445
G1 X135.057 Y105.002 E.01545
G1 X135.274 Y105.467 E.01608
G1 X135.473 Y106.337 E.02799
G1 X135.459 Y110.307 E.12447
G1 X135.056 Y111.545 E.04081
G1 X134.594 Y112.21 E.0254
G1 X134.012 Y112.758 E.02507
G1 X133.087 Y113.259 E.03298
G1 X132.081 Y113.479 E.03228
G1 X117.843 Y113.479 E.44643
G1 X116.481 Y113.068 E.04461
G1 X115.788 Y112.591 E.02635
G1 X115.238 Y112.008 E.02514
G1 X114.737 Y111.083 E.03298
G1 X114.517 Y110.072 E.03244
G1 X114.529 Y106.315 E.11781
G1 X114.714 Y105.502 E.02615
G1 X114.942 Y105.001 E.01727
G1 X114.699 Y104.459 E.01861
G1 X114.53 Y103.688 E.02474
G1 X114.541 Y99.693 E.12526
G1 X114.896 Y98.602 E.036
M204 S1000
G1 X115.253 Y98.721 F6000
M204 S800
G1 F1200
G1 X115.292 Y98.602 E.00393
G1 X115.681 Y98.05 E.02116
G1 X116.191 Y97.561 E.02215
G1 X117.069 Y97.086 E.03131
G1 X117.939 Y96.899 E.02791
G1 X132.115 Y96.902 E.44448
G1 X132.796 Y97.039 E.02177
G1 X133.487 Y97.343 E.02369
G1 X134.267 Y97.992 E.03181
G1 X134.829 Y98.854 E.03227
G1 X135.106 Y99.889 E.03359
G1 X135.081 Y103.772 E.12177
G1 X134.905 Y104.441 E.02167
G1 X134.639 Y105.003 E.01949
G1 X134.912 Y105.574 E.01986
G1 X135.096 Y106.359 E.02526
G1 X135.082 Y110.275 E.1228
G1 X134.708 Y111.398 E.03713
G1 X134.319 Y111.95 E.02116
G1 X133.809 Y112.439 E.02215
G1 X132.931 Y112.914 E.03131
G1 X132.062 Y113.101 E.02789
G1 X117.872 Y113.101 E.44492
G1 X116.62 Y112.717 E.04104
G1 X116.048 Y112.317 E.0219
G1 X115.557 Y111.806 E.02221
G1 X115.082 Y110.928 E.03131
G1 X114.895 Y110.053 E.02803
G1 X114.906 Y106.338 E.1165
G1 X115.076 Y105.608 E.02351
G1 X115.358 Y105.002 E.02097
G1 X115.062 Y104.356 E.02228
G1 X114.907 Y103.668 E.02212
G1 X114.918 Y99.725 E.12361
G1 X115.234 Y98.777 E.03133
M204 S1000
G1 X115.584 Y98.895 F6000
M204 S800
G1 F1200
G1 X115.616 Y98.796 E.00325
G1 X115.978 Y98.282 E.0197
G1 X116.431 Y97.853 E.01957
G1 X117.222 Y97.431 E.0281
G1 X117.958 Y97.276 E.0236
G1 X132.095 Y97.279 E.44326
G1 X132.699 Y97.404 E.01932
G1 X133.308 Y97.676 E.02093
G1 X134.001 Y98.261 E.02843
G1 X134.495 Y99.032 E.02872
G1 X134.729 Y99.911 E.02853
G1 X134.704 Y103.745 E.1202
M73 P1 R61
G1 X134.546 Y104.324 E.01883
G1 X134.347 Y104.74 E.01445
G1 X134.165 Y105.006 E.01011
G1 X134.33 Y105.23 E.00871
G1 X134.55 Y105.684 E.01582
G1 X134.719 Y106.381 E.02247
G1 X134.705 Y110.243 E.12111
G1 X134.384 Y111.204 E.03176
G1 X134.022 Y111.718 E.0197
G1 X133.569 Y112.147 E.01957
G1 X132.778 Y112.569 E.0281
G1 X132.042 Y112.724 E.02359
G1 X117.9 Y112.724 E.44343
G1 X116.812 Y112.391 E.03567
G1 X116.279 Y112.019 E.02036
G1 X115.849 Y111.566 E.0196
G1 X115.427 Y110.775 E.0281
G1 X115.272 Y110.035 E.02369
G1 X115.283 Y106.362 E.11517
G1 X115.438 Y105.716 E.02081
G1 X115.656 Y105.256 E.01598
G1 X115.834 Y105 E.00977
G1 X115.65 Y104.733 E.01015
G1 X115.425 Y104.25 E.01671
G1 X115.284 Y103.646 E.01944
G1 X115.295 Y99.757 E.12195
G1 X115.565 Y98.952 E.02663
M204 S1000
G1 X115.914 Y99.07 F6000
M204 S800
G1 F1200
G1 X115.941 Y98.989 E.00266
G1 X116.252 Y98.542 E.01706
G1 X116.671 Y98.145 E.0181
G1 X117.372 Y97.778 E.02482
G1 X117.977 Y97.653 E.01936
G1 X132.075 Y97.656 E.44203
G1 X132.599 Y97.768 E.01681
G1 X133.127 Y98.007 E.01817
G1 X133.734 Y98.528 E.0251
G1 X134.139 Y99.16 E.02352
M73 P1 R60
G1 X134.351 Y99.935 E.02521
G1 X134.327 Y103.717 E.11857
G1 X134.199 Y104.175 E.01492
G1 X134.014 Y104.561 E.01343
G1 X133.695 Y105.019 E.01748
G1 X134 Y105.415 E.01567
G1 X134.203 Y105.831 E.01452
G1 X134.342 Y106.402 E.01844
G1 X134.328 Y110.211 E.11943
G1 X134.059 Y111.011 E.02645
G1 X133.748 Y111.458 E.01706
G1 X133.329 Y111.855 E.0181
G1 X132.628 Y112.222 E.02482
G1 X132.023 Y112.347 E.01935
G1 X117.928 Y112.347 E.44196
G1 X117.002 Y112.064 E.03037
G1 X116.539 Y111.745 E.01761
G1 X116.141 Y111.325 E.01813
G1 X115.774 Y110.624 E.02482
G1 X115.649 Y110.017 E.01943
G1 X115.66 Y106.385 E.11387
G1 X115.787 Y105.86 E.01693
G1 X115.989 Y105.434 E.01481
G1 X116.299 Y105 E.01671
G1 X115.984 Y104.557 E.01707
G1 X115.775 Y104.108 E.01552
G1 X115.661 Y103.625 E.01556
G1 X115.672 Y99.788 E.12029
G1 X115.895 Y99.126 E.02191
M204 S1000
G1 X116.245 Y99.246 F6000
M204 S800
G1 F1200
G1 X116.267 Y99.181 E.00216
G1 X116.526 Y98.802 E.0144
G1 X116.91 Y98.438 E.01658
G1 X117.52 Y98.126 E.02147
G1 X117.995 Y98.03 E.0152
G1 X132.053 Y98.033 E.44079
G1 X132.497 Y98.131 E.01423
G1 X132.943 Y98.338 E.01541
G1 X133.466 Y98.794 E.02178
G1 X133.785 Y99.29 E.01847
G1 X133.974 Y99.96 E.02185
G1 X133.95 Y103.688 E.11687
G1 X133.853 Y104.026 E.01101
G1 X133.681 Y104.384 E.01247
G1 X133.497 Y104.645 E.01002
G1 X133.103 Y105 E.01663
G1 X133.379 Y105.23 E.01126
G1 X133.67 Y105.599 E.01472
G1 X133.855 Y105.978 E.01323
G1 X133.965 Y106.424 E.0144
G1 X133.951 Y110.179 E.11773
G1 X133.733 Y110.819 E.02122
G1 X133.474 Y111.198 E.0144
G1 X133.09 Y111.562 E.01658
G1 X132.48 Y111.874 E.02147
G1 X132.005 Y111.97 E.0152
G1 X117.956 Y111.97 E.44051
G1 X117.189 Y111.736 E.02513
G1 X116.798 Y111.47 E.01482
G1 X116.434 Y111.086 E.01659
G1 X116.122 Y110.477 E.02147
G1 X116.026 Y110 E.01525
G1 X116.037 Y106.409 E.11258
G1 X116.136 Y106.005 E.01305
G1 X116.322 Y105.612 E.01364
G1 X116.537 Y105.316 E.01145
G1 X116.895 Y105 E.01497
G1 X116.537 Y104.683 E.01498
G1 X116.318 Y104.381 E.01172
G1 X116.125 Y103.968 E.01428
G1 X116.034 Y103.563 E.013
G1 X116.049 Y99.821 E.11734
G1 X116.226 Y99.303 E.01718
M204 S1000
G1 X116.575 Y99.424 F6000
M204 S800
G1 F1200
G1 X116.594 Y99.37 E.00178
G1 X116.802 Y99.06 E.0117
G1 X117.148 Y98.731 E.01499
G1 X117.663 Y98.475 E.01803
G1 X118.013 Y98.407 E.01116
G1 X132.031 Y98.41 E.43954
G1 X132.391 Y98.493 E.01157
G1 X132.756 Y98.666 E.01266
G1 X133.196 Y99.058 E.01848
G1 X133.431 Y99.423 E.01362
G1 X133.597 Y99.987 E.01843
G1 X133.58 Y103.612 E.11364
G1 X133.505 Y103.88 E.00873
G1 X133.363 Y104.181 E.01044
G1 X133.203 Y104.409 E.00873
G1 X132.774 Y104.782 E.01783
G1 X132.441 Y104.97 E.01199
G1 X133.102 Y105.486 E.0263
G1 X133.341 Y105.784 E.01197
G1 X133.506 Y106.124 E.01185
G1 X133.592 Y106.488 E.01174
G1 X133.574 Y110.145 E.11467
G1 X133.406 Y110.63 E.01608
G1 X133.198 Y110.94 E.0117
G1 X132.852 Y111.269 E.01499
G1 X132.337 Y111.525 E.01803
G1 X131.988 Y111.593 E.01115
G1 X117.984 Y111.593 E.43907
G1 X117.375 Y111.406 E.01998
G1 X117.057 Y111.195 E.01198
G1 X116.728 Y110.848 E.01499
G1 X116.471 Y110.333 E.01803
G1 X116.403 Y109.983 E.01118
G1 X116.414 Y106.435 E.11124
G1 X116.496 Y106.119 E.01023
G1 X116.653 Y105.793 E.01137
G1 X116.826 Y105.56 E.00909
G1 X117.225 Y105.218 E.01647
G1 X117.616 Y105 E.01404
G1 X117.225 Y104.782 E.01404
G1 X116.826 Y104.44 E.01647
G1 X116.651 Y104.204 E.00922
G1 X116.476 Y103.829 E.01296
G1 X116.407 Y103.505 E.01038
G1 X116.426 Y99.855 E.11446
G1 X116.555 Y99.481 E.01242
M204 S1000
;WIPE_START
G1 F4800
G1 X116.594 Y99.37 E-.04856
G1 X116.802 Y99.06 E-.15512
G1 X117.148 Y98.731 E-.19867
G1 X117.663 Y98.475 E-.23906
G1 X118.013 Y98.407 E-.14787
G1 X118.399 Y98.407 E-.16072
;WIPE_END
G1 E-.05 F2100
G1 Z.4 F720
G1 X119.414 Y104.844 F6000
G1 Z.2 F720
G1 E1 F2100
M204 S800
G1 F1200
G1 X121.258 Y104.472 E.05896
G1 X121.709 Y104.254 E.01572
G1 X122.06 Y103.96 E.01436
G1 X122.299 Y103.792 E.00916
G1 X122.519 Y103.69 E.00763
G1 X122.754 Y103.627 E.00762
G1 X122.987 Y103.606 E.00733
G1 X123.34 Y103.649 E.01113
G1 X123.697 Y103.792 E.01207
G1 X124.298 Y104.174 E.02234
G1 X124.833 Y104.307 E.01726
G1 X125.29 Y104.29 E.01435
G1 X125.784 Y104.135 E.01623
G1 X126.304 Y103.793 E.01953
G1 X126.527 Y103.69 E.00769
G1 X126.762 Y103.627 E.00762
G1 X127.004 Y103.605 E.00762
G1 X127.237 Y103.626 E.00733
G1 X127.585 Y103.732 E.01142
G1 X127.807 Y103.859 E.00802
G1 X128.288 Y104.253 E.0195
G1 X128.753 Y104.475 E.01617
G1 X130.579 Y104.846 E.05841
G1 X130.579 Y105.154 E.00966
G1 X128.742 Y105.528 E.05878
G1 X128.291 Y105.746 E.0157
G1 X127.94 Y106.04 E.01436
G1 X127.701 Y106.208 E.00917
G1 X127.481 Y106.31 E.00762
G1 X127.246 Y106.373 E.00762
G1 X127.013 Y106.394 E.00733
G1 X126.651 Y106.35 E.01142
G1 X126.389 Y106.255 E.00874
G1 X125.782 Y105.865 E.02263
G1 X125.176 Y105.693 E.01974
G1 X124.781 Y105.699 E.01239
G1 X124.358 Y105.8 E.01364
G1 X123.706 Y106.202 E.02402
G1 X123.473 Y106.31 E.00805
G1 X123.238 Y106.373 E.00762
G1 X122.996 Y106.395 E.00762
G1 X122.745 Y106.373 E.00791
G1 X122.399 Y106.259 E.01142
G1 X122.193 Y106.141 E.00744
G1 X121.712 Y105.747 E.0195
G1 X121.247 Y105.525 E.01617
G1 X119.414 Y105.153 E.05863
G1 X119.414 Y104.904 E.00779
M204 S1000
;WIPE_START
G1 F4800
G1 X121.258 Y104.472 E-.78691
G1 X121.611 Y104.302 E-.16309
;WIPE_END
G1 E-.05 F2100
G1 Z.4 F720
G1 X121.026 Y105.002 F6000
G1 Z.2 F720
G1 E1 F2100
M204 S800
G1 F1200
G1 X121.897 Y104.582 E.03031
G1 X122.484 Y104.122 E.02338
G1 X122.649 Y104.045 E.00572
G1 X122.82 Y103.999 E.00555
G1 X122.981 Y103.985 E.00507
G1 X123.245 Y104.017 E.00835
G1 X123.523 Y104.129 E.00939
G1 X124.176 Y104.532 E.02405
G1 X124.818 Y104.684 E.0207
G1 X125.378 Y104.658 E.01757
G1 X125.923 Y104.487 E.01791
G1 X126.49 Y104.123 E.02112
G1 X126.656 Y104.045 E.00577
G1 X126.835 Y103.997 E.00579
G1 X127.156 Y103.995 E.01008
G1 X127.434 Y104.08 E.00911
G1 X127.591 Y104.17 E.00568
G1 X128.104 Y104.584 E.02067
G1 X128.974 Y104.998 E.03019
G1 X128.103 Y105.418 E.03031
G1 X127.516 Y105.878 E.02338
G1 X127.351 Y105.955 E.00571
G1 X127.18 Y106.001 E.00555
G1 X127.019 Y106.015 E.00507
G1 X126.74 Y105.981 E.00883
G1 X126.559 Y105.915 E.00603
G1 X125.914 Y105.51 E.02388
G1 X125.2 Y105.316 E.02319
G1 X124.714 Y105.327 E.01524
G1 X124.24 Y105.441 E.01529
G1 X123.526 Y105.87 E.02612
G1 X123.344 Y105.955 E.0063
G1 X123.173 Y106.001 E.00555
G1 X122.996 Y106.016 E.00555
G1 X122.821 Y106.001 E.00551
G1 X122.553 Y105.913 E.00883
G1 X122.409 Y105.83 E.00522
G1 X121.896 Y105.416 E.02067
G1 X121.08 Y105.028 E.02831
M204 S1000
G1 X121.975 Y105.001 F6000
M204 S800
G1 F1200
G1 X122.689 Y104.44 E.02848
G1 X122.891 Y104.368 E.00673
G1 X123.146 Y104.384 E.00799
G1 X123.353 Y104.466 E.00699
G1 X124.234 Y105.01 E.03246
G1 X123.215 Y105.601 E.03691
G1 X122.989 Y105.641 E.00721
G1 X122.7 Y105.567 E.00934
