; generated by PrusaSlicer 2.5.0+MacOS-x64 on 2022-11-03 at 11:34:06 UTC


;
;

;
;
; 

; external perimeters extrusion width = 0.45mm
; perimeters extrusion width = 0.45mm
; infill extrusion width = 0.45mm
; solid infill extrusion width = 0.45mm
; top infill extrusion width = 0.40mm
; first layer extrusion width = 0.42mm

M73 P0 R88
M201 X9000 Y9000 Z500 E10000 ; sets maximum accelerations, mm/sec^2
M203 X500 Y500 Z12 E120 ; sets maximum feedrates, mm / sec
M204 P2000 R1500 T2000 ; sets acceleration (P, T) and retract acceleration (R), mm/sec^2
M205 X10.00 Y10.00 Z0.20 E4.50 ; sets the jerk limits, mm/sec
M205 S0 T0 ; sets the minimum extruding and travel feed rate, mm/sec
M107
;TYPE:Custom
M83  ; extruder relative mode
M140 S85 ; set bed temp
M109 S160 ; Set extruder temp before bed level
M190 S85 ; wait for bed temp

G28 W ; home all without mesh bed level
G80 N7 ; mesh bed leveling

M109 S240 ; wait for extruder temp

M221 S100 ; Set flow to 100

G1 Y-3.0 F1000.0 ; go outside print area
G92 E0.0
G1 E8 ; Purge Bubble
G1 X60.0 E9.0 F1000.0 ; intro line
G1 X100.0 E12.5 F1000.0 ; intro line
G92 E0.0
G21 ; set units to millimeters
G90 ; use absolute coordinates
M83 ; use relative distances for extrusion
M900 K0.08 ; Filament gcode LA 1.5
M900 K45 ; Filament gcode LA 1.0
M107
;LAYER_CHANGE
;Z:0.2
;HEIGHT:0.2
;BEFORE_LAYER_CHANGE
G92 E0.0
;0.2


G1 E-1 F2100
G1 Z.2 F720
;AFTER_LAYER_CHANGE
;0.2
G1 Z.4
G1 X153.152 Y101.067 F6000
G1 Z.2 F720
G1 E1 F2100
M204 S800
;TYPE:Skirt/Brim
;WIDTH:0.42
G1 F1200
G1 X154.219 Y100.054 E.04612
G1 X155.514 Y99.731 E.04186
G1 X180.514 Y99.731 E.78386
G1 X181.931 Y100.123 E.04612
G1 X182.944 Y101.19 E.04612
G1 X183.268 Y102.485 E.04186
G1 X183.268 Y109.981 E.23504
G1 X182.875 Y111.399 E.04612
G1 X181.809 Y112.412 E.04612
G1 X180.514 Y112.735 E.04186
G1 X155.514 Y112.735 E.78386
G1 X154.096 Y112.343 E.04612
G1 X153.083 Y111.276 E.04612
G1 X152.76 Y109.981 E.04186
G1 X152.76 Y102.485 E.23504
G1 X153.136 Y101.125 E.04424
M204 S1000
G1 X153.511 Y101.237 F6000
M204 S800
G1 F1200
G1 X153.528 Y101.178 E.00195
G1 X154.574 Y100.301 E.04278
G1 X155.514 Y100.108 E.03008
G1 X180.514 Y100.108 E.78386
G1 X181.821 Y100.499 E.04278
G1 X182.697 Y101.545 E.04278
G1 X182.891 Y102.485 E.03008
G1 X182.891 Y109.981 E.23504
G1 X182.499 Y111.288 E.04278
G1 X181.454 Y112.165 E.04278
G1 X180.514 Y112.358 E.03008
G1 X155.514 Y112.358 E.78386
G1 X154.207 Y111.967 E.04278
G1 X153.33 Y110.921 E.04278
G1 X153.137 Y109.981 E.03008
G1 X153.137 Y102.485 E.23504
G1 X153.493 Y101.295 E.03895
M204 S1000
; printing object divider_border_right_bottom.stl id:0 copy 0
;WIPE_START
G1 F4800
G1 X153.528 Y101.178 E-.05076
G1 X154.574 Y100.301 E-.56709
G1 X155.357 Y100.14 E-.33215
;WIPE_END
G1 E-.05 F2100
G1 Z.4 F720
G1 X160.988 Y103.254 F6000
G1 Z.2 F720
G1 E1 F2100
M204 S800
;TYPE:Perimeter
;WIDTH:0.419999
G1 F1200
G1 X161.515 Y103.272 E.01651
G1 X174.539 Y103.272 E.40838
G1 X174.874 Y103.257 E.0105
;WIDTH:0.391229
G1 X175.208 Y103.243 E.0097
;WIDTH:0.365926
G1 X175.184 Y103.245 E.00065
;WIDTH:0.392963
G1 X174.866 Y103.302 E.00939
;WIDTH:0.419999
G1 X174.549 Y103.359 E.01012
G1 X174.042 Y103.581 E.01733
G1 X173.604 Y103.877 E.01658
G1 X173.224 Y104.245 E.01659
G1 X172.914 Y104.673 E.01658
G1 X172.738 Y105.071 E.01364
G1 X171.547 Y105.071 E.03736
G1 X171.281 Y105.138 E.0086
G1 X171.094 Y105.297 E.00769
G1 X171.004 Y105.478 E.00634
G1 X170.981 Y105.637 E.00502
G1 X170.981 Y106.233 E.01869
G1 X171.004 Y106.988 E.02367
G1 X171.094 Y107.169 E.00634
G1 X171.281 Y107.328 E.00769
G1 X171.547 Y107.395 E.0086
G1 X172.738 Y107.395 E.03736
G1 X172.928 Y107.812 E.01436
G1 X173.425 Y108.429 E.02484
G1 X174.042 Y108.885 E.02408
G1 X174.525 Y109.101 E.01657
G1 X175.039 Y109.212 E.01651
G1 X174.512 Y109.194 E.01653
G1 X161.378 Y109.194 E.41183
G1 X161.099 Y109.208 E.00875
;WIDTH:0.391211
G1 X160.82 Y109.223 E.00808
G1 X161.094 Y109.182 E.00801
;WIDTH:0.419999
G1 X161.367 Y109.142 E.00867
G1 X161.964 Y108.895 E.02024
G1 X162.424 Y108.589 E.01733
G1 X162.804 Y108.221 E.01659
G1 X163.114 Y107.793 E.01659
G1 X163.289 Y107.395 E.01362
G1 X164.481 Y107.395 E.03736
G1 X164.747 Y107.328 E.0086
G1 X164.934 Y107.169 E.00769
G1 X165.024 Y106.988 E.00634
G1 X165.047 Y106.829 E.00502
G1 X165.047 Y106.233 E.0187
G1 X165.024 Y105.478 E.02367
G1 X164.934 Y105.297 E.00634
G1 X164.747 Y105.138 E.00769
G1 X164.481 Y105.071 E.0086
G1 X163.289 Y105.071 E.03736
G1 X163.1 Y104.654 E.01437
G1 X162.622 Y104.053 E.02408
G1 X162.19 Y103.707 E.01735
G1 X161.502 Y103.365 E.02408
G1 X161.047 Y103.267 E.01461
M204 S1000
;WIPE_START
G1 F4800
G1 X161.515 Y103.272 E-.19439
G1 X163.333 Y103.272 E-.75561
;WIPE_END
G1 E-.05 F2100
G1 Z.4 F720
G1 X176.542 Y103.323 F6000
G1 Z.2 F720
G1 E1 F2100
M204 S800
;WIDTH:0.522692
G1 F1200
G1 X177.48 Y103.323 E.03741
;WIDTH:0.560282
G1 X177.984 Y103.342 E.0217
;WIDTH:0.597871
G1 X178.488 Y103.361 E.02327
G1 X178.588 Y103.339 E.00471
;WIDTH:0.553403
G1 X178.687 Y103.316 E.00434
;WIDTH:0.508935
G1 X178.787 Y103.294 E.00396
;WIDTH:0.464467
G1 X178.887 Y103.272 E.00358
;WIDTH:0.419999
G1 X179.727 Y103.272 E.02634
G1 X179.727 Y104.195 E.02893
G1 X178.828 Y104.06 E.02849
;WIDTH:0.464467
G1 X178.733 Y104.023 E.00358
;WIDTH:0.508935
G1 X178.637 Y103.986 E.00396
;WIDTH:0.553403
G1 X178.542 Y103.949 E.00434
;WIDTH:0.597871
G1 X178.447 Y103.913 E.00471
G1 X177.946 Y103.857 E.02327
;WIDTH:0.560282
G1 X177.444 Y103.8 E.0217
;WIDTH:0.522692
G1 X177.012 Y103.534 E.02025
G1 X176.597 Y103.348 E.01815
M204 S1000
;WIPE_START
G1 F4800
G1 X177.48 Y103.323 E-.36709
G1 X177.984 Y103.342 E-.20962
G1 X178.488 Y103.361 E-.20962
G1 X178.588 Y103.339 E-.04246
G1 X178.687 Y103.316 E-.04247
G1 X178.787 Y103.294 E-.04247
G1 X178.872 Y103.275 E-.03627
;WIPE_END
G1 E-.05 F2100
G1 Z.4 F720
G1 X176.49 Y109.142 F6000
G1 Z.2 F720
G1 E1 F2100
M204 S800
;WIDTH:0.524237
G1 F1200
G1 X176.87 Y109.007 E.01611
G1 X177.466 Y108.663 E.02756
;WIDTH:0.561054
G1 X177.957 Y108.608 E.02128
;WIDTH:0.597871
G1 X178.448 Y108.553 E.02279
G1 X178.543 Y108.516 E.00471
;WIDTH:0.553403
G1 X178.639 Y108.48 E.00434
;WIDTH:0.508935
G1 X178.734 Y108.443 E.00396
;WIDTH:0.464467
G1 X178.829 Y108.406 E.00358
;WIDTH:0.419999
G1 X179.727 Y108.271 E.02846
G1 X179.727 Y109.194 E.02893
G1 X178.888 Y109.194 E.0263
;WIDTH:0.464467
G1 X178.788 Y109.172 E.00358
;WIDTH:0.508935
G1 X178.689 Y109.15 E.00396
;WIDTH:0.553403
G1 X178.589 Y109.127 E.00434
;WIDTH:0.597871
G1 X178.489 Y109.105 E.00471
G1 X177.996 Y109.123 E.02279
;WIDTH:0.561054
G1 X177.502 Y109.142 E.02128
;WIDTH:0.524237
G1 X176.55 Y109.142 E.03808
M204 S1000
;WIPE_START
G1 F4800
G1 X176.87 Y109.007 E-.144
G1 X177.466 Y108.663 E-.28623
G1 X177.957 Y108.608 E-.20529
G1 X178.448 Y108.553 E-.20529
G1 X178.543 Y108.516 E-.04246
G1 X178.639 Y108.48 E-.04247
G1 X178.693 Y108.459 E-.02426
;WIPE_END
G1 E-.05 F2100
G1 Z.4 F720
G1 X159.485 Y109.143 F6000
G1 Z.2 F720
G1 E1 F2100
M204 S800
;WIDTH:0.522627
G1 F1200
G1 X158.548 Y109.143 E.03739
;WIDTH:0.560249
G1 X158.043 Y109.124 E.02171
;WIDTH:0.59787
G1 X157.539 Y109.105 E.02329
G1 X157.439 Y109.127 E.00471
;WIDTH:0.553403
G1 X157.339 Y109.15 E.00434
;WIDTH:0.508935
G1 X157.24 Y109.172 E.00396
;WIDTH:0.464467
G1 X157.14 Y109.194 E.00358
;WIDTH:0.419999
G1 X156.301 Y109.194 E.02631
G1 X156.301 Y108.271 E.02893
G1 X157.199 Y108.406 E.02847
;WIDTH:0.464467
G1 X157.294 Y108.443 E.00358
;WIDTH:0.508935
G1 X157.389 Y108.48 E.00396
;WIDTH:0.553403
G1 X157.485 Y108.516 E.00434
;WIDTH:0.59787
G1 X157.58 Y108.553 E.00471
G1 X158.082 Y108.609 E.02329
;WIDTH:0.560249
G1 X158.583 Y108.666 E.02171
;WIDTH:0.522627
G1 X159.016 Y108.932 E.02026
G1 X159.431 Y109.118 E.01813
M204 S1000
;WIPE_START
G1 F4800
G1 X158.548 Y109.143 E-.36702
G1 X158.043 Y109.124 E-.2098
G1 X157.539 Y109.105 E-.2098
G1 X157.439 Y109.127 E-.04246
G1 X157.339 Y109.15 E-.04247
G1 X157.24 Y109.172 E-.04247
G1 X157.155 Y109.191 E-.03597
;WIPE_END
G1 E-.05 F2100
G1 Z.4 F720
G1 X159.537 Y103.324 F6000
G1 Z.2 F720
G1 E1 F2100
M204 S800
;WIDTH:0.524337
G1 F1200
G1 X159.158 Y103.459 E.01613
G1 X158.561 Y103.803 E.02756
;WIDTH:0.561105
G1 X158.071 Y103.858 E.02126
;WIDTH:0.597872
G1 X157.581 Y103.913 E.02276
G1 X157.486 Y103.949 E.00471
;WIDTH:0.553404
G1 X157.39 Y103.986 E.00434
;WIDTH:0.508936
G1 X157.295 Y104.023 E.00396
;WIDTH:0.464468
G1 X157.2 Y104.06 E.00358
;WIDTH:0.419999
G1 X156.301 Y104.195 E.02849
G1 X156.301 Y103.272 E.02893
G1 X157.141 Y103.272 E.02634
;WIDTH:0.464468
G1 X157.241 Y103.294 E.00358
;WIDTH:0.508936
G1 X157.34 Y103.316 E.00396
;WIDTH:0.553404
G1 X157.44 Y103.339 E.00434
;WIDTH:0.597872
G1 X157.54 Y103.361 E.00471
G1 X158.033 Y103.342 E.02276
;WIDTH:0.561105
G1 X158.526 Y103.324 E.02126
;WIDTH:0.524337
G1 X159.477 Y103.324 E.0381
M204 S1000
;WIPE_START
G1 F4800
G1 X159.158 Y103.459 E-.14418
G1 X158.561 Y103.803 E-.28613
G1 X158.071 Y103.858 E-.20503
G1 X157.581 Y103.913 E-.20503
G1 X157.486 Y103.949 E-.04247
G1 X157.39 Y103.986 E-.04246
G1 X157.335 Y104.008 E-.02469
;WIPE_END
G1 E-.05 F2100
G1 Z.4 F720
G1 X164.481 Y107.018 F6000
G1 Z.2 F720
G1 E1 F2100
M204 S800
;TYPE:External perimeter
;WIDTH:0.419999
G1 F1200
G1 X164.632 Y106.942 E.00529
G1 X164.67 Y106.829 E.00374
G1 X164.67 Y105.637 E.03739
G1 X164.632 Y105.524 E.00374
G1 X164.481 Y105.448 E.00529
G1 X163.034 Y105.448 E.04537
G1 X162.801 Y104.883 E.01916
G1 X162.408 Y104.371 E.02024
G1 X162.016 Y104.042 E.01607
G1 X161.443 Y103.744 E.02024
G1 X160.989 Y103.618 E.01477
G1 X160.528 Y103.575 E.01453
G1 X160.026 Y103.62 E.01581
G1 X159.373 Y103.831 E.02152
G1 X158.803 Y104.201 E.02128
G1 X155.924 Y104.632 E.09129
G1 X155.924 Y102.895 E.05448
G1 X180.104 Y102.895 E.75815
G1 X180.104 Y104.632 E.05448
G1 X177.22 Y104.2 E.09144
G1 X176.862 Y103.941 E.01385
G1 X176.441 Y103.741 E.01461
G1 X175.954 Y103.612 E.01581
G1 X175.26 Y103.588 E.02177
G1 X174.63 Y103.727 E.02022
G1 X174.202 Y103.922 E.01477
G1 X173.82 Y104.186 E.01453
G1 X173.491 Y104.511 E.01453
G1 X173.202 Y104.928 E.01588
G1 X172.994 Y105.448 E.01758
G1 X171.547 Y105.448 E.04537
G1 X171.396 Y105.524 E.00529
G1 X171.358 Y105.637 E.00374
G1 X171.358 Y106.829 E.03739
G1 X171.396 Y106.942 E.00374
G1 X171.547 Y107.018 E.00529
G1 X172.994 Y107.018 E.04537
G1 X173.227 Y107.582 E.01915
G1 X173.654 Y108.129 E.02177
G1 X174.167 Y108.522 E.02024
G1 X174.591 Y108.725 E.01477
G1 X175.038 Y108.848 E.01453
G1 X175.5 Y108.891 E.01453
G1 X176.002 Y108.846 E.01581
G1 X176.655 Y108.635 E.02152
G1 X177.224 Y108.266 E.02129
G1 X180.104 Y107.834 E.09129
G1 X180.104 Y109.571 E.05448
G1 X155.924 Y109.571 E.75815
G1 X155.924 Y107.834 E.05448
G1 X158.808 Y108.266 E.09144
G1 X159.166 Y108.525 E.01386
G1 X159.587 Y108.725 E.01461
G1 X160.074 Y108.854 E.01581
G1 X160.727 Y108.883 E.02049
G1 X161.223 Y108.794 E.01579
G1 X161.819 Y108.547 E.02024
G1 X162.208 Y108.28 E.01477
G1 X162.537 Y107.954 E.01453
G1 X162.826 Y107.538 E.01588
G1 X163.034 Y107.018 E.01757
G1 X164.421 Y107.018 E.04349
M204 S1000
G1 X164.617 Y107.118 F6000
;WIPE_START
G1 F4800
G1 X164.632 Y106.942 E-.09306
G1 X164.67 Y106.829 E-.04956
G1 X164.67 Y105.637 E-.49565
G1 X164.632 Y105.524 E-.04956
G1 X164.481 Y105.448 E-.07009
G1 X164.019 Y105.448 E-.19208
;WIPE_END
G1 E-.05 F2100
G1 Z.4 F720
G1 X175.208 Y103.243 F6000
G1 Z.2 F720
G1 E1 F2100
M204 S800
;TYPE:Perimeter
;WIDTH:0.383002
G1 F1200
G1 X175.969 Y103.253 E.02153
;WIDTH:0.401452
G1 X176.09 Y103.263 E.00359
M204 S1000
;WIPE_START
G1 F4800
G1 X175.969 Y103.253 E-.05011
G1 X175.208 Y103.243 E-.31647
;WIPE_END
G1 E-.63342 F2100
G1 Z.4 F720
G1 X176.04 Y109.209 F6000
G1 Z.2 F720
G1 E1 F2100
M204 S800
;WIDTH:0.390562
G1 F1200
G1 X175.516 Y109.232 E.01517
;WIDTH:0.384438
G1 X175.039 Y109.212 E.01355
M204 S1000
;WIPE_START
G1 F4800
G1 X175.516 Y109.232 E-.19835
G1 X176.04 Y109.209 E-.21808
;WIPE_END
G1 E-.58357 F2100
G1 Z.4 F720
G1 X159.938 Y109.203 F6000
G1 Z.2 F720
G1 E1 F2100
M204 S800
;WIDTH:0.401258
G1 F1200
G1 X160.704 Y109.227 E.02282
;WIDTH:0.362422
G1 X160.82 Y109.223 E.00309
M204 S1000
;WIPE_START
G1 F4800
G1 X160.704 Y109.227 E-.0484
G1 X159.938 Y109.203 E-.31836
;WIPE_END
G1 E-.63324 F2100
G1 Z.4 F720
G1 X159.987 Y103.257 F6000
G1 Z.2 F720
G1 E1 F2100
M204 S800
;WIDTH:0.390732
G1 F1200
G1 X160.511 Y103.234 E.01518
;WIDTH:0.38453
G1 X160.988 Y103.254 E.01356
M204 S1000
;WIPE_START
G1 F4800
G1 X160.511 Y103.234 E-.19834
G1 X159.987 Y103.257 E-.21809
;WIPE_END
G1 E-.58357 F2100
G1 Z.4 F720
G1 X156.597 Y103.385 F6000
G1 Z.2 F720
G1 E1 F2100
M204 S800
;TYPE:Solid infill
;WIDTH:0.468268
G1 F1200
G1 X157.163 Y103.951 E.02831
M204 S1000
;WIPE_START
G1 F4800
G1 X156.597 Y103.385 E-.33265
;WIPE_END
G1 E-.66735 F2100
G1 Z.4 F720
G1 X156.414 Y108.479 F6000
G1 Z.2 F720
G1 E1 F2100
M204 S800
;WIDTH:0.495415
G1 F1200
G1 X157.016 Y109.081 E.03202
M204 S1000
;WIPE_START
G1 F4800
G1 X156.414 Y108.479 E-.35369
;WIPE_END
G1 E-.64631 F2100
G1 Z.4 F720
G1 X173.397 Y103.922 F6000
G1 Z.2 F720
G1 E1 F2100
M204 S800
;WIDTH:0.431509
G1 F1200
G1 X173.029 Y103.555 E.0168
G1 X172.48 Y103.555 E.01776
G1 X173 Y104.075 E.0238
G1 X172.768 Y104.393 E.01271
G1 X171.93 Y103.555 E.03831
G1 X171.38 Y103.555 E.01776
G1 X172.571 Y104.745 E.05438
G1 X172.55 Y104.789 E.00157
G1 X172.07 Y104.793 E.01552
G1 X170.831 Y103.555 E.05661
G1 X170.281 Y103.555 E.01776
G1 X171.525 Y104.799 E.05684
G1 X171.4 Y104.8 E.00404
G1 X171.144 Y104.888 E.00875
G1 X171.102 Y104.924 E.00181
G1 X169.732 Y103.555 E.06259
G1 X169.182 Y103.555 E.01776
G1 X170.829 Y105.202 E.07526
G1 X170.732 Y105.397 E.00706
G1 X170.7 Y105.621 E.00732
G1 X168.633 Y103.555 E.09444
G1 X168.083 Y103.555 E.01776
G1 X170.868 Y106.339 E.12725
M204 S1000
;WIPE_START
G1 F4800
G1 X169.252 Y104.723 E-.95
;WIPE_END
G1 E-.05 F2100
G1 Z.4 F720
G1 X172.037 Y107.508 F6000
G1 Z.2 F720
G1 E1 F2100
M204 S800
G1 F1200
G1 X173.44 Y108.911 E.06412
G1 X172.89 Y108.911 E.01776
G1 X171.657 Y107.678 E.05637
G1 X171.535 Y107.678 E.00393
G1 X171.147 Y107.581 E.01291
G1 X170.868 Y107.341 E.01191
G1 X170.732 Y107.069 E.00983
G1 X170.698 Y106.719 E.01135
G1 X167.534 Y103.555 E.14461
G1 X166.984 Y103.555 E.01776
G1 X172.341 Y108.911 E.24477
G1 X171.791 Y108.911 E.01776
G1 X166.435 Y103.555 E.24477
G1 X165.885 Y103.555 E.01776
G1 X171.242 Y108.911 E.24477
G1 X170.692 Y108.911 E.01776
G1 X165.335 Y103.555 E.24477
G1 X164.786 Y103.555 E.01776
G1 X170.142 Y108.911 E.24477
G1 X169.593 Y108.911 E.01776
G1 X164.236 Y103.555 E.24477
G1 X163.687 Y103.555 E.01776
G1 X169.043 Y108.911 E.24477
G1 X168.494 Y108.911 E.01776
G1 X165.329 Y105.747 E.1446
G1 X165.296 Y105.397 E.01135
G1 X165.16 Y105.125 E.00983
G1 X164.88 Y104.885 E.01191
G1 X164.493 Y104.788 E.01291
G1 X164.371 Y104.788 E.00393
G1 X163.137 Y103.555 E.05637
G1 X162.588 Y103.555 E.01776
G1 X163.991 Y104.958 E.06413
M204 S1000
;WIPE_START
G1 F4800
G1 X162.588 Y103.555 E-.82487
G1 X162.889 Y103.555 E-.12514
;WIPE_END
G1 E-.05 F2100
G1 Z.4 F720
G1 X165.16 Y106.127 F6000
G1 Z.2 F720
G1 E1 F2100
M204 S800
G1 F1200
G1 X167.944 Y108.911 E.12724
G1 X167.395 Y108.911 E.01776
G1 X165.328 Y106.845 E.09443
G1 X165.296 Y107.069 E.00732
G1 X165.198 Y107.264 E.00706
G1 X166.845 Y108.911 E.07525
G1 X166.296 Y108.911 E.01776
G1 X164.926 Y107.542 E.06258
G1 X164.884 Y107.578 E.0018
G1 X164.628 Y107.666 E.00875
G1 X164.502 Y107.667 E.00405
G1 X165.746 Y108.911 E.05684
G1 X165.197 Y108.911 E.01776
G1 X163.958 Y107.673 E.0566
G1 X163.478 Y107.677 E.01552
G1 X163.457 Y107.721 E.00158
G1 X164.647 Y108.911 E.05437
G1 X164.097 Y108.911 E.01776
G1 X163.259 Y108.073 E.0383
M73 P0 R87
G1 X163.027 Y108.391 E.01271
G1 X163.548 Y108.911 E.02378
G1 X162.998 Y108.911 E.01776
G1 X162.631 Y108.544 E.01679
M204 S1000
;WIPE_START
G1 F4800
G1 X162.998 Y108.911 E-.21593
G1 X163.548 Y108.911 E-.22841
G1 X163.027 Y108.391 E-.30592
G1 X163.259 Y108.073 E-.16346
G1 X163.321 Y108.135 E-.03629
;WIPE_END
G1 E-.05 F2100
G1 Z.4 F720
G1 X178.865 Y108.515 F6000
G1 Z.2 F720
G1 E1 F2100
M204 S800
;WIDTH:0.467965
G1 F1200
G1 X179.431 Y109.081 E.02828
M204 S1000
;WIPE_START
G1 F4800
G1 X178.865 Y108.515 E-.33259
;WIPE_END
G1 E-.66741 F2100
G1 Z.4 F720
G1 X178.857 Y103.391 F6000
G1 Z.2 F720
G1 E1 F2100
M204 S800
;WIDTH:0.420111
G1 F1200
