; generated by PrusaSlicer 2.5.0+MacOS-x64 on 2022-11-06 at 14:53:41 UTC


;
;

;
;
; 

; external perimeters extrusion width = 0.45mm
; perimeters extrusion width = 0.45mm
; infill extrusion width = 0.45mm
; solid infill extrusion width = 0.45mm
; top infill extrusion width = 0.40mm
; first layer extrusion width = 0.42mm

M73 P0 R173
M201 X9000 Y9000 Z500 E10000 ; sets maximum accelerations, mm/sec^2
M203 X500 Y500 Z12 E120 ; sets maximum feedrates, mm / sec
M204 P2000 R1500 T2000 ; sets acceleration (P, T) and retract acceleration (R), mm/sec^2
M205 X10.00 Y10.00 Z0.20 E4.50 ; sets the jerk limits, mm/sec
M205 S0 T0 ; sets the minimum extruding and travel feed rate, mm/sec
M107
;TYPE:Custom
M83  ; extruder relative mode
M140 S85 ; set bed temp
M109 S160 ; Set extruder temp before bed level
M190 S85 ; wait for bed temp

G28 W ; home all without mesh bed level
G80 N7 ; mesh bed leveling

M109 S240 ; wait for extruder temp

M221 S100 ; Set flow to 100

G1 Y-3.0 F1000.0 ; go outside print area
G92 E0.0
G1 E8 ; Purge Bubble
G1 X60.0 E9.0 F1000.0 ; intro line
G1 X100.0 E12.5 F1000.0 ; intro line
G92 E0.0
G21 ; set units to millimeters
G90 ; use absolute coordinates
M83 ; use relative distances for extrusion
M900 K0.08 ; Filament gcode LA 1.5
M900 K45 ; Filament gcode LA 1.0
M107
;LAYER_CHANGE
;Z:0.2
;HEIGHT:0.2
;BEFORE_LAYER_CHANGE
G92 E0.0
;0.2


G1 E-1 F2100
G1 Z.2 F720
;AFTER_LAYER_CHANGE
;0.2
G1 Z.4
G1 X20.133 Y97.702 F6000
G1 Z.2 F720
G1 E1 F2100
M204 S800
;TYPE:Skirt/Brim
;WIDTH:0.42
G1 F1200
G1 X20.5 Y97.627 E.01176
G1 X229.5 Y97.627 E6.55305
G1 X230.807 Y98.018 E.04278
G1 X231.683 Y99.064 E.04278
G1 X231.877 Y100.004 E.03008
G1 X231.877 Y109.996 E.31331
G1 X231.485 Y111.303 E.04278
G1 X230.44 Y112.18 E.04278
G1 X229.5 Y112.373 E.03008
G1 X20.5 Y112.373 E6.55305
G1 X19.193 Y111.982 E.04278
G1 X18.317 Y110.936 E.04278
G1 X18.123 Y109.996 E.03008
G1 X18.123 Y100.004 E.31331
G1 X18.515 Y98.697 E.04278
G1 X19.56 Y97.82 E.04278
G1 X20.074 Y97.714 E.01645
M204 S1000
; printing object divider_middle_vertical.stl id:0 copy 0
;WIPE_START
G1 F4800
G1 X20.5 Y97.627 E-.18077
G1 X22.351 Y97.627 E-.76923
;WIPE_END
G1 E-.05 F2100
G1 Z.4 F720
G1 X31.121 Y103.9 F6000
G1 Z.2 F720
G1 E1 F2100
M204 S800
;TYPE:Perimeter
;WIDTH:0.419999
G1 F1200
G1 X31.104 Y103.869 E.00109
G1 X30.932 Y103.757 E.00646
G1 X30.714 Y103.713 E.00696
G1 X29.054 Y103.713 E.05205
G1 X28.748 Y103.066 E.02247
G1 X28.345 Y102.514 E.02141
G1 X27.627 Y101.873 E.03018
G1 X27.05 Y101.55 E.02072
;WIDTH:0.461032
G1 X26.73 Y101.42 E.01203
;WIDTH:0.502064
G1 X26.409 Y101.289 E.01321
G1 X25.928 Y101.247 E.01845
;WIDTH:0.473526
G1 X25.446 Y101.205 E.01731
;WIDTH:0.459443
G1 X24.762 Y101.271 E.02381
G1 X23.832 Y101.605 E.03422
;WIDTH:0.419999
G1 X23.123 Y102.057 E.02635
G1 X22.945 Y102.21 E.00737
G1 X21.287 Y102.541 E.05301
G1 X21.287 Y100.791 E.05488
G1 X23.851 Y100.791 E.08038
;WIDTH:0.469454
G1 X24.868 Y100.816 E.03609
G1 X25.599 Y100.804 E.02592
;WIDTH:0.464044
G1 X26.623 Y100.813 E.03587
G1 X27.184 Y100.791 E.01965
;WIDTH:0.419999
G1 X223.211 Y100.791 E6.14628
;WIDTH:0.449637
G1 X224.224 Y100.806 E.03424
;WIDTH:0.455635
M73 P0 R172
G1 X224.921 Y100.809 E.02395
;WIDTH:0.465005
G1 X225.668 Y100.813 E.02621
G1 X226.509 Y100.791 E.02952
;WIDTH:0.419999
G1 X228.713 Y100.791 E.0691
G1 X228.713 Y102.541 E.05488
G1 X227.055 Y102.21 E.053
G1 X226.897 Y102.07 E.0066
G1 X226.33 Y101.69 E.02141
;WIDTH:0.462365
G1 X225.886 Y101.491 E.01697
;WIDTH:0.50473
G1 X225.443 Y101.291 E.01868
G1 X225.113 Y101.252 E.01273
;WIDTH:0.477184
G1 X224.784 Y101.212 E.01197
;WIDTH:0.452437
G1 X224.098 Y101.225 E.02338
G1 X223.164 Y101.462 E.03282
;WIDTH:0.419999
G1 X222.57 Y101.748 E.02068
G1 X222.034 Y102.134 E.02068
G1 X221.574 Y102.606 E.02067
G1 X221.203 Y103.151 E.02068
G1 X220.946 Y103.713 E.01939
G1 X219.188 Y103.722 E.05511
G1 X218.896 Y103.869 E.01027
G1 X218.787 Y104.013 E.00565
G1 X218.72 Y104.279 E.0086
G1 X218.72 Y105 E.02261
G1 X218.734 Y105.845 E.02651
G1 X218.896 Y106.131 E.01029
G1 X219.068 Y106.243 E.00646
G1 X219.286 Y106.287 E.00696
G1 X220.946 Y106.287 E.05204
G1 X221.252 Y106.934 E.02246
G1 X221.637 Y107.469 E.02066
G1 X222.11 Y107.93 E.0207
G1 X222.655 Y108.301 E.02066
G1 X223.256 Y108.571 E.02066
;WIDTH:0.469496
G1 X223.893 Y108.759 E.02358
G1 X224.554 Y108.795 E.02346
;WIDTH:0.464293
G1 X225.214 Y108.738 E.02322
G1 X225.844 Y108.538 E.02316
;WIDTH:0.419999
G1 X226.438 Y108.252 E.02066
G1 X227.055 Y107.79 E.02417
G1 X228.713 Y107.459 E.053
G1 X228.713 Y109.209 E.05488
G1 X225.835 Y109.209 E.09022
;WIDTH:0.469454
G1 X225.132 Y109.184 E.02496
G1 X224.436 Y109.197 E.02471
;WIDTH:0.451962
G1 X223.172 Y109.209 E.04299
;WIDTH:0.419999
G1 X27.184 Y109.209 E6.14504
;WIDTH:0.462364
G1 X26.829 Y109.188 E.01239
;WIDTH:0.504729
G1 X26.475 Y109.167 E.01364
G1 X26.126 Y109.181 E.01342
;WIDTH:0.477183
G1 X25.776 Y109.194 E.01262
;WIDTH:0.455635
G1 X25.079 Y109.191 E.02393
;WIDTH:0.465043
G1 X24.332 Y109.187 E.02621
G1 X23.491 Y109.209 E.02954
;WIDTH:0.419999
G1 X21.287 Y109.209 E.0691
G1 X21.287 Y107.459 E.05488
G1 X22.945 Y107.79 E.05301
G1 X23.103 Y107.929 E.00659
G1 X23.67 Y108.31 E.02142
;WIDTH:0.462365
G1 X24.114 Y108.51 E.01697
;WIDTH:0.50473
G1 X24.558 Y108.709 E.01869
G1 X24.887 Y108.748 E.01273
;WIDTH:0.477184
G1 X25.216 Y108.788 E.01197
;WIDTH:0.455636
G1 X25.878 Y108.782 E.0227
;WIDTH:0.473193
G1 X26.531 Y108.666 E.02375
G1 X26.836 Y108.537 E.01183
;WIDTH:0.446596
G1 X27.14 Y108.408 E.0111
;WIDTH:0.419999
G1 X27.725 Y108.054 E.02144
G1 X28.426 Y107.394 E.03018
G1 X28.797 Y106.849 E.02067
G1 X29.054 Y106.287 E.01939
G1 X30.812 Y106.278 E.05511
G1 X31.104 Y106.131 E.01027
G1 X31.213 Y105.987 E.00565
G1 X31.28 Y105.721 E.0086
G1 X31.266 Y104.155 E.04911
G1 X31.151 Y103.952 E.00732
M204 S1000
G1 X30.844 Y104.142 F6000
M204 S800
;TYPE:External perimeter
G1 F1200
G1 X30.714 Y104.09 E.00439
G1 X28.772 Y104.09 E.06089
G1 X28.692 Y103.819 E.00887
G1 X28.439 Y103.282 E.01862
G1 X28.09 Y102.792 E.01885
G1 X27.438 Y102.2 E.02762
G1 X26.921 Y101.905 E.01866
G1 X26.354 Y101.704 E.01886
G1 X25.48 Y101.593 E.02763
G1 X24.881 Y101.65 E.01886
G1 X24.035 Y101.923 E.02789
G1 X23.326 Y102.375 E.02635
G1 X23.123 Y102.558 E.00859
G1 X20.91 Y103.001 E.07077
G1 X20.91 Y100.414 E.08112
G1 X229.09 Y100.414 E6.52733
G1 X229.09 Y103.001 E.08112
G1 X226.877 Y102.558 E.07076
G1 X226.681 Y102.379 E.00833
G1 X226.186 Y102.038 E.01885
G1 X225.37 Y101.705 E.02765
G1 X224.784 Y101.604 E.01862
G1 X224.183 Y101.609 E.01886
G1 X223.323 Y101.804 E.02765
G1 X222.786 Y102.057 E.01862
G1 X222.301 Y102.4 E.01862
G1 X221.883 Y102.822 E.01862
G1 X221.545 Y103.31 E.01862
G1 X221.308 Y103.819 E.01759
G1 X221.228 Y104.09 E.00887
G1 X219.286 Y104.09 E.06089
G1 X219.156 Y104.142 E.00439
G1 X219.097 Y104.279 E.00466
G1 X219.097 Y105.721 E.04522
G1 X219.156 Y105.858 E.00466
G1 X219.286 Y105.91 E.00439
G1 X221.228 Y105.91 E.06088
G1 X221.308 Y106.181 E.00887
G1 X221.561 Y106.718 E.01862
G1 X221.904 Y107.202 E.01861
G1 X222.326 Y107.621 E.01865
G1 X222.814 Y107.959 E.01861
G1 X223.353 Y108.207 E.01861
G1 X223.928 Y108.358 E.01865
G1 X224.52 Y108.407 E.01861
G1 X225.111 Y108.353 E.01861
G1 X225.685 Y108.196 E.01865
G1 X226.221 Y107.943 E.01861
G1 X226.877 Y107.442 E.02588
G1 X229.09 Y106.999 E.07076
G1 X229.09 Y109.586 E.08112
G1 X20.91 Y109.586 E6.52733
G1 X20.91 Y106.999 E.08112
G1 X23.123 Y107.442 E.07077
G1 X23.319 Y107.621 E.00832
G1 X23.814 Y107.962 E.01885
G1 X24.631 Y108.295 E.02766
G1 X25.216 Y108.396 E.01862
G1 X25.809 Y108.393 E.01859
G1 X26.394 Y108.287 E.01862
G1 X26.951 Y108.081 E.01864
G1 X27.47 Y107.776 E.01887
G1 X28.117 Y107.178 E.02763
G1 X28.455 Y106.69 E.01862
G1 X28.692 Y106.181 E.01759
G1 X28.772 Y105.91 E.00888
G1 X30.714 Y105.91 E.06089
G1 X30.844 Y105.858 E.00439
G1 X30.903 Y105.721 E.00466
G1 X30.903 Y104.279 E.04522
G1 X30.868 Y104.198 E.00278
M204 S1000
G1 X30.878 Y104.006 F6000
;WIPE_START
G1 F4800
G1 X30.714 Y104.09 E-.07786
G1 X28.772 Y104.09 E-.80711
G1 X28.728 Y103.94 E-.06503
;WIPE_END
G1 E-.05 F2100
G1 Z.4 F720
G1 X23.562 Y100.904 F6000
G1 Z.2 F720
G1 E1 F2100
M204 S800
;TYPE:Solid infill
;WIDTH:0.445783
G1 F1200
G1 X23.918 Y101.259 E.01683
G1 X23.685 Y101.363 E.00852
G1 X23.543 Y101.454 E.00567
G1 X23.162 Y101.074 E.01802
G1 X22.593 Y101.074 E.01909
G1 X23.195 Y101.676 E.02853
G1 X22.859 Y101.91 E.01371
G1 X22.023 Y101.074 E.03962
G1 X21.57 Y101.074 E.01517
G1 X21.57 Y101.19 E.00391
G1 X22.408 Y102.029 E.03971
G1 X21.933 Y102.123 E.01622
G1 X21.4 Y101.59 E.02525
M204 S1000
;WIPE_START
G1 F4800
G1 X21.933 Y102.123 E-.31332
G1 X22.408 Y102.029 E-.20124
G1 X21.667 Y101.288 E-.43544
;WIPE_END
G1 E-.05 F2100
G1 Z.4 F720
G1 X22.618 Y107.84 F6000
G1 Z.2 F720
G1 E1 F2100
M204 S800
;WIDTH:0.437509
G1 F1200
G1 X23.693 Y108.915 E.04989
G1 X23.146 Y108.926 E.01795
G1 X22.137 Y107.917 E.04683
G1 X21.57 Y107.804 E.01896
G1 X21.57 Y107.908 E.00343
G1 X22.588 Y108.926 E.04723
G1 X22.03 Y108.926 E.01831
G1 X21.4 Y108.297 E.02921
M204 S1000
;WIPE_START
G1 F4800
G1 X22.03 Y108.926 E-.37006
G1 X22.588 Y108.926 E-.23193
G1 X21.996 Y108.334 E-.348
;WIPE_END
G1 E-.05 F2100
G1 Z.4 F720
G1 X222.916 Y108.548 F6000
G1 Z.2 F720
G1 E1 F2100
M204 S800
;WIDTH:0.420466
G1 F1200
G1 X223.287 Y108.918 E.01645
G1 X222.761 Y108.926 E.0165
G1 X220.404 Y106.569 E.10464
G1 X219.871 Y106.569 E.01676
G1 X222.397 Y109.096 E.11217
M204 S1000
;WIPE_START
G1 F4800
G1 X220.781 Y107.48 E-.95
;WIPE_END
G1 E-.05 F2100
G1 Z.4 F720
G1 X223.185 Y101.341 F6000
G1 Z.2 F720
G1 E1 F2100
M204 S800
G1 F1200
G1 X222.917 Y101.074 E.01189
G1 X222.384 Y101.074 E.01676
G1 X222.689 Y101.379 E.01354
G1 X222.34 Y101.564 E.01239
G1 X221.85 Y101.074 E.02177
G1 X221.316 Y101.074 E.01676
G1 X222.026 Y101.784 E.03153
G1 X221.941 Y101.843 E.00326
G1 X221.746 Y102.038 E.00864
G1 X220.782 Y101.074 E.04282
G1 X220.248 Y101.074 E.01676
G1 X221.479 Y102.305 E.05467
G1 X221.347 Y102.437 E.00586
G1 X221.236 Y102.596 E.00609
G1 X219.714 Y101.074 E.06758
G1 X219.18 Y101.074 E.01676
G1 X221.016 Y102.91 E.08153
G1 X220.841 Y103.268 E.01253
G1 X218.646 Y101.074 E.09743
G1 X218.112 Y101.074 E.01676
G1 X220.471 Y103.433 E.10475
G1 X219.941 Y103.436 E.01665
G1 X217.578 Y101.074 E.10491
G1 X217.044 Y101.074 E.01676
G1 X219.411 Y103.44 E.10507
G1 X219.142 Y103.442 E.00844
G1 X218.942 Y103.505 E.00658
G1 X216.51 Y101.074 E.10796
G1 X215.976 Y101.074 E.01676
G1 X218.642 Y103.74 E.11836
G1 X218.537 Y103.878 E.00546
G1 X218.458 Y104.09 E.00708
G1 X215.442 Y101.074 E.1339
G1 X214.909 Y101.074 E.01676
G1 X218.438 Y104.603 E.15668
G1 X218.438 Y105.137 E.01676
G1 X214.375 Y101.074 E.18038
G1 X213.841 Y101.074 E.01676
G1 X218.438 Y105.67 E.20409
G1 X218.458 Y105.909 E.0075
G1 X218.537 Y106.122 E.00714
G1 X218.701 Y106.337 E.00849
G1 X218.96 Y106.506 E.0097
G1 X219.337 Y106.569 E.012
G1 X221.694 Y108.926 E.10464
G1 X221.16 Y108.926 E.01676
G1 X213.307 Y101.074 E.34864
G1 X212.773 Y101.074 E.01676
G1 X220.626 Y108.926 E.34864
G1 X220.092 Y108.926 E.01676
G1 X212.239 Y101.074 E.34864
G1 X211.705 Y101.074 E.01676
G1 X219.558 Y108.926 E.34864
G1 X219.024 Y108.926 E.01676
G1 X211.171 Y101.074 E.34864
G1 X210.637 Y101.074 E.01676
G1 X218.49 Y108.926 E.34864
G1 X217.956 Y108.926 E.01676
G1 X210.103 Y101.074 E.34864
G1 X209.569 Y101.074 E.01676
G1 X217.422 Y108.926 E.34864
G1 X216.888 Y108.926 E.01676
G1 X209.035 Y101.074 E.34864
G1 X208.501 Y101.074 E.01676
G1 X216.354 Y108.926 E.34864
G1 X215.82 Y108.926 E.01676
M73 P0 R171
G1 X207.967 Y101.074 E.34864
G1 X207.433 Y101.074 E.01676
G1 X215.286 Y108.926 E.34864
G1 X214.752 Y108.926 E.01676
G1 X206.9 Y101.074 E.34864
G1 X206.366 Y101.074 E.01676
G1 X214.218 Y108.926 E.34864
G1 X213.685 Y108.926 E.01676
G1 X205.832 Y101.074 E.34864
G1 X205.298 Y101.074 E.01676
G1 X213.151 Y108.926 E.34864
G1 X212.617 Y108.926 E.01676
G1 X204.764 Y101.074 E.34864
G1 X204.23 Y101.074 E.01676
G1 X212.083 Y108.926 E.34864
G1 X211.549 Y108.926 E.01676
G1 X203.696 Y101.074 E.34864
G1 X203.162 Y101.074 E.01676
G1 X211.015 Y108.926 E.34864
G1 X210.481 Y108.926 E.01676
G1 X202.628 Y101.074 E.34864
G1 X202.094 Y101.074 E.01676
G1 X209.947 Y108.926 E.34864
G1 X209.413 Y108.926 E.01676
G1 X201.56 Y101.074 E.34864
G1 X201.026 Y101.074 E.01676
G1 X208.879 Y108.926 E.34864
G1 X208.345 Y108.926 E.01676
G1 X200.492 Y101.074 E.34864
G1 X199.958 Y101.074 E.01676
G1 X207.811 Y108.926 E.34864
G1 X207.277 Y108.926 E.01676
G1 X199.425 Y101.074 E.34864
G1 X198.891 Y101.074 E.01676
G1 X206.743 Y108.926 E.34864
G1 X206.21 Y108.926 E.01676
G1 X198.357 Y101.074 E.34864
G1 X197.823 Y101.074 E.01676
G1 X205.676 Y108.926 E.34864
G1 X205.142 Y108.926 E.01676
M73 P1 R171
G1 X197.289 Y101.074 E.34864
G1 X196.755 Y101.074 E.01676
G1 X204.608 Y108.926 E.34864
G1 X204.074 Y108.926 E.01676
G1 X196.221 Y101.074 E.34864
G1 X195.687 Y101.074 E.01676
G1 X203.54 Y108.926 E.34864
G1 X203.006 Y108.926 E.01676
G1 X195.153 Y101.074 E.34864
G1 X194.619 Y101.074 E.01676
G1 X202.472 Y108.926 E.34864
G1 X201.938 Y108.926 E.01676
G1 X194.085 Y101.074 E.34864
G1 X193.551 Y101.074 E.01676
G1 X201.404 Y108.926 E.34864
G1 X200.87 Y108.926 E.01676
G1 X193.017 Y101.074 E.34864
G1 X192.483 Y101.074 E.01676
G1 X200.336 Y108.926 E.34864
G1 X199.802 Y108.926 E.01676
G1 X191.949 Y101.074 E.34864
G1 X191.416 Y101.074 E.01676
G1 X199.268 Y108.926 E.34864
G1 X198.734 Y108.926 E.01676
G1 X190.882 Y101.074 E.34864
G1 X190.348 Y101.074 E.01676
G1 X198.201 Y108.926 E.34864
G1 X197.667 Y108.926 E.01676
G1 X189.814 Y101.074 E.34864
G1 X189.28 Y101.074 E.01676
G1 X197.133 Y108.926 E.34864
G1 X196.599 Y108.926 E.01676
G1 X188.746 Y101.074 E.34864
G1 X188.212 Y101.074 E.01676
G1 X196.065 Y108.926 E.34864
G1 X195.531 Y108.926 E.01676
G1 X187.678 Y101.074 E.34864
G1 X187.144 Y101.074 E.01676
G1 X194.997 Y108.926 E.34864
G1 X194.463 Y108.926 E.01676
G1 X186.61 Y101.074 E.34864
G1 X186.076 Y101.074 E.01676
G1 X193.929 Y108.926 E.34864
G1 X193.395 Y108.926 E.01676
G1 X185.542 Y101.074 E.34864
G1 X185.008 Y101.074 E.01676
G1 X192.861 Y108.926 E.34864
G1 X192.327 Y108.926 E.01676
G1 X184.474 Y101.074 E.34864
G1 X183.941 Y101.074 E.01676
G1 X191.793 Y108.926 E.34864
G1 X191.259 Y108.926 E.01676
G1 X183.407 Y101.074 E.34864
G1 X182.873 Y101.074 E.01676
G1 X190.726 Y108.926 E.34864
G1 X190.192 Y108.926 E.01676
G1 X182.339 Y101.074 E.34864
G1 X181.805 Y101.074 E.01676
G1 X189.658 Y108.926 E.34864
G1 X189.124 Y108.926 E.01676
G1 X181.271 Y101.074 E.34864
G1 X180.737 Y101.074 E.01676
G1 X188.59 Y108.926 E.34864
G1 X188.056 Y108.926 E.01676
G1 X180.203 Y101.074 E.34864
G1 X179.669 Y101.074 E.01676
G1 X187.522 Y108.926 E.34864
G1 X186.988 Y108.926 E.01676
G1 X179.135 Y101.074 E.34864
G1 X178.601 Y101.074 E.01676
G1 X186.454 Y108.926 E.34864
G1 X185.92 Y108.926 E.01676
G1 X178.067 Y101.074 E.34864
G1 X177.533 Y101.074 E.01676
G1 X185.386 Y108.926 E.34864
G1 X184.852 Y108.926 E.01676
G1 X176.999 Y101.074 E.34864
G1 X176.466 Y101.074 E.01676
G1 X184.318 Y108.926 E.34864
G1 X183.784 Y108.926 E.01676
G1 X175.932 Y101.074 E.34864
G1 X175.398 Y101.074 E.01676
G1 X183.251 Y108.926 E.34864
G1 X182.717 Y108.926 E.01676
G1 X174.864 Y101.074 E.34864
G1 X174.33 Y101.074 E.01676
G1 X182.183 Y108.926 E.34864
G1 X181.649 Y108.926 E.01676
G1 X173.796 Y101.074 E.34864
G1 X173.262 Y101.074 E.01676
G1 X181.115 Y108.926 E.34864
G1 X180.581 Y108.926 E.01676
G1 X172.728 Y101.074 E.34864
G1 X172.194 Y101.074 E.01676
G1 X180.047 Y108.926 E.34864
G1 X179.513 Y108.926 E.01676
G1 X171.66 Y101.074 E.34864
G1 X171.126 Y101.074 E.01676
G1 X178.979 Y108.926 E.34864
G1 X178.445 Y108.926 E.01676
G1 X170.592 Y101.074 E.34864
G1 X170.058 Y101.074 E.01676
G1 X177.911 Y108.926 E.34864
G1 X177.377 Y108.926 E.01676
G1 X169.524 Y101.074 E.34864
G1 X168.99 Y101.074 E.01676
G1 X176.843 Y108.926 E.34864
G1 X176.309 Y108.926 E.01676
G1 X168.457 Y101.074 E.34864
G1 X167.923 Y101.074 E.01676
G1 X175.775 Y108.926 E.34864
G1 X175.242 Y108.926 E.01676
G1 X167.389 Y101.074 E.34864
G1 X166.855 Y101.074 E.01676
G1 X174.708 Y108.926 E.34864
G1 X174.174 Y108.926 E.01676
G1 X166.321 Y101.074 E.34864
G1 X165.787 Y101.074 E.01676
G1 X173.64 Y108.926 E.34864
G1 X173.106 Y108.926 E.01676
