; generated by PrusaSlicer 2.5.0+MacOS-x64 on 2022-11-03 at 08:27:04 UTC


;
;

;
;
; 

; external perimeters extrusion width = 0.45mm
; perimeters extrusion width = 0.45mm
; infill extrusion width = 0.45mm
; solid infill extrusion width = 0.45mm
; top infill extrusion width = 0.40mm
; first layer extrusion width = 0.42mm

M73 P0 R98
M201 X9000 Y9000 Z500 E10000 ; sets maximum accelerations, mm/sec^2
M203 X500 Y500 Z12 E120 ; sets maximum feedrates, mm / sec
M204 P2000 R1500 T2000 ; sets acceleration (P, T) and retract acceleration (R), mm/sec^2
M205 X10.00 Y10.00 Z0.20 E4.50 ; sets the jerk limits, mm/sec
M205 S0 T0 ; sets the minimum extruding and travel feed rate, mm/sec
M107
;TYPE:Custom
M83  ; extruder relative mode
M140 S85 ; set bed temp
M109 S160 ; Set extruder temp before bed level
M190 S85 ; wait for bed temp

G28 W ; home all without mesh bed level
G80 N7 ; mesh bed leveling

M109 S240 ; wait for extruder temp

M221 S100 ; Set flow to 100

G1 Y-3.0 F1000.0 ; go outside print area
G92 E0.0
G1 E8 ; Purge Bubble
G1 X60.0 E9.0 F1000.0 ; intro line
G1 X100.0 E12.5 F1000.0 ; intro line
G92 E0.0
G21 ; set units to millimeters
G90 ; use absolute coordinates
M83 ; use relative distances for extrusion
M900 K0.08 ; Filament gcode LA 1.5
M900 K45 ; Filament gcode LA 1.0
M107
;LAYER_CHANGE
;Z:0.2
;HEIGHT:0.2
;BEFORE_LAYER_CHANGE
G92 E0.0
;0.2


G1 E-1 F2100
G1 Z.2 F720
;AFTER_LAYER_CHANGE
;0.2
G1 Z.4
G1 X98.015 Y99.943 F6000
G1 Z.2 F720
G1 E1 F2100
M204 S800
;TYPE:Skirt/Brim
;WIDTH:0.42
G1 F1200
G1 X99.06 Y99.067 E.04278
G1 X100 Y98.873 E.03008
G1 X150 Y98.873 E1.56771
G1 X151.307 Y99.265 E.04278
G1 X152.183 Y100.31 E.04278
G1 X152.377 Y101.25 E.03008
G1 X152.377 Y108.746 E.23504
G1 X151.985 Y110.053 E.04278
G1 X150.94 Y110.93 E.04278
G1 X150 Y111.123 E.03008
G1 X100 Y111.123 E1.56771
G1 X98.693 Y110.732 E.04278
G1 X97.817 Y109.686 E.04278
G1 X97.623 Y108.746 E.03008
G1 X97.623 Y101.25 E.23504
G1 X97.997 Y100 E.0409
M204 S1000
; printing object divider_border_left_bottom.stl id:0 copy 0
;WIPE_START
G1 F4800
G1 X99.06 Y99.067 E-.58808
G1 X99.913 Y98.891 E-.36192
;WIPE_END
G1 E-.05 F2100
G1 Z.4 F720
G1 X105.474 Y102.019 F6000
G1 Z.2 F720
G1 E1 F2100
M204 S800
;TYPE:Perimeter
;WIDTH:0.419999
G1 F1200
G1 X106.001 Y102.037 E.01651
G1 X144.025 Y102.037 E1.19223
G1 X144.36 Y102.023 E.0105
;WIDTH:0.391229
G1 X144.694 Y102.008 E.0097
;WIDTH:0.365926
G1 X144.67 Y102.011 E.00065
;WIDTH:0.392963
G1 X144.352 Y102.068 E.00939
;WIDTH:0.419999
G1 X144.035 Y102.125 E.01012
G1 X143.528 Y102.346 E.01733
G1 X143.09 Y102.642 E.01658
G1 X142.71 Y103.01 E.01659
G1 X142.4 Y103.438 E.01658
G1 X142.225 Y103.836 E.01364
G1 X141.033 Y103.836 E.03736
G1 X140.767 Y103.903 E.0086
G1 X140.58 Y104.063 E.00769
G1 X140.49 Y104.244 E.00634
G1 X140.467 Y104.402 E.00502
G1 X140.467 Y104.998 E.01869
G1 X140.49 Y105.753 E.02367
G1 X140.58 Y105.934 E.00634
G1 X140.767 Y106.094 E.00769
G1 X141.033 Y106.16 E.0086
G1 X142.224 Y106.16 E.03736
G1 X142.414 Y106.577 E.01436
G1 X142.911 Y107.194 E.02484
G1 X143.528 Y107.651 E.02408
G1 X144.011 Y107.866 E.01657
G1 X144.525 Y107.977 E.01651
G1 X143.999 Y107.959 E.01653
G1 X105.864 Y107.959 E1.19569
G1 X105.585 Y107.974 E.00875
;WIDTH:0.39121
G1 X105.307 Y107.988 E.00808
G1 X105.58 Y107.948 E.00801
;WIDTH:0.419999
G1 X105.853 Y107.907 E.00867
G1 X106.45 Y107.66 E.02024
G1 X106.91 Y107.354 E.01733
G1 X107.29 Y106.986 E.01659
G1 X107.6 Y106.558 E.01658
G1 X107.775 Y106.16 E.01363
G1 X108.967 Y106.16 E.03736
G1 X109.233 Y106.094 E.0086
G1 X109.42 Y105.934 E.00769
G1 X109.51 Y105.753 E.00634
G1 X109.533 Y105.594 E.00502
G1 X109.533 Y104.998 E.0187
G1 X109.51 Y104.244 E.02367
G1 X109.42 Y104.063 E.00634
G1 X109.233 Y103.903 E.00769
G1 X108.967 Y103.836 E.0086
G1 X107.775 Y103.836 E.03736
G1 X107.586 Y103.419 E.01437
G1 X107.108 Y102.818 E.02408
G1 X106.676 Y102.473 E.01735
G1 X105.988 Y102.13 E.02408
G1 X105.533 Y102.032 E.01461
M204 S1000
;WIPE_START
G1 F4800
G1 X106.001 Y102.037 E-.19439
G1 X107.819 Y102.037 E-.75561
;WIPE_END
G1 E-.05 F2100
G1 Z.4 F720
G1 X146.028 Y102.088 F6000
G1 Z.2 F720
G1 E1 F2100
M204 S800
;WIDTH:0.522692
G1 F1200
G1 X146.966 Y102.088 E.03741
;WIDTH:0.560282
G1 X147.47 Y102.107 E.0217
;WIDTH:0.597871
G1 X147.974 Y102.126 E.02327
G1 X148.074 Y102.104 E.00471
;WIDTH:0.553403
G1 X148.174 Y102.082 E.00434
;WIDTH:0.508935
G1 X148.273 Y102.059 E.00396
;WIDTH:0.464467
G1 X148.373 Y102.037 E.00358
;WIDTH:0.419999
G1 X149.213 Y102.037 E.02634
G1 X149.213 Y102.96 E.02893
G1 X148.314 Y102.825 E.02849
;WIDTH:0.464467
G1 X148.219 Y102.788 E.00358
;WIDTH:0.508935
G1 X148.124 Y102.751 E.00396
;WIDTH:0.553403
G1 X148.028 Y102.715 E.00434
;WIDTH:0.597871
G1 X147.933 Y102.678 E.00471
G1 X147.432 Y102.622 E.02327
;WIDTH:0.560282
G1 X146.931 Y102.566 E.0217
;WIDTH:0.522692
G1 X146.498 Y102.299 E.02025
G1 X146.083 Y102.113 E.01815
M204 S1000
;WIPE_START
G1 F4800
G1 X146.966 Y102.088 E-.36709
G1 X147.47 Y102.107 E-.20962
G1 X147.974 Y102.126 E-.20962
G1 X148.074 Y102.104 E-.04246
G1 X148.174 Y102.082 E-.04247
G1 X148.273 Y102.059 E-.04247
G1 X148.358 Y102.04 E-.03627
;WIPE_END
G1 E-.05 F2100
G1 Z.4 F720
G1 X145.976 Y107.907 F6000
G1 Z.2 F720
G1 E1 F2100
M204 S800
;WIDTH:0.524237
G1 F1200
G1 X146.356 Y107.772 E.01611
G1 X146.952 Y107.428 E.02756
;WIDTH:0.561054
G1 X147.443 Y107.373 E.02128
;WIDTH:0.597871
G1 X147.934 Y107.318 E.02279
G1 X148.029 Y107.282 E.00471
;WIDTH:0.553403
G1 X148.125 Y107.245 E.00434
;WIDTH:0.508935
G1 X148.22 Y107.208 E.00396
;WIDTH:0.464467
G1 X148.315 Y107.171 E.00358
;WIDTH:0.419999
G1 X149.213 Y107.037 E.02846
G1 X149.213 Y107.959 E.02893
G1 X148.374 Y107.959 E.0263
;WIDTH:0.464467
G1 X148.274 Y107.937 E.00358
;WIDTH:0.508935
G1 X148.175 Y107.915 E.00396
;WIDTH:0.553403
G1 X148.075 Y107.893 E.00434
;WIDTH:0.597871
G1 X147.975 Y107.87 E.00471
G1 X147.482 Y107.889 E.02279
;WIDTH:0.561054
G1 X146.988 Y107.907 E.02128
;WIDTH:0.524237
G1 X146.036 Y107.907 E.03808
M204 S1000
;WIPE_START
G1 F4800
G1 X146.356 Y107.772 E-.144
G1 X146.952 Y107.428 E-.28623
G1 X147.443 Y107.373 E-.20529
G1 X147.934 Y107.318 E-.20529
G1 X148.029 Y107.282 E-.04246
G1 X148.125 Y107.245 E-.04247
G1 X148.179 Y107.224 E-.02426
;WIPE_END
G1 E-.05 F2100
G1 Z.4 F720
G1 X103.971 Y107.908 F6000
G1 Z.2 F720
G1 E1 F2100
M204 S800
;WIDTH:0.522626
G1 F1200
G1 X103.034 Y107.908 E.03739
;WIDTH:0.560249
G1 X102.529 Y107.889 E.02171
;WIDTH:0.597871
G1 X102.025 Y107.87 E.02329
G1 X101.925 Y107.893 E.00471
;WIDTH:0.553403
G1 X101.826 Y107.915 E.00434
;WIDTH:0.508935
G1 X101.726 Y107.937 E.00396
;WIDTH:0.464467
G1 X101.626 Y107.959 E.00358
;WIDTH:0.419999
G1 X100.787 Y107.959 E.02631
G1 X100.787 Y107.037 E.02893
G1 X101.685 Y107.171 E.02847
;WIDTH:0.464467
G1 X101.78 Y107.208 E.00358
;WIDTH:0.508935
G1 X101.876 Y107.245 E.00396
;WIDTH:0.553403
G1 X101.971 Y107.282 E.00434
;WIDTH:0.597871
G1 X102.066 Y107.318 E.00471
G1 X102.568 Y107.375 E.02329
;WIDTH:0.560249
G1 X103.069 Y107.431 E.02171
;WIDTH:0.522626
G1 X103.502 Y107.697 E.02026
G1 X103.917 Y107.883 E.01813
M204 S1000
;WIPE_START
G1 F4800
G1 X103.034 Y107.908 E-.36703
G1 X102.529 Y107.889 E-.2098
G1 X102.025 Y107.87 E-.20981
G1 X101.925 Y107.893 E-.04246
G1 X101.826 Y107.915 E-.04247
G1 X101.726 Y107.937 E-.04247
G1 X101.641 Y107.956 E-.03597
;WIPE_END
G1 E-.05 F2100
G1 Z.4 F720
G1 X104.024 Y102.089 F6000
G1 Z.2 F720
G1 E1 F2100
M204 S800
;WIDTH:0.524337
G1 F1200
G1 X103.644 Y102.224 E.01613
G1 X103.048 Y102.568 E.02756
;WIDTH:0.561104
G1 X102.557 Y102.623 E.02126
;WIDTH:0.597871
G1 X102.067 Y102.678 E.02276
G1 X101.972 Y102.715 E.00471
;WIDTH:0.553403
G1 X101.876 Y102.751 E.00434
;WIDTH:0.508935
G1 X101.781 Y102.788 E.00396
;WIDTH:0.464467
G1 X101.686 Y102.825 E.00358
;WIDTH:0.419999
G1 X100.787 Y102.96 E.02849
G1 X100.787 Y102.037 E.02893
G1 X101.627 Y102.037 E.02634
;WIDTH:0.464467
G1 X101.727 Y102.059 E.00358
;WIDTH:0.508935
G1 X101.826 Y102.082 E.00396
;WIDTH:0.553403
G1 X101.926 Y102.104 E.00434
;WIDTH:0.597871
G1 X102.026 Y102.126 E.00471
G1 X102.519 Y102.108 E.02276
;WIDTH:0.561104
G1 X103.012 Y102.089 E.02126
;WIDTH:0.524337
G1 X103.964 Y102.089 E.0381
M204 S1000
;WIPE_START
G1 F4800
G1 X103.644 Y102.224 E-.14418
G1 X103.048 Y102.568 E-.28613
G1 X102.557 Y102.623 E-.20503
G1 X102.067 Y102.678 E-.20503
G1 X101.972 Y102.715 E-.04246
G1 X101.876 Y102.751 E-.04246
G1 X101.821 Y102.773 E-.0247
;WIPE_END
G1 E-.05 F2100
G1 Z.4 F720
G1 X108.967 Y104.213 F6000
G1 Z.2 F720
G1 E1 F2100
M204 S800
;TYPE:External perimeter
;WIDTH:0.419999
G1 F1200
G1 X107.52 Y104.213 E.04537
G1 X107.287 Y103.649 E.01916
G1 X106.894 Y103.136 E.02024
G1 X106.502 Y102.807 E.01607
G1 X105.929 Y102.509 E.02024
G1 X105.475 Y102.383 E.01477
G1 X105.014 Y102.34 E.01453
G1 X104.512 Y102.385 E.01581
G1 X103.859 Y102.596 E.02152
G1 X103.289 Y102.966 E.02128
G1 X100.41 Y103.398 E.09129
G1 X100.41 Y101.66 E.05448
G1 X149.59 Y101.66 E1.542
G1 X149.59 Y103.398 E.05448
G1 X146.706 Y102.965 E.09144
G1 X146.348 Y102.706 E.01385
G1 X145.927 Y102.506 E.01461
G1 X145.44 Y102.377 E.01581
G1 X144.746 Y102.353 E.02177
G1 X144.116 Y102.493 E.02022
G1 X143.688 Y102.688 E.01477
G1 X143.306 Y102.951 E.01453
G1 X142.977 Y103.277 E.01453
G1 X142.688 Y103.693 E.01588
G1 X142.48 Y104.213 E.01758
G1 X141.033 Y104.213 E.04537
G1 X140.882 Y104.289 E.00529
G1 X140.844 Y104.402 E.00374
G1 X140.844 Y105.594 E.03739
G1 X140.882 Y105.708 E.00374
G1 X141.033 Y105.783 E.00529
G1 X142.48 Y105.783 E.04537
G1 X142.713 Y106.348 E.01915
G1 X143.141 Y106.895 E.02177
G1 X143.653 Y107.288 E.02024
G1 X144.078 Y107.491 E.01477
G1 X144.524 Y107.613 E.01453
G1 X144.986 Y107.657 E.01453
G1 X145.488 Y107.611 E.01581
G1 X146.141 Y107.4 E.02152
G1 X146.711 Y107.031 E.02129
G1 X149.59 Y106.599 E.09129
G1 X149.59 Y108.336 E.05448
G1 X100.41 Y108.336 E1.542
G1 X100.41 Y106.599 E.05448
G1 X103.294 Y107.031 E.09144
G1 X103.652 Y107.291 E.01386
G1 X104.073 Y107.491 E.01461
G1 X104.56 Y107.62 E.01581
G1 X105.213 Y107.648 E.02049
G1 X105.709 Y107.559 E.01579
G1 X106.305 Y107.312 E.02024
G1 X106.694 Y107.045 E.01477
G1 X107.023 Y106.72 E.01453
G1 X107.312 Y106.303 E.01588
G1 X107.52 Y105.783 E.01757
G1 X108.967 Y105.783 E.04537
G1 X109.118 Y105.708 E.00529
G1 X109.156 Y105.594 E.00374
G1 X109.156 Y104.402 E.03739
G1 X109.118 Y104.289 E.00374
G1 X109.021 Y104.24 E.00341
M204 S1000
G1 X108.864 Y103.827 F6000
;WIPE_START
G1 F4800
G1 X107.52 Y104.213 E-.62387
G1 X107.287 Y103.649 E-.25396
G1 X107.181 Y103.511 E-.07218
;WIPE_END
G1 E-.05 F2100
G1 Z.4 F720
G1 X144.694 Y102.008 F6000
G1 Z.2 F720
G1 E1 F2100
M204 S800
;TYPE:Perimeter
;WIDTH:0.383002
G1 F1200
G1 X145.456 Y102.019 E.02153
;WIDTH:0.401452
G1 X145.576 Y102.028 E.00359
M204 S1000
;WIPE_START
G1 F4800
G1 X145.456 Y102.019 E-.05011
G1 X144.694 Y102.008 E-.31647
;WIPE_END
G1 E-.63342 F2100
G1 Z.4 F720
G1 X145.526 Y107.974 F6000
G1 Z.2 F720
G1 E1 F2100
M204 S800
;WIDTH:0.390562
G1 F1200
G1 X145.002 Y107.997 E.01517
;WIDTH:0.384438
G1 X144.525 Y107.977 E.01355
M204 S1000
;WIPE_START
G1 F4800
G1 X145.002 Y107.997 E-.19835
G1 X145.526 Y107.974 E-.21808
;WIPE_END
G1 E-.58357 F2100
G1 Z.4 F720
G1 X104.425 Y107.969 F6000
G1 Z.2 F720
G1 E1 F2100
M204 S800
;WIDTH:0.40126
G1 F1200
G1 X105.19 Y107.992 E.02282
;WIDTH:0.36242
G1 X105.307 Y107.988 E.00309
M204 S1000
;WIPE_START
G1 F4800
G1 X105.19 Y107.992 E-.0484
G1 X104.425 Y107.969 E-.31836
;WIPE_END
G1 E-.63324 F2100
G1 Z.4 F720
G1 X104.473 Y102.022 F6000
G1 Z.2 F720
G1 E1 F2100
M204 S800
;WIDTH:0.39073
G1 F1200
G1 X104.998 Y102 E.01518
;WIDTH:0.38453
G1 X105.474 Y102.019 E.01356
M204 S1000
;WIPE_START
G1 F4800
G1 X104.998 Y102 E-.19834
G1 X104.473 Y102.022 E-.21809
;WIPE_END
G1 E-.58357 F2100
G1 Z.4 F720
G1 X101.083 Y102.15 F6000
G1 Z.2 F720
G1 E1 F2100
M204 S800
;TYPE:Solid infill
;WIDTH:0.468269
G1 F1200
G1 X101.649 Y102.716 E.02831
M204 S1000
;WIPE_START
G1 F4800
G1 X101.083 Y102.15 E-.33265
;WIPE_END
G1 E-.66735 F2100
G1 Z.4 F720
G1 X100.9 Y107.244 F6000
G1 Z.2 F720
G1 E1 F2100
M204 S800
;WIDTH:0.495415
G1 F1200
G1 X101.502 Y107.846 E.03202
M204 S1000
;WIPE_START
G1 F4800
G1 X100.9 Y107.244 E-.35369
;WIPE_END
G1 E-.64631 F2100
G1 Z.4 F720
G1 X142.361 Y102.15 F6000
G1 Z.2 F720
G1 E1 F2100
M204 S800
;WIDTH:0.423996
G1 F1200
G1 X142.771 Y102.56 E.01835
G1 X142.498 Y102.825 E.01208
G1 X141.992 Y102.32 E.02265
G1 X141.453 Y102.32 E.01708
G1 X142.27 Y103.137 E.0366
G1 X142.158 Y103.29 E.006
G1 X142.072 Y103.477 E.00655
G1 X140.914 Y102.32 E.05186
G1 X140.375 Y102.32 E.01708
G1 X141.614 Y103.558 E.05549
G1 X141.08 Y103.563 E.01692
G1 X139.837 Y102.32 E.05572
G1 X139.298 Y102.32 E.01708
G1 X140.631 Y103.653 E.05974
G1 X140.346 Y103.907 E.0121
G1 X138.759 Y102.32 E.07111
G1 X138.22 Y102.32 E.01708
G1 X140.198 Y104.298 E.08866
G1 X140.184 Y104.823 E.01664
G1 X137.681 Y102.32 E.11219
G1 X137.142 Y102.32 E.01708
G1 X140.354 Y105.532 E.14394
M204 S1000
;WIPE_START
G1 F4800
G1 X138.738 Y103.916 E-.95
;WIPE_END
G1 E-.05 F2100
G1 Z.4 F720
G1 X141.634 Y106.273 F6000
G1 Z.2 F720
G1 E1 F2100
M204 S800
G1 F1200
G1 X143.037 Y107.676 E.06288
G1 X142.498 Y107.676 E.01708
G1 X141.095 Y106.273 E.06288
M204 S1000
;WIPE_START
G1 F4800
G1 X142.498 Y107.676 E-.82479
G1 X142.8 Y107.676 E-.12521
;WIPE_END
G1 E-.05 F2100
G1 Z.4 F720
G1 X142.129 Y107.846 F6000
G1 Z.2 F720
G1 E1 F2100
M204 S800
G1 F1200
G1 X136.603 Y102.32 E.24764
G1 X136.064 Y102.32 E.01708
G1 X141.421 Y107.676 E.24004
G1 X140.882 Y107.676 E.01708
G1 X135.525 Y102.32 E.24004
G1 X134.986 Y102.32 E.01708
G1 X140.343 Y107.676 E.24004
G1 X139.804 Y107.676 E.01708
G1 X134.447 Y102.32 E.24004
G1 X133.908 Y102.32 E.01708
G1 X139.265 Y107.676 E.24004
G1 X138.726 Y107.676 E.01708
G1 X133.369 Y102.32 E.24004
G1 X132.831 Y102.32 E.01708
G1 X138.187 Y107.676 E.24004
G1 X137.648 Y107.676 E.01708
G1 X132.292 Y102.32 E.24004
G1 X131.753 Y102.32 E.01708
G1 X137.109 Y107.676 E.24004
G1 X136.57 Y107.676 E.01708
G1 X131.214 Y102.32 E.24004
G1 X130.675 Y102.32 E.01708
G1 X136.031 Y107.676 E.24004
G1 X135.493 Y107.676 E.01708
G1 X130.136 Y102.32 E.24004
G1 X129.597 Y102.32 E.01708
M73 P0 R97
G1 X134.954 Y107.676 E.24004
G1 X134.415 Y107.676 E.01708
G1 X129.058 Y102.32 E.24004
G1 X128.519 Y102.32 E.01708
G1 X133.876 Y107.676 E.24004
G1 X133.337 Y107.676 E.01708
G1 X127.98 Y102.32 E.24004
G1 X127.441 Y102.32 E.01708
G1 X132.798 Y107.676 E.24004
G1 X132.259 Y107.676 E.01708
G1 X126.902 Y102.32 E.24004
G1 X126.363 Y102.32 E.01708
G1 X131.72 Y107.676 E.24004
G1 X131.181 Y107.676 E.01708
G1 X125.825 Y102.32 E.24004
G1 X125.286 Y102.32 E.01708
G1 X130.642 Y107.676 E.24004
G1 X130.103 Y107.676 E.01708
G1 X124.747 Y102.32 E.24004
G1 X124.208 Y102.32 E.01708
G1 X129.564 Y107.676 E.24004
G1 X129.025 Y107.676 E.01708
G1 X123.669 Y102.32 E.24004
G1 X123.13 Y102.32 E.01708
G1 X128.487 Y107.676 E.24004
G1 X127.948 Y107.676 E.01708
G1 X122.591 Y102.32 E.24004
G1 X122.052 Y102.32 E.01708
G1 X127.409 Y107.676 E.24004
G1 X126.87 Y107.676 E.01708
G1 X121.513 Y102.32 E.24004
G1 X120.974 Y102.32 E.01708
G1 X126.331 Y107.676 E.24004
G1 X125.792 Y107.676 E.01708
G1 X120.435 Y102.32 E.24004
G1 X119.896 Y102.32 E.01708
G1 X125.253 Y107.676 E.24004
G1 X124.714 Y107.676 E.01708
G1 X119.357 Y102.32 E.24004
G1 X118.819 Y102.32 E.01708
G1 X124.175 Y107.676 E.24004
G1 X123.636 Y107.676 E.01708
G1 X118.28 Y102.32 E.24004
G1 X117.741 Y102.32 E.01708
G1 X123.097 Y107.676 E.24004
G1 X122.558 Y107.676 E.01708
G1 X117.202 Y102.32 E.24004
G1 X116.663 Y102.32 E.01708
G1 X122.019 Y107.676 E.24004
G1 X121.481 Y107.676 E.01708
G1 X116.124 Y102.32 E.24004
G1 X115.585 Y102.32 E.01708
G1 X120.942 Y107.676 E.24004
G1 X120.403 Y107.676 E.01708
G1 X115.046 Y102.32 E.24004
G1 X114.507 Y102.32 E.01708
G1 X119.864 Y107.676 E.24004
G1 X119.325 Y107.676 E.01708
G1 X113.968 Y102.32 E.24004
G1 X113.429 Y102.32 E.01708
G1 X118.786 Y107.676 E.24004
G1 X118.247 Y107.676 E.01708
G1 X112.89 Y102.32 E.24004
G1 X112.351 Y102.32 E.01708
G1 X117.708 Y107.676 E.24004
G1 X117.169 Y107.676 E.01708
G1 X111.813 Y102.32 E.24004
G1 X111.274 Y102.32 E.01708
G1 X116.63 Y107.676 E.24004
G1 X116.091 Y107.676 E.01708
G1 X110.735 Y102.32 E.24004
G1 X110.196 Y102.32 E.01708
G1 X115.552 Y107.676 E.24004
