; generated by PrusaSlicer 2.5.0+MacOS-x64 on 2022-11-06 at 08:52:51 UTC


;
;

;
;
; 

; external perimeters extrusion width = 0.45mm
; perimeters extrusion width = 0.45mm
; infill extrusion width = 0.45mm
; solid infill extrusion width = 0.45mm
; top infill extrusion width = 0.40mm
; first layer extrusion width = 0.42mm

M73 P0 R98
M201 X9000 Y9000 Z500 E10000 ; sets maximum accelerations, mm/sec^2
M203 X500 Y500 Z12 E120 ; sets maximum feedrates, mm / sec
M204 P2000 R1500 T2000 ; sets acceleration (P, T) and retract acceleration (R), mm/sec^2
M205 X10.00 Y10.00 Z0.20 E4.50 ; sets the jerk limits, mm/sec
M205 S0 T0 ; sets the minimum extruding and travel feed rate, mm/sec
M107
;TYPE:Custom
M83  ; extruder relative mode
M140 S85 ; set bed temp
M109 S160 ; Set extruder temp before bed level
M190 S85 ; wait for bed temp

G28 W ; home all without mesh bed level
G80 N7 ; mesh bed leveling

M109 S240 ; wait for extruder temp

M221 S100 ; Set flow to 100

G1 Y-3.0 F1000.0 ; go outside print area
G92 E0.0
G1 E8 ; Purge Bubble
G1 X60.0 E9.0 F1000.0 ; intro line
G1 X100.0 E12.5 F1000.0 ; intro line
G92 E0.0
G21 ; set units to millimeters
G90 ; use absolute coordinates
M83 ; use relative distances for extrusion
M900 K0.08 ; Filament gcode LA 1.5
M900 K45 ; Filament gcode LA 1.0
M107
;LAYER_CHANGE
;Z:0.2
;HEIGHT:0.2
;BEFORE_LAYER_CHANGE
G92 E0.0
;0.2


M73 P0 R97
G1 E-1 F2100
G1 Z.2 F720
;AFTER_LAYER_CHANGE
;0.2
G1 Z.4
G1 X93.515 Y98.697 F6000
G1 Z.2 F720
G1 E1 F2100
M204 S800
;TYPE:Skirt/Brim
;WIDTH:0.42
G1 F1200
G1 X94.56 Y97.82 E.04278
G1 X95.5 Y97.627 E.03008
G1 X154.5 Y97.627 E1.8499
G1 X155.807 Y98.018 E.04278
G1 X156.683 Y99.064 E.04278
G1 X156.877 Y100.004 E.03008
G1 X156.877 Y109.996 E.31331
G1 X156.485 Y111.303 E.04278
G1 X155.44 Y112.18 E.04278
G1 X154.5 Y112.373 E.03008
G1 X95.5 Y112.373 E1.8499
G1 X94.193 Y111.982 E.04278
G1 X93.317 Y110.936 E.04278
G1 X93.123 Y109.996 E.03008
G1 X93.123 Y100.004 E.31331
G1 X93.497 Y98.754 E.0409
M204 S1000
; printing object divider_middle_horizontal_right.stl id:0 copy 0
;WIPE_START
G1 F4800
G1 X94.56 Y97.82 E-.58808
G1 X95.413 Y97.645 E-.36192
;WIPE_END
G1 E-.05 F2100
G1 Z.4 F720
G1 X96.287 Y100.791 F6000
G1 Z.2 F720
G1 E1 F2100
M204 S800
;TYPE:Perimeter
;WIDTH:0.419999
G1 F1200
G1 X98.851 Y100.791 E.08038
;WIDTH:0.469453
G1 X99.868 Y100.816 E.03609
G1 X100.599 Y100.804 E.02592
;WIDTH:0.4561
G1 X102.502 Y100.791 E.0654
;WIDTH:0.419999
G1 X148.211 Y100.791 E1.43317
;WIDTH:0.449637
G1 X149.224 Y100.806 E.03424
;WIDTH:0.459047
G1 X150.797 Y100.791 E.05444
;WIDTH:0.419999
G1 X153.713 Y100.791 E.09143
G1 X153.713 Y102.541 E.05488
G1 X152.055 Y102.21 E.053
G1 X151.897 Y102.07 E.0066
G1 X151.352 Y101.699 E.02067
G1 X150.728 Y101.423 E.02142
;WIDTH:0.449637
G1 X149.784 Y101.212 E.03269
;WIDTH:0.452437
G1 X149.098 Y101.225 E.02338
G1 X148.164 Y101.462 E.03282
;WIDTH:0.419999
G1 X147.57 Y101.748 E.02068
G1 X147.034 Y102.134 E.02068
G1 X146.574 Y102.606 E.02067
G1 X146.203 Y103.151 E.02068
G1 X145.946 Y103.713 E.01939
G1 X144.188 Y103.722 E.05511
G1 X143.896 Y103.869 E.01027
G1 X143.787 Y104.013 E.00565
G1 X143.72 Y104.279 E.0086
G1 X143.72 Y105 E.02261
G1 X143.734 Y105.845 E.02651
G1 X143.896 Y106.131 E.01029
G1 X144.068 Y106.243 E.00646
G1 X144.286 Y106.287 E.00696
G1 X145.946 Y106.287 E.05204
G1 X146.252 Y106.934 E.02246
G1 X146.637 Y107.469 E.02066
G1 X147.11 Y107.93 E.0207
G1 X147.655 Y108.301 E.02066
G1 X148.256 Y108.571 E.02066
;WIDTH:0.469495
G1 X148.893 Y108.759 E.02358
G1 X149.554 Y108.795 E.02346
;WIDTH:0.464292
G1 X150.214 Y108.738 E.02322
G1 X150.844 Y108.538 E.02316
;WIDTH:0.419999
G1 X151.438 Y108.252 E.02066
G1 X152.055 Y107.79 E.02417
G1 X153.713 Y107.459 E.053
G1 X153.713 Y109.209 E.05488
G1 X150.835 Y109.209 E.09022
;WIDTH:0.469452
G1 X150.132 Y109.184 E.02496
G1 X149.436 Y109.197 E.02471
;WIDTH:0.451962
G1 X148.172 Y109.209 E.04299
;WIDTH:0.419999
G1 X101.475 Y109.209 E1.46413
;WIDTH:0.449637
G1 X100.777 Y109.194 E.02362
;WIDTH:0.455637
G1 X99.517 Y109.209 E.04323
;WIDTH:0.419999
G1 X96.287 Y109.209 E.10128
G1 X96.287 Y107.459 E.05488
G1 X97.945 Y107.79 E.053
G1 X98.103 Y107.93 E.0066
G1 X98.67 Y108.31 E.02141
G1 X99.565 Y108.667 E.03021
;WIDTH:0.449637
G1 X100.216 Y108.788 E.02239
;WIDTH:0.455637
G1 X100.878 Y108.782 E.02274
G1 X101.523 Y108.641 E.02264
;WIDTH:0.419999
G1 X102.16 Y108.395 E.02143
G1 X102.966 Y107.866 E.03021
G1 X103.426 Y107.394 E.02067
G1 X103.797 Y106.849 E.02068
G1 X104.054 Y106.287 E.01939
G1 X105.812 Y106.278 E.05511
G1 X106.104 Y106.131 E.01027
G1 X106.213 Y105.987 E.00565
G1 X106.28 Y105.721 E.0086
G1 X106.266 Y104.155 E.04911
G1 X106.104 Y103.869 E.01029
G1 X105.932 Y103.757 E.00646
G1 X105.714 Y103.713 E.00696
G1 X104.054 Y103.713 E.05204
G1 X103.748 Y103.066 E.02246
G1 X103.363 Y102.531 E.02066
G1 X102.89 Y102.07 E.0207
G1 X102.323 Y101.69 E.02141
;WIDTH:0.461029
G1 X101.866 Y101.489 E.01734
;WIDTH:0.502058
G1 X101.409 Y101.289 E.01905
G1 X100.928 Y101.247 E.01846
;WIDTH:0.473523
G1 X100.446 Y101.205 E.01731
;WIDTH:0.459443
G1 X99.762 Y101.271 E.0238
G1 X98.832 Y101.605 E.03421
;WIDTH:0.419999
G1 X98.123 Y102.056 E.02636
G1 X97.945 Y102.21 E.00738
G1 X96.287 Y102.541 E.053
G1 X96.287 Y100.851 E.053
M204 S1000
;WIPE_START
G1 F4800
G1 X98.572 Y100.797 E-.95
;WIPE_END
G1 E-.05 F2100
G1 Z.4 F720
G1 X105.903 Y105.721 F6000
G1 Z.2 F720
G1 E1 F2100
M204 S800
;TYPE:External perimeter
G1 F1200
G1 X105.903 Y104.279 E.04522
G1 X105.844 Y104.142 E.00466
G1 X105.714 Y104.09 E.00439
G1 X103.772 Y104.09 E.06088
G1 X103.692 Y103.819 E.00887
G1 X103.439 Y103.282 E.01862
G1 X103.096 Y102.798 E.01861
G1 X102.674 Y102.379 E.01864
G1 X102.179 Y102.038 E.01885
G1 X101.355 Y101.704 E.02788
G1 X100.48 Y101.593 E.02765
G1 X99.881 Y101.65 E.01886
G1 X99.035 Y101.923 E.02789
G1 X98.326 Y102.374 E.02636
G1 X98.123 Y102.558 E.00859
G1 X95.91 Y103.001 E.07076
G1 X95.91 Y100.414 E.08112
G1 X154.09 Y100.414 E1.82419
G1 X154.09 Y103.001 E.08112
G1 X151.877 Y102.558 E.07076
G1 X151.681 Y102.379 E.00833
G1 X151.193 Y102.041 E.01862
G1 X150.646 Y101.791 E.01886
G1 X149.784 Y101.604 E.02765
G1 X149.183 Y101.609 E.01886
G1 X148.323 Y101.804 E.02765
G1 X147.786 Y102.057 E.01862
G1 X147.301 Y102.4 E.01862
G1 X146.883 Y102.822 E.01862
G1 X146.545 Y103.31 E.01862
G1 X146.308 Y103.819 E.01759
G1 X146.228 Y104.09 E.00887
G1 X144.286 Y104.09 E.06089
G1 X144.156 Y104.142 E.00439
G1 X144.097 Y104.279 E.00466
G1 X144.097 Y105.721 E.04522
G1 X144.156 Y105.858 E.00466
G1 X144.286 Y105.91 E.00439
G1 X146.228 Y105.91 E.06088
G1 X146.308 Y106.181 E.00887
G1 X146.561 Y106.718 E.01862
G1 X146.904 Y107.202 E.01861
G1 X147.326 Y107.621 E.01864
G1 X147.814 Y107.959 E.01861
G1 X148.353 Y108.207 E.01861
G1 X148.928 Y108.358 E.01865
G1 X149.52 Y108.407 E.01861
G1 X150.111 Y108.353 E.01861
G1 X150.685 Y108.196 E.01865
G1 X151.221 Y107.943 E.01861
G1 X151.877 Y107.442 E.02588
G1 X154.09 Y106.999 E.07076
G1 X154.09 Y109.586 E.08112
G1 X95.91 Y109.586 E1.82419
G1 X95.91 Y106.999 E.08112
G1 X98.123 Y107.442 E.07076
G1 X98.319 Y107.621 E.00833
G1 X98.814 Y107.962 E.01885
G1 X99.63 Y108.295 E.02765
G1 X100.216 Y108.396 E.01862
G1 X100.81 Y108.393 E.01863
G1 X101.394 Y108.287 E.01862
G1 X101.958 Y108.077 E.01886
G1 X102.699 Y107.6 E.02765
G1 X103.117 Y107.178 E.01861
G1 X103.455 Y106.69 E.01862
G1 X103.692 Y106.181 E.01759
G1 X103.772 Y105.91 E.00887
G1 X105.714 Y105.91 E.06088
G1 X105.844 Y105.858 E.00439
G1 X105.879 Y105.776 E.00278
M204 S1000
G1 X106.289 Y105.618 F6000
;WIPE_START
G1 F4800
G1 X105.903 Y104.279 E-.6224
G1 X105.844 Y104.142 E-.06174
G1 X105.714 Y104.09 E-.05821
G1 X105.214 Y104.09 E-.20765
;WIPE_END
G1 E-.05 F2100
G1 Z.4 F720
G1 X97.771 Y107.871 F6000
G1 Z.2 F720
G1 E1 F2100
M204 S800
;TYPE:Solid infill
;WIDTH:0.456803
G1 F1200
G1 X98.827 Y108.926 E.05136
G1 X98.241 Y108.926 E.02014
G1 X97.256 Y107.941 E.04795
G1 X96.57 Y107.804 E.02408
G1 X96.57 Y107.84 E.00125
G1 X97.656 Y108.926 E.05286
G1 X97.071 Y108.926 E.02014
G1 X96.4 Y108.256 E.03263
M204 S1000
;WIPE_START
G1 F4800
G1 X97.071 Y108.926 E-.39412
G1 X97.656 Y108.926 E-.24327
G1 X97.124 Y108.395 E-.31261
;WIPE_END
G1 E-.05 F2100
G1 Z.4 F720
G1 X98.562 Y100.904 F6000
G1 Z.2 F720
G1 E1 F2100
M204 S800
;WIDTH:0.445791
G1 F1200
G1 X98.918 Y101.259 E.01683
G1 X98.686 Y101.363 E.00851
G1 X98.543 Y101.454 E.00568
G1 X98.162 Y101.074 E.01802
G1 X97.593 Y101.074 E.01909
G1 X98.195 Y101.676 E.02852
G1 X97.859 Y101.91 E.01371
G1 X97.023 Y101.074 E.03962
G1 X96.57 Y101.074 E.01518
G1 X96.57 Y101.19 E.00391
G1 X97.408 Y102.028 E.03971
G1 X96.933 Y102.123 E.01622
G1 X96.4 Y101.59 E.02525
M204 S1000
;WIPE_START
G1 F4800
G1 X96.933 Y102.123 E-.31332
G1 X97.408 Y102.028 E-.20124
G1 X96.667 Y101.288 E-.43544
;WIPE_END
G1 E-.05 F2100
G1 Z.4 F720
G1 X147.744 Y100.904 F6000
G1 Z.2 F720
G1 E1 F2100
M204 S800
;WIDTH:0.422289
G1 F1200
G1 X148.045 Y101.205 E.01344
G1 X147.684 Y101.381 E.01266
G1 X147.377 Y101.074 E.0137
G1 X146.841 Y101.074 E.01692
G1 X147.335 Y101.568 E.02204
G1 X147.019 Y101.789 E.01215
G1 X146.304 Y101.074 E.0319
G1 X145.768 Y101.074 E.01692
G1 X146.739 Y102.045 E.04334
G1 X146.471 Y102.313 E.01197
G1 X145.231 Y101.074 E.05531
G1 X144.695 Y101.074 E.01692
G1 X146.228 Y102.607 E.06842
G1 X146.008 Y102.923 E.01216
G1 X144.158 Y101.074 E.08252
G1 X143.622 Y101.074 E.01692
G1 X145.833 Y103.285 E.09863
G1 X145.762 Y103.431 E.00512
G1 X145.442 Y103.431 E.01009
G1 X143.085 Y101.074 E.10514
G1 X142.549 Y101.074 E.01692
G1 X144.905 Y103.431 E.10514
G1 X144.369 Y103.431 E.01692
G1 X142.012 Y101.074 E.10514
G1 X141.475 Y101.074 E.01692
G1 X143.921 Y103.519 E.1091
G1 X143.701 Y103.663 E.0083
G1 X143.626 Y103.761 E.00388
G1 X140.939 Y101.074 E.11988
G1 X140.402 Y101.074 E.01692
G1 X143.454 Y104.125 E.13613
G1 X143.438 Y104.645 E.01641
G1 X139.866 Y101.074 E.15933
G1 X139.329 Y101.074 E.01692
G1 X143.607 Y105.351 E.19083
M204 S1000
;WIPE_START
G1 F4800
G1 X141.991 Y103.735 E-.95
;WIPE_END
G1 E-.05 F2100
G1 Z.4 F720
G1 X147.842 Y108.513 F6000
G1 Z.2 F720
G1 E1 F2100
M204 S800
G1 F1200
G1 X148.25 Y108.921 E.01821
G1 X147.719 Y108.926 E.01674
G1 X145.362 Y106.569 E.10514
G1 X144.825 Y106.569 E.01692
G1 X147.182 Y108.926 E.10514
G1 X146.646 Y108.926 E.01692
G1 X144.289 Y106.569 E.10514
G1 X143.96 Y106.506 E.01058
G1 X143.701 Y106.337 E.00975
G1 X143.537 Y106.122 E.00853
G1 X143.458 Y105.909 E.00718
G1 X143.438 Y105.718 E.00604
G1 X138.793 Y101.074 E.2072
G1 X138.256 Y101.074 E.01692
G1 X146.109 Y108.926 E.35032
G1 X145.573 Y108.926 E.01692
G1 X137.72 Y101.074 E.35032
G1 X137.183 Y101.074 E.01692
G1 X145.036 Y108.926 E.35032
G1 X144.5 Y108.926 E.01692
G1 X136.647 Y101.074 E.35032
G1 X136.11 Y101.074 E.01692
G1 X143.963 Y108.926 E.35032
G1 X143.427 Y108.926 E.01692
G1 X135.574 Y101.074 E.35032
G1 X135.037 Y101.074 E.01692
G1 X142.89 Y108.926 E.35032
G1 X142.354 Y108.926 E.01692
G1 X134.501 Y101.074 E.35032
G1 X133.964 Y101.074 E.01692
G1 X141.817 Y108.926 E.35032
G1 X141.281 Y108.926 E.01692
G1 X133.428 Y101.074 E.35032
G1 X132.891 Y101.074 E.01692
G1 X140.744 Y108.926 E.35032
G1 X140.208 Y108.926 E.01692
G1 X132.355 Y101.074 E.35032
G1 X131.818 Y101.074 E.01692
G1 X139.671 Y108.926 E.35032
G1 X139.135 Y108.926 E.01692
G1 X131.282 Y101.074 E.35032
G1 X130.745 Y101.074 E.01692
G1 X138.598 Y108.926 E.35032
G1 X138.062 Y108.926 E.01692
G1 X130.209 Y101.074 E.35032
G1 X129.672 Y101.074 E.01692
G1 X137.525 Y108.926 E.35032
G1 X136.989 Y108.926 E.01692
G1 X129.136 Y101.074 E.35032
G1 X128.599 Y101.074 E.01692
G1 X136.452 Y108.926 E.35032
G1 X135.916 Y108.926 E.01692
G1 X128.063 Y101.074 E.35032
G1 X127.526 Y101.074 E.01692
G1 X135.379 Y108.926 E.35032
G1 X134.843 Y108.926 E.01692
G1 X126.99 Y101.074 E.35032
G1 X126.453 Y101.074 E.01692
G1 X134.306 Y108.926 E.35032
G1 X133.77 Y108.926 E.01692
G1 X125.917 Y101.074 E.35032
G1 X125.38 Y101.074 E.01692
G1 X133.233 Y108.926 E.35032
G1 X132.697 Y108.926 E.01692
G1 X124.844 Y101.074 E.35032
G1 X124.307 Y101.074 E.01692
G1 X132.16 Y108.926 E.35032
G1 X131.624 Y108.926 E.01692
G1 X123.771 Y101.074 E.35032
G1 X123.234 Y101.074 E.01692
G1 X131.087 Y108.926 E.35032
G1 X130.551 Y108.926 E.01692
G1 X122.698 Y101.074 E.35032
G1 X122.161 Y101.074 E.01692
G1 X130.014 Y108.926 E.35032
G1 X129.478 Y108.926 E.01692
G1 X121.625 Y101.074 E.35032
G1 X121.088 Y101.074 E.01692
M73 P1 R97
G1 X128.941 Y108.926 E.35032
G1 X128.405 Y108.926 E.01692
G1 X120.552 Y101.074 E.35032
G1 X120.015 Y101.074 E.01692
G1 X127.868 Y108.926 E.35032
G1 X127.331 Y108.926 E.01692
G1 X119.479 Y101.074 E.35032
G1 X118.942 Y101.074 E.01692
M73 P1 R96
G1 X126.795 Y108.926 E.35032
G1 X126.258 Y108.926 E.01692
G1 X118.406 Y101.074 E.35032
G1 X117.869 Y101.074 E.01692
G1 X125.722 Y108.926 E.35032
G1 X125.185 Y108.926 E.01692
G1 X117.333 Y101.074 E.35032
G1 X116.796 Y101.074 E.01692
G1 X124.649 Y108.926 E.35032
G1 X124.112 Y108.926 E.01692
G1 X116.26 Y101.074 E.35032
G1 X115.723 Y101.074 E.01692
G1 X123.576 Y108.926 E.35032
G1 X123.039 Y108.926 E.01692
G1 X115.187 Y101.074 E.35032
G1 X114.65 Y101.074 E.01692
G1 X122.503 Y108.926 E.35032
G1 X121.966 Y108.926 E.01692
G1 X114.114 Y101.074 E.35032
G1 X113.577 Y101.074 E.01692
G1 X121.43 Y108.926 E.35032
G1 X120.893 Y108.926 E.01692
G1 X113.041 Y101.074 E.35032
G1 X112.504 Y101.074 E.01692
G1 X120.357 Y108.926 E.35032
G1 X119.82 Y108.926 E.01692
G1 X111.968 Y101.074 E.35032
G1 X111.431 Y101.074 E.01692
G1 X119.284 Y108.926 E.35032
G1 X118.747 Y108.926 E.01692
G1 X110.894 Y101.074 E.35032
G1 X110.358 Y101.074 E.01692
G1 X118.211 Y108.926 E.35032
G1 X117.674 Y108.926 E.01692
G1 X109.821 Y101.074 E.35032
G1 X109.285 Y101.074 E.01692
G1 X117.138 Y108.926 E.35032
G1 X116.601 Y108.926 E.01692
G1 X108.748 Y101.074 E.35032
G1 X108.212 Y101.074 E.01692
G1 X116.065 Y108.926 E.35032
G1 X115.528 Y108.926 E.01692
G1 X107.675 Y101.074 E.35032
G1 X107.139 Y101.074 E.01692
G1 X114.992 Y108.926 E.35032
G1 X114.455 Y108.926 E.01692
G1 X106.602 Y101.074 E.35032
G1 X106.066 Y101.074 E.01692
G1 X113.919 Y108.926 E.35032
G1 X113.382 Y108.926 E.01692
G1 X105.529 Y101.074 E.35032
G1 X104.993 Y101.074 E.01692
G1 X112.846 Y108.926 E.35032
G1 X112.309 Y108.926 E.01692
G1 X104.456 Y101.074 E.35032
G1 X103.92 Y101.074 E.01692
G1 X111.773 Y108.926 E.35032
G1 X111.236 Y108.926 E.01692
G1 X106.56 Y104.25 E.20862
G1 X106.542 Y104.091 E.00503
G1 X106.463 Y103.878 E.00718
G1 X106.299 Y103.663 E.00853
G1 X106.04 Y103.494 E.00975
G1 X105.745 Y103.435 E.00952
G1 X103.383 Y101.074 E.10533
G1 X102.847 Y101.074 E.01692
G1 X105.204 Y103.431 E.10514
G1 X104.667 Y103.431 E.01692
G1 X102.318 Y101.082 E.10479
G1 X101.808 Y101.103 E.01612
G1 X102.227 Y101.527 E.01881
M204 S1000
;WIPE_START
G1 F4800
G1 X101.808 Y101.103 E-.24786
G1 X102.318 Y101.082 E-.2124
G1 X103.152 Y101.915 E-.48974
;WIPE_END
G1 E-.05 F2100
G1 Z.4 F720
G1 X106.393 Y104.619 F6000
G1 Z.2 F720
G1 E1 F2100
M204 S800
G1 F1200
G1 X110.7 Y108.926 E.19214
G1 X110.163 Y108.926 E.01692
G1 X106.562 Y105.326 E.16063
G1 X106.549 Y105.849 E.0165
G1 X109.627 Y108.926 E.1373
G1 X109.09 Y108.926 E.01692
G1 X106.386 Y106.223 E.12062
G1 X106.299 Y106.337 E.00454
G1 X106.097 Y106.469 E.00763
G1 X108.554 Y108.926 E.10961
G1 X108.017 Y108.926 E.01692
G1 X105.66 Y106.569 E.10514
G1 X105.124 Y106.569 E.01692
G1 X107.481 Y108.926 E.10514
G1 X106.944 Y108.926 E.01692
G1 X104.587 Y106.569 E.10514
G1 X104.238 Y106.569 E.011
G1 X104.177 Y106.696 E.00443
G1 X106.408 Y108.926 E.09951
G1 X105.871 Y108.926 E.01692
G1 X104.002 Y107.057 E.0834
G1 X103.784 Y107.376 E.01218
G1 X105.335 Y108.926 E.06918
G1 X104.798 Y108.926 E.01692
G1 X103.545 Y107.674 E.05589
G1 X103.282 Y107.946 E.01197
G1 X104.262 Y108.926 E.04372
G1 X103.725 Y108.926 E.01692
G1 X102.997 Y108.198 E.0325
G1 X102.669 Y108.407 E.01226
G1 X103.189 Y108.926 E.02319
G1 X102.652 Y108.926 E.01692
G1 X102.341 Y108.615 E.01388
G1 X102.151 Y108.714 E.00673
G1 X101.969 Y108.78 E.00612
G1 X102.285 Y109.096 E.01411
M204 S1000
;WIPE_START
G1 F4800
G1 X101.969 Y108.78 E-.18586
G1 X102.151 Y108.714 E-.08068
G1 X102.341 Y108.615 E-.08872
G1 X102.652 Y108.926 E-.18286
G1 X103.189 Y108.926 E-.22299
G1 X102.867 Y108.605 E-.1889
;WIPE_END
G1 E-.05 F2100
G1 Z.4 F720
