; generated by PrusaSlicer 2.5.0+MacOS-x64 on 2022-11-05 at 21:05:20 UTC


;
;

;
;
; 

; external perimeters extrusion width = 0.45mm
; perimeters extrusion width = 0.45mm
; infill extrusion width = 0.45mm
; solid infill extrusion width = 0.45mm
; top infill extrusion width = 0.40mm
; first layer extrusion width = 0.42mm

M73 P0 R100
M201 X9000 Y9000 Z500 E10000 ; sets maximum accelerations, mm/sec^2
M203 X500 Y500 Z12 E120 ; sets maximum feedrates, mm / sec
M204 P2000 R1500 T2000 ; sets acceleration (P, T) and retract acceleration (R), mm/sec^2
M205 X10.00 Y10.00 Z0.20 E4.50 ; sets the jerk limits, mm/sec
M205 S0 T0 ; sets the minimum extruding and travel feed rate, mm/sec
M107
;TYPE:Custom
M83  ; extruder relative mode
M140 S85 ; set bed temp
M109 S160 ; Set extruder temp before bed level
M190 S85 ; wait for bed temp

G28 W ; home all without mesh bed level
G80 N7 ; mesh bed leveling

M109 S240 ; wait for extruder temp

M221 S100 ; Set flow to 100

G1 Y-3.0 F1000.0 ; go outside print area
G92 E0.0
G1 E8 ; Purge Bubble
G1 X60.0 E9.0 F1000.0 ; intro line
G1 X100.0 E12.5 F1000.0 ; intro line
G92 E0.0
G21 ; set units to millimeters
G90 ; use absolute coordinates
M83 ; use relative distances for extrusion
M900 K0.08 ; Filament gcode LA 1.5
M900 K45 ; Filament gcode LA 1.0
M107
;LAYER_CHANGE
;Z:0.2
;HEIGHT:0.2
;BEFORE_LAYER_CHANGE
G92 E0.0
;0.2


G1 E-1 F2100
G1 Z.2 F720
;AFTER_LAYER_CHANGE
;0.2
G1 Z.4
G1 X93.515 Y99.943 F6000
G1 Z.2 F720
G1 E1 F2100
M204 S800
;TYPE:Skirt/Brim
;WIDTH:0.42
G1 F1200
G1 X94.56 Y99.067 E.04278
G1 X95.5 Y98.873 E.03008
G1 X154.5 Y98.873 E1.8499
G1 X155.807 Y99.265 E.04278
G1 X156.683 Y100.31 E.04278
G1 X156.877 Y101.25 E.03008
G1 X156.877 Y108.746 E.23504
G1 X156.485 Y110.053 E.04278
G1 X155.44 Y110.93 E.04278
G1 X154.5 Y111.123 E.03008
G1 X95.5 Y111.123 E1.8499
G1 X94.193 Y110.732 E.04278
G1 X93.317 Y109.686 E.04278
G1 X93.123 Y108.746 E.03008
G1 X93.123 Y101.25 E.23504
G1 X93.497 Y100 E.0409
M204 S1000
; printing object divider_border_top_right.stl id:0 copy 0
;WIPE_START
G1 F4800
G1 X94.56 Y99.067 E-.58808
G1 X95.413 Y98.891 E-.36192
;WIPE_END
G1 E-.05 F2100
G1 Z.4 F720
G1 X100.974 Y102.019 F6000
G1 Z.2 F720
G1 E1 F2100
M204 S800
;TYPE:Perimeter
;WIDTH:0.419999
G1 F1200
G1 X101.501 Y102.037 E.01651
G1 X148.525 Y102.037 E1.47442
G1 X148.86 Y102.023 E.0105
;WIDTH:0.391229
G1 X149.194 Y102.008 E.0097
;WIDTH:0.365926
G1 X149.17 Y102.011 E.00065
;WIDTH:0.392963
G1 X148.852 Y102.068 E.00939
;WIDTH:0.419999
G1 X148.535 Y102.125 E.01012
G1 X148.028 Y102.346 E.01733
G1 X147.59 Y102.642 E.01658
G1 X147.21 Y103.01 E.01659
G1 X146.9 Y103.438 E.01658
G1 X146.725 Y103.836 E.01364
G1 X145.533 Y103.836 E.03736
G1 X145.267 Y103.903 E.0086
G1 X145.08 Y104.063 E.00769
G1 X144.99 Y104.244 E.00634
G1 X144.967 Y104.402 E.00502
G1 X144.967 Y104.998 E.01869
G1 X144.99 Y105.753 E.02367
G1 X145.08 Y105.934 E.00634
G1 X145.267 Y106.094 E.00769
G1 X145.533 Y106.16 E.0086
G1 X146.724 Y106.16 E.03736
G1 X146.914 Y106.577 E.01436
G1 X147.411 Y107.194 E.02484
G1 X148.028 Y107.651 E.02408
G1 X148.511 Y107.866 E.01657
G1 X149.025 Y107.977 E.01651
G1 X148.499 Y107.959 E.01653
G1 X101.364 Y107.959 E1.47787
G1 X101.085 Y107.974 E.00875
;WIDTH:0.39121
G1 X100.807 Y107.988 E.00808
G1 X101.08 Y107.948 E.00801
;WIDTH:0.419999
G1 X101.353 Y107.907 E.00867
G1 X101.95 Y107.66 E.02024
G1 X102.41 Y107.354 E.01733
G1 X102.79 Y106.986 E.01659
G1 X103.1 Y106.558 E.01658
G1 X103.275 Y106.16 E.01363
G1 X104.467 Y106.16 E.03736
G1 X104.733 Y106.094 E.0086
G1 X104.92 Y105.934 E.00769
G1 X105.01 Y105.753 E.00634
G1 X105.033 Y105.594 E.00502
G1 X105.033 Y104.998 E.0187
G1 X105.01 Y104.244 E.02367
G1 X104.92 Y104.063 E.00634
G1 X104.733 Y103.903 E.00769
G1 X104.467 Y103.836 E.0086
G1 X103.275 Y103.836 E.03736
G1 X103.086 Y103.419 E.01437
G1 X102.608 Y102.818 E.02408
G1 X102.176 Y102.473 E.01735
G1 X101.488 Y102.13 E.02408
G1 X101.033 Y102.032 E.01461
M204 S1000
;WIPE_START
G1 F4800
G1 X101.501 Y102.037 E-.19439
G1 X103.319 Y102.037 E-.75561
;WIPE_END
G1 E-.05 F2100
G1 Z.4 F720
G1 X150.528 Y102.088 F6000
G1 Z.2 F720
G1 E1 F2100
M204 S800
;WIDTH:0.522692
G1 F1200
G1 X151.466 Y102.088 E.03741
;WIDTH:0.560282
G1 X151.97 Y102.107 E.0217
;WIDTH:0.597871
G1 X152.474 Y102.126 E.02327
G1 X152.574 Y102.104 E.00471
;WIDTH:0.553403
G1 X152.674 Y102.082 E.00434
;WIDTH:0.508935
G1 X152.773 Y102.059 E.00396
;WIDTH:0.464467
G1 X152.873 Y102.037 E.00358
;WIDTH:0.419999
G1 X153.713 Y102.037 E.02634
G1 X153.713 Y102.96 E.02893
G1 X152.814 Y102.825 E.02849
;WIDTH:0.464467
G1 X152.719 Y102.788 E.00358
;WIDTH:0.508935
G1 X152.624 Y102.751 E.00396
;WIDTH:0.553403
G1 X152.528 Y102.715 E.00434
;WIDTH:0.597871
G1 X152.433 Y102.678 E.00471
G1 X151.932 Y102.622 E.02327
;WIDTH:0.560282
G1 X151.431 Y102.566 E.0217
;WIDTH:0.522692
G1 X150.998 Y102.299 E.02025
G1 X150.583 Y102.113 E.01815
M204 S1000
;WIPE_START
G1 F4800
G1 X151.466 Y102.088 E-.36709
G1 X151.97 Y102.107 E-.20962
G1 X152.474 Y102.126 E-.20962
G1 X152.574 Y102.104 E-.04246
G1 X152.674 Y102.082 E-.04247
G1 X152.773 Y102.059 E-.04247
G1 X152.858 Y102.04 E-.03627
;WIPE_END
G1 E-.05 F2100
G1 Z.4 F720
G1 X150.476 Y107.907 F6000
G1 Z.2 F720
G1 E1 F2100
M204 S800
;WIDTH:0.524237
G1 F1200
G1 X150.856 Y107.772 E.01611
G1 X151.452 Y107.428 E.02756
;WIDTH:0.561054
G1 X151.943 Y107.373 E.02128
;WIDTH:0.597871
G1 X152.434 Y107.318 E.02279
G1 X152.529 Y107.282 E.00471
;WIDTH:0.553403
G1 X152.625 Y107.245 E.00434
;WIDTH:0.508935
G1 X152.72 Y107.208 E.00396
;WIDTH:0.464467
G1 X152.815 Y107.171 E.00358
;WIDTH:0.419999
G1 X153.713 Y107.037 E.02846
G1 X153.713 Y107.959 E.02893
G1 X152.874 Y107.959 E.0263
;WIDTH:0.464467
G1 X152.774 Y107.937 E.00358
;WIDTH:0.508935
G1 X152.675 Y107.915 E.00396
;WIDTH:0.553403
G1 X152.575 Y107.893 E.00434
;WIDTH:0.597871
G1 X152.475 Y107.87 E.00471
G1 X151.982 Y107.889 E.02279
;WIDTH:0.561054
G1 X151.488 Y107.907 E.02128
;WIDTH:0.524237
G1 X150.536 Y107.907 E.03808
M204 S1000
;WIPE_START
G1 F4800
G1 X150.856 Y107.772 E-.144
G1 X151.452 Y107.428 E-.28623
G1 X151.943 Y107.373 E-.20529
G1 X152.434 Y107.318 E-.20529
G1 X152.529 Y107.282 E-.04246
G1 X152.625 Y107.245 E-.04247
G1 X152.679 Y107.224 E-.02426
;WIPE_END
G1 E-.05 F2100
G1 Z.4 F720
G1 X99.471 Y107.908 F6000
G1 Z.2 F720
G1 E1 F2100
M204 S800
;WIDTH:0.522626
G1 F1200
G1 X98.534 Y107.908 E.03739
;WIDTH:0.560249
G1 X98.029 Y107.889 E.02171
;WIDTH:0.597871
G1 X97.525 Y107.87 E.02329
G1 X97.425 Y107.893 E.00471
;WIDTH:0.553403
G1 X97.326 Y107.915 E.00434
;WIDTH:0.508935
G1 X97.226 Y107.937 E.00396
;WIDTH:0.464467
G1 X97.126 Y107.959 E.00358
;WIDTH:0.419999
G1 X96.287 Y107.959 E.02631
G1 X96.287 Y107.037 E.02893
G1 X97.185 Y107.171 E.02847
;WIDTH:0.464467
G1 X97.28 Y107.208 E.00358
;WIDTH:0.508935
G1 X97.376 Y107.245 E.00396
;WIDTH:0.553403
G1 X97.471 Y107.282 E.00434
;WIDTH:0.597871
G1 X97.566 Y107.318 E.00471
G1 X98.068 Y107.375 E.02329
;WIDTH:0.560249
G1 X98.569 Y107.431 E.02171
;WIDTH:0.522626
G1 X99.002 Y107.697 E.02026
G1 X99.417 Y107.883 E.01813
M204 S1000
;WIPE_START
G1 F4800
G1 X98.534 Y107.908 E-.36703
G1 X98.029 Y107.889 E-.2098
G1 X97.525 Y107.87 E-.20981
G1 X97.425 Y107.893 E-.04246
G1 X97.326 Y107.915 E-.04247
G1 X97.226 Y107.937 E-.04247
G1 X97.141 Y107.956 E-.03597
;WIPE_END
G1 E-.05 F2100
G1 Z.4 F720
G1 X99.524 Y102.089 F6000
G1 Z.2 F720
G1 E1 F2100
M204 S800
;WIDTH:0.524337
G1 F1200
G1 X99.144 Y102.224 E.01613
G1 X98.548 Y102.568 E.02756
;WIDTH:0.561104
G1 X98.057 Y102.623 E.02126
;WIDTH:0.597871
G1 X97.567 Y102.678 E.02276
G1 X97.472 Y102.715 E.00471
;WIDTH:0.553403
G1 X97.376 Y102.751 E.00434
;WIDTH:0.508935
G1 X97.281 Y102.788 E.00396
;WIDTH:0.464467
G1 X97.186 Y102.825 E.00358
;WIDTH:0.419999
G1 X96.287 Y102.96 E.02849
G1 X96.287 Y102.037 E.02893
G1 X97.127 Y102.037 E.02634
;WIDTH:0.464467
G1 X97.227 Y102.059 E.00358
;WIDTH:0.508935
G1 X97.326 Y102.082 E.00396
;WIDTH:0.553403
G1 X97.426 Y102.104 E.00434
;WIDTH:0.597871
G1 X97.526 Y102.126 E.00471
G1 X98.019 Y102.108 E.02276
;WIDTH:0.561104
G1 X98.512 Y102.089 E.02126
;WIDTH:0.524337
G1 X99.464 Y102.089 E.0381
M204 S1000
;WIPE_START
G1 F4800
G1 X99.144 Y102.224 E-.14418
G1 X98.548 Y102.568 E-.28613
G1 X98.057 Y102.623 E-.20503
G1 X97.567 Y102.678 E-.20503
G1 X97.472 Y102.715 E-.04246
G1 X97.376 Y102.751 E-.04246
G1 X97.321 Y102.773 E-.0247
;WIPE_END
G1 E-.05 F2100
G1 Z.4 F720
G1 X104.467 Y104.213 F6000
G1 Z.2 F720
G1 E1 F2100
M204 S800
;TYPE:External perimeter
;WIDTH:0.419999
G1 F1200
G1 X103.02 Y104.213 E.04537
G1 X102.787 Y103.649 E.01916
G1 X102.394 Y103.136 E.02024
G1 X102.002 Y102.807 E.01607
G1 X101.429 Y102.509 E.02024
G1 X100.975 Y102.383 E.01477
G1 X100.514 Y102.34 E.01453
G1 X100.012 Y102.385 E.01581
G1 X99.359 Y102.596 E.02152
G1 X98.789 Y102.966 E.02128
G1 X95.91 Y103.398 E.09129
G1 X95.91 Y101.66 E.05448
G1 X154.09 Y101.66 E1.82419
G1 X154.09 Y103.398 E.05448
G1 X151.206 Y102.965 E.09144
G1 X150.848 Y102.706 E.01385
G1 X150.427 Y102.506 E.01461
G1 X149.94 Y102.377 E.01581
G1 X149.246 Y102.353 E.02177
G1 X148.616 Y102.493 E.02022
G1 X148.188 Y102.688 E.01477
G1 X147.806 Y102.951 E.01453
G1 X147.477 Y103.277 E.01453
G1 X147.188 Y103.693 E.01588
G1 X146.98 Y104.213 E.01758
G1 X145.533 Y104.213 E.04537
G1 X145.382 Y104.289 E.00529
G1 X145.344 Y104.402 E.00374
G1 X145.344 Y105.594 E.03739
G1 X145.382 Y105.708 E.00374
G1 X145.533 Y105.783 E.00529
G1 X146.98 Y105.783 E.04537
G1 X147.213 Y106.348 E.01915
G1 X147.641 Y106.895 E.02177
G1 X148.153 Y107.288 E.02024
G1 X148.578 Y107.491 E.01477
G1 X149.024 Y107.613 E.01453
G1 X149.486 Y107.657 E.01453
G1 X149.988 Y107.611 E.01581
G1 X150.641 Y107.4 E.02152
G1 X151.211 Y107.031 E.02129
G1 X154.09 Y106.599 E.09129
G1 X154.09 Y108.336 E.05448
G1 X95.91 Y108.336 E1.82419
G1 X95.91 Y106.599 E.05448
G1 X98.794 Y107.031 E.09144
G1 X99.152 Y107.291 E.01386
G1 X99.573 Y107.491 E.01461
G1 X100.06 Y107.62 E.01581
G1 X100.713 Y107.648 E.02049
G1 X101.209 Y107.559 E.01579
G1 X101.805 Y107.312 E.02024
G1 X102.194 Y107.045 E.01477
G1 X102.523 Y106.72 E.01453
G1 X102.812 Y106.303 E.01588
G1 X103.02 Y105.783 E.01757
G1 X104.467 Y105.783 E.04537
G1 X104.618 Y105.708 E.00529
G1 X104.656 Y105.594 E.00374
G1 X104.656 Y104.402 E.03739
G1 X104.618 Y104.289 E.00374
G1 X104.521 Y104.24 E.00341
M204 S1000
G1 X104.364 Y103.827 F6000
;WIPE_START
G1 F4800
G1 X103.02 Y104.213 E-.62387
G1 X102.787 Y103.649 E-.25396
G1 X102.681 Y103.511 E-.07218
;WIPE_END
G1 E-.05 F2100
G1 Z.4 F720
G1 X149.194 Y102.008 F6000
G1 Z.2 F720
G1 E1 F2100
M204 S800
;TYPE:Perimeter
;WIDTH:0.383002
G1 F1200
G1 X149.956 Y102.019 E.02153
;WIDTH:0.401452
G1 X150.076 Y102.028 E.00359
M204 S1000
;WIPE_START
G1 F4800
G1 X149.956 Y102.019 E-.05011
G1 X149.194 Y102.008 E-.31647
;WIPE_END
G1 E-.63342 F2100
G1 Z.4 F720
G1 X150.026 Y107.974 F6000
G1 Z.2 F720
G1 E1 F2100
M204 S800
;WIDTH:0.390562
G1 F1200
G1 X149.502 Y107.997 E.01517
;WIDTH:0.384438
G1 X149.025 Y107.977 E.01355
M204 S1000
;WIPE_START
G1 F4800
G1 X149.502 Y107.997 E-.19835
G1 X150.026 Y107.974 E-.21808
;WIPE_END
G1 E-.58357 F2100
G1 Z.4 F720
G1 X99.925 Y107.969 F6000
G1 Z.2 F720
G1 E1 F2100
M204 S800
;WIDTH:0.40126
G1 F1200
G1 X100.69 Y107.992 E.02282
;WIDTH:0.36242
G1 X100.807 Y107.988 E.00309
M204 S1000
;WIPE_START
G1 F4800
G1 X100.69 Y107.992 E-.0484
G1 X99.925 Y107.969 E-.31836
;WIPE_END
G1 E-.63324 F2100
G1 Z.4 F720
G1 X99.973 Y102.022 F6000
G1 Z.2 F720
G1 E1 F2100
M204 S800
;WIDTH:0.39073
G1 F1200
G1 X100.498 Y102 E.01518
;WIDTH:0.38453
G1 X100.974 Y102.019 E.01356
M204 S1000
;WIPE_START
G1 F4800
G1 X100.498 Y102 E-.19834
G1 X99.973 Y102.022 E-.21809
;WIPE_END
G1 E-.58357 F2100
G1 Z.4 F720
G1 X96.583 Y102.15 F6000
G1 Z.2 F720
G1 E1 F2100
M204 S800
;TYPE:Solid infill
;WIDTH:0.468269
G1 F1200
G1 X97.149 Y102.716 E.02831
M204 S1000
;WIPE_START
G1 F4800
G1 X96.583 Y102.15 E-.33265
;WIPE_END
G1 E-.66735 F2100
G1 Z.4 F720
G1 X96.4 Y107.244 F6000
G1 Z.2 F720
G1 E1 F2100
M204 S800
;WIDTH:0.495415
G1 F1200
G1 X97.002 Y107.846 E.03202
M204 S1000
;WIPE_START
G1 F4800
G1 X96.4 Y107.244 E-.35369
;WIPE_END
G1 E-.64631 F2100
G1 Z.4 F720
G1 X146.864 Y102.15 F6000
G1 Z.2 F720
G1 E1 F2100
M204 S800
;WIDTH:0.422792
G1 F1200
G1 X147.272 Y102.558 E.01824
G1 X146.999 Y102.823 E.012
G1 X146.496 Y102.32 E.02247
G1 X145.959 Y102.32 E.01697
G1 X146.773 Y103.133 E.03633
G1 X146.658 Y103.29 E.00611
G1 X146.574 Y103.472 E.00635
G1 X145.422 Y102.32 E.05147
G1 X144.885 Y102.32 E.01697
G1 X146.123 Y103.558 E.05531
G1 X145.591 Y103.563 E.01681
G1 X144.348 Y102.32 E.05553
G1 X143.81 Y102.32 E.01697
G1 X145.14 Y103.65 E.05941
G1 X144.85 Y103.897 E.01204
G1 X143.273 Y102.32 E.07045
G1 X142.736 Y102.32 E.01697
G1 X144.7 Y104.284 E.08775
G1 X144.684 Y104.806 E.01648
G1 X142.199 Y102.32 E.11104
G1 X141.662 Y102.32 E.01697
G1 X144.854 Y105.512 E.14261
M204 S1000
;WIPE_START
G1 F4800
G1 X143.238 Y103.896 E-.95
;WIPE_END
G1 E-.05 F2100
G1 Z.4 F720
G1 X146.152 Y106.273 F6000
G1 Z.2 F720
G1 E1 F2100
M204 S800
G1 F1200
G1 X147.54 Y107.676 E.06234
G1 X147.018 Y107.676 E.01648
G1 X145.615 Y106.273 E.06268
M204 S1000
;WIPE_START
G1 F4800
G1 X147.018 Y107.676 E-.82479
G1 X147.319 Y107.676 E-.12521
;WIPE_END
G1 E-.05 F2100
G1 Z.4 F720
G1 X146.651 Y107.846 F6000
G1 Z.2 F720
G1 E1 F2100
M204 S800
G1 F1200
G1 X141.124 Y102.32 E.24686
G1 X140.587 Y102.32 E.01697
G1 X145.944 Y107.676 E.23928
G1 X145.406 Y107.676 E.01697
G1 X140.05 Y102.32 E.23928
G1 X139.513 Y102.32 E.01697
G1 X144.869 Y107.676 E.23928
G1 X144.332 Y107.676 E.01697
G1 X138.975 Y102.32 E.23928
G1 X138.438 Y102.32 E.01697
G1 X143.795 Y107.676 E.23928
G1 X143.258 Y107.676 E.01697
G1 X137.901 Y102.32 E.23928
G1 X137.364 Y102.32 E.01697
G1 X142.72 Y107.676 E.23928
G1 X142.183 Y107.676 E.01697
G1 X136.827 Y102.32 E.23928
G1 X136.289 Y102.32 E.01697
G1 X141.646 Y107.676 E.23928
G1 X141.109 Y107.676 E.01697
G1 X135.752 Y102.32 E.23928
G1 X135.215 Y102.32 E.01697
G1 X140.571 Y107.676 E.23928
G1 X140.034 Y107.676 E.01697
G1 X134.678 Y102.32 E.23928
G1 X134.14 Y102.32 E.01697
G1 X139.497 Y107.676 E.23928
G1 X138.96 Y107.676 E.01697
G1 X133.603 Y102.32 E.23928
G1 X133.066 Y102.32 E.01697
G1 X138.423 Y107.676 E.23928
G1 X137.885 Y107.676 E.01697
G1 X132.529 Y102.32 E.23928
G1 X131.992 Y102.32 E.01697
G1 X137.348 Y107.676 E.23928
G1 X136.811 Y107.676 E.01697
G1 X131.454 Y102.32 E.23928
G1 X130.917 Y102.32 E.01697
G1 X136.274 Y107.676 E.23928
G1 X135.736 Y107.676 E.01697
G1 X130.38 Y102.32 E.23928
G1 X129.843 Y102.32 E.01697
G1 X135.199 Y107.676 E.23928
G1 X134.662 Y107.676 E.01697
G1 X129.305 Y102.32 E.23928
G1 X128.768 Y102.32 E.01697
G1 X134.125 Y107.676 E.23928
G1 X133.588 Y107.676 E.01697
G1 X128.231 Y102.32 E.23928
G1 X127.694 Y102.32 E.01697
G1 X133.05 Y107.676 E.23928
G1 X132.513 Y107.676 E.01697
G1 X127.157 Y102.32 E.23928
G1 X126.619 Y102.32 E.01697
G1 X131.976 Y107.676 E.23928
G1 X131.439 Y107.676 E.01697
G1 X126.082 Y102.32 E.23928
G1 X125.545 Y102.32 E.01697
G1 X130.901 Y107.676 E.23928
G1 X130.364 Y107.676 E.01697
G1 X125.008 Y102.32 E.23928
G1 X124.47 Y102.32 E.01697
G1 X129.827 Y107.676 E.23928
M73 P0 R99
G1 X129.29 Y107.676 E.01697
G1 X123.933 Y102.32 E.23928
G1 X123.396 Y102.32 E.01697
G1 X128.753 Y107.676 E.23928
G1 X128.215 Y107.676 E.01697
G1 X122.859 Y102.32 E.23928
G1 X122.322 Y102.32 E.01697
G1 X127.678 Y107.676 E.23928
G1 X127.141 Y107.676 E.01697
G1 X121.784 Y102.32 E.23928
G1 X121.247 Y102.32 E.01697
G1 X126.604 Y107.676 E.23928
G1 X126.066 Y107.676 E.01697
G1 X120.71 Y102.32 E.23928
G1 X120.173 Y102.32 E.01697
G1 X125.529 Y107.676 E.23928
G1 X124.992 Y107.676 E.01697
G1 X119.635 Y102.32 E.23928
G1 X119.098 Y102.32 E.01697
G1 X124.455 Y107.676 E.23928
G1 X123.918 Y107.676 E.01697
G1 X118.561 Y102.32 E.23928
G1 X118.024 Y102.32 E.01697
G1 X123.38 Y107.676 E.23928
G1 X122.843 Y107.676 E.01697
G1 X117.487 Y102.32 E.23928
G1 X116.949 Y102.32 E.01697
G1 X122.306 Y107.676 E.23928
G1 X121.769 Y107.676 E.01697
G1 X116.412 Y102.32 E.23928
G1 X115.875 Y102.32 E.01697
G1 X121.232 Y107.676 E.23928
G1 X120.694 Y107.676 E.01697
G1 X115.338 Y102.32 E.23928
G1 X114.801 Y102.32 E.01697
M73 P1 R99
G1 X120.157 Y107.676 E.23928
G1 X119.62 Y107.676 E.01697
G1 X114.263 Y102.32 E.23928
