; generated by PrusaSlicer 2.5.0+MacOS-x64 on 2022-11-02 at 16:09:29 UTC


;
;

;
;
; 

; external perimeters extrusion width = 0.45mm
; perimeters extrusion width = 0.45mm
; infill extrusion width = 0.45mm
; solid infill extrusion width = 0.45mm
; top infill extrusion width = 0.40mm
; first layer extrusion width = 0.42mm

M73 P0 R190
M201 X9000 Y9000 Z500 E10000 ; sets maximum accelerations, mm/sec^2
M203 X500 Y500 Z12 E120 ; sets maximum feedrates, mm / sec
M204 P2000 R1500 T2000 ; sets acceleration (P, T) and retract acceleration (R), mm/sec^2
M205 X10.00 Y10.00 Z0.20 E4.50 ; sets the jerk limits, mm/sec
M205 S0 T0 ; sets the minimum extruding and travel feed rate, mm/sec
M107
;TYPE:Custom
M83  ; extruder relative mode
M140 S85 ; set bed temp
M109 S160 ; Set extruder temp before bed level
M190 S85 ; wait for bed temp

G28 W ; home all without mesh bed level
G80 N7 ; mesh bed leveling

M109 S240 ; wait for extruder temp

M221 S100 ; Set flow to 100

G1 Y-3.0 F1000.0 ; go outside print area
G92 E0.0
G1 E8 ; Purge Bubble
G1 X60.0 E9.0 F1000.0 ; intro line
G1 X100.0 E12.5 F1000.0 ; intro line
G92 E0.0
G21 ; set units to millimeters
G90 ; use absolute coordinates
M83 ; use relative distances for extrusion
M900 K0.08 ; Filament gcode LA 1.5
M900 K45 ; Filament gcode LA 1.0
M107
;LAYER_CHANGE
;Z:0.2
;HEIGHT:0.2
;BEFORE_LAYER_CHANGE
G92 E0.0
;0.2


G1 E-1 F2100
G1 Z.2 F720
;AFTER_LAYER_CHANGE
;0.2
G1 Z.4
G1 X20.379 Y98.898 F6000
G1 Z.2 F720
G1 E1 F2100
M204 S800
;TYPE:Skirt/Brim
;WIDTH:0.42
G1 F1200
G1 X20.5 Y98.873 E.00387
G1 X229.5 Y98.873 E6.55305
G1 X230.807 Y99.265 E.04278
G1 X231.683 Y100.31 E.04278
G1 X231.877 Y101.25 E.03008
G1 X231.877 Y108.746 E.23504
G1 X231.485 Y110.053 E.04278
G1 X230.44 Y110.93 E.04278
G1 X229.5 Y111.123 E.03008
G1 X20.5 Y111.123 E6.55305
G1 X19.193 Y110.732 E.04278
G1 X18.317 Y109.686 E.04278
G1 X18.123 Y108.746 E.03008
G1 X18.123 Y101.25 E.23504
G1 X18.515 Y99.943 E.04278
G1 X19.56 Y99.067 E.04278
G1 X20.32 Y98.91 E.02433
M204 S1000
; printing object divider_border_left.stl id:0 copy 0
;WIPE_START
G1 F4800
G1 X20.5 Y98.873 E-.07623
G1 X22.602 Y98.873 E-.87377
;WIPE_END
G1 E-.05 F2100
G1 Z.4 F720
G1 X29.554 Y103.858 F6000
G1 Z.2 F720
G1 E1 F2100
M204 S800
;TYPE:Perimeter
;WIDTH:0.419999
G1 F1200
G1 X29.467 Y103.836 E.0028
G1 X28.276 Y103.836 E.03736
G1 X28.086 Y103.418 E.01439
G1 X27.608 Y102.818 E.02407
G1 X27.176 Y102.473 E.01732
G1 X26.489 Y102.13 E.02408
G1 X25.975 Y102.019 E.01649
G1 X26.501 Y102.037 E.01652
G1 X223.525 Y102.037 E6.17754
G1 X223.86 Y102.023 E.0105
;WIDTH:0.391229
G1 X224.194 Y102.008 E.0097
;WIDTH:0.365926
G1 X224.17 Y102.011 E.00065
;WIDTH:0.392963
G1 X223.852 Y102.068 E.00939
;WIDTH:0.419999
G1 X223.535 Y102.125 E.01012
G1 X223.028 Y102.346 E.01733
G1 X222.59 Y102.642 E.01658
G1 X222.21 Y103.01 E.01659
G1 X221.9 Y103.438 E.01658
G1 X221.725 Y103.836 E.01364
G1 X220.533 Y103.836 E.03736
G1 X220.267 Y103.903 E.0086
G1 X220.08 Y104.063 E.00769
G1 X219.99 Y104.244 E.00634
G1 X219.967 Y104.402 E.00502
G1 X219.967 Y104.998 E.01869
G1 X219.99 Y105.753 E.02367
G1 X220.08 Y105.934 E.00634
G1 X220.267 Y106.094 E.00769
G1 X220.533 Y106.16 E.0086
G1 X221.724 Y106.16 E.03736
G1 X221.914 Y106.577 E.01436
G1 X222.411 Y107.194 E.02484
G1 X223.028 Y107.651 E.02408
G1 X223.511 Y107.866 E.01657
G1 X224.025 Y107.977 E.01651
G1 X223.499 Y107.959 E.01653
G1 X26.475 Y107.959 E6.17753
G1 X26.152 Y107.972 E.01013
;WIDTH:0.392879
M73 P0 R189
G1 X25.829 Y107.986 E.0094
G1 X26.147 Y107.929 E.0094
;WIDTH:0.419999
G1 X26.465 Y107.872 E.01013
G1 X26.972 Y107.65 E.01735
G1 X27.41 Y107.354 E.01658
G1 X27.79 Y106.987 E.01657
G1 X28.101 Y106.558 E.01661
G1 X28.276 Y106.16 E.01362
G1 X29.467 Y106.16 E.03736
G1 X29.733 Y106.094 E.0086
G1 X29.92 Y105.934 E.00769
G1 X30.01 Y105.753 E.00634
G1 X30.033 Y105.594 E.00502
G1 X30.01 Y104.244 E.04236
G1 X29.92 Y104.063 E.00634
G1 X29.733 Y103.903 E.00769
G1 X29.612 Y103.873 E.00392
M204 S1000
;WIPE_START
G1 F4800
G1 X29.467 Y103.836 E-.06209
G1 X28.276 Y103.836 E-.4952
G1 X28.086 Y103.418 E-.19077
G1 X27.783 Y103.038 E-.20194
;WIPE_END
G1 E-.05 F2100
G1 Z.4 F720
G1 X225.528 Y102.088 F6000
G1 Z.2 F720
G1 E1 F2100
M204 S800
;WIDTH:0.522692
G1 F1200
G1 X226.466 Y102.088 E.0374
;WIDTH:0.560282
G1 X226.97 Y102.107 E.0217
;WIDTH:0.597872
G1 X227.474 Y102.126 E.02327
G1 X227.574 Y102.104 E.00471
;WIDTH:0.553404
G1 X227.674 Y102.082 E.00434
;WIDTH:0.508936
G1 X227.773 Y102.059 E.00396
;WIDTH:0.464468
G1 X227.873 Y102.037 E.00358
;WIDTH:0.419999
G1 X228.713 Y102.037 E.02634
G1 X228.713 Y102.96 E.02893
G1 X227.814 Y102.825 E.02849
;WIDTH:0.464468
G1 X227.719 Y102.788 E.00358
;WIDTH:0.508936
G1 X227.624 Y102.751 E.00396
;WIDTH:0.553404
G1 X227.528 Y102.715 E.00434
;WIDTH:0.597872
G1 X227.433 Y102.678 E.00471
G1 X226.932 Y102.622 E.02327
;WIDTH:0.560282
G1 X226.431 Y102.566 E.0217
;WIDTH:0.522692
G1 X225.998 Y102.299 E.02025
G1 X225.583 Y102.113 E.01815
M204 S1000
;WIPE_START
G1 F4800
G1 X226.466 Y102.088 E-.36709
G1 X226.97 Y102.107 E-.20962
G1 X227.474 Y102.126 E-.20962
G1 X227.574 Y102.104 E-.04246
G1 X227.674 Y102.082 E-.04247
G1 X227.773 Y102.059 E-.04247
G1 X227.858 Y102.04 E-.03627
;WIPE_END
G1 E-.05 F2100
G1 Z.4 F720
G1 X225.476 Y107.907 F6000
G1 Z.2 F720
G1 E1 F2100
M204 S800
;WIDTH:0.524238
G1 F1200
G1 X225.856 Y107.772 E.01611
G1 X226.452 Y107.428 E.02756
;WIDTH:0.561055
G1 X226.943 Y107.373 E.02128
;WIDTH:0.597872
G1 X227.434 Y107.318 E.02279
G1 X227.529 Y107.282 E.00471
;WIDTH:0.553404
G1 X227.625 Y107.245 E.00434
;WIDTH:0.508936
G1 X227.72 Y107.208 E.00396
;WIDTH:0.464468
G1 X227.815 Y107.171 E.00358
;WIDTH:0.419999
G1 X228.713 Y107.037 E.02846
G1 X228.713 Y107.959 E.02893
G1 X227.874 Y107.959 E.0263
;WIDTH:0.464468
G1 X227.774 Y107.937 E.00358
;WIDTH:0.508936
G1 X227.675 Y107.915 E.00396
;WIDTH:0.553404
G1 X227.575 Y107.893 E.00434
;WIDTH:0.597872
G1 X227.475 Y107.87 E.00471
G1 X226.982 Y107.889 E.02279
;WIDTH:0.561055
G1 X226.488 Y107.907 E.02128
;WIDTH:0.524238
G1 X225.536 Y107.907 E.03808
M204 S1000
;WIPE_START
G1 F4800
G1 X225.856 Y107.772 E-.144
G1 X226.452 Y107.428 E-.28623
G1 X226.943 Y107.373 E-.20528
G1 X227.434 Y107.318 E-.20528
G1 X227.529 Y107.282 E-.04246
G1 X227.625 Y107.245 E-.04247
G1 X227.679 Y107.224 E-.02426
;WIPE_END
G1 E-.05 F2100
G1 Z.4 F720
G1 X24.471 Y107.908 F6000
G1 Z.2 F720
G1 E1 F2100
M204 S800
;WIDTH:0.522604
G1 F1200
G1 X23.534 Y107.908 E.03737
;WIDTH:0.560237
G1 X23.029 Y107.889 E.02172
;WIDTH:0.59787
G1 X22.525 Y107.87 E.0233
G1 X22.425 Y107.893 E.00471
;WIDTH:0.553403
G1 X22.325 Y107.915 E.00434
;WIDTH:0.508935
G1 X22.226 Y107.937 E.00396
;WIDTH:0.464467
G1 X22.126 Y107.959 E.00358
;WIDTH:0.419999
G1 X21.287 Y107.959 E.0263
G1 X21.287 Y107.037 E.02893
G1 X22.185 Y107.171 E.02846
;WIDTH:0.464467
G1 X22.28 Y107.208 E.00358
;WIDTH:0.508935
G1 X22.375 Y107.245 E.00396
;WIDTH:0.553403
G1 X22.471 Y107.282 E.00434
;WIDTH:0.59787
G1 X22.566 Y107.318 E.00471
G1 X23.068 Y107.375 E.0233
;WIDTH:0.560237
G1 X23.57 Y107.431 E.02172
;WIDTH:0.522604
G1 X24.002 Y107.697 E.02024
G1 X24.416 Y107.883 E.01812
M204 S1000
;WIPE_START
G1 F4800
G1 X23.534 Y107.908 E-.3668
G1 X23.029 Y107.889 E-.20985
G1 X22.525 Y107.87 E-.20985
G1 X22.425 Y107.893 E-.04246
G1 X22.325 Y107.915 E-.04247
G1 X22.226 Y107.937 E-.04247
G1 X22.141 Y107.956 E-.0361
;WIPE_END
G1 E-.05 F2100
G1 Z.4 F720
G1 X24.523 Y102.089 F6000
G1 Z.2 F720
G1 E1 F2100
M204 S800
;WIDTH:0.524361
G1 F1200
G1 X24.144 Y102.224 E.01611
G1 X23.547 Y102.568 E.02758
;WIDTH:0.561117
G1 X23.057 Y102.623 E.02125
;WIDTH:0.597873
G1 X22.567 Y102.678 E.02275
G1 X22.472 Y102.715 E.00471
;WIDTH:0.553405
G1 X22.376 Y102.751 E.00434
;WIDTH:0.508936
G1 X22.281 Y102.788 E.00396
;WIDTH:0.464468
G1 X22.186 Y102.825 E.00358
;WIDTH:0.419999
G1 X21.287 Y102.96 E.02849
G1 X21.287 Y102.037 E.02893
G1 X22.127 Y102.037 E.02633
;WIDTH:0.464468
G1 X22.227 Y102.059 E.00358
;WIDTH:0.508936
G1 X22.326 Y102.082 E.00396
;WIDTH:0.553405
G1 X22.426 Y102.104 E.00434
;WIDTH:0.597873
G1 X22.526 Y102.126 E.00471
G1 X23.019 Y102.108 E.02275
;WIDTH:0.561117
G1 X23.511 Y102.089 E.02125
;WIDTH:0.524361
G1 X24.463 Y102.089 E.03811
M204 S1000
;WIPE_START
G1 F4800
G1 X24.144 Y102.224 E-.14405
G1 X23.547 Y102.568 E-.28636
G1 X23.057 Y102.623 E-.20495
G1 X22.567 Y102.678 E-.20495
G1 X22.472 Y102.715 E-.04247
G1 X22.376 Y102.751 E-.04247
G1 X22.321 Y102.773 E-.02475
;WIPE_END
G1 E-.05 F2100
G1 Z.4 F720
G1 X29.467 Y104.213 F6000
G1 Z.2 F720
G1 E1 F2100
M204 S800
;TYPE:External perimeter
;WIDTH:0.419999
G1 F1200
G1 X28.02 Y104.213 E.04537
G1 X27.787 Y103.648 E.01917
G1 X27.393 Y103.136 E.02026
G1 X27.002 Y102.807 E.01602
G1 X26.43 Y102.509 E.02024
G1 X25.976 Y102.383 E.01477
G1 X25.514 Y102.34 E.01454
G1 X25.011 Y102.385 E.01582
G1 X24.359 Y102.596 E.02151
G1 X23.789 Y102.966 E.02128
G1 X20.91 Y103.398 E.09129
G1 X20.91 Y101.66 E.05448
G1 X229.09 Y101.66 E6.52733
G1 X229.09 Y103.398 E.05448
G1 X226.206 Y102.965 E.09144
G1 X225.848 Y102.706 E.01385
G1 X225.427 Y102.506 E.01461
G1 X224.94 Y102.377 E.01581
G1 X224.246 Y102.353 E.02177
G1 X223.616 Y102.493 E.02022
G1 X223.188 Y102.688 E.01477
G1 X222.806 Y102.951 E.01453
G1 X222.477 Y103.277 E.01453
G1 X222.188 Y103.693 E.01588
G1 X221.98 Y104.213 E.01758
G1 X220.533 Y104.213 E.04537
G1 X220.382 Y104.289 E.00529
G1 X220.344 Y104.402 E.00374
G1 X220.344 Y105.594 E.03739
G1 X220.382 Y105.708 E.00374
G1 X220.533 Y105.783 E.00529
G1 X221.98 Y105.783 E.04537
G1 X222.213 Y106.348 E.01915
G1 X222.641 Y106.895 E.02177
G1 X223.153 Y107.288 E.02024
G1 X223.578 Y107.491 E.01477
G1 X224.024 Y107.613 E.01453
G1 X224.486 Y107.657 E.01453
G1 X224.988 Y107.611 E.01581
G1 X225.641 Y107.4 E.02152
G1 X226.211 Y107.031 E.02129
G1 X229.09 Y106.599 E.09129
G1 X229.09 Y108.336 E.05448
G1 X20.91 Y108.336 E6.52733
G1 X20.91 Y106.599 E.05448
G1 X23.794 Y107.031 E.09144
G1 X24.152 Y107.291 E.01386
G1 X24.572 Y107.491 E.01459
G1 X25.06 Y107.62 E.01581
G1 X25.753 Y107.643 E.02176
G1 X26.384 Y107.504 E.02024
G1 X26.813 Y107.309 E.01477
G1 X27.194 Y107.045 E.01453
G1 X27.524 Y106.72 E.01453
G1 X27.813 Y106.303 E.0159
G1 X28.02 Y105.783 E.01756
G1 X29.467 Y105.783 E.04538
G1 X29.618 Y105.708 E.00529
G1 X29.656 Y105.594 E.00374
G1 X29.656 Y104.402 E.03739
G1 X29.618 Y104.289 E.00374
G1 X29.521 Y104.24 E.00341
M204 S1000
G1 X29.364 Y103.827 F6000
;WIPE_START
G1 F4800
G1 X28.02 Y104.213 E-.62389
G1 X27.787 Y103.648 E-.25411
G1 X27.682 Y103.511 E-.072
;WIPE_END
G1 E-.05 F2100
G1 Z.4 F720
G1 X224.194 Y102.008 F6000
G1 Z.2 F720
G1 E1 F2100
M204 S800
;TYPE:Perimeter
;WIDTH:0.383002
G1 F1200
G1 X224.956 Y102.019 E.02153
;WIDTH:0.401454
G1 X225.076 Y102.028 E.00359
M204 S1000
;WIPE_START
G1 F4800
G1 X224.956 Y102.019 E-.05011
G1 X224.194 Y102.008 E-.31647
;WIPE_END
G1 E-.63342 F2100
G1 Z.4 F720
G1 X225.026 Y107.974 F6000
G1 Z.2 F720
G1 E1 F2100
M204 S800
;WIDTH:0.390562
G1 F1200
G1 X224.502 Y107.997 E.01517
;WIDTH:0.38444
G1 X224.025 Y107.977 E.01355
M204 S1000
;WIPE_START
G1 F4800
G1 X224.502 Y107.997 E-.19835
G1 X225.026 Y107.974 E-.21808
;WIPE_END
G1 E-.58357 F2100
G1 Z.4 F720
G1 X24.924 Y107.969 F6000
G1 Z.2 F720
G1 E1 F2100
M204 S800
;WIDTH:0.401244
G1 F1200
G1 X25.69 Y107.992 E.02281
;WIDTH:0.362316
G1 X25.805 Y107.988 E.00308
M204 S1000
;WIPE_START
G1 F4800
G1 X25.69 Y107.992 E-.04821
G1 X24.924 Y107.969 E-.31822
;WIPE_END
G1 E-.63358 F2100
G1 Z.4 F720
G1 X24.973 Y102.022 F6000
G1 Z.2 F720
G1 E1 F2100
M204 S800
;WIDTH:0.390732
G1 F1200
G1 X25.498 Y102 E.01519
;WIDTH:0.384528
G1 X25.975 Y102.019 E.01356
M204 S1000
;WIPE_START
G1 F4800
G1 X25.498 Y102 E-.19846
G1 X24.973 Y102.022 E-.21823
;WIPE_END
G1 E-.58331 F2100
G1 Z.4 F720
G1 X21.583 Y102.15 F6000
G1 Z.2 F720
G1 E1 F2100
M204 S800
;TYPE:Solid infill
;WIDTH:0.468232
G1 F1200
G1 X22.149 Y102.716 E.0283
M204 S1000
;WIPE_START
G1 F4800
G1 X21.583 Y102.15 E-.33265
;WIPE_END
G1 E-.66735 F2100
G1 Z.4 F720
G1 X21.4 Y107.245 F6000
G1 Z.2 F720
G1 E1 F2100
M204 S800
;WIDTH:0.495415
G1 F1200
G1 X22.002 Y107.846 E.03201
M204 S1000
;WIPE_START
G1 F4800
G1 X21.4 Y107.245 E-.35361
;WIPE_END
G1 E-.64639 F2100
G1 Z.4 F720
G1 X221.179 Y106.273 F6000
G1 Z.2 F720
G1 E1 F2100
M204 S800
;WIDTH:0.420988
G1 F1200
G1 X221.807 Y106.901 E.02792
G1 X222.086 Y107.266 E.01444
G1 X222.234 Y107.415 E.0066
G1 X222.548 Y107.651 E.01235
G1 X222.54 Y107.676 E.00085
G1 X222.047 Y107.676 E.01548
G1 X220.644 Y106.273 E.06238
M204 S1000
;WIPE_START
G1 F4800
G1 X222.047 Y107.676 E-.82479
G1 X222.349 Y107.676 E-.12521
;WIPE_END
G1 E-.05 F2100
G1 Z.4 F720
G1 X222.394 Y102.677 F6000
G1 Z.2 F720
G1 E1 F2100
M204 S800
G1 F1200
G1 X222.038 Y102.32 E.01586
G1 X221.503 Y102.32 E.01681
G1 X222.002 Y102.819 E.0222
G1 X221.776 Y103.128 E.01203
G1 X220.968 Y102.32 E.03593
G1 X220.434 Y102.32 E.01681
G1 X221.578 Y103.464 E.05087
G1 X221.536 Y103.554 E.00312
G1 X221.137 Y103.558 E.01256
G1 X219.899 Y102.32 E.05504
G1 X219.364 Y102.32 E.01681
G1 X220.607 Y103.563 E.05526
G1 X220.386 Y103.565 E.00695
G1 X220.155 Y103.645 E.00771
G1 X218.83 Y102.32 E.05891
G1 X218.295 Y102.32 E.01681
G1 X219.86 Y103.885 E.06958
G1 X219.718 Y104.162 E.0098
G1 X219.703 Y104.263 E.0032
G1 X217.76 Y102.32 E.08639
G1 X217.226 Y102.32 E.01681
G1 X219.684 Y104.779 E.10932
G1 X219.684 Y105.313 E.01681
G1 X216.691 Y102.32 E.13309
G1 X216.156 Y102.32 E.01681
G1 X221.513 Y107.676 E.23814
G1 X220.978 Y107.676 E.01681
G1 X215.622 Y102.32 E.23814
G1 X215.087 Y102.32 E.01681
G1 X220.443 Y107.676 E.23814
G1 X219.909 Y107.676 E.01681
G1 X214.552 Y102.32 E.23814
G1 X214.018 Y102.32 E.01681
G1 X219.374 Y107.676 E.23814
G1 X218.839 Y107.676 E.01681
G1 X213.483 Y102.32 E.23814
G1 X212.948 Y102.32 E.01681
G1 X218.305 Y107.676 E.23814
G1 X217.77 Y107.676 E.01681
G1 X212.414 Y102.32 E.23814
G1 X211.879 Y102.32 E.01681
G1 X217.235 Y107.676 E.23814
G1 X216.701 Y107.676 E.01681
G1 X211.344 Y102.32 E.23814
G1 X210.81 Y102.32 E.01681
G1 X216.166 Y107.676 E.23814
G1 X215.631 Y107.676 E.01681
G1 X210.275 Y102.32 E.23814
G1 X209.74 Y102.32 E.01681
G1 X215.097 Y107.676 E.23814
G1 X214.562 Y107.676 E.01681
G1 X209.205 Y102.32 E.23814
G1 X208.671 Y102.32 E.01681
G1 X214.027 Y107.676 E.23814
G1 X213.493 Y107.676 E.01681
G1 X208.136 Y102.32 E.23814
G1 X207.601 Y102.32 E.01681
G1 X212.958 Y107.676 E.23814
G1 X212.423 Y107.676 E.01681
G1 X207.067 Y102.32 E.23814
G1 X206.532 Y102.32 E.01681
G1 X211.889 Y107.676 E.23814
G1 X211.354 Y107.676 E.01681
G1 X205.997 Y102.32 E.23814
G1 X205.463 Y102.32 E.01681
G1 X210.819 Y107.676 E.23814
G1 X210.285 Y107.676 E.01681
G1 X204.928 Y102.32 E.23814
G1 X204.393 Y102.32 E.01681
G1 X209.75 Y107.676 E.23814
G1 X209.215 Y107.676 E.01681
G1 X203.859 Y102.32 E.23814
G1 X203.324 Y102.32 E.01681
G1 X208.681 Y107.676 E.23814
G1 X208.146 Y107.676 E.01681
G1 X202.789 Y102.32 E.23814
G1 X202.255 Y102.32 E.01681
G1 X207.611 Y107.676 E.23814
G1 X207.077 Y107.676 E.01681
G1 X201.72 Y102.32 E.23814
G1 X201.185 Y102.32 E.01681
G1 X206.542 Y107.676 E.23814
G1 X206.007 Y107.676 E.01681
G1 X200.651 Y102.32 E.23814
G1 X200.116 Y102.32 E.01681
G1 X205.473 Y107.676 E.23814
G1 X204.938 Y107.676 E.01681
G1 X199.581 Y102.32 E.23814
G1 X199.047 Y102.32 E.01681
G1 X204.403 Y107.676 E.23814
G1 X203.869 Y107.676 E.01681
G1 X198.512 Y102.32 E.23814
G1 X197.977 Y102.32 E.01681
G1 X203.334 Y107.676 E.23814
G1 X202.799 Y107.676 E.01681
G1 X197.443 Y102.32 E.23814
G1 X196.908 Y102.32 E.01681
G1 X202.265 Y107.676 E.23814
G1 X201.73 Y107.676 E.01681
M73 P0 R188
G1 X196.373 Y102.32 E.23814
G1 X195.839 Y102.32 E.01681
G1 X201.195 Y107.676 E.23814
G1 X200.661 Y107.676 E.01681
G1 X195.304 Y102.32 E.23814
G1 X194.769 Y102.32 E.01681
G1 X200.126 Y107.676 E.23814
G1 X199.591 Y107.676 E.01681
G1 X194.235 Y102.32 E.23814
G1 X193.7 Y102.32 E.01681
G1 X199.057 Y107.676 E.23814
G1 X198.522 Y107.676 E.01681
G1 X193.165 Y102.32 E.23814
G1 X192.631 Y102.32 E.01681
G1 X197.987 Y107.676 E.23814
G1 X197.453 Y107.676 E.01681
G1 X192.096 Y102.32 E.23814
G1 X191.561 Y102.32 E.01681
G1 X196.918 Y107.676 E.23814
G1 X196.383 Y107.676 E.01681
G1 X191.027 Y102.32 E.23814
G1 X190.492 Y102.32 E.01681
G1 X195.849 Y107.676 E.23814
G1 X195.314 Y107.676 E.01681
G1 X189.957 Y102.32 E.23814
