; generated by PrusaSlicer 2.9.4 on 2025-12-16 at 08:49:15 UTC


;
;

;
;
; 

; external perimeters extrusion width = 0.45mm
; perimeters extrusion width = 0.45mm
; infill extrusion width = 0.45mm
; solid infill extrusion width = 0.45mm
; top infill extrusion width = 0.45mm
; first layer extrusion width = 0.42mm

; external perimeters extrusion width = 0.45mm
; perimeters extrusion width = 0.45mm
; infill extrusion width = 0.45mm
; solid infill extrusion width = 0.45mm
; top infill extrusion width = 0.45mm
; first layer extrusion width = 0.42mm

M73 P0 R34
M201 X9000 Y9000 Z500 E10000 ; sets maximum accelerations, mm/sec^2
M203 X500 Y500 Z12 E120 ; sets maximum feedrates, mm / sec
M204 S2000 T1500 ; sets acceleration (S) and retract acceleration (R), mm/sec^2
M205 X10.00 Y10.00 Z0.20 E4.50 ; sets the jerk limits, mm/sec
M205 S0 T0 ; sets the minimum extruding and travel feed rate, mm/sec

; printing object pound_token_v2.stl id:1 copy 0
; stop printing object pound_token_v2.stl id:1 copy 0
; printing object pound_token_v2.stl id:0 copy 0
; stop printing object pound_token_v2.stl id:0 copy 0

;TYPE:Custom
M83  ; extruder relative mode
M140 S85 ; set bed temp
M109 S160 ; Set extruder temp before bed level
M190 S85 ; wait for bed temp

G28 W ; home all without mesh bed level
G80 N7 ; mesh bed leveling

M109 S250 ; wait for extruder temp

M221 S100 ; Set flow to 100

G1 Y-3.0 F1000.0 ; go outside print area
G92 E0.0
G1 E8 ; Purge Bubble
G1 X60.0 E9.0 F1000.0 ; intro line
G1 X100.0 E12.5 F1000.0 ; intro line
G92 E0.0
G21 ; set units to millimeters
G90 ; use absolute coordinates
M83 ; use relative distances for extrusion

M900 K0.08 ; Filament gcode LA 1.5
M900 K45 ; Filament gcode LA 1.0




M107
;LAYER_CHANGE
;Z:0.2
;HEIGHT:0.2
G1 E-1 F2100
G1 Z.4 F720
G1 X89.511 Y83.153 F6000
G1 Z.2 F720
G1 E1 F2100
M204 S800
;TYPE:Skirt/Brim
;WIDTH:0.42
G1 F1200
G1 X89.996 Y82.63 E.02236
G1 X91.315 Y81.664 E.05126
G1 X92.286 Y81.165 E.03423
G1 X93.311 Y80.791 E.03421
G1 X94.375 Y80.549 E.03421
G1 X95.529 Y80.44 E.03634
G1 X154.232 Y80.436 E1.84059
G1 X155.557 Y80.538 E.04167
G1 X156.884 Y80.851 E.04275
G1 X157.963 Y81.278 E.03638
G1 X159.144 Y81.958 E.04273
G1 X160.205 Y82.815 E.04276
G1 X161.076 Y83.773 E.0406
G1 X161.728 Y84.732 E.03636
G1 X162.323 Y85.959 E.04276
G1 X162.772 Y87.522 E.05099
G1 X167.51 Y114.057 E.84515
G1 X167.671 Y116.09 E.06394
G1 X167.51 Y118.193 E.06613
G1 X167.023 Y120.245 E.06613
G1 X166.377 Y121.878 E.05506
G1 X165.366 Y123.65 E.06397
G1 X164.29 Y125.038 E.05507
G1 X162.825 Y126.457 E.06395
G1 X161.103 Y127.674 E.06612
G1 X159.538 Y128.471 E.05507
G1 X157.949 Y129.039 E.05291
G1 X156.301 Y129.403 E.05292
G1 X154.62 Y129.558 E.05293
G1 X94.959 Y129.539 E1.87063
G1 X93.283 Y129.332 E.05295
G1 X91.648 Y128.916 E.0529
G1 X90.077 Y128.299 E.05292
G1 X88.898 Y127.674 E.04184
G1 X87.504 Y126.722 E.05293
G1 X86.29 Y125.652 E.05074
G1 X85.17 Y124.389 E.05293
G1 X84.218 Y122.995 E.05293
G1 X83.26 Y121.04 E.06826
G1 X82.854 Y119.841 E.03969
G1 X82.574 Y118.676 E.03757
G1 X82.392 Y117.424 E.03967
G1 X82.329 Y116.159 E.03971
G1 X82.5 Y113.989 E.06825
G1 X87.361 Y86.931 E.86197
G1 X87.921 Y85.394 E.05129
G1 X88.868 Y83.845 E.05693
G1 X89.47 Y83.197 E.02773
M204 S1000
;WIPE_START
G1 F4800
G1 X89.511 Y83.153 E-.025
G1 X89.996 Y82.63 E-.29645
G1 X91.313 Y81.666 E-.67855
;WIPE_END
G1 Z.4 F720
; printing object pound_token_v2.stl id:0 copy 0
G1 X92.384 Y85.924 F6000
G1 Z.2 F720
G1 E1 F2100
M204 S800
;TYPE:Perimeter
;WIDTH:0.419999
G1 F1200
G1 X92.387 Y85.921 E.00013
G1 X93.047 Y85.344 E.02749
G1 X93.804 Y84.901 E.0275
G1 X94.63 Y84.608 E.02748
G1 X95.472 Y84.487 E.02667
G1 X95.849 Y84.465 E.01184
G1 X96.553 Y84.531 E.02217
G1 X97.064 Y84.662 E.01654
G1 X97.579 Y84.832 E.017
G1 X98.286 Y85.206 E.02508
G1 X98.972 Y85.744 E.02733
G1 X99.549 Y86.404 E.02749
G1 X99.992 Y87.161 E.0275
G1 X100.279 Y87.968 E.02686
G1 X100.392 Y88.714 E.02366
M73 P1 R34
G1 X100.426 Y89.228 E.01615
G1 X100.337 Y90.04 E.02561
G1 X100.08 Y90.894 E.02796
G1 X99.672 Y91.671 E.02752
G1 X99.126 Y92.357 E.02749
G1 X98.46 Y92.929 E.02753
G1 X97.579 Y93.418 E.03159
G1 X96.728 Y93.686 E.02797
G1 X95.856 Y93.785 E.02752
G1 X94.982 Y93.719 E.02748
G1 X94.135 Y93.49 E.02751
G1 X93.235 Y93.036 E.03161
G1 X92.535 Y92.483 E.02797
G1 X91.963 Y91.818 E.0275
G1 X91.526 Y91.057 E.02751
G1 X91.239 Y90.228 E.02751
G1 X91.109 Y89.228 E.03162
G1 X91.145 Y88.693 E.01681
G1 X91.219 Y88.093 E.01896
G1 X91.444 Y87.39 E.02314
G1 X91.846 Y86.611 E.02749
G1 X92.347 Y85.971 E.02548
M204 S1000
G1 X92.626 Y86.225 F6000
M204 S800
G1 F1200
G1 X92.677 Y86.161 E.00257
G1 X93.287 Y85.634 E.02528
G1 X93.985 Y85.232 E.02526
G1 X94.747 Y84.966 E.02531
G1 X95.514 Y84.862 E.02427
G1 X95.814 Y84.84 E.00943
G1 X96.518 Y84.906 E.02217
G1 X97.296 Y85.122 E.02532
G1 X98.11 Y85.539 E.02868
G1 X98.732 Y86.034 E.02492
G1 X99.258 Y86.645 E.02528
G1 X99.661 Y87.342 E.02524
G1 X99.92 Y88.085 E.02467
G1 X100.017 Y88.755 E.02123
G1 X100.051 Y89.187 E.01359
G1 X99.962 Y89.999 E.02561
G1 X99.721 Y90.778 E.02557
G1 X99.341 Y91.489 E.02528
G1 X98.835 Y92.117 E.02529
G1 X98.22 Y92.639 E.02529
G1 X97.403 Y93.085 E.02918
G1 X96.623 Y93.324 E.02558
G1 X95.821 Y93.41 E.02529
G1 X95.017 Y93.344 E.02529
G1 X94.24 Y93.128 E.02529
G1 X93.411 Y92.703 E.02921
G1 X92.776 Y92.192 E.02556
G1 X92.254 Y91.577 E.02529
G1 X91.857 Y90.875 E.02529
G1 X91.598 Y90.111 E.02529
G1 X91.484 Y89.187 E.02919
G1 X91.572 Y88.267 E.02898
G1 X91.803 Y87.507 E.02491
G1 X92.177 Y86.793 E.02527
G1 X92.589 Y86.272 E.02083
M204 S1000
G1 X92.868 Y86.526 F6000
M204 S800
;TYPE:External perimeter
G1 F1200
G1 X92.968 Y86.401 E.00502
G1 X93.528 Y85.925 E.02304
G1 X94.167 Y85.562 E.02304
G1 X94.863 Y85.325 E.02305
G1 X95.779 Y85.216 E.02892
G1 X96.483 Y85.282 E.02217
G1 X97.191 Y85.484 E.02308
G1 X97.933 Y85.873 E.02627
G1 X98.491 Y86.325 E.02252
G1 X98.968 Y86.885 E.02306
G1 X99.331 Y87.524 E.02304
G1 X99.561 Y88.201 E.02242
G1 X99.677 Y89.146 E.02985
G1 X99.587 Y89.957 E.02558
G1 X99.362 Y90.661 E.02317
G1 X99.011 Y91.308 E.02308
G1 X98.545 Y91.877 E.02306
G1 X97.98 Y92.348 E.02306
G1 X97.226 Y92.752 E.02682
G1 X96.518 Y92.962 E.02315
G1 X95.785 Y93.034 E.02309
G1 X95.053 Y92.968 E.02304
G1 X94.345 Y92.766 E.02308
G1 X93.588 Y92.37 E.02679
G1 X93.016 Y91.902 E.02317
M73 P1 R33
G1 X92.544 Y91.337 E.02308
G1 X92.187 Y90.694 E.02306
G1 X91.957 Y89.995 E.02307
G1 X91.859 Y89.146 E.0268
G1 X91.947 Y88.309 E.02639
G1 X92.162 Y87.623 E.02254
G1 X92.507 Y86.974 E.02305
G1 X92.83 Y86.573 E.01614
M204 S1000
;WIPE_START
G1 F4800
G1 X92.868 Y86.526 E-.02512
G1 X92.968 Y86.401 E-.06653
G1 X93.528 Y85.925 E-.30547
G1 X94.167 Y85.562 E-.30545
G1 X94.844 Y85.331 E-.29743
;WIPE_END
G1 Z.4 F720
G1 X86.186 Y112.998 F6000
G1 Z.2 F720
G1 E1 F2100
M204 S800
;TYPE:Perimeter
G1 F1200
G1 X86.191 Y112.979 E.00062
G1 X88.072 Y113.468 E.06094
G1 X89.632 Y113.782 E.04989
G1 X91.247 Y114.017 E.05117
G1 X92.879 Y114.18 E.05142
G1 X93.25 Y114.165 E.01164
G1 X93.579 Y114.016 E.01132
G1 X93.831 Y113.749 E.01151
G1 X93.97 Y113.35 E.01325
G1 X93.965 Y113.108 E.00759
G1 X90.477 Y89.813 E.73854
G1 X90.435 Y89.139 E.02117
G1 X90.456 Y88.639 E.01569
G1 X90.525 Y88.141 E.01576
G1 X90.641 Y87.652 E.01576
G1 X90.802 Y87.176 E.01576
G1 X91.008 Y86.718 E.01575
G1 X91.256 Y86.28 E.01578
G1 X91.543 Y85.868 E.01574
G1 X91.869 Y85.485 E.01577
G1 X92.228 Y85.135 E.01572
G1 X92.62 Y84.819 E.01579
G1 X93.039 Y84.542 E.01575
G1 X93.482 Y84.305 E.01575
G1 X93.946 Y84.112 E.01576
G1 X94.426 Y83.962 E.01577
G1 X94.917 Y83.859 E.01573
G1 X95.418 Y83.802 E.01581
G1 X96.263 Y83.816 E.0265
G1 X96.752 Y83.882 E.01547
G1 X97.24 Y83.998 E.01573
G1 X97.717 Y84.16 E.01579
G1 X98.175 Y84.365 E.01573
G1 X98.612 Y84.613 E.01575
G1 X99.024 Y84.9 E.01574
G1 X99.407 Y85.226 E.01577
G1 X99.758 Y85.585 E.01574
G1 X100.074 Y85.977 E.01579
G1 X100.351 Y86.396 E.01575
G1 X100.587 Y86.839 E.01574
G1 X100.781 Y87.303 E.01577
G1 X100.931 Y87.784 E.0158
G1 X101.076 Y88.616 E.02648
G1 X101.102 Y89.117 E.01573
G1 X101.058 Y89.813 E.02187
G1 X97.57 Y113.108 E.73854
G1 X97.566 Y113.35 E.00759
G1 X97.704 Y113.749 E.01324
G1 X97.956 Y114.016 E.01151
G1 X98.237 Y114.152 E.00979
G1 X98.586 Y114.186 E.01099
G1 X99.99 Y114.051 E.04422
G1 X100.572 Y113.983 E.01837
G1 X101.637 Y113.822 E.03377
G1 X102.824 Y113.609 E.03781
G1 X103.686 Y113.419 E.02768
G1 X104.52 Y113.206 E.02699
G1 X105.328 Y112.971 E.02638
G1 X105.453 Y113.317 E.01153
G1 X105.682 Y114.292 E.0314
G1 X105.812 Y115.267 E.03084
G1 X105.852 Y116.125 E.02693
G1 X105.808 Y117.074 E.02979
G1 X105.674 Y118.015 E.0298
G1 X105.452 Y118.939 E.0298
G1 X105.142 Y119.845 E.03002
G1 X104.893 Y120.419 E.01962
G1 X104.609 Y120.977 E.01963
G1 X104.109 Y121.793 E.03001
G1 X103.538 Y122.553 E.02981
G1 X102.899 Y123.256 E.02979
G1 X102.196 Y123.895 E.02979
G1 X101.436 Y124.466 E.02981
G1 X100.62 Y124.966 E.03001
G1 X100.062 Y125.25 E.01963
G1 X99.487 Y125.499 E.01965
G1 X98.581 Y125.809 E.03002
G1 X97.657 Y126.031 E.0298
G1 X96.717 Y126.165 E.02977
G1 X95.768 Y126.21 E.02979
G1 X94.819 Y126.165 E.02979
G1 X93.878 Y126.031 E.0298
G1 X92.954 Y125.809 E.0298
G1 X92.048 Y125.499 E.03002
G1 X91.474 Y125.25 E.01962
G1 X90.916 Y124.966 E.01963
G1 X90.099 Y124.466 E.03003
G1 X89.34 Y123.895 E.02978
G1 X88.637 Y123.256 E.02979
G1 X87.997 Y122.553 E.02981
G1 X87.427 Y121.793 E.02979
G1 X86.926 Y120.977 E.03002
G1 X86.642 Y120.419 E.01963
G1 X86.394 Y119.845 E.01961
G1 X86.083 Y118.939 E.03003
G1 X85.862 Y118.015 E.02979
G1 X85.721 Y116.928 E.03437
G1 X85.693 Y115.921 E.03159
G1 X85.781 Y114.805 E.0351
G1 X85.962 Y113.818 E.03146
G1 X86.17 Y113.056 E.02477
M204 S1000
G1 X85.956 Y112.5 F6000
M204 S800
G1 F1200
G1 X85.96 Y112.489 E.00037
G1 X86.626 Y112.701 E.02191
G1 X88.153 Y113.1 E.04949
G1 X89.688 Y113.409 E.04909
G1 X91.039 Y113.613 E.04284
G1 X92.458 Y113.764 E.04474
G1 X93.163 Y113.798 E.02213
G1 X93.405 Y113.674 E.00853
G1 X93.564 Y113.443 E.00879
G1 X93.592 Y113.164 E.00879
G1 X90.102 Y89.852 E.73908
G1 X90.056 Y89.124 E.02287
G1 X90.081 Y88.587 E.01686
G1 X90.157 Y88.055 E.01685
G1 X90.282 Y87.531 E.01689
G1 X90.457 Y87.022 E.01688
G1 X90.678 Y86.532 E.01685
G1 X90.945 Y86.064 E.01689
G1 X91.254 Y85.624 E.01686
G1 X91.604 Y85.215 E.01688
G1 X91.99 Y84.84 E.01687
G1 X92.41 Y84.504 E.01686
G1 X92.86 Y84.208 E.01689
G1 X93.336 Y83.956 E.01689
G1 X93.833 Y83.75 E.01687
G1 X94.347 Y83.592 E.01686
G1 X94.874 Y83.483 E.01687
G1 X95.4 Y83.425 E.01659
G1 X96.314 Y83.439 E.02866
G1 X96.838 Y83.514 E.0166
G1 X97.361 Y83.64 E.01687
G1 X97.871 Y83.814 E.0169
G1 X98.361 Y84.035 E.01685
G1 X98.829 Y84.302 E.01689
G1 X99.269 Y84.611 E.01686
G1 X99.678 Y84.961 E.01688
G1 X100.053 Y85.347 E.01687
G1 X100.389 Y85.767 E.01686
G1 X100.685 Y86.217 E.01689
G1 X100.936 Y86.693 E.01687
G1 X101.142 Y87.19 E.01687
G1 X101.298 Y87.696 E.0166
G1 X101.455 Y88.596 E.02864
G1 X101.48 Y89.12 E.01645
G1 X101.434 Y89.853 E.02303
G1 X97.943 Y113.164 E.73905
G1 X97.972 Y113.443 E.00879
G1 X98.08 Y113.623 E.00658
G1 X98.267 Y113.762 E.00731
G1 X98.553 Y113.811 E.0091
G1 X100.516 Y113.61 E.06187
G1 X102.076 Y113.366 E.04951
G1 X103.594 Y113.053 E.0486
G1 X104.415 Y112.844 E.02656
G1 X105.576 Y112.489 E.03807
G1 X105.813 Y113.202 E.02356
G1 X106.045 Y114.165 E.03106
G1 X106.189 Y115.249 E.03429
G1 X106.23 Y116.125 E.0275
G1 X106.184 Y117.11 E.03092
G1 X106.045 Y118.085 E.03088
G1 X105.815 Y119.044 E.03092
G1 X105.494 Y119.981 E.03106
G1 X105.235 Y120.58 E.02046
G1 X104.938 Y121.161 E.02046
G1 X104.421 Y122.006 E.03106
G1 X103.829 Y122.794 E.0309
G1 X103.166 Y123.523 E.0309
G1 X102.437 Y124.186 E.0309
G1 X101.648 Y124.778 E.03093
G1 X100.804 Y125.296 E.03105
G1 X100.223 Y125.592 E.02044
G1 X99.624 Y125.851 E.02046
G1 X98.687 Y126.172 E.03106
G1 X97.728 Y126.402 E.03092
G1 X96.752 Y126.541 E.03091
G1 X95.768 Y126.587 E.03089
G1 X94.783 Y126.541 E.03092
G1 X93.807 Y126.402 E.03091
G1 X92.849 Y126.172 E.03089
G1 X91.912 Y125.851 E.03106
G1 X91.313 Y125.592 E.02046
G1 X90.731 Y125.296 E.02047
G1 X89.887 Y124.778 E.03105
G1 X89.099 Y124.186 E.0309
G1 X88.37 Y123.523 E.0309
G1 X87.706 Y122.794 E.03092
G1 X87.115 Y122.006 E.03088
G1 X86.597 Y121.161 E.03108
G1 X86.301 Y120.58 E.02044
G1 X86.042 Y119.981 E.02046
G1 X85.721 Y119.044 E.03106
G1 X85.491 Y118.085 E.03092
G1 X85.352 Y117.11 E.03088
G1 X85.305 Y116.125 E.03092
G1 X85.352 Y115.14 E.03092
G1 X85.48 Y114.238 E.02856
G1 X85.731 Y113.174 E.03428
G1 X85.937 Y112.557 E.0204
M204 S1000
G1 X85.739 Y112.022 F6000
M204 S800
;TYPE:External perimeter
G1 F1200
G1 X85.741 Y112.018 E.00014
G1 X86.731 Y112.338 E.03262
G1 X87.532 Y112.56 E.02606
G1 X88.879 Y112.873 E.04336
G1 X90.012 Y113.077 E.0361
G1 X91.08 Y113.238 E.03386
G1 X91.993 Y113.344 E.02882
G1 X93.027 Y113.436 E.03255
G1 X93.174 Y113.372 E.00503
G1 X93.219 Y113.219 E.005
G1 X89.726 Y89.892 E.73955
G1 X89.678 Y89.127 E.02403
G1 X89.705 Y88.552 E.01805
G1 X89.786 Y87.984 E.01799
G1 X89.92 Y87.426 E.01799
G1 X90.106 Y86.883 E.018
G1 X90.342 Y86.36 E.01799
G1 X90.626 Y85.862 E.01798
G1 X90.956 Y85.393 E.01798
G1 X91.329 Y84.956 E.01801
G1 X91.74 Y84.557 E.01796
G1 X92.188 Y84.198 E.018
G1 X92.668 Y83.883 E.018
G1 X93.175 Y83.615 E.01798
G1 X93.705 Y83.395 E.01799
G1 X94.253 Y83.227 E.01797
G1 X94.815 Y83.11 E.018
G1 X95.383 Y83.048 E.01791
G1 X96.344 Y83.063 E.03014
G1 X96.909 Y83.143 E.01789
G1 X97.467 Y83.277 E.01799
G1 X98.01 Y83.463 E.018
G1 X98.532 Y83.699 E.01796
G1 X99.031 Y83.983 E.018
G1 X99.5 Y84.313 E.01798
G1 X99.936 Y84.686 E.01799
G1 X100.336 Y85.098 E.018
G1 X100.694 Y85.546 E.01798
G1 X101.009 Y86.025 E.01798
G1 X101.278 Y86.532 E.018
G1 X101.497 Y87.062 E.01798
G1 X101.665 Y87.608 E.01791
G1 X101.831 Y88.555 E.03015
G1 X101.857 Y89.123 E.01783
G1 X101.809 Y89.892 E.02416
G1 X98.311 Y113.256 E.74073
G1 X98.379 Y113.389 E.00468
G1 X98.519 Y113.435 E.00462
G1 X100.202 Y113.267 E.05303
G1 X102.007 Y112.996 E.05723
G1 X103.501 Y112.688 E.04783
G1 X104.31 Y112.482 E.02618
G1 X105.087 Y112.256 E.02537
G1 X105.795 Y112.018 E.02342
G1 X105.967 Y112.453 E.01467
M73 P2 R33
G1 X106.177 Y113.099 E.0213
G1 X106.415 Y114.094 E.03208
G1 X106.565 Y115.232 E.03599
G1 X106.607 Y116.125 E.02803
G1 X106.559 Y117.145 E.03202
G1 X106.415 Y118.156 E.03202
G1 X106.177 Y119.149 E.03202
G1 X105.846 Y120.117 E.03208
G1 X105.576 Y120.74 E.02129
G1 X105.268 Y121.346 E.02131
G1 X104.733 Y122.218 E.03208
G1 X104.12 Y123.034 E.032
G1 X103.433 Y123.79 E.03203
G1 X102.677 Y124.477 E.03203
G1 X101.861 Y125.09 E.032
G1 X100.988 Y125.625 E.0321
G1 X100.383 Y125.933 E.02129
G1 X99.76 Y126.203 E.02129
G1 X98.792 Y126.534 E.03208
G1 X97.799 Y126.773 E.03202
G1 X96.788 Y126.917 E.03202
G1 X95.768 Y126.965 E.03202
G1 X94.748 Y126.917 E.03202
G1 X93.737 Y126.773 E.03202
G1 X92.744 Y126.534 E.03202
G1 X91.776 Y126.203 E.03208
G1 X91.152 Y125.933 E.02132
G1 X90.547 Y125.625 E.02129
G1 X89.675 Y125.09 E.03208
G1 X88.858 Y124.477 E.03203
G1 X88.103 Y123.79 E.03201
G1 X87.416 Y123.034 E.03203
G1 X86.802 Y122.218 E.03202
G1 X86.268 Y121.346 E.03206
G1 X85.96 Y120.74 E.02131
G1 X85.69 Y120.117 E.02129
G1 X85.358 Y119.149 E.03209
G1 X85.12 Y118.156 E.03202
G1 X84.976 Y117.145 E.03202
G1 X84.928 Y116.125 E.03202
G1 X84.976 Y115.105 E.03202
G1 X85.107 Y114.185 E.02914
G1 X85.228 Y113.642 E.01744
G1 X85.474 Y112.746 E.02913
G1 X85.719 Y112.078 E.02231
M204 S1000
;WIPE_START
G1 F4800
G1 X85.739 Y112.022 E-.02471
G1 X85.741 Y112.018 E-.00186
G1 X86.731 Y112.338 E-.43243
G1 X87.532 Y112.56 E-.34547
G1 X87.99 Y112.667 E-.19553
;WIPE_END
G1 Z.4 F720
G1 X97.432 Y84.182 F6000
G1 Z.2 F720
G1 E1 F2100
M204 S800
;TYPE:Solid infill
;WIDTH:0.420063
G1 F1200
G1 X97.986 Y84.736 E.02457
G1 X98.563 Y85.043 E.0205
G1 X99.279 Y85.64 E.02923
G1 X99.87 Y86.359 E.02919
G1 X100.182 Y86.932 E.02046
G1 X100.714 Y87.464 E.02359
M204 S1000
G1 X100.25 Y87.533 F6000
M204 S800
G1 F1200
G1 X100.674 Y87.957 E.0188
G1 X100.786 Y88.603 E.02056
G1 X100.646 Y88.462 E.00623
G1 X100.709 Y89.059 E.01883
G1 X100.816 Y89.166 E.00475
G1 X100.784 Y89.668 E.01577
G1 X100.67 Y89.553 E.00508
G1 X100.62 Y90.037 E.01526
G1 X100.723 Y90.14 E.00457
G1 X100.654 Y90.604 E.01471
G1 X100.509 Y90.459 E.00643
