; generated by Slic3r 1.34.1-prusa3d on 2017-08-08 at 23:42:13

; external perimeters extrusion width = 0.45mm
; perimeters extrusion width = 0.45mm
; infill extrusion width = 0.45mm
; solid infill extrusion width = 0.45mm
; top infill extrusion width = 0.40mm
; support material extrusion width = 0.35mm

M107
M115 U3.0.12 ; tell printer latest fw version
M83  ; extruder relative mode
M104 S215 ; set extruder temp
M140 S55 ; set bed temp
M190 S55 ; wait for bed temp
M109 S215 ; wait for extruder temp
G28 W ; home all without mesh bed level
G80 ; mesh bed leveling
G1 Y-3.0 F1000.0 ; go outside pritn area
G1 X60.0 E9.0  F1000.0 ; intro line
G1 X100.0 E12.5  F1000.0 ; intro line
G21 ; set units to millimeters
G90 ; use absolute coordinates
M83 ; use relative distances for extrusion
G1 E-0.80000 F2100.00000
G1 Z0.200 F7200.000
G1 X21.552 Y10.669 F7200.000
G1 E0.80000 F2100.00000
M204 S1000
G1 F2100
G1 X22.058 Y9.905 E0.02872
G1 X30.296 Y1.964 E0.35875
G1 X30.980 Y1.543 E0.02520
G1 X31.766 Y1.375 E0.02520
G1 X226.254 Y1.373 E6.09803
G1 X226.988 Y1.490 E0.02331
G1 X227.650 Y1.829 E0.02331
G1 X228.175 Y2.355 E0.02331
G1 X228.513 Y3.022 E0.02343
G1 X228.627 Y3.726 E0.02237
G1 X228.570 Y8.597 E0.15275
G1 X228.391 Y13.565 E0.15586
G1 X228.105 Y18.364 E0.15074
G1 X227.700 Y23.223 E0.15288
G1 X227.175 Y28.101 E0.15382
G1 X226.542 Y32.905 E0.15194
G1 X225.795 Y37.697 E0.15205
G1 X224.925 Y42.522 E0.15372
G1 X223.945 Y47.298 E0.15288
G1 X222.852 Y52.050 E0.15288
G1 X221.639 Y56.803 E0.15381
G1 X220.309 Y61.534 E0.15409
G1 X218.899 Y66.131 E0.15075
G1 X217.368 Y70.732 E0.15205
G1 X215.710 Y75.346 E0.15372
G1 X213.958 Y79.879 E0.15240
G1 X212.086 Y84.398 E0.15336
G1 X210.113 Y88.858 E0.15288
G1 X208.035 Y93.268 E0.15288
G1 X205.851 Y97.632 E0.15300
G1 X203.567 Y101.936 E0.15276
G1 X201.180 Y106.187 E0.15288
G1 X198.692 Y110.381 E0.15288
G1 X196.088 Y114.539 E0.15382
G1 X193.418 Y118.587 E0.15207
G1 X190.553 Y122.707 E0.15732
G1 X187.764 Y126.527 E0.14832
G1 X184.812 Y130.374 E0.15205
G1 X181.753 Y134.171 E0.15288
G1 X178.587 Y137.915 E0.15372
G1 X175.350 Y141.561 E0.15288
G1 X172.028 Y145.130 E0.15288
G1 X168.629 Y148.611 E0.15252
G1 X165.133 Y152.025 E0.15324
G1 X161.564 Y155.348 E0.15288
G1 X157.917 Y158.585 E0.15288
G1 X154.194 Y161.734 E0.15288
G1 X150.398 Y164.793 E0.15288
G1 X146.530 Y167.762 E0.15288
G1 X142.592 Y170.637 E0.15288
G1 X138.530 Y173.456 E0.15502
G1 X134.513 Y176.105 E0.15086
G1 X130.406 Y178.676 E0.15193
G1 X126.213 Y181.164 E0.15288
G1 X121.939 Y183.566 E0.15372
G1 X117.655 Y185.839 E0.15205
G1 X113.271 Y188.034 E0.15372
G1 X108.860 Y190.112 E0.15288
G1 X104.401 Y192.085 E0.15288
G1 X99.904 Y193.948 E0.15264
G1 X95.349 Y195.709 E0.15312
G1 X90.760 Y197.358 E0.15288
G1 X86.130 Y198.899 E0.15300
G1 X81.443 Y200.336 E0.15370
G1 X76.774 Y201.647 E0.15207
G1 X71.911 Y202.884 E0.15733
G1 X67.301 Y203.945 E0.14832
G1 X62.551 Y204.919 E0.15205
G1 X57.753 Y205.786 E0.15288
G1 X52.909 Y206.541 E0.15372
G1 X48.074 Y207.178 E0.15288
G1 X43.226 Y207.699 E0.15288
G1 X38.341 Y208.107 E0.15372
G1 X33.500 Y208.395 E0.15205
G1 X28.654 Y208.568 E0.15205
G1 X23.725 Y208.627 E0.15455
G1 X22.835 Y208.444 E0.02849
G1 X22.079 Y207.940 E0.02849
G1 X21.556 Y207.165 E0.02931
G1 X21.373 Y206.250 E0.02927
G1 X21.373 Y11.567 E6.10414
G1 X21.541 Y10.728 E0.02684
G1 F5760
G1 X22.058 Y9.905 E-0.33660
G1 F5760
G1 X22.938 Y9.057 E-0.42340
G1 E-0.04000 F2100.00000
G1 X24.337 Y12.151 F7200.000
G1 E0.80000 F2100.00000
G1 F1680
G1 X24.694 Y12.144 E0.01118
G1 X25.652 Y12.015 E0.03031
G1 X26.589 Y11.777 E0.03031
G1 X27.487 Y11.435 E0.03014
G1 X28.350 Y10.987 E0.03047
G1 X29.151 Y10.446 E0.03032
G1 X29.884 Y9.816 E0.03031
G1 X30.540 Y9.106 E0.03031
G1 X31.110 Y8.325 E0.03031
G1 X31.587 Y7.484 E0.03031
G1 X31.962 Y6.599 E0.03014
G1 X32.236 Y5.667 E0.03047
G1 X32.399 Y4.714 E0.03032
G1 X32.420 Y4.337 E0.01183
G1 X225.656 Y4.337 E6.05877
G1 X225.606 Y8.555 E0.13226
G1 X225.434 Y13.357 E0.15067
G1 X225.148 Y18.154 E0.15067
G1 X224.749 Y22.943 E0.15067
G1 X224.235 Y27.721 E0.15067
G1 X223.608 Y32.485 E0.15067
G1 X222.867 Y37.233 E0.15067
G1 X222.014 Y41.962 E0.15067
G1 X221.049 Y46.670 E0.15067
G1 X219.971 Y51.353 E0.15067
G1 X218.783 Y56.009 E0.15067
G1 X217.484 Y60.635 E0.15067
G1 X216.075 Y65.230 E0.15067
G1 X214.558 Y69.789 E0.15067
G1 X212.932 Y74.311 E0.15067
G1 X211.199 Y78.793 E0.15067
G1 X209.360 Y83.233 E0.15067
G1 X207.416 Y87.628 E0.15067
G1 X205.368 Y91.975 E0.15067
G1 X203.217 Y96.272 E0.15067
G1 X200.965 Y100.517 E0.15067
G1 X198.612 Y104.706 E0.15067
G1 X196.160 Y108.839 E0.15067
G1 X193.610 Y112.912 E0.15067
G1 X190.964 Y116.924 E0.15067
G1 X188.223 Y120.871 E0.15067
G1 X185.390 Y124.752 E0.15067
G1 X182.464 Y128.564 E0.15067
G1 X179.449 Y132.306 E0.15067
G1 X176.346 Y135.975 E0.15067
G1 X173.156 Y139.569 E0.15067
G1 X169.881 Y143.086 E0.15067
G1 X166.524 Y146.524 E0.15067
G1 X163.086 Y149.881 E0.15067
G1 X159.569 Y153.156 E0.15067
G1 X155.975 Y156.346 E0.15067
G1 X152.306 Y159.449 E0.15067
G1 X148.564 Y162.464 E0.15067
G1 X144.752 Y165.390 E0.15067
G1 X140.871 Y168.223 E0.15067
G1 X136.892 Y170.985 E0.15188
G1 X132.912 Y173.610 E0.14946
G1 X128.839 Y176.160 E0.15067
G1 X124.706 Y178.612 E0.15067
G1 X120.517 Y180.965 E0.15067
G1 X116.272 Y183.217 E0.15067
G1 X111.975 Y185.368 E0.15067
G1 X107.628 Y187.416 E0.15067
G1 X103.233 Y189.360 E0.15067
G1 X98.793 Y191.199 E0.15067
G1 X94.311 Y192.932 E0.15067
G1 X89.789 Y194.558 E0.15067
G1 X85.230 Y196.075 E0.15067
G1 X80.635 Y197.484 E0.15067
G1 X76.009 Y198.783 E0.15067
G1 X71.353 Y199.971 E0.15067
G1 X66.670 Y201.049 E0.15067
G1 X61.962 Y202.014 E0.15067
G1 X57.233 Y202.867 E0.15067
G1 X52.485 Y203.608 E0.15067
G1 X47.721 Y204.235 E0.15067
G1 X42.943 Y204.749 E0.15067
G1 X38.154 Y205.148 E0.15067
G1 X33.357 Y205.434 E0.15067
G1 X28.555 Y205.606 E0.15067
G1 X24.337 Y205.656 E0.13226
G1 X24.337 Y12.211 E6.06533
G1 X23.960 Y11.781 F7200.000
G1 F1260
G1 X24.665 Y11.768 E0.02210
G1 X25.580 Y11.645 E0.02895
G1 X26.475 Y11.417 E0.02895
G1 X27.332 Y11.090 E0.02878
G1 X28.156 Y10.663 E0.02911
G1 X28.921 Y10.146 E0.02895
G1 X29.622 Y9.544 E0.02895
G1 X30.248 Y8.866 E0.02895
G1 X30.793 Y8.120 E0.02895
G1 X31.248 Y7.317 E0.02895
G1 X31.606 Y6.472 E0.02878
G1 X31.868 Y5.581 E0.02911
G1 X32.024 Y4.671 E0.02895
G1 X32.063 Y3.960 E0.02234
G1 X226.037 Y3.960 E6.08193
G1 X225.983 Y8.564 E0.14437
G1 X225.811 Y13.375 E0.15095
G1 X225.525 Y18.181 E0.15095
G1 X225.124 Y22.979 E0.15095
G1 X224.609 Y27.766 E0.15095
G1 X223.981 Y32.539 E0.15095
G1 X223.239 Y37.296 E0.15095
G1 X222.384 Y42.034 E0.15095
G1 X221.417 Y46.750 E0.15095
G1 X220.338 Y51.442 E0.15095
G1 X219.147 Y56.107 E0.15095
G1 X217.846 Y60.742 E0.15095
G1 X216.435 Y65.345 E0.15095
G1 X214.914 Y69.913 E0.15095
G1 X213.286 Y74.443 E0.15095
G1 X211.550 Y78.934 E0.15095
G1 X209.707 Y83.382 E0.15095
G1 X207.759 Y87.784 E0.15095
G1 X205.708 Y92.139 E0.15095
G1 X203.553 Y96.445 E0.15095
G1 X201.296 Y100.697 E0.15095
G1 X198.938 Y104.895 E0.15095
G1 X196.482 Y109.035 E0.15095
G1 X193.927 Y113.116 E0.15095
G1 X191.276 Y117.135 E0.15095
G1 X188.531 Y121.090 E0.15095
G1 X185.691 Y124.978 E0.15095
G1 X182.761 Y128.797 E0.15095
G1 X179.740 Y132.546 E0.15095
G1 X176.631 Y136.222 E0.15095
G1 X173.435 Y139.822 E0.15095
G1 X170.154 Y143.346 E0.15095
G1 X166.791 Y146.791 E0.15095
G1 X163.346 Y150.154 E0.15095
G1 X159.822 Y153.435 E0.15095
G1 X156.222 Y156.631 E0.15095
G1 X152.546 Y159.740 E0.15095
G1 X148.797 Y162.761 E0.15095
G1 X144.978 Y165.691 E0.15095
G1 X141.090 Y168.531 E0.15095
G1 X137.103 Y171.298 E0.15216
G1 X133.116 Y173.927 E0.14974
G1 X129.035 Y176.482 E0.15095
G1 X124.895 Y178.938 E0.15095
G1 X120.697 Y181.296 E0.15095
G1 X116.445 Y183.553 E0.15095
G1 X112.139 Y185.708 E0.15095
G1 X107.784 Y187.759 E0.15095
G1 X103.382 Y189.707 E0.15095
G1 X98.934 Y191.550 E0.15095
G1 X94.443 Y193.286 E0.15095
G1 X89.913 Y194.914 E0.15095
G1 X85.345 Y196.435 E0.15095
G1 X80.742 Y197.846 E0.15095
G1 X76.107 Y199.147 E0.15095
G1 X71.442 Y200.338 E0.15095
G1 X66.750 Y201.417 E0.15095
G1 X62.034 Y202.384 E0.15095
G1 X57.296 Y203.239 E0.15095
G1 X52.539 Y203.981 E0.15095
G1 X47.766 Y204.609 E0.15095
G1 X42.979 Y205.124 E0.15095
G1 X38.181 Y205.525 E0.15095
G1 X33.375 Y205.811 E0.15095
G1 X28.564 Y205.983 E0.15095
G1 X23.960 Y206.037 E0.14437
G1 X23.960 Y11.841 E6.08890
G1 X24.310 Y11.974 F7200.000
G1 F5760
G1 X24.665 Y11.768 E-0.24544
G1 F5760
G1 X25.580 Y11.645 E-0.31976
G1 F5760
G1 X26.125 Y11.506 E-0.19480
G1 E-0.04000 F2100.00000
G1 X25.204 Y205.532 F7200.000
G1 E0.80000 F2100.00000
G1 F1680
G1 X24.620 Y204.948 E0.02593
G1 X24.620 Y204.414 E0.01673
G1 X25.564 Y205.358 E0.04188
G1 X26.091 Y205.352 E0.01654
G1 X24.620 Y203.881 E0.06527
G1 X24.620 Y203.347 E0.01673
G1 X26.618 Y205.346 E0.08865
G1 X27.146 Y205.340 E0.01654
G1 X24.620 Y202.814 E0.11204
G1 X24.620 Y202.280 E0.01673
G1 X27.673 Y205.333 E0.13543
G1 X28.200 Y205.327 E0.01654
G1 X24.620 Y201.747 E0.15882
G1 X24.620 Y201.213 E0.01673
G1 X28.723 Y205.317 E0.18202
G1 X29.238 Y205.298 E0.01617
G1 X24.620 Y200.680 E0.20487
G1 X24.620 Y200.146 E0.01673
G1 X29.753 Y205.280 E0.22772
G1 X30.268 Y205.262 E0.01617
G1 X24.620 Y199.613 E0.25057
G1 X24.620 Y199.079 E0.01673
G1 X30.784 Y205.243 E0.27342
G1 X31.299 Y205.225 E0.01617
G1 X24.620 Y198.546 E0.29627
G1 X24.620 Y198.012 E0.01673
G1 X31.814 Y205.206 E0.31912
G1 X32.329 Y205.188 E0.01617
G1 X24.620 Y197.479 E0.34197
G1 X24.620 Y196.945 E0.01673
G1 X32.844 Y205.170 E0.36482
G1 X33.359 Y205.151 E0.01616
G1 X24.620 Y196.412 E0.38766
G1 X24.620 Y195.878 E0.01673
G1 X33.862 Y205.121 E0.40999
G1 X34.366 Y205.091 E0.01582
G1 X24.620 Y195.345 E0.43233
G1 X24.620 Y194.811 E0.01673
G1 X34.869 Y205.061 E0.45467
G1 X35.373 Y205.031 E0.01582
G1 X24.620 Y194.278 E0.47700
G1 X24.620 Y193.744 E0.01673
G1 X35.876 Y205.001 E0.49934
G1 X36.380 Y204.971 E0.01582
G1 X24.620 Y193.211 E0.52167
G1 X24.620 Y192.677 E0.01673
G1 X36.883 Y204.941 E0.54401
G1 X37.387 Y204.911 E0.01582
G1 X24.620 Y192.144 E0.56635
G1 X24.620 Y191.610 E0.01673
G1 X37.890 Y204.881 E0.58868
G1 X38.388 Y204.845 E0.01565
G1 X24.620 Y191.077 E0.61076
G1 X24.620 Y190.543 E0.01673
G1 X38.880 Y204.804 E0.63260
G1 X39.373 Y204.763 E0.01550
G1 X24.620 Y190.010 E0.65445
G1 X24.620 Y189.476 E0.01673
G1 X39.865 Y204.722 E0.67629
G1 X40.358 Y204.681 E0.01550
G1 X24.620 Y188.943 E0.69813
G1 X24.620 Y188.410 E0.01673
G1 X40.850 Y204.640 E0.71998
G1 X41.342 Y204.598 E0.01550
G1 X24.620 Y187.876 E0.74182
G1 X24.620 Y187.343 E0.01673
G1 X41.835 Y204.557 E0.76366
G1 X42.327 Y204.516 E0.01550
G1 X24.620 Y186.809 E0.78550
G1 X24.620 Y186.276 E0.01673
G1 X42.820 Y204.475 E0.80735
G1 X43.303 Y204.425 E0.01526
G1 X24.620 Y185.742 E0.82881
G1 X24.620 Y185.209 E0.01673
G1 X43.785 Y204.374 E0.85018
G1 X44.267 Y204.322 E0.01520
G1 X24.620 Y184.675 E0.87155
G1 X24.620 Y184.142 E0.01673
G1 X44.748 Y204.270 E0.89291
G1 X45.230 Y204.218 E0.01520
G1 X24.620 Y183.608 E0.91428
G1 X24.620 Y183.075 E0.01673
G1 X45.712 Y204.167 E0.93565
G1 X46.194 Y204.115 E0.01520
G1 X24.620 Y182.541 E0.95702
G1 X24.620 Y182.008 E0.01673
G1 X46.675 Y204.063 E0.97839
G1 X47.157 Y204.011 E0.01520
G1 X24.620 Y181.474 E0.99976
G1 X24.620 Y180.941 E0.01673
G1 X47.639 Y203.959 E1.02113
G1 X48.111 Y203.898 E0.01494
G1 X24.620 Y180.407 E1.04209
G1 X24.620 Y179.874 E0.01673
G1 X48.583 Y203.836 E1.06300
G1 X49.054 Y203.774 E0.01492
G1 X24.620 Y179.340 E1.08391
G1 X24.620 Y178.807 E0.01673
G1 X49.525 Y203.712 E1.10483
G1 X49.997 Y203.650 E0.01492
G1 X24.620 Y178.273 E1.12574
G1 X24.620 Y177.740 E0.01673
G1 X50.468 Y203.588 E1.14665
G1 X50.940 Y203.526 E0.01492
G1 X24.620 Y177.206 E1.16756
G1 X24.620 Y176.673 E0.01673
G1 X51.411 Y203.464 E1.18848
G1 X51.883 Y203.402 E0.01492
G1 X24.620 Y176.139 E1.20939
G1 X24.620 Y175.606 E0.01673
G1 X52.354 Y203.340 E1.23030
G1 X52.817 Y203.270 E0.01470
G1 X24.620 Y175.072 E1.25086
G1 X24.620 Y174.539 E0.01673
G1 X53.279 Y203.198 E1.27134
G1 X53.741 Y203.126 E0.01465
G1 X24.620 Y174.005 E1.29181
G1 X24.620 Y173.472 E0.01673
G1 X54.202 Y203.054 E1.31228
G1 X54.664 Y202.982 E0.01465
G1 X24.620 Y172.938 E1.33276
G1 X24.620 Y172.405 E0.01673
G1 X55.125 Y202.910 E1.35323
G1 X55.587 Y202.838 E0.01465
G1 X24.620 Y171.871 E1.37370
G1 X24.620 Y171.338 E0.01673
G1 X56.048 Y202.766 E1.39418
G1 X56.510 Y202.694 E0.01465
G1 X24.620 Y170.804 E1.41465
G1 X24.620 Y170.271 E0.01673
G1 X56.971 Y202.622 E1.43512
G1 X57.428 Y202.545 E0.01452
G1 X24.620 Y169.737 E1.45537
G1 X24.620 Y169.204 E0.01673
G1 X57.880 Y202.463 E1.47542
G1 X58.332 Y202.382 E0.01441
G1 X24.620 Y168.670 E1.49547
G1 X24.620 Y168.137 E0.01673
G1 X58.783 Y202.300 E1.51552
G1 X59.235 Y202.219 E0.01441
G1 X24.620 Y167.603 E1.53557
G1 X24.620 Y167.070 E0.01673
G1 X59.687 Y202.137 E1.55561
G1 X60.139 Y202.056 E0.01441
G1 X24.620 Y166.536 E1.57566
G1 X24.620 Y166.003 E0.01673
G1 X60.591 Y201.974 E1.59571
G1 X61.043 Y201.893 E0.01441
G1 X24.620 Y165.469 E1.61576
G1 X24.620 Y164.936 E0.01673
G1 X61.495 Y201.811 E1.63581
G1 X61.946 Y201.729 E0.01439
G1 X24.620 Y164.402 E1.65583
G1 X24.620 Y163.869 E0.01673
G1 X62.389 Y201.638 E1.67546
G1 X62.832 Y201.547 E0.01418
G1 X24.620 Y163.335 E1.69510
G1 X24.620 Y162.802 E0.01673
G1 X63.274 Y201.456 E1.71474
G1 X63.717 Y201.365 E0.01418
G1 X24.620 Y162.268 E1.73438
G1 X24.620 Y161.735 E0.01673
G1 X64.160 Y201.275 E1.75402
G1 X64.603 Y201.184 E0.01418
G1 X24.620 Y161.201 E1.77366
G1 X24.620 Y160.668 E0.01673
G1 X65.045 Y201.093 E1.79329
G1 X65.488 Y201.002 E0.01418
G1 X24.620 Y160.134 E1.81293
G1 X24.620 Y159.601 E0.01673
G1 X65.931 Y200.911 E1.83257
G1 X66.373 Y200.821 E0.01418
G1 X24.620 Y159.067 E1.85221
G1 X24.620 Y158.534 E0.01673
G1 X66.812 Y200.726 E1.87166
G1 X67.246 Y200.626 E0.01396
G1 X24.620 Y158.000 E1.89090
G1 X24.620 Y157.467 E0.01673
G1 X67.679 Y200.526 E1.91014
G1 X68.113 Y200.426 E0.01396
G1 X24.620 Y156.933 E1.92938
G1 X24.620 Y156.400 E0.01673
G1 X68.547 Y200.327 E1.94862
G1 X68.981 Y200.227 E0.01396
G1 X24.620 Y155.866 E1.96786
G1 X24.620 Y155.333 E0.01673
G1 X69.414 Y200.127 E1.98710
G1 X69.848 Y200.027 E0.01396
G1 X24.620 Y154.799 E2.00634
G1 X24.620 Y154.266 E0.01673
G1 X70.282 Y199.927 E2.02558
G1 X70.715 Y199.828 E0.01396
G1 X24.620 Y153.732 E2.04482
G1 X24.620 Y153.199 E0.01673
G1 X71.149 Y199.728 E2.06406
G1 X71.577 Y199.622 E0.01382
G1 X24.620 Y152.665 E2.08304
G1 X24.620 Y152.132 E0.01673
G1 X72.002 Y199.514 E2.10189
G1 X72.427 Y199.405 E0.01376
G1 X24.620 Y151.598 E2.12075
G1 X24.620 Y151.065 E0.01673
G1 X72.852 Y199.297 E2.13960
G1 X73.277 Y199.188 E0.01376
G1 X24.620 Y150.531 E2.15846
G1 X24.620 Y149.998 E0.01673
G1 X73.702 Y199.080 E2.17731
G1 X74.127 Y198.971 E0.01376
G1 X24.620 Y149.464 E2.19616
G1 X24.620 Y148.931 E0.01673
G1 X74.552 Y198.863 E2.21502
G1 X74.977 Y198.754 E0.01376
G1 X24.620 Y148.397 E2.23387
G1 X24.620 Y147.864 E0.01673
G1 X75.402 Y198.646 E2.25273
G1 X75.827 Y198.537 E0.01376
G1 X24.620 Y147.330 E2.27158
G1 X24.620 Y146.797 E0.01673
G1 X76.246 Y198.423 E2.29016
G1 X76.662 Y198.306 E0.01357
G1 X24.620 Y146.263 E2.30863
G1 X24.620 Y145.730 E0.01673
G1 X77.079 Y198.189 E2.32711
G1 X77.495 Y198.072 E0.01357
G1 X24.620 Y145.196 E2.34559
G1 X24.620 Y144.663 E0.01673
G1 X77.912 Y197.955 E2.36407
G1 X78.329 Y197.838 E0.01357
G1 X24.620 Y144.129 E2.38255
G1 X24.620 Y143.596 E0.01673
G1 X78.745 Y197.721 E2.40103
G1 X79.162 Y197.604 E0.01357
G1 X24.620 Y143.062 E2.41951
G1 X24.620 Y142.529 E0.01673
G1 X79.578 Y197.487 E2.43798
G1 X79.995 Y197.370 E0.01357
G1 X24.620 Y141.995 E2.45646
G1 X24.620 Y141.462 E0.01673
G1 X80.411 Y197.253 E2.47494
G1 X80.823 Y197.131 E0.01346
G1 X24.620 Y140.928 E2.49318
G1 X24.620 Y140.395 E0.01673
G1 X81.231 Y197.006 E2.51129
G1 X81.639 Y196.880 E0.01340
G1 X24.620 Y139.861 E2.52941
G1 X24.620 Y139.328 E0.01673
G1 X82.047 Y196.755 E2.54752
G1 X82.456 Y196.630 E0.01340
G1 X24.620 Y138.794 E2.56563
G1 X24.620 Y138.261 E0.01673
G1 X82.864 Y196.505 E2.58374
G1 X83.272 Y196.380 E0.01340
G1 X24.620 Y137.727 E2.60186
G1 X24.620 Y137.194 E0.01673
G1 X83.681 Y196.255 E2.61997
G1 X84.089 Y196.129 E0.01340
G1 X24.620 Y136.660 E2.63808
G1 X24.620 Y136.127 E0.01673
