; generated by PrusaSlicer 2.3.0-beta3+ on 2020-12-16 at 11:35:53 UTC


;
;

;
;
; 

; external perimeters extrusion width = 0.45mm
; perimeters extrusion width = 0.45mm
; infill extrusion width = 0.45mm
; solid infill extrusion width = 0.45mm
; top infill extrusion width = 0.40mm
; first layer extrusion width = 0.42mm

M73 P0 R45
M201 X9000 Y9000 Z500 E10000 ; sets maximum accelerations, mm/sec^2
M203 X500 Y500 Z12 E120 ; sets maximum feedrates, mm/sec
M204 P2000 R1500 T2000 ; sets acceleration (P, T) and retract acceleration (R), mm/sec^2
M205 X10.00 Y10.00 Z0.20 E4.50 ; sets the jerk limits, mm/sec
M205 S0 T0 ; sets the minimum extruding and travel feed rate, mm/sec
M107
;TYPE:Custom
M862.3 P "MK2.5S" ; printer model check
M862.1 P0.4 ; nozzle diameter check
M115 U3.9.1 ; tell printer latest fw version
G90 ; use absolute coordinates
M83  ; extruder relative mode
M104 S240 ; set extruder temp
M140 S85 ; set bed temp
M190 S85 ; wait for bed temp
M109 S240 ; wait for extruder temp
G28 W ; home all without mesh bed level
G80 ; mesh bed leveling
G1 Y-3.0 F1000.0 ; go outside print area
G92 E0.0
G1 X60.0 E9.0 F1000.0 ; intro line
G1 X100.0 E12.5 F1000.0 ; intro line
G92 E0.0
G21 ; set units to millimeters
G90 ; use absolute coordinates
M83 ; use relative distances for extrusion
M900 K0.08 ; Filament gcode LA 1.5
M900 K45 ; Filament gcode LA 1.0
;LAYER_CHANGE
;Z:0.2
;HEIGHT:0.2
;BEFORE_LAYER_CHANGE
G92 E0.0
;0.2


G1 E-1.40000 F2100.000
G1 Z0.200 F10800.000
;AFTER_LAYER_CHANGE
;0.2
G1 Z0.400
G1 X64.825 Y75.887
G1 Z0.200
G1 E1.40000 F2100.000
M204 S1000
;TYPE:Skirt
;WIDTH:0.42
G1 F1200.000
G1 X65.257 Y75.228 E0.02473
G1 X67.334 Y73.161 E0.09186
G1 X67.799 Y72.858 E0.01740
G1 X68.321 Y72.670 E0.01740
G1 X68.858 Y72.609 E0.01695
G1 X181.577 Y72.608 E3.53422
G1 X182.818 Y72.629 E0.03891
G1 X183.605 Y72.880 E0.02590
G1 X184.326 Y73.462 E0.02907
G1 X184.771 Y74.280 E0.02919
G1 X184.878 Y74.943 E0.02107
G1 X184.875 Y80.236 E0.16595
G1 X184.723 Y80.948 E0.02284
G1 X184.365 Y81.578 E0.02272
G1 X143.541 Y121.467 E1.78957
M73 P0 R44
G1 X143.027 Y121.844 E0.02000
G1 X142.430 Y122.070 E0.02000
G1 X141.894 Y122.132 E0.01692
G1 X111.914 Y122.132 E0.94002
G1 X111.241 Y122.034 E0.02130
G1 X67.434 Y101.003 E1.52362
G1 X66.997 Y100.720 E0.01633
G1 X66.635 Y100.351 E0.01621
G1 X66.359 Y99.909 E0.01633
G1 X66.186 Y99.418 E0.01633
G1 X64.630 Y80.147 E0.60618
G1 X64.632 Y76.652 E0.10959
G1 X64.810 Y75.946 E0.02285
; printing object Bear_MK2x_Cover.stl id:0 copy 0
;WIPE_START
G1 F8640.000
G1 X65.257 Y75.228 E-0.19524
G1 X67.334 Y73.161 E-0.67651
G1 X67.799 Y72.858 E-0.12812
G1 X68.321 Y72.670 E-0.12812
G1 X68.858 Y72.609 E-0.12483
G1 X69.192 Y72.609 E-0.07719
;WIPE_END
G1 E-0.07000 F2100.000
G1 Z0.400 F10800.000
G1 X84.014 Y84.225
G1 Z0.200
G1 E1.40000 F2100.000
;TYPE:Perimeter
G1 F1200.000
G1 X89.252 Y81.201 E0.18965
G1 X93.657 Y83.744 E0.15948
G1 X98.062 Y81.201 E0.15948
G1 X102.467 Y83.744 E0.15948
G1 X106.872 Y81.201 E0.15948
G1 X111.277 Y83.744 E0.15948
G1 X115.682 Y81.201 E0.15948
G1 X120.087 Y83.744 E0.15948
G1 X124.492 Y81.201 E0.15948
G1 X128.897 Y83.744 E0.15948
G1 X133.302 Y81.201 E0.15948
G1 X137.707 Y83.744 E0.15948
G1 X142.112 Y81.201 E0.15948
G1 X146.517 Y83.744 E0.15948
G1 X150.922 Y81.201 E0.15948
G1 X155.327 Y83.744 E0.15948
G1 X159.732 Y81.201 E0.15948
G1 X164.971 Y84.225 E0.18965
M73 P1 R44
G1 X164.971 Y90.274 E0.18965
G1 X159.732 Y93.298 E0.18965
G1 X155.327 Y90.755 E0.15948
G1 X150.922 Y93.298 E0.15948
G1 X146.517 Y90.755 E0.15948
G1 X142.112 Y93.298 E0.15948
G1 X137.707 Y90.755 E0.15948
G1 X133.302 Y93.298 E0.15948
G1 X128.897 Y90.755 E0.15948
G1 X124.492 Y93.298 E0.15948
G1 X120.087 Y90.755 E0.15948
G1 X115.682 Y93.298 E0.15948
G1 X111.277 Y90.755 E0.15948
G1 X106.872 Y93.298 E0.15948
G1 X102.467 Y90.755 E0.15948
G1 X98.062 Y93.298 E0.15948
G1 X93.657 Y90.755 E0.15948
G1 X89.252 Y93.298 E0.15948
G1 X84.014 Y90.274 E0.18965
G1 X84.014 Y84.285 E0.18777
G1 X84.391 Y84.443 F10800.000
G1 F1200.000
G1 X89.252 Y81.636 E0.17600
G1 X93.657 Y84.179 E0.15948
G1 X98.062 Y81.636 E0.15948
G1 X102.467 Y84.179 E0.15948
G1 X106.872 Y81.636 E0.15948
G1 X111.277 Y84.179 E0.15948
G1 X115.682 Y81.636 E0.15948
G1 X120.087 Y84.179 E0.15948
G1 X124.492 Y81.636 E0.15948
G1 X128.897 Y84.179 E0.15948
G1 X133.302 Y81.636 E0.15948
G1 X137.707 Y84.179 E0.15948
G1 X142.112 Y81.636 E0.15948
G1 X146.517 Y84.179 E0.15948
G1 X150.922 Y81.636 E0.15948
G1 X155.327 Y84.179 E0.15948
G1 X159.732 Y81.636 E0.15948
G1 X164.594 Y84.443 E0.17600
G1 X164.594 Y90.056 E0.17600
G1 X159.732 Y92.863 E0.17600
G1 X155.327 Y90.320 E0.15948
G1 X150.922 Y92.863 E0.15948
G1 X146.517 Y90.320 E0.15948
G1 X142.112 Y92.863 E0.15948
G1 X137.707 Y90.320 E0.15948
G1 X133.302 Y92.863 E0.15948
G1 X128.897 Y90.320 E0.15948
G1 X124.492 Y92.863 E0.15948
G1 X120.087 Y90.320 E0.15948
G1 X115.682 Y92.863 E0.15948
G1 X111.277 Y90.320 E0.15948
G1 X106.872 Y92.863 E0.15948
G1 X102.467 Y90.320 E0.15948
G1 X98.062 Y92.863 E0.15948
G1 X93.657 Y90.320 E0.15948
G1 X89.252 Y92.863 E0.15948
G1 X84.391 Y90.056 E0.17600
G1 X84.391 Y84.503 E0.17412
G1 X84.768 Y84.661 F10800.000
G1 F1200.000
G1 X89.252 Y82.072 E0.16235
G1 X93.657 Y84.615 E0.15948
G1 X98.062 Y82.072 E0.15948
G1 X102.467 Y84.615 E0.15948
G1 X106.872 Y82.072 E0.15948
G1 X111.277 Y84.615 E0.15948
G1 X115.682 Y82.072 E0.15948
G1 X120.087 Y84.615 E0.15948
G1 X124.492 Y82.072 E0.15948
G1 X128.897 Y84.615 E0.15948
G1 X133.302 Y82.072 E0.15948
G1 X137.707 Y84.615 E0.15948
G1 X142.112 Y82.072 E0.15948
G1 X146.517 Y84.615 E0.15948
G1 X150.922 Y82.072 E0.15948
G1 X155.327 Y84.615 E0.15948
G1 X159.732 Y82.072 E0.15948
G1 X164.216 Y84.661 E0.16235
G1 X164.216 Y89.838 E0.16235
G1 X159.732 Y92.427 E0.16235
G1 X155.327 Y89.884 E0.15948
G1 X150.922 Y92.427 E0.15948
G1 X146.517 Y89.884 E0.15948
G1 X142.112 Y92.427 E0.15948
G1 X137.707 Y89.884 E0.15948
G1 X133.302 Y92.427 E0.15948
G1 X128.897 Y89.884 E0.15948
G1 X124.492 Y92.427 E0.15948
G1 X120.087 Y89.884 E0.15948
G1 X115.682 Y92.427 E0.15948
G1 X111.277 Y89.884 E0.15948
G1 X106.872 Y92.427 E0.15948
G1 X102.467 Y89.884 E0.15948
G1 X98.062 Y92.427 E0.15948
G1 X93.657 Y89.884 E0.15948
G1 X89.252 Y92.427 E0.15948
G1 X84.768 Y89.838 E0.16235
G1 X84.768 Y84.721 E0.16047
;WIPE_START
G1 F8640.000
G1 X89.252 Y82.072 E-1.20258
G1 X89.730 Y82.347 E-0.12742
;WIPE_END
G1 E-0.07000 F2100.000
G1 Z0.400 F10800.000
G1 X120.385 Y84.878
G1 Z0.200
G1 E1.40000 F2100.000
;TYPE:External perimeter
G1 F1200.000
G1 X124.492 Y82.507 E0.14870
G1 X128.599 Y84.878 E0.14870
G1 X128.599 Y89.621 E0.14870
G1 X124.492 Y91.992 E0.14870
G1 X120.385 Y89.621 E0.14870
G1 X120.385 Y84.938 E0.14682
M73 P2 R44
G1 X120.185 Y84.532 F10800.000
;WIPE_START
G1 F8640.000
G1 X124.492 Y82.507 E-1.10205
G1 X125.347 Y83.001 E-0.22795
;WIPE_END
G1 E-0.07000 F2100.000
G1 Z0.400 F10800.000
G1 X129.195 Y84.938
G1 Z0.200
G1 E1.40000 F2100.000
G1 F1200.000
G1 X129.195 Y84.878 E0.00188
G1 X133.302 Y82.507 E0.14870
G1 X137.409 Y84.878 E0.14870
G1 X137.409 Y89.621 E0.14870
G1 X133.302 Y91.992 E0.14870
G1 X129.195 Y89.621 E0.14870
G1 X129.195 Y84.998 E0.14493
G1 X129.139 Y84.918 F10800.000
;WIPE_START
G1 F8640.000
G1 X129.195 Y84.878 E-0.02771
G1 X133.302 Y82.507 E-1.09506
G1 X134.080 Y82.956 E-0.20724
;WIPE_END
G1 E-0.07000 F2100.000
G1 Z0.400 F10800.000
G1 X138.005 Y84.998
G1 Z0.200
G1 E1.40000 F2100.000
G1 F1200.000
G1 X138.005 Y84.878 E0.00376
G1 X142.112 Y82.507 E0.14870
G1 X146.219 Y84.878 E0.14870
G1 X146.219 Y89.621 E0.14870
G1 X142.112 Y91.992 E0.14870
G1 X138.005 Y89.621 E0.14870
G1 X138.005 Y85.058 E0.14305
G1 X137.892 Y84.957 F10800.000
;WIPE_START
G1 F8640.000
G1 X138.005 Y84.878 E-0.04156
G1 X142.112 Y82.507 E-1.09505
G1 X142.838 Y82.926 E-0.19338
;WIPE_END
G1 E-0.07000 F2100.000
G1 Z0.400 F10800.000
G1 X146.815 Y85.058
G1 Z0.200
G1 E1.40000 F2100.000
G1 F1200.000
G1 X146.815 Y84.878 E0.00564
G1 X150.922 Y82.507 E0.14870
G1 X155.029 Y84.878 E0.14870
G1 X155.029 Y89.621 E0.14870
G1 X150.922 Y91.992 E0.14870
G1 X146.815 Y89.621 E0.14870
G1 X146.815 Y85.118 E0.14117
G1 X146.646 Y84.997 F10800.000
;WIPE_START
G1 F8640.000
G1 X146.815 Y84.878 E-0.05542
G1 X150.922 Y82.507 E-1.09505
G1 X151.596 Y82.896 E-0.17953
;WIPE_END
G1 E-0.07000 F2100.000
G1 Z0.400 F10800.000
G1 X159.732 Y82.507
G1 Z0.200
G1 E1.40000 F2100.000
G1 F1200.000
G1 X163.839 Y84.878 E0.14870
G1 X163.839 Y89.621 E0.14870
G1 X159.732 Y91.992 E0.14870
G1 X155.625 Y89.621 E0.14870
G1 X155.625 Y84.878 E0.14870
G1 X159.680 Y82.537 E0.14682
G1 X159.932 Y82.161 F10800.000
;WIPE_START
G1 F8640.000
G1 X163.839 Y84.878 E-1.10205
G1 X163.839 Y85.865 E-0.22795
;WIPE_END
G1 E-0.07000 F2100.000
G1 Z0.400 F10800.000
G1 X119.789 Y84.878
G1 Z0.200
G1 E1.40000 F2100.000
G1 F1200.000
G1 X119.789 Y89.621 E0.14870
G1 X115.682 Y91.992 E0.14870
G1 X111.575 Y89.621 E0.14870
G1 X111.575 Y84.878 E0.14870
G1 X115.682 Y82.507 E0.14870
G1 X119.737 Y84.848 E0.14682
G1 X120.189 Y84.878 F10800.000
;WIPE_START
G1 F8640.000
G1 X119.789 Y89.621 E-1.10205
G1 X118.934 Y90.114 E-0.22795
;WIPE_END
G1 E-0.07000 F2100.000
G1 Z0.400 F10800.000
G1 X110.979 Y84.878
G1 Z0.200
G1 E1.40000 F2100.000
G1 F1200.000
G1 X110.979 Y89.621 E0.14870
G1 X106.872 Y91.992 E0.14870
G1 X102.765 Y89.621 E0.14870
G1 X102.765 Y84.878 E0.14870
G1 X106.872 Y82.507 E0.14870
G1 X110.927 Y84.848 E0.14682
G1 X111.379 Y84.878 F10800.000
;WIPE_START
G1 F8640.000
G1 X110.979 Y89.621 E-1.10204
G1 X110.124 Y90.114 E-0.22796
;WIPE_END
G1 E-0.07000 F2100.000
G1 Z0.400 F10800.000
G1 X102.169 Y84.878
G1 Z0.200
G1 E1.40000 F2100.000
G1 F1200.000
G1 X102.169 Y89.621 E0.14870
G1 X98.062 Y91.992 E0.14870
G1 X93.955 Y89.621 E0.14870
G1 X93.955 Y84.878 E0.14870
G1 X98.062 Y82.507 E0.14870
G1 X102.117 Y84.848 E0.14682
G1 X102.569 Y84.878 F10800.000
;WIPE_START
G1 F8640.000
G1 X102.169 Y89.621 E-1.10205
G1 X101.314 Y90.114 E-0.22795
;WIPE_END
G1 E-0.07000 F2100.000
G1 Z0.400 F10800.000
G1 X93.359 Y84.878
G1 Z0.200
G1 E1.40000 F2100.000
G1 F1200.000
G1 X93.359 Y89.621 E0.14870
G1 X89.252 Y91.992 E0.14870
G1 X85.145 Y89.621 E0.14870
G1 X85.145 Y84.878 E0.14870
G1 X89.252 Y82.507 E0.14870
G1 X93.307 Y84.848 E0.14682
G1 X93.759 Y84.878 F10800.000
;WIPE_START
G1 F8640.000
G1 X93.359 Y89.621 E-1.10205
G1 X92.504 Y90.114 E-0.22795
;WIPE_END
G1 E-0.07000 F2100.000
G1 Z0.400 F10800.000
G1 X92.853 Y96.960
G1 Z0.200
G1 E1.40000 F2100.000
;TYPE:Perimeter
G1 F1200.000
G1 X70.443 Y96.940 E0.70266
G1 X70.439 Y84.220 E0.39883
G1 X70.739 Y84.335 E0.01007
G1 X71.406 Y84.505 E0.02159
G1 X71.998 Y84.571 E0.01870
G1 X72.498 Y84.573 E0.01566
G1 X73.173 Y84.489 E0.02132
G1 X73.656 Y84.371 E0.01559
G1 X74.220 Y84.162 E0.01887
G1 X74.822 Y83.837 E0.02147
G1 X75.230 Y83.556 E0.01550
G1 X75.674 Y83.164 E0.01858
G1 X76.067 Y82.720 E0.01858
G1 X76.348 Y82.314 E0.01551
G1 X76.675 Y81.712 E0.02147
G1 X76.887 Y81.142 E0.01906
G1 X77.024 Y80.563 E0.01866
G1 X77.088 Y79.980 E0.01838
G1 X77.088 Y79.481 E0.01565
G1 X77.004 Y78.806 E0.02132
G1 X76.885 Y78.324 E0.01559
G1 X76.675 Y77.760 E0.01886
G1 X76.348 Y77.158 E0.02148
G1 X76.067 Y76.751 E0.01551
G1 X75.869 Y76.527 E0.00938
G1 X173.128 Y76.526 E3.04949
M73 P2 R43
G1 X172.735 Y77.031 E0.02006
G1 X172.478 Y77.456 E0.01557
G1 X172.227 Y78.003 E0.01884
G1 X172.033 Y78.658 E0.02145
G1 X171.944 Y79.144 E0.01549
G1 X171.907 Y79.735 E0.01856
G1 X171.944 Y80.326 E0.01856
G1 X172.033 Y80.812 E0.01549
G1 X172.227 Y81.468 E0.02145
G1 X172.481 Y82.020 E0.01904
G1 X172.793 Y82.525 E0.01864
G1 X173.159 Y82.982 E0.01836
G1 X173.511 Y83.335 E0.01563
G1 X174.048 Y83.752 E0.02130
G1 X174.473 Y84.009 E0.01557
G1 X175.019 Y84.259 E0.01884
G1 X175.362 Y84.361 E0.01122
G1 X141.101 Y117.814 E1.50138
G1 X112.748 Y117.814 E0.88897
M73 P3 R43
G1 X92.894 Y97.003 E0.90182
G1 X92.691 Y97.337 F10800.000
G1 F1200.000
G1 X70.066 Y97.317 E0.70941
G1 X70.062 Y83.616 E0.42957
G1 X70.425 Y83.811 E0.01293
G1 X70.853 Y83.975 E0.01437
G1 X71.474 Y84.133 E0.02008
G1 X72.020 Y84.194 E0.01723
G1 X72.475 Y84.195 E0.01427
G1 X73.105 Y84.118 E0.01989
G1 X73.545 Y84.010 E0.01422
G1 X74.064 Y83.818 E0.01736
G1 X74.625 Y83.515 E0.01999
G1 X74.997 Y83.259 E0.01416
G1 X75.407 Y82.897 E0.01714
G1 X75.770 Y82.487 E0.01714
G1 X76.027 Y82.116 E0.01416
G1 X76.331 Y81.555 E0.02000
G1 X76.525 Y81.032 E0.01749
G1 X76.652 Y80.499 E0.01720
G1 X76.711 Y79.960 E0.01700
G1 X76.711 Y79.505 E0.01426
G1 X76.632 Y78.875 E0.01989
G1 X76.524 Y78.435 E0.01422
G1 X76.331 Y77.916 E0.01735
G1 X76.027 Y77.356 E0.02000
G1 X75.770 Y76.984 E0.01416
G1 X75.407 Y76.575 E0.01714
G1 X74.906 Y76.150 E0.02061
G1 X174.099 Y76.149 E3.11014
G1 X173.756 Y76.424 E0.01376
G1 X173.435 Y76.745 E0.01425
G1 X173.046 Y77.245 E0.01987
G1 X172.812 Y77.633 E0.01421
G1 X172.581 Y78.135 E0.01733
G1 X172.400 Y78.746 E0.01998
G1 X172.319 Y79.190 E0.01414
G1 X172.285 Y79.735 E0.01712
G1 X172.319 Y80.280 E0.01712
G1 X172.400 Y80.724 E0.01414
G1 X172.581 Y81.335 E0.01998
G1 X172.814 Y81.841 E0.01747
G1 X173.101 Y82.308 E0.01718
G1 X173.440 Y82.730 E0.01698
G1 X173.762 Y83.051 E0.01425
G1 X174.262 Y83.441 E0.01987
G1 X174.649 Y83.675 E0.01421
G1 X175.152 Y83.905 E0.01733
G1 X175.763 Y84.087 E0.01999
G1 X176.117 Y84.151 E0.01127
G1 X141.254 Y118.191 E1.52772
G1 X112.587 Y118.191 E0.89885
G1 X92.733 Y97.380 E0.90183
G1 X92.530 Y97.714 F10800.000
G1 F1200.000
G1 X69.689 Y97.693 E0.71617
G1 X69.684 Y83.470 E0.44596
G1 X69.644 Y82.827 E0.02021
G1 X70.119 Y83.219 E0.01933
G1 X70.582 Y83.467 E0.01646
G1 X70.968 Y83.615 E0.01294
G1 X71.542 Y83.762 E0.01858
G1 X72.041 Y83.817 E0.01576
G1 X72.452 Y83.818 E0.01288
G1 X73.036 Y83.746 E0.01846
G1 X73.435 Y83.649 E0.01285
G1 X73.909 Y83.474 E0.01584
G1 X74.428 Y83.193 E0.01852
G1 X74.765 Y82.961 E0.01282
G1 X75.140 Y82.629 E0.01570
G1 X75.472 Y82.254 E0.01571
G1 X75.705 Y81.918 E0.01282
G1 X75.987 Y81.399 E0.01852
G1 X76.164 Y80.923 E0.01592
G1 X76.279 Y80.434 E0.01575
G1 X76.334 Y79.939 E0.01562
G1 X76.334 Y79.528 E0.01288
G1 X76.261 Y78.944 E0.01846
G1 X76.163 Y78.546 E0.01285
G1 X75.987 Y78.073 E0.01583
G1 X75.705 Y77.553 E0.01852
G1 X75.472 Y77.217 E0.01282
G1 X75.140 Y76.842 E0.01571
G1 X74.765 Y76.511 E0.01571
G1 X74.428 Y76.279 E0.01282
G1 X73.909 Y75.998 E0.01852
G1 X73.432 Y75.822 E0.01592
G1 X73.224 Y75.773 E0.00671
G1 X175.749 Y75.772 E3.21460
G1 X175.280 Y75.921 E0.01543
G1 X174.824 Y76.130 E0.01573
G1 X174.397 Y76.394 E0.01573
G1 X174.009 Y76.705 E0.01560
G1 X173.718 Y76.995 E0.01286
G1 X173.357 Y77.459 E0.01844
G1 X173.145 Y77.810 E0.01284
G1 X172.935 Y78.268 E0.01582
G1 X172.767 Y78.834 E0.01850
G1 X172.694 Y79.236 E0.01280
G1 X172.663 Y79.735 E0.01569
G1 X172.694 Y80.235 E0.01569
G1 X172.767 Y80.636 E0.01280
G1 X172.935 Y81.202 E0.01850
G1 X173.147 Y81.663 E0.01590
G1 X173.410 Y82.090 E0.01573
G1 X173.722 Y82.478 E0.01560
G1 X174.012 Y82.768 E0.01286
G1 X174.476 Y83.129 E0.01844
G1 X174.826 Y83.341 E0.01284
G1 X175.285 Y83.552 E0.01582
G1 X175.851 Y83.719 E0.01851
G1 X176.255 Y83.793 E0.01289
G1 X176.771 Y83.820 E0.01619
G1 X177.066 Y83.785 E0.00933
G1 X176.557 Y84.248 E0.02157
G1 X141.408 Y118.568 E1.54031
G1 X112.426 Y118.568 E0.90872
M73 P4 R43
G1 X92.571 Y97.757 E0.90183
;WIPE_START
G1 F8640.000
G1 X86.811 Y97.741 E-1.33000
;WIPE_END
G1 E-0.07000 F2100.000
G1 Z0.400 F10800.000
G1 X173.135 Y80.548
G1 Z0.200
G1 E1.40000 F2100.000
;TYPE:External perimeter
G1 F1200.000
G1 X173.069 Y80.189 E0.01146
G1 X173.041 Y79.735 E0.01425
G1 X173.069 Y79.281 E0.01425
G1 X173.135 Y78.922 E0.01146
G1 X173.289 Y78.401 E0.01703
G1 X173.479 Y77.987 E0.01431
G1 X173.669 Y77.673 E0.01147
G1 X174.002 Y77.245 E0.01701
G1 X174.261 Y76.986 E0.01148
G1 X174.615 Y76.702 E0.01423
G1 X175.002 Y76.463 E0.01428
G1 X175.416 Y76.273 E0.01428
G1 X175.852 Y76.135 E0.01434
G1 X176.387 Y76.046 E0.01702
G1 X176.752 Y76.024 E0.01144
G1 X177.205 Y76.052 E0.01426
G1 X177.653 Y76.136 E0.01426
G1 X178.002 Y76.244 E0.01146
G1 X178.499 Y76.462 E0.01704
G1 X178.888 Y76.702 E0.01433
G1 X179.242 Y76.986 E0.01423
G1 X179.500 Y77.244 E0.01143
G1 X179.784 Y77.598 E0.01423
G1 X180.023 Y77.986 E0.01427
G1 X180.214 Y78.401 E0.01434
G1 X180.368 Y78.922 E0.01703
G1 X180.434 Y79.282 E0.01148
G1 X180.459 Y79.741 E0.01439
