; generated by PrusaSlicer 2.2.0+ on 2020-12-11 at 20:42:56 UTC


;
;

;
;
; 

; external perimeters extrusion width = 0.45mm
; perimeters extrusion width = 0.45mm
; infill extrusion width = 0.45mm
; solid infill extrusion width = 0.45mm
; top infill extrusion width = 0.40mm
; first layer extrusion width = 0.42mm

M73 P0 R39
M201 X9000 Y9000 Z500 E10000 ; sets maximum accelerations, mm/sec^2
M203 X500 Y500 Z12 E120 ; sets maximum feedrates, mm/sec
M204 P2000 R1500 T2000 ; sets acceleration (P, T) and retract acceleration (R), mm/sec^2
M205 X10.00 Y10.00 Z0.20 E4.50 ; sets the jerk limits, mm/sec
M205 S0 T0 ; sets the minimum extruding and travel feed rate, mm/sec
M107
M83  ; extruder relative mode
M140 S85 ; set bed temp
M109 S160 ; Set extruder temp before bed level
M190 S85 ; wait for bed temp

G28 W ; home all without mesh bed level
G80 N7 ; mesh bed leveling

M109 S240 ; wait for extruder temp

M221 S100 ; Set flow to 100

G1 Y-3.0 F1000.0 ; go outside print area
G92 E0.0
G1 E8 ; Purge Bubble
M73 P0 R39
G1 X60.0 E9.0 F1000.0 ; intro line
G1 X100.0 E12.5 F1000.0 ; intro line
G92 E0.0
G21 ; set units to millimeters
G90 ; use absolute coordinates
M83 ; use relative distances for extrusion
M900 K0.08 ; Filament gcode LA 1.5
M900 K45 ; Filament gcode LA 1.0
;BEFORE_LAYER_CHANGE
G92 E0.0
;0.2


G1 E-1.40000 F2100.00000
G1 Z0.200 F10800.000
;AFTER_LAYER_CHANGE
;0.2
G1 Z0.400
G1 X91.185 Y73.676
G1 Z0.200
G1 E1.40000 F2100.00000
M204 S1000
G1 F1200.000
G1 X91.898 Y72.802 E0.03537
G1 X92.753 Y71.948 E0.03788
G1 X93.686 Y71.193 E0.03764
G1 X94.713 Y70.527 E0.03836
G1 X95.776 Y69.987 E0.03740
G1 X96.911 Y69.551 E0.03812
G1 X98.078 Y69.240 E0.03788
G1 X99.321 Y69.047 E0.03943
G1 X100.467 Y68.989 E0.03597
G1 X149.534 Y68.989 E1.53848
G1 X150.727 Y69.051 E0.03744
G1 X151.823 Y69.221 E0.03478
G1 X153.215 Y69.596 E0.04518
G1 X154.237 Y69.992 E0.03438
G1 X155.309 Y70.540 E0.03776
G1 X156.316 Y71.194 E0.03764
G1 X157.249 Y71.950 E0.03764
G1 X158.101 Y72.801 E0.03776
G1 X158.800 Y73.657 E0.03466
G1 X159.584 Y74.865 E0.04514
G1 X160.079 Y75.845 E0.03442
G1 X160.509 Y76.969 E0.03776
G1 X160.820 Y78.129 E0.03764
G1 X161.004 Y79.273 E0.03633
G1 X161.073 Y80.517 E0.03907
G1 X161.019 Y81.625 E0.03477
G1 X158.785 Y118.453 E1.15683
G1 X158.568 Y119.772 E0.04192
G1 X158.281 Y120.832 E0.03442
G1 X157.893 Y121.850 E0.03418
G1 X157.301 Y123.033 E0.04145
G1 X156.588 Y124.119 E0.04074
G1 X155.875 Y124.993 E0.03537
G1 X155.023 Y125.844 E0.03776
G1 X154.090 Y126.600 E0.03764
G1 X153.100 Y127.245 E0.03704
G1 X131.912 Y139.487 E0.76725
G1 X130.760 Y140.061 E0.04036
G1 X129.742 Y140.447 E0.03415
G1 X128.634 Y140.746 E0.03596
G1 X127.393 Y140.947 E0.03943
G1 X126.198 Y141.011 E0.03752
G1 X101.646 Y141.011 E0.76982
G1 X100.552 Y140.956 E0.03434
G1 X99.248 Y140.758 E0.04134
G1 X97.970 Y140.406 E0.04157
G1 X96.954 Y140.012 E0.03418
G1 X95.970 Y139.515 E0.03455
G1 X94.794 Y138.753 E0.04394
G1 X93.920 Y138.040 E0.03538
G1 X93.064 Y137.182 E0.03799
G1 X92.309 Y136.249 E0.03765
G1 X91.643 Y135.222 E0.03837
G1 X91.103 Y134.159 E0.03738
G1 X90.667 Y133.020 E0.03824
G1 X90.356 Y131.851 E0.03791
G1 X90.161 Y130.556 E0.04107
G1 X88.928 Y80.490 E1.57028
G1 X88.990 Y79.331 E0.03637
G1 X89.157 Y78.250 E0.03430
G1 X89.496 Y76.953 E0.04205
G1 X89.923 Y75.843 E0.03728
G1 X90.419 Y74.859 E0.03454
G1 X91.153 Y73.727 E0.04231
; printing object bearing-pin.stl_2 id:1 copy 1
G1 F8640.000
G1 X91.898 Y72.802 E-0.27428
G1 X92.753 Y71.948 E-0.27896
G1 X93.686 Y71.193 E-0.27720
G1 X94.713 Y70.527 E-0.28249
G1 X95.551 Y70.101 E-0.21706
G1 E-0.07000 F2100.00000
G1 Z0.400 F10800.000
G1 X94.002 Y75.833
G1 Z0.200
G1 E1.40000 F2100.00000
G1 F1200.000
G1 X94.529 Y75.182 E0.02624
G1 X95.120 Y74.591 E0.02624
G1 X95.770 Y74.064 E0.02624
G1 X96.472 Y73.608 E0.02624
G1 X97.218 Y73.228 E0.02624
G1 X97.999 Y72.928 E0.02624
G1 X98.807 Y72.712 E0.02624
G1 X99.634 Y72.581 E0.02624
G1 X100.469 Y72.537 E0.02624
G1 X101.305 Y72.581 E0.02624
G1 X102.131 Y72.712 E0.02624
G1 X102.940 Y72.928 E0.02624
G1 X103.721 Y73.228 E0.02624
G1 X104.466 Y73.608 E0.02624
G1 X105.168 Y74.064 E0.02624
G1 X105.818 Y74.591 E0.02624
G1 X106.410 Y75.182 E0.02624
G1 X106.937 Y75.833 E0.02624
G1 X107.393 Y76.534 E0.02624
G1 X107.772 Y77.280 E0.02624
G1 X108.072 Y78.061 E0.02624
G1 X108.289 Y78.869 E0.02624
G1 X108.420 Y79.696 E0.02624
G1 X108.464 Y80.531 E0.02624
G1 X108.420 Y81.367 E0.02624
G1 X108.289 Y82.193 E0.02624
G1 X108.072 Y83.002 E0.02624
G1 X107.772 Y83.783 E0.02624
G1 X107.393 Y84.528 E0.02624
G1 X106.937 Y85.230 E0.02624
G1 X106.410 Y85.881 E0.02624
G1 X105.818 Y86.472 E0.02624
G1 X105.168 Y86.999 E0.02624
G1 X104.466 Y87.455 E0.02624
G1 X103.721 Y87.834 E0.02624
G1 X102.940 Y88.134 E0.02624
G1 X102.131 Y88.351 E0.02624
G1 X101.305 Y88.482 E0.02624
G1 X100.469 Y88.526 E0.02624
G1 X99.634 Y88.482 E0.02624
G1 X98.807 Y88.351 E0.02624
G1 X97.999 Y88.134 E0.02624
G1 X97.218 Y87.834 E0.02624
G1 X96.472 Y87.455 E0.02624
G1 X95.770 Y86.999 E0.02624
G1 X95.120 Y86.472 E0.02624
G1 X94.529 Y85.881 E0.02624
G1 X94.002 Y85.230 E0.02624
G1 X93.546 Y84.528 E0.02624
G1 X93.166 Y83.783 E0.02624
G1 X92.866 Y83.002 E0.02624
G1 X92.650 Y82.193 E0.02624
G1 X92.519 Y81.367 E0.02624
G1 X92.475 Y80.531 E0.02624
G1 X92.519 Y79.696 E0.02624
G1 X92.650 Y78.869 E0.02624
G1 X92.866 Y78.061 E0.02624
G1 X93.166 Y77.280 E0.02624
G1 X93.546 Y76.534 E0.02624
G1 X93.969 Y75.883 E0.02435
G1 X93.653 Y75.677 F10800.000
G1 F1200.000
G1 X94.248 Y74.930 E0.02996
G1 X94.868 Y74.310 E0.02748
G1 X95.549 Y73.758 E0.02748
G1 X96.283 Y73.281 E0.02748
G1 X97.064 Y72.883 E0.02748
G1 X97.882 Y72.569 E0.02748
G1 X98.729 Y72.343 E0.02748
G1 X99.594 Y72.205 E0.02748
G1 X100.469 Y72.160 E0.02748
G1 X101.344 Y72.205 E0.02748
G1 X102.210 Y72.343 E0.02748
G1 X103.056 Y72.569 E0.02748
G1 X103.874 Y72.883 E0.02748
G1 X104.655 Y73.281 E0.02748
G1 X105.390 Y73.758 E0.02748
G1 X106.071 Y74.310 E0.02748
G1 X106.691 Y74.930 E0.02748
G1 X107.242 Y75.611 E0.02748
G1 X107.720 Y76.345 E0.02748
G1 X108.117 Y77.126 E0.02748
G1 X108.431 Y77.944 E0.02748
G1 X108.658 Y78.791 E0.02748
G1 X108.795 Y79.656 E0.02748
G1 X108.841 Y80.531 E0.02748
G1 X108.795 Y81.406 E0.02748
G1 X108.658 Y82.272 E0.02748
G1 X108.431 Y83.118 E0.02748
G1 X108.117 Y83.936 E0.02748
G1 X107.720 Y84.717 E0.02748
G1 X107.242 Y85.452 E0.02748
G1 X106.691 Y86.133 E0.02748
G1 X106.071 Y86.753 E0.02748
G1 X105.390 Y87.304 E0.02748
G1 X104.655 Y87.782 E0.02748
G1 X103.874 Y88.179 E0.02748
G1 X103.056 Y88.493 E0.02748
G1 X102.210 Y88.720 E0.02748
G1 X101.344 Y88.857 E0.02748
G1 X100.469 Y88.903 E0.02748
G1 X99.594 Y88.857 E0.02748
G1 X98.729 Y88.720 E0.02748
G1 X97.882 Y88.493 E0.02748
G1 X97.064 Y88.179 E0.02748
G1 X96.283 Y87.782 E0.02748
G1 X95.549 Y87.304 E0.02748
G1 X94.868 Y86.753 E0.02748
G1 X94.248 Y86.133 E0.02748
G1 X93.696 Y85.452 E0.02748
G1 X93.219 Y84.717 E0.02748
G1 X92.821 Y83.936 E0.02748
G1 X92.507 Y83.118 E0.02748
G1 X92.281 Y82.272 E0.02748
G1 X92.143 Y81.406 E0.02748
G1 X92.098 Y80.531 E0.02748
G1 X92.143 Y79.656 E0.02748
G1 X92.281 Y78.791 E0.02748
G1 X92.507 Y77.944 E0.02748
G1 X92.821 Y77.126 E0.02748
G1 X93.219 Y76.345 E0.02748
G1 X93.620 Y75.728 E0.02309
G1 X94.051 Y75.717 F10800.000
G1 F8640.000
G1 X94.248 Y74.930 E-0.23446
G1 X94.868 Y74.310 E-0.20234
G1 X95.549 Y73.758 E-0.20234
G1 X96.283 Y73.281 E-0.20234
G1 X97.064 Y72.883 E-0.20234
G1 X97.882 Y72.569 E-0.20234
G1 X98.233 Y72.475 E-0.08385
G1 E-0.07000 F2100.00000
G1 Z0.400 F10800.000
G1 X107.074 Y76.252
G1 Z0.200
G1 E1.40000 F2100.00000
G1 F1200.000
G1 X105.600 Y74.777 E0.06671
G1 X105.002 Y74.293 E0.02463
G1 X104.325 Y73.853 E0.02583
G1 X103.931 Y73.653 E0.01414
G1 X107.348 Y77.070 E0.15462
G1 X107.514 Y77.395 E0.01169
G1 X107.753 Y78.019 E0.02140
G1 X102.981 Y73.247 E0.21594
G1 X102.218 Y73.028 E0.02543
G1 X107.973 Y78.783 E0.26045
G1 X108.094 Y79.449 E0.02165
G1 X101.552 Y72.906 E0.29606
G1 X101.275 Y72.863 E0.00896
G1 X100.947 Y72.845 E0.01053
G1 X108.155 Y80.054 E0.32621
G1 X108.176 Y80.619 E0.01808
G1 X100.382 Y72.825 E0.35269
G1 X99.865 Y72.852 E0.01657
G1 X108.149 Y81.136 E0.37486
G1 X108.093 Y81.624 E0.01573
G1 X99.377 Y72.908 E0.39442
G1 X98.907 Y72.982 E0.01522
G1 X108.018 Y82.094 E0.41232
G1 X107.907 Y82.527 E0.01430
G1 X98.474 Y73.094 E0.42685
G1 X98.048 Y73.212 E0.01414
G1 X107.788 Y82.952 E0.44076
G1 X107.637 Y83.346 E0.01348
G1 X97.655 Y73.363 E0.45172
G1 X97.268 Y73.520 E0.01337
G1 X107.480 Y83.733 E0.46215
G1 X107.297 Y84.093 E0.01295
G1 X96.907 Y73.704 E0.47015
G1 X96.614 Y73.853 E0.01054
G1 X96.552 Y73.893 E0.00234
G1 X107.107 Y84.448 E0.47764
G1 X106.893 Y84.778 E0.01259
G1 X96.222 Y74.108 E0.48287
G1 X95.896 Y74.326 E0.01255
G1 X106.675 Y85.104 E0.48775
G1 X106.431 Y85.405 E0.01238
G1 X95.596 Y74.569 E0.49034
G1 X95.296 Y74.814 E0.01238
G1 X106.186 Y85.704 E0.49280
G1 X105.914 Y85.976 E0.01231
G1 X95.024 Y75.086 E0.49280
G1 X94.752 Y75.358 E0.01231
G1 X105.642 Y86.249 E0.49280
G1 X105.343 Y86.493 E0.01238
G1 X94.507 Y75.658 E0.49034
G1 X94.264 Y75.959 E0.01238
G1 X105.042 Y86.737 E0.48775
G1 X104.716 Y86.955 E0.01255
G1 X94.046 Y76.285 E0.48287
G1 X93.831 Y76.614 E0.01259
G1 X104.386 Y87.169 E0.47764
G1 X104.031 Y87.359 E0.01287
G1 X93.642 Y76.969 E0.47015
G1 X93.458 Y77.330 E0.01295
G1 X103.671 Y87.543 E0.46215
G1 X103.283 Y87.699 E0.01337
G1 X93.301 Y77.717 E0.45172
G1 X93.150 Y78.110 E0.01348
G1 X102.890 Y87.850 E0.44076
G1 X102.464 Y87.969 E0.01414
G1 X93.032 Y78.536 E0.42685
G1 X92.920 Y78.969 E0.01430
G1 X102.032 Y88.080 E0.41231
G1 X101.562 Y88.155 E0.01522
G1 X92.846 Y79.439 E0.39442
G1 X92.790 Y79.927 E0.01573
G1 X101.074 Y88.211 E0.37486
G1 X100.557 Y88.238 E0.01657
G1 X92.763 Y80.444 E0.35268
G1 X92.783 Y81.009 E0.01808
G1 X99.992 Y88.217 E0.32620
G1 X99.663 Y88.200 E0.01053
G1 X99.387 Y88.156 E0.00897
G1 X92.844 Y81.614 E0.29605
G1 X92.966 Y82.280 E0.02165
G1 X98.721 Y88.035 E0.26044
G1 X97.957 Y87.815 E0.02544
G1 X93.185 Y83.044 E0.21593
G1 X93.425 Y83.668 E0.02139
G1 X93.591 Y83.993 E0.01169
G1 X97.007 Y87.410 E0.15461
G1 X96.614 Y87.209 E0.01413
G1 X95.937 Y86.770 E0.02583
G1 X95.338 Y86.285 E0.02465
G1 X93.865 Y84.811 E0.06668
; stop printing object bearing-pin.stl_2 id:1 copy 1
; printing object bearing-pin.stl_1 id:0 copy 1
G1 F8640.000
G1 X95.338 Y86.285 E-0.48115
G1 X95.937 Y86.770 E-0.17786
G1 X96.614 Y87.209 E-0.18637
G1 X97.007 Y87.410 E-0.10199
G1 X95.836 Y86.238 E-0.38263
G1 E-0.07000 F2100.00000
G1 Z0.400 F10800.000
G1 X98.398 Y97.635
G1 Z0.200
G1 E1.40000 F2100.00000
G1 F1200.000
G1 X99.179 Y97.335 E0.02624
G1 X99.987 Y97.118 E0.02624
G1 X100.814 Y96.988 E0.02624
G1 X101.649 Y96.944 E0.02623
G1 X102.485 Y96.988 E0.02624
G1 X103.312 Y97.118 E0.02624
G1 X104.120 Y97.335 E0.02624
G1 X104.901 Y97.635 E0.02624
G1 X105.647 Y98.015 E0.02624
G1 X106.348 Y98.471 E0.02624
G1 X106.999 Y98.997 E0.02624
G1 X107.590 Y99.589 E0.02624
G1 X108.117 Y100.239 E0.02624
G1 X108.573 Y100.941 E0.02624
G1 X108.952 Y101.686 E0.02624
G1 X109.252 Y102.468 E0.02624
G1 X109.469 Y103.276 E0.02624
G1 X109.600 Y104.102 E0.02624
G1 X109.644 Y104.938 E0.02624
G1 X109.600 Y105.774 E0.02624
G1 X109.469 Y106.600 E0.02624
G1 X109.252 Y107.408 E0.02624
G1 X108.952 Y108.190 E0.02624
G1 X108.573 Y108.935 E0.02624
G1 X108.117 Y109.637 E0.02624
G1 X107.590 Y110.287 E0.02624
G1 X106.999 Y110.879 E0.02624
G1 X106.348 Y111.405 E0.02624
G1 X105.647 Y111.861 E0.02624
G1 X104.901 Y112.241 E0.02624
G1 X104.120 Y112.541 E0.02624
G1 X103.312 Y112.757 E0.02624
G1 X102.485 Y112.888 E0.02624
G1 X101.649 Y112.932 E0.02623
G1 X100.814 Y112.888 E0.02623
G1 X99.987 Y112.757 E0.02624
G1 X99.179 Y112.541 E0.02624
G1 X98.398 Y112.241 E0.02624
G1 X97.652 Y111.861 E0.02624
G1 X96.951 Y111.405 E0.02624
G1 X96.300 Y110.879 E0.02624
G1 X95.709 Y110.287 E0.02624
G1 X95.182 Y109.637 E0.02624
G1 X94.726 Y108.935 E0.02624
G1 X94.346 Y108.190 E0.02624
G1 X94.047 Y107.408 E0.02624
G1 X93.830 Y106.600 E0.02624
G1 X93.699 Y105.774 E0.02624
G1 X93.655 Y104.938 E0.02624
G1 X93.699 Y104.102 E0.02624
G1 X93.830 Y103.276 E0.02624
G1 X94.047 Y102.468 E0.02624
G1 X94.346 Y101.686 E0.02624
G1 X94.726 Y100.941 E0.02624
G1 X95.182 Y100.239 E0.02624
G1 X95.709 Y99.589 E0.02624
G1 X96.300 Y98.997 E0.02624
G1 X96.951 Y98.471 E0.02624
G1 X97.652 Y98.015 E0.02624
G1 X98.344 Y97.662 E0.02435
G1 X98.173 Y97.326 F10800.000
G1 F1200.000
G1 X99.062 Y96.976 E0.02996
G1 X99.909 Y96.749 E0.02748
G1 X100.774 Y96.612 E0.02748
G1 X101.649 Y96.566 E0.02747
G1 X102.525 Y96.612 E0.02747
G1 X103.390 Y96.749 E0.02748
G1 X104.237 Y96.976 E0.02748
G1 X105.055 Y97.290 E0.02748
G1 X105.835 Y97.688 E0.02747
G1 X106.570 Y98.165 E0.02748
G1 X107.251 Y98.717 E0.02748
G1 X107.871 Y99.336 E0.02747
G1 X108.422 Y100.017 E0.02748
G1 X108.900 Y100.752 E0.02747
G1 X109.297 Y101.533 E0.02747
G1 X109.611 Y102.351 E0.02748
G1 X109.838 Y103.197 E0.02748
G1 X109.975 Y104.063 E0.02748
G1 X110.021 Y104.938 E0.02748
G1 X109.975 Y105.813 E0.02748
G1 X109.838 Y106.679 E0.02748
G1 X109.611 Y107.525 E0.02748
G1 X109.297 Y108.343 E0.02748
G1 X108.900 Y109.124 E0.02747
G1 X108.422 Y109.859 E0.02747
G1 X107.871 Y110.540 E0.02748
G1 X107.251 Y111.159 E0.02747
G1 X106.570 Y111.711 E0.02748
G1 X105.835 Y112.188 E0.02748
G1 X105.055 Y112.586 E0.02747
G1 X104.237 Y112.900 E0.02748
G1 X103.390 Y113.127 E0.02748
G1 X102.525 Y113.264 E0.02748
G1 X101.649 Y113.310 E0.02747
G1 X100.774 Y113.264 E0.02747
G1 X99.909 Y113.127 E0.02748
G1 X99.062 Y112.900 E0.02748
G1 X98.244 Y112.586 E0.02748
G1 X97.464 Y112.188 E0.02747
G1 X96.729 Y111.711 E0.02748
G1 X96.048 Y111.159 E0.02748
G1 X95.428 Y110.540 E0.02747
G1 X94.877 Y109.859 E0.02748
G1 X94.399 Y109.124 E0.02747
G1 X94.001 Y108.343 E0.02747
G1 X93.687 Y107.525 E0.02748
G1 X93.461 Y106.679 E0.02748
G1 X93.324 Y105.813 E0.02748
G1 X93.278 Y104.938 E0.02748
G1 X93.324 Y104.063 E0.02748
G1 X93.461 Y103.197 E0.02748
G1 X93.687 Y102.351 E0.02748
G1 X94.001 Y101.533 E0.02748
G1 X94.399 Y100.752 E0.02747
G1 X94.877 Y100.017 E0.02747
G1 X95.428 Y99.336 E0.02748
G1 X96.048 Y98.717 E0.02747
G1 X96.729 Y98.165 E0.02748
G1 X97.464 Y97.688 E0.02748
G1 X98.120 Y97.353 E0.02309
G1 X98.498 Y97.559 F10800.000
G1 F8640.000
G1 X99.062 Y96.976 E-0.23445
G1 X99.909 Y96.749 E-0.20233
G1 X100.774 Y96.612 E-0.20236
G1 X101.649 Y96.566 E-0.20233
G1 X102.525 Y96.612 E-0.20233
G1 X103.390 Y96.749 E-0.20236
G1 X103.741 Y96.843 E-0.08384
G1 E-0.07000 F2100.00000
G1 Z0.400 F10800.000
G1 X95.045 Y109.218
G1 Z0.200
G1 E1.40000 F2100.00000
G1 F1200.000
G1 X96.518 Y110.691 E0.06667
G1 X97.117 Y111.176 E0.02465
G1 X97.794 Y111.616 E0.02583
G1 X98.187 Y111.816 E0.01413
G1 X94.771 Y108.400 E0.15460
G1 X94.605 Y108.074 E0.01170
G1 X94.366 Y107.450 E0.02139
G1 X99.137 Y112.222 E0.21593
G1 X99.901 Y112.442 E0.02544
G1 X94.146 Y106.686 E0.26044
G1 X94.025 Y106.021 E0.02165
G1 X100.567 Y112.563 E0.29605
G1 X100.843 Y112.607 E0.00897
G1 X101.172 Y112.624 E0.01052
G1 X93.963 Y105.416 E0.32620
G1 X93.943 Y104.851 E0.01808
M73 P2 R38
G1 X101.737 Y112.644 E0.35268
G1 X102.254 Y112.617 E0.01657
G1 X93.970 Y104.334 E0.37486
G1 X94.026 Y103.845 E0.01573
G1 X102.742 Y112.561 E0.39442
G1 X103.212 Y112.487 E0.01522
G1 X94.101 Y103.376 E0.41231
G1 X94.212 Y102.943 E0.01430
G1 X103.645 Y112.375 E0.42685
G1 X104.070 Y112.257 E0.01414
G1 X94.330 Y102.517 E0.44076
G1 X94.481 Y102.124 E0.01348
G1 X104.464 Y112.106 E0.45172
G1 X104.851 Y111.949 E0.01337
G1 X94.638 Y101.737 E0.46215
G1 X94.822 Y101.376 E0.01295
G1 X105.211 Y111.765 E0.47015
G1 X105.566 Y111.576 E0.01287
G1 X95.011 Y101.021 E0.47764
G1 X95.226 Y100.691 E0.01259
G1 X105.896 Y111.362 E0.48288
G1 X106.222 Y111.144 E0.01255
G1 X95.444 Y100.365 E0.48775
G1 X95.687 Y100.064 E0.01238
G1 X106.523 Y110.900 E0.49034
G1 X106.822 Y110.655 E0.01238
G1 X95.932 Y99.765 E0.49280
G1 X96.204 Y99.493 E0.01231
G1 X107.094 Y110.383 E0.49280
G1 X107.367 Y110.111 E0.01231
G1 X96.477 Y99.221 E0.49280
G1 X96.776 Y98.976 E0.01238
G1 X107.611 Y109.812 E0.49034
G1 X107.855 Y109.511 E0.01238
G1 X97.077 Y98.732 E0.48775
G1 X97.403 Y98.514 E0.01255
G1 X108.073 Y109.185 E0.48288
G1 X108.287 Y108.855 E0.01259
G1 X97.733 Y98.300 E0.47764
G1 X97.794 Y98.260 E0.00234
