; generated by PrusaSlicer 2.2.0+win64 on 2020-10-10 at 18:25:57 UTC


;
;

;
;
; 

; external perimeters extrusion width = 0.45mm
; perimeters extrusion width = 0.45mm
; infill extrusion width = 0.45mm
; solid infill extrusion width = 0.45mm
; top infill extrusion width = 0.40mm
; first layer extrusion width = 0.42mm

M73 P0 R29
M201 X9000 Y9000 Z500 E10000 ; sets maximum accelerations, mm/sec^2
M203 X500 Y500 Z12 E120 ; sets maximum feedrates, mm/sec
M204 P2000 R1500 T2000 ; sets acceleration (P, T) and retract acceleration (R), mm/sec^2
M205 X10.00 Y10.00 Z0.20 E2.50 ; sets the jerk limits, mm/sec
M205 S0 T0 ; sets the minimum extruding and travel feed rate, mm/sec
M107
M83  ; extruder relative mode
M140 S85 ; set bed temp
M109 S160 ; Set extruder temp before bed level
M190 S85 ; wait for bed temp

G28 W ; home all without mesh bed level
G80 N7 ; mesh bed leveling

M109 S240 ; wait for extruder temp

M221 S100 ; Set flow to 100

G1 Y-3.0 F1000.0 ; go outside print area
G92 E0.0
G1 E8 ; Purge Bubble
M73 P0 R29
G1 X60.0 E9.0 F1000.0 ; intro line
G1 X100.0 E12.5 F1000.0 ; intro line
G92 E0.0
G21 ; set units to millimeters
G90 ; use absolute coordinates
M83 ; use relative distances for extrusion
M900 K0.08 ; Filament gcode LA 1.5
M900 K45 ; Filament gcode LA 1.0
;BEFORE_LAYER_CHANGE
G92 E0.0
;0.2


G1 E-1.40000 F2100.00000
G1 Z0.200 F10800.000
;AFTER_LAYER_CHANGE
;0.2
G1 Z0.400
G1 X117.040 Y97.044
G1 Z0.200
G1 E1.40000 F2100.00000
M204 S1000
G1 F1200.000
G1 X117.756 Y96.387 E0.03046
G1 X118.757 Y95.636 E0.03924
G1 X119.819 Y95.009 E0.03868
G1 X120.667 Y94.613 E0.02934
G1 X121.829 Y94.202 E0.03864
G1 X122.736 Y93.975 E0.02931
G1 X123.944 Y93.795 E0.03830
G1 X124.918 Y93.746 E0.03056
G1 X126.140 Y93.803 E0.03838
G1 X127.069 Y93.937 E0.02943
G1 X128.255 Y94.226 E0.03826
G1 X129.178 Y94.550 E0.03068
G1 X130.261 Y95.051 E0.03740
G1 X131.106 Y95.546 E0.03071
G1 X132.115 Y96.279 E0.03911
G1 X133.026 Y97.111 E0.03868
G1 X133.682 Y97.838 E0.03071
G1 X134.421 Y98.843 E0.03912
G1 X134.896 Y99.641 E0.02912
G1 X135.426 Y100.762 E0.03886
G1 X135.828 Y101.932 E0.03881
G1 X136.046 Y102.845 E0.02943
G1 X136.215 Y104.063 E0.03855
G1 X136.254 Y105.001 E0.02943
G1 X136.186 Y106.229 E0.03855
G1 X136.045 Y107.161 E0.02955
G1 X135.743 Y108.353 E0.03856
G1 X135.425 Y109.240 E0.02955
G1 X134.901 Y110.348 E0.03843
G1 X134.419 Y111.158 E0.02956
G1 X133.691 Y112.149 E0.03855
G1 X133.036 Y112.878 E0.03072
G1 X132.157 Y113.684 E0.03739
G1 X131.375 Y114.273 E0.03071
G1 X130.309 Y114.922 E0.03912
G1 X129.191 Y115.443 E0.03868
G1 X128.256 Y115.772 E0.03108
G1 X127.063 Y116.063 E0.03852
G1 X124.929 Y116.253 E0.06716
G1 X123.970 Y116.206 E0.03011
G1 X122.747 Y116.025 E0.03878
G1 X121.830 Y115.797 E0.02961
G1 X120.670 Y115.387 E0.03857
G1 X119.560 Y114.850 E0.03868
G1 X118.757 Y114.363 E0.02943
G1 X117.773 Y113.626 E0.03855
G1 X117.076 Y112.991 E0.02956
G1 X116.252 Y112.079 E0.03855
G1 X115.692 Y111.325 E0.02943
G1 X115.058 Y110.272 E0.03855
G1 X114.651 Y109.422 E0.02956
G1 X114.232 Y108.270 E0.03842
G1 X113.996 Y107.358 E0.02956
G1 X113.804 Y106.143 E0.03855
G1 X113.747 Y105.161 E0.03084
G1 X113.793 Y103.969 E0.03739
G1 X113.925 Y103.003 E0.03059
G1 X114.213 Y101.789 E0.03911
G1 X114.628 Y100.632 E0.03855
G1 X115.049 Y99.742 E0.03085
G1 X115.690 Y98.677 E0.03898
G1 X117.002 Y97.090 E0.06457
G1 X117.291 Y97.329 F10800.000
G1 F1200.000
G1 X118.005 Y96.670 E0.03045
G1 X118.959 Y95.954 E0.03740
G1 X120.807 Y94.963 E0.06575
G1 X122.811 Y94.345 E0.06574
G1 X123.984 Y94.170 E0.03720
G1 X124.915 Y94.123 E0.02921
G1 X126.993 Y94.306 E0.06542
G1 X128.150 Y94.589 E0.03735
G1 X129.045 Y94.903 E0.02975
G1 X130.089 Y95.386 E0.03607
G1 X130.908 Y95.867 E0.02976
G1 X131.873 Y96.568 E0.03740
G1 X132.761 Y97.379 E0.03770
G1 X133.396 Y98.085 E0.02977
G1 X134.103 Y99.046 E0.03740
G1 X135.075 Y100.899 E0.06563
G1 X135.675 Y102.913 E0.06587
G1 X135.877 Y104.996 E0.06563
G1 X135.676 Y107.080 E0.06563
G1 X135.077 Y109.093 E0.06587
G1 X134.106 Y110.948 E0.06563
G1 X133.396 Y111.913 E0.03758
G1 X132.761 Y112.619 E0.02977
G1 X131.913 Y113.396 E0.03606
G1 X131.155 Y113.967 E0.02976
G1 X130.136 Y114.587 E0.03741
G1 X129.046 Y115.096 E0.03772
G1 X128.150 Y115.410 E0.02976
G1 X126.995 Y115.692 E0.03729
G1 X124.928 Y115.876 E0.06507
G1 X123.998 Y115.830 E0.02919
G1 X122.820 Y115.656 E0.03734
G1 X120.820 Y115.041 E0.06560
G1 X118.971 Y114.052 E0.06574
G1 X117.345 Y112.727 E0.06575
G1 X116.009 Y111.121 E0.06550
G1 X115.000 Y109.278 E0.06587
G1 X114.366 Y107.284 E0.06563
G1 X114.179 Y106.099 E0.03760
G1 X114.124 Y105.148 E0.02988
G1 X114.173 Y103.956 E0.03740
G1 X114.354 Y102.771 E0.03759
G1 X114.588 Y101.854 E0.02965
G1 X114.978 Y100.772 E0.03606
G1 X115.384 Y99.917 E0.02968
G1 X115.999 Y98.892 E0.03748
G1 X117.253 Y97.375 E0.06171
; printing object Lever.stl id:0 copy 0
G1 F8640.000
G1 X118.005 Y96.670 E-0.23801
G1 X118.959 Y95.954 E-0.27545
G1 X120.807 Y94.963 E-0.48421
G1 X122.182 Y94.539 E-0.33233
G1 E-0.07000 F2100.00000
G1 Z0.400 F10800.000
G1 X121.906 Y102.003
G1 Z0.200
G1 E1.40000 F2100.00000
G1 F1200.000
G1 X122.113 Y101.806 E0.00898
G1 X122.507 Y101.492 E0.01581
G1 X122.926 Y101.233 E0.01542
G1 X123.181 Y101.106 E0.00896
G1 X123.631 Y100.929 E0.01516
G1 X123.906 Y100.849 E0.00896
G1 X124.388 Y100.754 E0.01542
G1 X124.891 Y100.715 E0.01581
G1 X125.177 Y100.719 E0.00898
G1 X125.658 Y100.770 E0.01516
G1 X125.939 Y100.825 E0.00898
G1 X126.423 Y100.967 E0.01581
G1 X126.883 Y101.164 E0.01568
G1 X127.320 Y101.415 E0.01581
G1 X127.554 Y101.580 E0.00899
G1 X127.938 Y101.907 E0.01581
G1 X128.273 Y102.268 E0.01542
G1 X128.448 Y102.494 E0.00896
G1 X128.712 Y102.908 E0.01542
G1 X128.932 Y103.362 E0.01580
G1 X129.032 Y103.630 E0.00898
G1 X129.161 Y104.096 E0.01516
G1 X129.212 Y104.378 E0.00898
G1 X129.257 Y104.880 E0.01581
G1 X129.242 Y105.372 E0.01542
G1 X129.208 Y105.656 E0.00898
G1 X129.102 Y106.149 E0.01581
G1 X128.943 Y106.614 E0.01542
G1 X128.827 Y106.876 E0.00896
G1 X128.587 Y107.305 E0.01542
G1 X128.292 Y107.713 E0.01581
G1 X128.103 Y107.929 E0.00898
G1 X127.754 Y108.263 E0.01516
G1 X127.530 Y108.442 E0.00898
G1 X127.109 Y108.719 E0.01581
G1 X126.669 Y108.939 E0.01542
G1 X126.402 Y109.043 E0.00898
G1 X125.918 Y109.184 E0.01580
G1 X125.433 Y109.265 E0.01543
G1 X125.148 Y109.286 E0.00896
G1 X124.656 Y109.279 E0.01542
G1 X124.157 Y109.212 E0.01580
G1 X123.877 Y109.148 E0.00898
G1 X123.410 Y108.996 E0.01542
G1 X122.952 Y108.785 E0.01581
G1 X122.704 Y108.642 E0.00898
G1 X122.302 Y108.359 E0.01542
G1 X121.927 Y108.022 E0.01580
G1 X121.732 Y107.812 E0.00899
G1 X121.424 Y107.412 E0.01581
G1 X121.171 Y106.990 E0.01542
G1 X121.047 Y106.733 E0.00896
G1 X120.878 Y106.280 E0.01516
G1 X120.801 Y106.004 E0.00898
G1 X120.712 Y105.508 E0.01581
G1 X120.682 Y105.008 E0.01568
G1 X120.712 Y104.505 E0.01581
G1 X120.754 Y104.222 E0.00898
G1 X120.869 Y103.752 E0.01516
G1 X120.961 Y103.481 E0.00898
G1 X121.167 Y103.021 E0.01580
G1 X121.419 Y102.599 E0.01542
G1 X121.588 Y102.368 E0.00896
G1 X121.866 Y102.049 E0.01328
G1 X122.150 Y102.297 F10800.000
G1 F1200.000
G1 X122.361 Y102.090 E0.00925
G1 X122.724 Y101.801 E0.01457
G1 X123.109 Y101.563 E0.01419
G1 X123.335 Y101.450 E0.00790
G1 X123.753 Y101.286 E0.01410
G1 X123.995 Y101.215 E0.00790
G1 X124.439 Y101.128 E0.01419
G1 X124.903 Y101.092 E0.01457
G1 X125.155 Y101.096 E0.00791
G1 X125.602 Y101.143 E0.01410
G1 X125.849 Y101.192 E0.00791
G1 X126.295 Y101.323 E0.01457
G1 X126.714 Y101.502 E0.01429
G1 X127.117 Y101.734 E0.01457
G1 X127.323 Y101.879 E0.00791
G1 X127.677 Y102.180 E0.01457
G1 X127.985 Y102.512 E0.01419
G1 X128.139 Y102.711 E0.00790
G1 X128.383 Y103.092 E0.01419
G1 X128.585 Y103.511 E0.01457
G1 X128.674 Y103.747 E0.00791
G1 X128.793 Y104.180 E0.01410
G1 X128.838 Y104.428 E0.00791
G1 X128.879 Y104.891 E0.01457
G1 X128.866 Y105.344 E0.01419
G1 X128.835 Y105.594 E0.00791
G1 X128.738 Y106.048 E0.01457
G1 X128.592 Y106.477 E0.01419
G1 X128.489 Y106.707 E0.00790
G1 X128.269 Y107.102 E0.01419
G1 X127.996 Y107.478 E0.01457
G1 X127.831 Y107.668 E0.00791
G1 X127.505 Y107.979 E0.01410
G1 X127.308 Y108.136 E0.00791
G1 X126.920 Y108.392 E0.01457
G1 X126.515 Y108.594 E0.01419
G1 X126.281 Y108.686 E0.00791
G1 X125.835 Y108.816 E0.01457
G1 X125.388 Y108.890 E0.01420
G1 X125.137 Y108.909 E0.00790
G1 X124.684 Y108.902 E0.01419
G1 X124.224 Y108.840 E0.01457
G1 X123.978 Y108.784 E0.00790
G1 X123.547 Y108.644 E0.01419
G1 X123.125 Y108.450 E0.01457
G1 X122.907 Y108.324 E0.00791
G1 X122.537 Y108.063 E0.01419
G1 X122.191 Y107.753 E0.01457
G1 X122.020 Y107.568 E0.00791
G1 X121.736 Y107.200 E0.01457
G1 X121.504 Y106.811 E0.01419
G1 X121.395 Y106.584 E0.00790
G1 X121.237 Y106.163 E0.01410
G1 X121.169 Y105.920 E0.00791
G1 X121.087 Y105.463 E0.01457
G1 X121.060 Y105.008 E0.01429
G1 X121.087 Y104.544 E0.01457
G1 X121.125 Y104.295 E0.00791
G1 X121.231 Y103.858 E0.01410
G1 X121.313 Y103.620 E0.00791
G1 X121.502 Y103.195 E0.01457
G1 X121.735 Y102.807 E0.01419
G1 X121.883 Y102.603 E0.00790
G1 X122.111 Y102.342 E0.01087
G1 X122.066 Y102.014 F10800.000
G1 F8640.000
G1 X122.361 Y102.090 E-0.08195
G1 X122.724 Y101.801 E-0.10727
G1 X123.109 Y101.563 E-0.10452
G1 X123.335 Y101.450 E-0.05818
G1 X123.753 Y101.286 E-0.10384
G1 X123.995 Y101.215 E-0.05818
G1 X124.439 Y101.128 E-0.10452
G1 X124.903 Y101.092 E-0.10727
G1 X125.155 Y101.096 E-0.05822
G1 X125.602 Y101.143 E-0.10382
G1 X125.849 Y101.192 E-0.05823
G1 X126.295 Y101.323 E-0.10727
G1 X126.714 Y101.502 E-0.10521
G1 X127.117 Y101.734 E-0.10727
G1 X127.323 Y101.879 E-0.05826
G1 X127.343 Y101.896 E-0.00599
G1 E-0.07000 F2100.00000
G1 Z0.400 F10800.000
G1 X118.624 Y100.662
G1 Z0.200
G1 E1.40000 F2100.00000
G1 F1200.000
G1 X119.170 Y99.950 E0.02812
G1 X119.570 Y99.523 E0.01835
G1 X120.245 Y98.927 E0.02823
G1 X120.717 Y98.585 E0.01828
G1 X121.496 Y98.129 E0.02830
G1 X122.027 Y97.883 E0.01835
G1 X122.877 Y97.585 E0.02823
G1 X123.445 Y97.445 E0.01836
G1 X124.333 Y97.316 E0.02811
G1 X125.226 Y97.290 E0.02801
G1 X125.813 Y97.330 E0.01847
G1 X126.697 Y97.476 E0.02807
G1 X127.557 Y97.723 E0.02805
G1 X128.099 Y97.937 E0.01828
G1 X128.903 Y98.347 E0.02830
G1 X129.401 Y98.666 E0.01853
G1 X129.871 Y99.020 E0.01846
G1 X130.535 Y99.628 E0.02823
G1 X130.926 Y100.064 E0.01835
G1 X131.461 Y100.788 E0.02823
G1 X131.762 Y101.290 E0.01835
G1 X132.148 Y102.104 E0.02823
G1 X132.347 Y102.654 E0.01836
G1 X132.570 Y103.526 E0.02823
G1 X132.660 Y104.105 E0.01835
G1 X132.712 Y105.000 E0.02812
G1 X132.660 Y105.894 E0.02805
G1 X132.570 Y106.472 E0.01835
G1 X132.348 Y107.339 E0.02805
G1 X132.027 Y108.176 E0.02812
G1 X131.766 Y108.700 E0.01835
G1 X131.289 Y109.464 E0.02823
G1 X130.932 Y109.928 E0.01835
G1 X130.317 Y110.585 E0.02823
G1 X129.878 Y110.973 E0.01835
G1 X129.149 Y111.501 E0.02823
G1 X128.644 Y111.796 E0.01835
G1 X127.827 Y112.175 E0.02823
G1 X127.274 Y112.369 E0.01835
G1 X126.404 Y112.582 E0.02810
G1 X125.517 Y112.694 E0.02804
G1 X124.930 Y112.711 E0.01839
G1 X124.031 Y112.650 E0.02825
G1 X123.455 Y112.555 E0.01833
G1 X122.584 Y112.323 E0.02824
G1 X122.036 Y112.119 E0.01835
G1 X121.226 Y111.725 E0.02823
G1 X120.727 Y111.419 E0.01835
G1 X120.008 Y110.878 E0.02823
G1 X119.576 Y110.482 E0.01835
G1 X118.978 Y109.817 E0.02805
G1 X118.459 Y109.085 E0.02813
G1 X118.168 Y108.577 E0.01835
G1 X117.798 Y107.757 E0.02823
G1 X117.609 Y107.202 E0.01835
G1 X117.403 Y106.326 E0.02823
G1 X117.324 Y105.746 E0.01835
G1 X117.289 Y104.846 E0.02823
G1 X117.323 Y104.262 E0.01835
G1 X117.461 Y103.372 E0.02823
G1 X117.607 Y102.805 E0.01835
G1 X117.913 Y101.958 E0.02823
G1 X118.164 Y101.429 E0.01835
G1 X118.593 Y100.713 E0.02617
G1 X118.269 Y100.519 F10800.000
G1 F1200.000
G1 X118.882 Y99.706 E0.03193
G1 X119.307 Y99.252 E0.01949
G1 X120.009 Y98.632 E0.02937
G1 X120.511 Y98.269 E0.01942
G1 X121.321 Y97.794 E0.02944
G1 X121.885 Y97.533 E0.01949
G1 X122.769 Y97.223 E0.02937
G1 X123.373 Y97.075 E0.01950
G1 X124.300 Y96.940 E0.02936
G1 X125.233 Y96.913 E0.02927
G1 X125.857 Y96.955 E0.01961
G1 X126.780 Y97.108 E0.02933
G1 X127.678 Y97.366 E0.02930
G1 X128.254 Y97.593 E0.01942
G1 X129.091 Y98.020 E0.02944
G1 X129.616 Y98.356 E0.01956
G1 X130.113 Y98.730 E0.01949
G1 X130.803 Y99.363 E0.02937
G1 X131.219 Y99.825 E0.01949
G1 X131.775 Y100.579 E0.02937
G1 X132.095 Y101.112 E0.01949
G1 X132.496 Y101.958 E0.02937
G1 X132.708 Y102.543 E0.01950
G1 X132.940 Y103.451 E0.02937
G1 X133.036 Y104.065 E0.01949
G1 X133.090 Y105.000 E0.02938
G1 X133.036 Y105.934 E0.02931
G1 X132.940 Y106.548 E0.01950
G1 X132.708 Y107.453 E0.02931
G1 X132.373 Y108.328 E0.02938
G1 X132.096 Y108.885 E0.01949
G1 X131.599 Y109.679 E0.02937
G1 X131.220 Y110.172 E0.01949
G1 X130.580 Y110.856 E0.02937
G1 X130.114 Y111.268 E0.01949
G1 X129.355 Y111.817 E0.02937
G1 X128.819 Y112.131 E0.01949
G1 X127.969 Y112.525 E0.02937
G1 X127.382 Y112.730 E0.01949
G1 X126.473 Y112.954 E0.02935
G1 X125.546 Y113.070 E0.02930
G1 X124.923 Y113.089 E0.01953
G1 X123.988 Y113.025 E0.02939
G1 X123.375 Y112.924 E0.01947
G1 X122.470 Y112.683 E0.02938
G1 X121.887 Y112.466 E0.01949
G1 X121.045 Y112.056 E0.02937
G1 X120.514 Y111.731 E0.01949
G1 X119.766 Y111.168 E0.02937
G1 X119.308 Y110.748 E0.01950
G1 X118.683 Y110.053 E0.02931
G1 X118.141 Y109.288 E0.02938
G1 X117.832 Y108.749 E0.01949
G1 X117.446 Y107.895 E0.02937
G1 X117.246 Y107.306 E0.01950
G1 X117.032 Y106.395 E0.02937
G1 X116.948 Y105.778 E0.01949
G1 X116.912 Y104.842 E0.02937
G1 X116.948 Y104.222 E0.01950
G1 X117.092 Y103.296 E0.02937
G1 X117.246 Y102.694 E0.01949
G1 X117.564 Y101.813 E0.02937
G1 X117.831 Y101.251 E0.01949
G1 X118.238 Y100.571 E0.02486
G1 X118.668 Y100.549 F10800.000
G1 F8640.000
G1 X118.882 Y99.706 E-0.24891
G1 X119.307 Y99.252 E-0.14356
G1 X120.009 Y98.632 E-0.21630
G1 X120.511 Y98.269 E-0.14304
G1 X121.321 Y97.794 E-0.21682
G1 X121.885 Y97.533 E-0.14356
G1 X122.769 Y97.223 E-0.21630
G1 X122.776 Y97.222 E-0.00151
G1 E-0.07000 F2100.00000
G1 Z0.400 F10800.000
G1 X120.873 Y111.377
G1 Z0.200
G1 E1.40000 F2100.00000
G1 F1200.000
G1 X119.756 Y110.259 E0.05003
G1 X119.199 Y109.640 E0.02639
G1 X118.698 Y108.933 E0.02746
G1 X118.368 Y108.332 E0.02170
G1 X121.655 Y111.619 E0.14722
G1 X122.147 Y111.859 E0.01735
G1 X122.603 Y112.028 E0.01539
G1 X117.975 Y107.401 E0.20724
G1 X117.881 Y107.124 E0.00927
G1 X117.772 Y106.659 E0.01514
G1 X123.346 Y112.234 E0.24968
G1 X124.012 Y112.361 E0.02146
G1 X117.643 Y105.991 E0.28526
G1 X117.606 Y105.721 E0.00863
G1 X117.594 Y105.404 E0.01006
G1 X124.595 Y112.405 E0.31357
G1 X124.936 Y112.428 E0.01081
G1 X125.151 Y112.422 E0.00681
G1 X117.573 Y104.844 E0.33939
G1 X117.602 Y104.335 E0.01615
G1 X125.810 Y112.543 E0.36762
G1 F8640.000
G1 X121.737 Y108.470 E-1.33000
G1 E-0.07000 F2100.00000
G1 Z0.400 F10800.000
G1 X132.387 Y106.731
G1 Z0.200
G1 E1.40000 F2100.00000
G1 F1200.000
G1 X129.341 Y103.685 E0.13643
G1 X129.437 Y104.033 E0.01143
G1 X129.496 Y104.379 E0.01111
G1 X132.138 Y107.021 E0.11831
G1 X132.079 Y107.253 E0.00759
G1 X132.010 Y107.432 E0.00606
G1 X129.537 Y104.959 E0.11075
G1 X129.514 Y105.474 E0.01635
G1 X131.861 Y107.821 E0.10509
G1 X131.700 Y108.199 E0.01301
G1 X129.437 Y105.936 E0.10136
G1 X129.327 Y106.365 E0.01402
G1 X131.521 Y108.558 E0.09825
G1 X131.314 Y108.890 E0.01238
G1 X129.187 Y106.763 E0.09527
G1 X129.011 Y107.126 E0.01277
G1 X131.107 Y109.221 E0.09385
G1 X130.879 Y109.532 E0.01221
G1 X128.817 Y107.470 E0.09236
G1 X128.591 Y107.783 E0.01222
G1 X130.637 Y109.829 E0.09165
G1 X130.377 Y110.107 E0.01207
G1 X128.348 Y108.079 E0.09086
G1 X128.077 Y108.346 E0.01206
G1 X130.116 Y110.385 E0.09135
G1 X129.830 Y110.638 E0.01209
G1 X127.789 Y108.597 E0.09141
G1 X127.472 Y108.818 E0.01225
G1 X129.530 Y110.876 E0.09215
G1 X129.217 Y111.102 E0.01222
G1 X127.136 Y109.021 E0.09319
G1 X126.777 Y109.200 E0.01272
G1 X128.897 Y111.320 E0.09495
G1 X128.557 Y111.519 E0.01247
G1 X126.382 Y109.344 E0.09743
G1 X125.962 Y109.463 E0.01380
G1 X128.193 Y111.694 E0.09989
G1 X127.825 Y111.864 E0.01285
G1 X125.501 Y109.540 E0.10409
G1 X124.988 Y109.566 E0.01625
G1 X127.434 Y112.013 E0.10956
G1 X127.193 Y112.097 E0.00809
G1 X127.022 Y112.139 E0.00558
G1 X124.415 Y109.532 E0.11679
G1 X124.106 Y109.490 E0.00986
G1 X123.748 Y109.403 E0.01168
