; generated by PrusaSlicer 2.9.4 on 2026-03-10 at 13:26:56 UTC


;
;

;
;
; 

; external perimeters extrusion width = 0.45mm
; perimeters extrusion width = 0.45mm
; infill extrusion width = 0.45mm
; solid infill extrusion width = 0.45mm
; top infill extrusion width = 0.40mm
; first layer extrusion width = 0.42mm

; external perimeters extrusion width = 0.45mm
; perimeters extrusion width = 0.45mm
; infill extrusion width = 0.45mm
; solid infill extrusion width = 0.45mm
; top infill extrusion width = 0.40mm
; first layer extrusion width = 0.42mm

M73 P0 R71
M201 X9000 Y9000 Z500 E10000 ; sets maximum accelerations, mm/sec^2
M203 X500 Y500 Z12 E120 ; sets maximum feedrates, mm / sec
M204 S2000 T1500 ; sets acceleration (S) and retract acceleration (R), mm/sec^2
M205 X10.00 Y10.00 Z0.20 E4.50 ; sets the jerk limits, mm/sec
M205 S0 T0 ; sets the minimum extruding and travel feed rate, mm/sec

; printing object e_nozzle_fan_duct.stl id:0 copy 0
; stop printing object e_nozzle_fan_duct.stl id:0 copy 0
; printing object e_nozzle_fan_duct_knob.stl id:1 copy 0
; stop printing object e_nozzle_fan_duct_knob.stl id:1 copy 0

;TYPE:Custom
M83  ; extruder relative mode
M140 S100 ; set bed temp
M109 S160 ; Set extruder temp before bed level
M190 S100 ; wait for bed temp

G28 W ; home all without mesh bed level
G80 N7 ; mesh bed leveling

M109 S255 ; wait for extruder temp

M221 S100 ; Set flow to 100

G1 Y-3.0 F1000.0 ; go outside print area
G92 E0.0
G1 E8 ; Purge Bubble
G1 X60.0 E9.0 F1000.0 ; intro line
G1 X100.0 E12.5 F1000.0 ; intro line
G92 E0.0
G21 ; set units to millimeters
G90 ; use absolute coordinates
M83 ; use relative distances for extrusion

M900 K0.04 ; Filament gcode LA 1.5
M900 K20 ; Filament gcode LA 1.0




M107
;LAYER_CHANGE
;Z:0.2
;HEIGHT:0.2
G1 E-.8 F2100
G1 Z.8 F720
G1 X103.77 Y71.604 F10800
G1 Z.2 F720
G1 E.8 F2100
M204 S800
;TYPE:Skirt/Brim
;WIDTH:0.42
G1 F1200
G1 X109.829 Y64.203 E.2999
G1 X111.522 Y63.4 E.05875
G1 X138.479 Y63.4 E.84522
G1 X140.172 Y64.203 E.05875
G1 X146.231 Y71.604 E.2999
G1 X147.105 Y73.232 E.05794
G1 X147.738 Y74.682 E.04961
G1 X148.255 Y76.064 E.04626
G1 X148.875 Y78.144 E.06805
G1 X149.344 Y80.236 E.06722
G1 X149.568 Y81.694 E.04625
G1 X149.725 Y83.273 E.04975
G1 X149.783 Y86.108 E.08891
G1 X149.687 Y87.407 E.04084
G1 X149.503 Y88.55 E.0363
G1 X149.234 Y89.655 E.03566
G1 X132.151 Y143.638 E1.77533
G1 X131.611 Y144.671 E.03655
G1 X130.872 Y145.67 E.03896
G1 X130.036 Y146.496 E.03685
G1 X129.098 Y147.16 E.03603
G1 X127.604 Y147.879 E.05199
G1 X126.472 Y148.205 E.03694
G1 X124.987 Y148.345 E.04677
G1 X123.553 Y148.209 E.04516
G1 X122.396 Y147.879 E.03772
G1 X120.902 Y147.16 E.05199
G1 X119.983 Y146.512 E.03526
G1 X119.294 Y145.855 E.02985
G1 X118.609 Y145.005 E.03423
G1 X118.046 Y144.057 E.03457
G1 X117.702 Y143.26 E.02722
G1 X100.725 Y89.503 E1.76757
G1 X100.314 Y87.407 E.06697
G1 X100.218 Y86.108 E.04084
G1 X100.285 Y83.161 E.09242
G1 X100.658 Y80.236 E.09245
G1 X101.303 Y77.471 E.08902
G1 X101.782 Y75.962 E.04964
G1 X102.568 Y73.972 E.06709
G1 X103.508 Y72.008 E.06827
G1 X103.738 Y71.654 E.01324
M204 S1000
;WIPE_START
G1 F8640
G1 X103.77 Y71.604 E-.01371
G1 X105.927 Y68.969 E-.78629
;WIPE_END
G1 Z.8 F720
; printing object e_nozzle_fan_duct.stl id:0 copy 0
G1 X128.797 Y74.763 F10800
G1 Z.2 F720
G1 E.8 F2100
M204 S800
;TYPE:Perimeter
;WIDTH:0.419999
G1 F1200
G1 X128.943 Y74.612 E.00659
G1 X129.141 Y74.203 E.01425
G1 X129.192 Y73.84 E.01149
G1 X129.197 Y72.97 E.02728
G1 X129.246 Y72.279 E.02172
G1 X129.362 Y71.556 E.02296
G1 X129.514 Y70.961 E.01925
G1 X129.74 Y70.303 E.02181
G1 X130.008 Y69.687 E.02106
G1 X130.324 Y69.087 E.02126
G1 X130.682 Y68.509 E.02132
G1 X131.398 Y67.53 E.03803
G1 X137.559 Y67.53 E.19317
G1 X142.899 Y74.053 E.26432
G1 X143.454 Y75.181 E.03942
G1 X143.965 Y76.378 E.04081
G1 X144.398 Y77.565 E.03962
G1 X144.761 Y78.732 E.03832
G1 X145.07 Y79.958 E.03964
G1 X145.314 Y81.194 E.0395
G1 X145.494 Y82.419 E.03882
G1 X145.609 Y83.659 E.03905
G1 X145.66 Y84.904 E.03907
G1 X145.654 Y86.024 E.03512
G1 X145.594 Y86.855 E.02612
G1 X145.468 Y87.668 E.0258
G1 X145.277 Y88.469 E.02582
G1 X145.022 Y89.251 E.02579
G1 X144.705 Y90.01 E.02579
G1 X144.327 Y90.74 E.02578
G1 X143.892 Y91.438 E.02579
G1 X143.401 Y92.098 E.02579
G1 X142.858 Y92.717 E.02582
G1 X142.267 Y93.289 E.02579
G1 X141.632 Y93.812 E.02579
G1 X140.957 Y94.282 E.02579
G1 X140.246 Y94.695 E.02578
G1 X139.515 Y95.044 E.0254
G1 X139.041 Y95.226 E.01592
G1 X139.055 Y91.021 E.13185
G1 X139.004 Y90.652 E.01168
G1 X138.863 Y90.331 E.01099
G1 X138.626 Y90.043 E.01169
G1 X138.251 Y89.802 E.01398
G1 X138.229 Y89.474 E.01031
G1 X138.112 Y89.08 E.01289
G1 X137.854 Y88.715 E.01401
G1 X132.741 Y83.603 E.2267
G1 X132.3 Y83.188 E.01899
G1 X131.89 Y82.994 E.01422
G1 X131.52 Y82.946 E.0117
G1 X131.157 Y83.011 E.01156
G1 X130.876 Y82.772 E.01157
G1 X130.579 Y82.64 E.01019
G1 X130.197 Y82.584 E.01211
G1 X120.579 Y82.584 E.30157
G1 X119.538 Y82.611 E.03265
G1 X119.125 Y82.772 E.0139
G1 X118.844 Y83.011 E.01157
G1 X118.631 Y82.956 E.0069
G1 X118.309 Y82.955 E.0101
G1 X117.881 Y83.081 E.01399
G1 X117.531 Y83.332 E.0135
G1 X112.574 Y88.288 E.21978
G1 X112.014 Y88.87 E.02532
G1 X111.822 Y89.249 E.01332
G1 X111.751 Y89.802 E.01748
G1 X111.375 Y90.043 E.014
G1 X111.138 Y90.331 E.01169
G1 X110.997 Y90.652 E.01099
G1 X110.946 Y91.021 E.01168
G1 X110.96 Y95.226 E.13185
G1 X110.498 Y95.05 E.0155
G1 X109.756 Y94.695 E.02579
G1 X109.044 Y94.282 E.02581
G1 X108.369 Y93.812 E.02579
G1 X107.734 Y93.289 E.02579
G1 X107.143 Y92.717 E.02579
G1 X106.6 Y92.098 E.02582
G1 X106.11 Y91.438 E.02577
G1 X105.674 Y90.74 E.0258
G1 X105.296 Y90.01 E.02578
G1 X104.979 Y89.251 E.02579
G1 X104.724 Y88.469 E.02579
G1 X104.533 Y87.668 E.02582
G1 X104.407 Y86.855 E.0258
G1 X104.347 Y86.024 E.02612
G1 X104.34 Y84.779 E.03904
G1 X104.399 Y83.524 E.03939
G1 X104.522 Y82.274 E.03938
G1 X104.71 Y81.032 E.03939
G1 X104.963 Y79.802 E.03937
G1 X105.279 Y78.586 E.03939
G1 X105.658 Y77.389 E.03937
G1 X106.052 Y76.335 E.03528
G1 X106.601 Y75.058 E.04358
G1 X107.1 Y74.056 E.0351
G1 X112.442 Y67.53 E.26443
G1 X118.603 Y67.53 E.19317
G1 X119.358 Y68.561 E.04007
G1 X119.741 Y69.191 E.02312
G1 X120.073 Y69.844 E.02297
G1 X120.335 Y70.48 E.02157
G1 X120.551 Y71.163 E.02246
G1 X120.692 Y71.791 E.02018
G1 X120.785 Y72.511 E.02276
G1 X120.809 Y73.099 E.01845
G1 X120.809 Y73.84 E.02323
G1 X120.86 Y74.203 E.01149
G1 X121.058 Y74.612 E.01425
G1 X121.323 Y74.885 E.01193
G1 X121.732 Y75.099 E.01447
G1 X122.129 Y75.16 E.01259
G1 X127.872 Y75.16 E.18007
G1 X128.269 Y75.099 E.01259
G1 X128.678 Y74.885 E.01447
G1 X128.755 Y74.806 E.00346
M204 S1000
G1 X128.524 Y74.509 F10800
M204 S800
G1 F1200
G1 X128.567 Y74.477 E.00168
G1 X128.753 Y74.176 E.01109
G1 X128.815 Y73.84 E.01071
G1 X128.815 Y73.091 E.02348
G1 X128.84 Y72.479 E.0192
G1 X128.937 Y71.725 E.02384
G1 X129.086 Y71.064 E.02125
G1 X129.312 Y70.352 E.02342
G1 X129.595 Y69.667 E.02324
G1 X129.931 Y69.008 E.02319
G1 X130.319 Y68.369 E.02344
G1 X130.803 Y67.687 E.02622
G1 X131.212 Y67.153 E.02109
G1 X137.738 Y67.153 E.20462
G1 X143.218 Y73.848 E.27127
G1 X143.797 Y75.022 E.04104
G1 X144.318 Y76.245 E.04168
G1 X144.758 Y77.453 E.04031
G1 X145.125 Y78.63 E.03866
G1 X145.44 Y79.882 E.04048
G1 X145.688 Y81.139 E.04017
G1 X145.869 Y82.375 E.03917
G1 X145.985 Y83.642 E.03989
G1 X146.037 Y84.906 E.03967
G1 X146.031 Y86.038 E.03549
G1 X145.969 Y86.898 E.02703
G1 X145.839 Y87.741 E.02674
G1 X145.641 Y88.571 E.02675
G1 X145.376 Y89.382 E.02675
G1 X145.047 Y90.169 E.02675
G1 X144.655 Y90.927 E.02676
G1 X144.203 Y91.651 E.02676
G1 X143.694 Y92.336 E.02676
G1 X143.132 Y92.977 E.02673
G1 X142.519 Y93.571 E.02676
G1 X141.86 Y94.113 E.02675
G1 X141.16 Y94.6 E.02674
G1 X140.422 Y95.029 E.02676
G1 X139.652 Y95.396 E.02674
G1 X138.646 Y95.781 E.03377
G1 X138.663 Y95.584 E.0062
G1 X138.678 Y91.02 E.1431
G1 X138.596 Y90.632 E.01243
G1 X138.415 Y90.363 E.01017
G1 X138.103 Y90.149 E.01186
G1 X137.714 Y90.103 E.01228
G1 X137.859 Y89.739 E.01229
G1 X137.855 Y89.523 E.00677
G1 X137.797 Y89.3 E.00722
G1 X137.587 Y88.981 E.01197
G1 X132.204 Y83.599 E.23867
G1 X131.954 Y83.42 E.00964
G1 X131.584 Y83.324 E.01199
G1 X131.189 Y83.389 E.01255
G1 X131.013 Y83.544 E.00735
G1 X130.939 Y83.322 E.00734
G1 X130.771 Y83.156 E.00741
G1 X130.556 Y83.032 E.00778
G1 X130.197 Y82.961 E.01147
G1 X119.705 Y82.966 E.32897
G1 X119.371 Y83.066 E.01093
G1 X119.062 Y83.322 E.01258
G1 X118.988 Y83.544 E.00734
G1 X118.812 Y83.389 E.00735
G1 X118.417 Y83.324 E.01255
G1 X118.048 Y83.42 E.01195
G1 X117.797 Y83.599 E.00967
G1 X112.319 Y89.092 E.24324
G1 X112.182 Y89.363 E.00952
G1 X112.142 Y89.739 E.01186
G1 X112.287 Y90.103 E.01229
G1 X111.898 Y90.149 E.01228
G1 X111.629 Y90.321 E.01001
G1 X111.405 Y90.632 E.01202
G1 X111.323 Y91.02 E.01243
G1 X111.335 Y94.744 E.11676
G1 X111.356 Y95.781 E.03252
G1 X110.349 Y95.396 E.0338
G1 X109.579 Y95.029 E.02674
G1 X108.842 Y94.6 E.02674
G1 X108.141 Y94.113 E.02676
G1 X107.482 Y93.571 E.02675
G1 X106.87 Y92.977 E.02674
G1 X106.307 Y92.336 E.02675
G1 X105.798 Y91.651 E.02676
G1 X105.346 Y90.927 E.02676
G1 X104.954 Y90.169 E.02676
G1 X104.625 Y89.382 E.02675
G1 X104.36 Y88.571 E.02675
G1 X104.163 Y87.741 E.02675
G1 X104.032 Y86.898 E.02675
G1 X103.97 Y86.038 E.02703
G1 X103.963 Y84.771 E.03973
G1 X104.022 Y83.497 E.03999
G1 X104.148 Y82.227 E.04002
G1 X104.339 Y80.966 E.03999
G1 X104.595 Y79.717 E.03998
G1 X104.916 Y78.482 E.04001
G1 X105.301 Y77.266 E.03999
G1 X105.702 Y76.194 E.03589
G1 X106.258 Y74.9 E.04416
G1 X106.782 Y73.85 E.03679
G1 X112.263 Y67.153 E.27134
G1 X118.789 Y67.153 E.20462
G1 X119.199 Y67.688 E.02113
G1 X119.673 Y68.354 E.02563
G1 X120.07 Y69.008 E.02399
G1 X120.416 Y69.687 E.02389
G1 X120.689 Y70.351 E.02251
G1 X120.915 Y71.064 E.02345
G1 X121.064 Y71.725 E.02125
G1 X121.161 Y72.479 E.02384
G1 X121.203 Y74.018 E.04827
G1 X121.313 Y74.311 E.00981
G1 X121.553 Y74.586 E.01144
G1 X121.845 Y74.739 E.01034
G1 X122.129 Y74.783 E.00901
G1 X127.981 Y74.783 E.18349
G1 X128.286 Y74.687 E.01003
G1 X128.476 Y74.545 E.00744
M204 S1000
G1 X128.269 Y74.224 F10800
M204 S800
G1 F1200
G1 X128.384 Y74.079 E.0058
G1 X128.438 Y73.84 E.00768
G1 X128.438 Y73.084 E.0237
G1 X128.464 Y72.447 E.01999
G1 X128.566 Y71.66 E.02488
G1 X128.721 Y70.966 E.0223
G1 X128.957 Y70.223 E.02444
G1 X129.252 Y69.509 E.02422
G1 X129.601 Y68.824 E.0241
G1 X130.003 Y68.162 E.02428
G1 X130.499 Y67.463 E.02687
G1 X131.026 Y66.776 E.02715
G1 X137.916 Y66.776 E.21603
G1 X143.537 Y73.643 E.27824
G1 X144.139 Y74.863 E.04266
G1 X144.671 Y76.113 E.04259
G1 X145.118 Y77.341 E.04097
G1 X145.488 Y78.529 E.03901
G1 X145.809 Y79.806 E.04128
G1 X146.061 Y81.085 E.04087
G1 X146.244 Y82.331 E.03949
G1 X146.362 Y83.624 E.04071
G1 X146.414 Y84.908 E.04029
G1 X146.408 Y86.053 E.0359
G1 X146.344 Y86.94 E.02788
G1 X146.209 Y87.814 E.02773
G1 X146.004 Y88.673 E.02769
G1 X145.73 Y89.513 E.0277
G1 X145.389 Y90.329 E.02773
G1 X144.983 Y91.114 E.02771
G1 X144.515 Y91.863 E.02769
G1 X143.988 Y92.573 E.02772
G1 X143.405 Y93.237 E.02771
G1 X142.77 Y93.852 E.02772
G1 X142.088 Y94.414 E.02771
G1 X141.362 Y94.918 E.02771
G1 X140.598 Y95.362 E.02771
G1 X139.801 Y95.743 E.0277
G1 X138.158 Y96.39 E.05537
G1 X138.223 Y96.128 E.00846
G1 X138.286 Y95.583 E.0172
G1 X138.298 Y91.841 E.11733
G1 X138.279 Y90.861 E.03073
G1 X138.182 Y90.67 E.00672
G1 X137.956 Y90.496 E.00894
G1 X137.571 Y90.476 E.01209
G1 X136.824 Y90.69 E.02436
G1 X137.3 Y90.082 E.02421
G1 X137.484 Y89.702 E.01324
G1 X137.46 Y89.477 E.00709
G1 X137.321 Y89.248 E.0084
G1 X131.864 Y83.804 E.24168
G1 X131.623 Y83.706 E.00816
G1 X131.329 Y83.74 E.00928
G1 X131.032 Y84.012 E.01263
G1 X130.749 Y84.576 E.01979
G1 X130.762 Y83.945 E.01979
G1 X130.642 Y83.555 E.01279
G1 X130.457 Y83.401 E.00755
G1 X130.197 Y83.338 E.00839
G1 X119.804 Y83.338 E.32586
G1 X119.597 Y83.377 E.0066
G1 X119.359 Y83.555 E.00932
G1 X119.238 Y83.916 E.01194
G1 X119.252 Y84.576 E.0207
G1 X118.97 Y84.012 E.01977
G1 X118.673 Y83.74 E.01263
G1 X118.535 Y83.704 E.00447
G1 X118.313 Y83.72 E.00698
G1 X118.064 Y83.865 E.00903
G1 X112.68 Y89.248 E.23871
G1 X112.554 Y89.44 E.0072
M73 P0 R70
G1 X112.517 Y89.703 E.00833
G1 X112.701 Y90.082 E.01321
G1 X113.192 Y90.708 E.02494
G1 X112.431 Y90.476 E.02494
G1 X112.045 Y90.496 E.01212
G1 X111.933 Y90.56 E.00404
G1 X111.749 Y90.786 E.00914
G1 X111.7 Y91.019 E.00747
G1 X111.719 Y95.651 E.14523
G1 X111.843 Y96.39 E.02349
G1 X111.486 Y96.234 E.01222
G1 X110.201 Y95.743 E.04313
G1 X109.403 Y95.362 E.02773
G1 X108.639 Y94.918 E.02771
G1 X107.913 Y94.414 E.02771
G1 X107.231 Y93.852 E.02771
G1 X106.596 Y93.237 E.02772
G1 X106.013 Y92.573 E.02771
G1 X105.486 Y91.863 E.02772
G1 X105.018 Y91.114 E.02769
G1 X104.612 Y90.329 E.02771
G1 X104.271 Y89.513 E.02773
G1 X103.997 Y88.673 E.0277
G1 X103.792 Y87.814 E.02769
G1 X103.657 Y86.94 E.02773
G1 X103.593 Y86.053 E.02788
G1 X103.586 Y84.763 E.04045
G1 X103.646 Y83.469 E.04062
G1 X103.773 Y82.181 E.04058
G1 X103.968 Y80.9 E.04063
G1 X104.228 Y79.631 E.04062
G1 X104.554 Y78.378 E.04059
G1 X104.945 Y77.143 E.04062
G1 X105.352 Y76.054 E.03645
G1 X105.916 Y74.741 E.04481
G1 X106.463 Y73.644 E.03843
G1 X112.085 Y66.776 E.27829
G1 X118.976 Y66.776 E.21606
G1 X119.502 Y67.463 E.02713
G1 X119.988 Y68.146 E.02628
G1 X120.4 Y68.824 E.02488
G1 X120.759 Y69.529 E.02481
G1 X121.044 Y70.222 E.02349
G1 X121.28 Y70.966 E.02447
G1 X121.436 Y71.66 E.0223
G1 X121.548 Y72.713 E.0332
G1 X121.574 Y73.947 E.0387
G1 X121.67 Y74.171 E.00764
G1 X121.881 Y74.348 E.00864
G1 X122.129 Y74.406 E.00799
G1 X127.943 Y74.406 E.18229
G1 X128.218 Y74.288 E.00938
G1 X128.231 Y74.271 E.00067
M204 S1000
G1 X128.016 Y73.941 F10800
M204 S800
;TYPE:External perimeter
G1 F1200
G1 X128.061 Y73.84 E.00347
G1 X128.061 Y73.076 E.02395
G1 X128.088 Y72.415 E.02074
G1 X128.194 Y71.594 E.02596
G1 X128.357 Y70.867 E.02336
G1 X128.602 Y70.093 E.02545
G1 X128.91 Y69.351 E.02519
G1 X129.271 Y68.64 E.025
G1 X129.688 Y67.955 E.02514
G1 X130.196 Y67.239 E.02753
G1 X130.84 Y66.399 E.03319
G1 X138.095 Y66.399 E.22748
G1 X143.856 Y73.437 E.28517
G1 X144.481 Y74.705 E.04432
M73 P1 R70
G1 X145.024 Y75.981 E.04348
G1 X145.478 Y77.229 E.04164
G1 X145.851 Y78.427 E.03934
G1 X146.179 Y79.731 E.04216
G1 X146.434 Y81.03 E.04151
G1 X146.618 Y82.287 E.03983
G1 X146.739 Y83.607 E.04156
G1 X146.791 Y84.911 E.04092
G1 X146.785 Y86.068 E.03628
G1 X146.719 Y86.982 E.02873
G1 X146.579 Y87.886 E.02868
G1 X146.367 Y88.776 E.02869
G1 X146.084 Y89.645 E.02866
G1 X145.731 Y90.488 E.02866
G1 X145.311 Y91.301 E.02869
G1 X144.827 Y92.076 E.02865
G1 X144.281 Y92.81 E.02868
G1 X143.678 Y93.497 E.02866
G1 X143.022 Y94.134 E.02867
G1 X142.316 Y94.715 E.02867
G1 X141.565 Y95.237 E.02868
G1 X140.775 Y95.696 E.02865
G1 X139.949 Y96.09 E.02869
G1 X138.487 Y96.658 E.04918
G1 X137.811 Y96.975 E.02341
;WIDTH:0.381767
G1 X137.613 Y97.027 E.00577
;WIDTH:0.367401
G1 X136.88 Y97.138 E.02
;WIDTH:0.371823
G1 X136.023 Y97.207 E.02351
G1 X135.842 Y97.174 E.00503
G1 X135.837 Y96.907 E.0073
G1 X136.004 Y96.878 E.00464
G1 X136.862 Y96.814 E.02353
;WIDTH:0.367197
G1 X137.564 Y96.706 E.01915
;WIDTH:0.413412
G1 X137.711 Y96.595 E.00567
;WIDTH:0.419999
G1 X137.848 Y96.081 E.01668
G1 X137.909 Y95.582 E.01576
G1 X137.923 Y90.994 E.14385
G1 X137.847 Y90.865 E.00469
G1 X137.681 Y90.837 E.00528
G1 X136.767 Y91.115 E.02995
G1 X136.203 Y91.213 E.01795
G1 X135.83 Y91.239 E.01172
G1 X136.527 Y90.458 E.03282
G1 X137.003 Y89.849 E.02424
G1 X137.109 Y89.666 E.00663
G1 X137.054 Y89.515 E.00504
G1 X131.664 Y84.126 E.23898
G1 X131.513 Y84.078 E.00497
G1 X131.369 Y84.181 E.00555
G1 X130.788 Y85.34 E.04065
G1 X130.374 Y85.806 E.01954
G1 X130.356 Y85.332 E.01487
G1 X130.385 Y83.937 E.04375
G1 X130.346 Y83.787 E.00486
G1 X130.197 Y83.715 E.00519
G1 X120.579 Y83.715 E.30157
G1 X119.707 Y83.742 E.02735
G1 X119.615 Y83.908 E.00595
G1 X119.642 Y85.203 E.04061
G1 X119.627 Y85.806 E.01891
G1 X119.199 Y85.313 E.02047
G1 X118.629 Y84.174 E.03993
G1 X118.466 Y84.077 E.00595
G1 X118.331 Y84.132 E.00457
G1 X112.947 Y89.515 E.23871
G1 X112.893 Y89.666 E.00503
G1 X112.998 Y89.849 E.00662
G1 X113.568 Y90.567 E.02874
G1 X114.171 Y91.239 E.02831
