; generated by PrusaSlicer 2.4.1+win64 on 2022-04-08 at 20:24:48 UTC


;
;

;
;
; 

; external perimeters extrusion width = 0.45mm
; perimeters extrusion width = 0.45mm
; infill extrusion width = 0.45mm
; solid infill extrusion width = 0.45mm
; top infill extrusion width = 0.40mm
; first layer extrusion width = 0.42mm

M73 P0 R7
M107
;TYPE:Custom
M83  ; extruder relative mode
M140 S85 ; set bed temp
M109 S160 ; Set extruder temp before bed level
M190 S85 ; wait for bed temp

G28 W ; home all without mesh bed level
G80 N7 ; mesh bed leveling

M109 S240 ; wait for extruder temp

M221 S100 ; Set flow to 100

G1 Y-3.0 F1000.0 ; go outside print area
G92 E0.0
G1 E8 ; Purge Bubble
G1 X60.0 E9.0 F1000.0 ; intro line
G1 X100.0 E12.5 F1000.0 ; intro line
G92 E0.0
G21 ; set units to millimeters
G90 ; use absolute coordinates
M83 ; use relative distances for extrusion
M900 K0.08 ; Filament gcode LA 1.5
M900 K45 ; Filament gcode LA 1.0
M107
;LAYER_CHANGE
;Z:0.2
;HEIGHT:0.2
;BEFORE_LAYER_CHANGE
G92 E0.0
;0.2


G1 E-1 F2100
M73 P1 R7
G1 Z.2 F720
;AFTER_LAYER_CHANGE
;0.2
G1 Z.4
G1 X111.028 Y92.754 F6000
G1 Z.2 F720
G1 E1 F2100
M204 S800
;TYPE:Skirt/Brim
;WIDTH:0.42
G1 F1200
G1 X111.873 Y91.81 E.03973
G1 X112.84 Y90.992 E.03973
G1 X113.827 Y90.359 E.03675
G1 X114.976 Y89.823 E.03973
G1 X116 Y89.497 E.03373
G1 X117.216 Y89.271 E.03878
G1 X118.482 Y89.212 E.03972
G1 X120.056 Y89.384 E.04964
G1 X121.488 Y89.79 E.04667
G1 X122.917 Y90.469 E.04963
G1 X124.209 Y91.384 E.04963
G1 X138.194 Y105.093 E.61402
G1 X139.03 Y106.045 E.03973
M73 P2 R7
G1 X139.679 Y107.021 E.03675
G1 X140.38 Y108.545 E.05261
G1 X140.812 Y110.297 E.05656
G1 X140.888 Y112.194 E.05953
G1 X140.628 Y113.852 E.0526
G1 X140.017 Y115.549 E.05656
G1 X139.03 Y117.17 E.05953
G1 X137.896 Y118.407 E.0526
G1 X136.365 Y119.531 E.05953
G1 X135.231 Y120.094 E.03973
G1 X134.029 Y120.496 E.03973
G1 X132.878 Y120.717 E.03675
G1 X131.613 Y120.79 E.03973
G1 X130.35 Y120.687 E.03973
G1 X129.113 Y120.411 E.03973
G1 X127.927 Y119.968 E.03972
G1 X126.812 Y119.366 E.03973
G1 X125.321 Y118.19 E.05953
G1 X111.839 Y104.941 E.59267
G1 X111.028 Y104.03 E.03824
G1 X110.321 Y102.979 E.03973
G1 X109.766 Y101.84 E.03973
G1 X109.416 Y100.801 E.03436
G1 X109.175 Y99.609 E.03815
G1 X109.094 Y98.345 E.03972
G1 X109.175 Y97.175 E.03676
G1 X109.429 Y95.934 E.03972
G1 X109.851 Y94.74 E.03973
G1 X110.347 Y93.762 E.03436
G1 X110.995 Y92.804 E.03626
M204 S1000
G1 X111.307 Y93.014 F6000
M204 S800
G1 F1200
G1 X112.133 Y92.084 E.039
G1 X113.06 Y91.298 E.03809
G1 X114.014 Y90.687 E.03553
G1 X115.115 Y90.174 E.03809
G1 X116.091 Y89.863 E.0321
G1 X117.255 Y89.646 E.03715
G1 X118.469 Y89.589 E.03809
G1 X119.898 Y89.737 E.04503
G1 X121.36 Y90.145 E.0476
G1 X122.731 Y90.797 E.0476
G1 X123.969 Y91.675 E.0476
G1 X137.925 Y105.357 E.6128
G1 X138.677 Y106.205 E.03553
M73 P3 R7
G1 X139.241 Y107.023 E.03115
G1 X139.996 Y108.59 E.05453
G1 X140.405 Y110.136 E.05016
G1 X140.525 Y111.871 E.05453
G1 X140.283 Y113.675 E.05708
G1 X139.768 Y115.19 E.05016
G1 X138.859 Y116.768 E.05708
G1 X137.706 Y118.069 E.05452
G1 X136.249 Y119.161 E.05709
G1 X135.166 Y119.712 E.03809
G1 X134.018 Y120.109 E.03809
G1 X132.826 Y120.344 E.03809
G1 X131.613 Y120.412 E.03809
G1 X130.402 Y120.313 E.0381
G1 X129.216 Y120.049 E.03809
G1 X128.078 Y119.623 E.03809
G1 X127.01 Y119.045 E.03809
G1 X125.581 Y117.916 E.05709
G1 X112.104 Y104.672 E.59246
G1 X111.323 Y103.795 E.03682
G1 X110.759 Y102.977 E.03115
G1 X110.199 Y101.899 E.03809
G1 X109.793 Y100.754 E.03809
G1 X109.549 Y99.564 E.03809
G1 X109.471 Y98.433 E.03553
G1 X109.528 Y97.391 E.03273
G1 X109.737 Y96.245 E.03651
G1 X110.113 Y95.09 E.03809
G1 X110.646 Y93.998 E.03809
G1 X111.273 Y93.063 E.0353
M204 S1000
; printing object z_leadscrew_cap.stl id:0 copy 1
;WIPE_START
G1 F4800
G1 X112.133 Y92.084 E-.54173
G1 X112.882 Y91.449 E-.40827
;WIPE_END
G1 E-.05 F2100
G1 Z.4 F720
G1 X117.307 Y93.53 F6000
G1 Z.2 F720
G1 E1 F2100
M204 S800
;TYPE:Perimeter
G1 F1200
G1 X117.554 Y93.48 E.00791
G1 X118.173 Y93.429 E.01947
G1 X118.719 Y93.447 E.01714
G1 X119.177 Y93.51 E.0145
G1 X119.75 Y93.651 E.01849
G1 X119.996 Y93.742 E.00824
G1 X120.26 Y93.637 E.00888
G1 X120.916 Y93.994 E.02342
G1 X121.248 Y94.211 E.01243
G1 X121.563 Y94.451 E.01241
G1 X121.861 Y94.717 E.01253
G1 X122.201 Y95.081 E.01562
G1 X122.482 Y95.442 E.01435
G1 X122.722 Y95.817 E.01396
G1 X122.903 Y96.162 E.01221
G1 X123.043 Y96.484 E.01102
G1 X123.283 Y97.184 E.02319
G1 X123.139 Y97.421 E.00869
G1 X123.228 Y98.044 E.01971
G1 X123.24 Y98.47 E.01338
G1 X123.218 Y98.867 E.01247
G1 X123.163 Y99.265 E.01259
G1 X123.073 Y99.671 E.01303
G1 X122.923 Y100.106 E.01442
G1 X123.029 Y100.371 E.00895
M73 P4 R7
G1 X122.766 Y100.871 E.01772
G1 X122.461 Y101.36 E.01807
G1 X122.213 Y101.683 E.01276
G1 X121.816 Y102.111 E.01833
G1 X121.482 Y102.405 E.01393
G1 X121.033 Y102.727 E.01733
G1 X120.619 Y102.963 E.01495
G1 X120.187 Y103.157 E.01484
G1 X119.484 Y103.399 E.0233
G1 X119.247 Y103.255 E.00869
G1 X118.624 Y103.344 E.01971
G1 X118.198 Y103.356 E.01338
G1 X117.801 Y103.334 E.01247
G1 X117.403 Y103.279 E.01259
G1 X116.997 Y103.189 E.01303
G1 X116.562 Y103.039 E.01442
G1 X116.297 Y103.145 E.00895
G1 X115.797 Y102.882 E.01772
G1 X115.308 Y102.577 E.01807
G1 X114.985 Y102.329 E.01276
G1 X114.557 Y101.932 E.01833
G1 X114.263 Y101.598 E.01393
G1 X113.941 Y101.149 E.01733
G1 X113.705 Y100.735 E.01495
G1 X113.511 Y100.303 E.01484
G1 X113.269 Y99.6 E.0233
G1 X113.413 Y99.363 E.00869
G1 X113.324 Y98.741 E.01968
G1 X113.312 Y98.347 E.01238
G1 X113.332 Y97.945 E.01261
G1 X113.389 Y97.52 E.01346
G1 X113.479 Y97.113 E.01306
G1 X113.629 Y96.678 E.01441
G1 X113.521 Y96.408 E.00911
G1 X113.881 Y95.747 E.0236
G1 X114.212 Y95.26 E.01846
G1 X114.6 Y94.809 E.01867
G1 X115.068 Y94.38 E.01988
G1 X115.607 Y94.002 E.02066
G1 X116.133 Y93.724 E.01867
G1 X117.061 Y93.381 E.031
G1 X117.255 Y93.499 E.00714
M204 S1000
G1 X117.021 Y93.798 F6000
M204 S800
;TYPE:External perimeter
G1 F1200
G1 X117.237 Y93.928 E.00792
G1 X117.607 Y93.854 E.01182
G1 X118.182 Y93.806 E.0181
G1 X118.687 Y93.824 E.01584
G1 X119.107 Y93.881 E.01328
G1 X119.639 Y94.012 E.01719
G1 X120.002 Y94.146 E.01212
G1 X120.235 Y94.053 E.00788
G1 X120.722 Y94.318 E.0174
G1 X121.03 Y94.519 E.01152
G1 X121.322 Y94.742 E.01151
G1 X121.597 Y94.988 E.01156
G1 X121.914 Y95.326 E.01454
G1 X122.174 Y95.66 E.01326
G1 X122.395 Y96.007 E.01291
G1 X122.562 Y96.325 E.01128
G1 X122.691 Y96.621 E.01011
G1 X122.869 Y97.14 E.0172
G1 X122.74 Y97.353 E.0078
G1 X122.806 Y97.671 E.01019
G1 X122.852 Y98.07 E.0126
G1 X122.862 Y98.465 E.01238
G1 X122.842 Y98.831 E.0115
G1 X122.791 Y99.199 E.01163
G1 X122.71 Y99.568 E.01187
G1 X122.521 Y100.115 E.01814
G1 X122.614 Y100.349 E.0079
G1 X122.439 Y100.683 E.01183
G1 X122.15 Y101.145 E.01707
G1 X121.925 Y101.44 E.01164
G1 X121.552 Y101.841 E.01716
G1 X121.247 Y102.109 E.01275
G1 X120.829 Y102.41 E.01613
G1 X120.448 Y102.627 E.01377
G1 X120.048 Y102.806 E.01373
G1 X119.528 Y102.985 E.01724
G1 X119.315 Y102.856 E.0078
G1 X118.997 Y102.922 E.01019
G1 X118.598 Y102.968 E.0126
G1 X118.203 Y102.978 E.01238
G1 X117.837 Y102.958 E.0115
G1 X117.469 Y102.907 E.01163
G1 X117.1 Y102.826 E.01187
G1 X116.553 Y102.637 E.01814
G1 X116.319 Y102.73 E.0079
G1 X115.985 Y102.555 E.01183
G1 X115.523 Y102.266 E.01707
G1 X115.228 Y102.041 E.01164
G1 X114.827 Y101.668 E.01716
G1 X114.559 Y101.363 E.01275
G1 X114.258 Y100.945 E.01613
G1 X114.041 Y100.564 E.01377
G1 X113.862 Y100.164 E.01373
G1 X113.683 Y99.644 E.01724
G1 X113.812 Y99.431 E.0078
G1 X113.746 Y99.113 E.01019
G1 X113.7 Y98.714 E.01259
G1 X113.689 Y98.351 E.01141
G1 X113.708 Y97.98 E.01164
G1 X113.761 Y97.586 E.01247
G1 X113.842 Y97.216 E.01188
G1 X114.031 Y96.669 E.01813
G1 X113.937 Y96.433 E.00796
G1 X114.203 Y95.944 E.01747
G1 X114.512 Y95.49 E.01721
G1 X114.871 Y95.071 E.01729
G1 X115.304 Y94.675 E.01841
G1 X115.804 Y94.324 E.01915
G1 X116.287 Y94.069 E.01714
G1 X116.965 Y93.818 E.02265
M204 S1000
G1 X117.193 Y93.613 F6000
G1 X116.754 Y92.965
M204 S800
;TYPE:Perimeter
G1 F1200
G1 X117.403 Y92.819 E.02087
G1 X117.989 Y92.759 E.01846
G1 X118.375 Y92.752 E.0121
G1 X118.956 Y92.793 E.01827
G1 X119.531 Y92.893 E.01831
G1 X120.093 Y93.052 E.01831
G1 X120.635 Y93.269 E.01831
G1 X121.157 Y93.542 E.01846
G1 X121.481 Y93.751 E.0121
G1 X121.943 Y94.106 E.01827
G1 X122.366 Y94.508 E.01831
G1 X122.746 Y94.952 E.01831
G1 X123.081 Y95.437 E.01847
G1 X123.268 Y95.766 E.01189
G1 X123.515 Y96.301 E.01847
G1 X123.703 Y96.854 E.01831
G1 X123.833 Y97.423 E.01831
G1 X123.903 Y98.003 E.01831
G1 X123.913 Y98.587 E.01831
G1 X123.863 Y99.169 E.01831
G1 X123.753 Y99.742 E.01831
G1 X123.582 Y100.306 E.01847
G1 X123.44 Y100.663 E.01205
G1 X123.273 Y101.009 E.01205
G1 X122.973 Y101.516 E.01847
G1 X122.625 Y101.984 E.01831
G1 X122.226 Y102.418 E.01847
G1 X121.947 Y102.675 E.01189
G1 X121.48 Y103.034 E.01847
G1 X120.983 Y103.34 E.01831
G1 X120.457 Y103.594 E.01831
G1 X119.908 Y103.791 E.01831
G1 X119.341 Y103.931 E.01831
G1 X118.762 Y104.012 E.01831
G1 X118.179 Y104.032 E.01831
G1 X117.596 Y103.991 E.01831
G1 X117.021 Y103.891 E.01831
G1 X116.459 Y103.732 E.01831
G1 X115.917 Y103.515 E.01831
G1 X115.395 Y103.242 E.01847
G1 X115.076 Y103.037 E.01189
G1 X114.609 Y102.678 E.01847
G1 X114.186 Y102.276 E.01831
G1 X113.806 Y101.832 E.01831
G1 X113.474 Y101.352 E.01831
G1 X113.192 Y100.835 E.01846
G1 X113.037 Y100.482 E.0121
G1 X112.849 Y99.93 E.01827
G1 X112.719 Y99.361 E.01831
G1 X112.649 Y98.781 E.01831
G1 X112.639 Y98.197 E.01831
G1 X112.689 Y97.616 E.01831
G1 X112.799 Y97.042 E.01831
G1 X112.968 Y96.483 E.01831
G1 X113.194 Y95.945 E.01831
G1 X113.474 Y95.432 E.01831
G1 X113.806 Y94.952 E.01831
G1 X114.189 Y94.504 E.01847
G1 X114.459 Y94.238 E.01189
G1 X114.917 Y93.86 E.01863
G1 X115.23 Y93.645 E.01189
G1 X115.741 Y93.353 E.01847
G1 X116.276 Y93.118 E.01831
G1 X116.697 Y92.983 E.01385
M204 S1000
G1 X116.638 Y92.606 F6000
M204 S800
;TYPE:External perimeter
G1 F1200
G1 X117.345 Y92.446 E.02271
G1 X117.966 Y92.382 E.01959
G1 X118.385 Y92.375 E.01312
G1 X119.001 Y92.418 E.01938
M73 P5 R7
G1 X119.615 Y92.525 E.01954
G1 X120.215 Y92.695 E.01953
G1 X120.793 Y92.926 E.01954
G1 X121.346 Y93.216 E.01959
G1 X121.699 Y93.442 E.01312
G1 X122.188 Y93.819 E.01939
G1 X122.64 Y94.248 E.01953
G1 X123.045 Y94.722 E.01954
G1 X123.4 Y95.236 E.01959
G1 X123.604 Y95.594 E.01291
G1 X123.865 Y96.161 E.01959
G1 X124.066 Y96.751 E.01953
G1 X124.205 Y97.358 E.01954
G1 X124.28 Y97.977 E.01953
G1 X124.291 Y98.6 E.01953
G1 X124.237 Y99.22 E.01953
G1 X124.119 Y99.832 E.01953
G1 X123.939 Y100.43 E.01959
G1 X123.785 Y100.815 E.01297
G1 X123.606 Y101.187 E.01297
G1 X123.287 Y101.725 E.01959
G1 X122.916 Y102.225 E.01953
G1 X122.493 Y102.685 E.01959
G1 X122.19 Y102.964 E.01291
G1 X121.695 Y103.345 E.01959
G1 X121.164 Y103.672 E.01953
G1 X120.603 Y103.942 E.01953
G1 X120.017 Y104.153 E.01953
G1 X119.412 Y104.302 E.01953
G1 X118.795 Y104.388 E.01953
G1 X118.172 Y104.409 E.01953
G1 X117.551 Y104.366 E.01953
G1 X116.937 Y104.259 E.01954
G1 X116.337 Y104.089 E.01953
G1 X115.759 Y103.858 E.01953
G1 X115.206 Y103.568 E.01959
G1 X114.859 Y103.346 E.01291
G1 X114.364 Y102.965 E.01959
G1 X113.912 Y102.536 E.01953
G1 X113.507 Y102.062 E.01954
G1 X113.153 Y101.55 E.01953
G1 X112.853 Y101.002 E.01959
G1 X112.685 Y100.619 E.01312
G1 X112.486 Y100.033 E.01938
G1 X112.347 Y99.426 E.01954
G1 X112.272 Y98.807 E.01953
G1 X112.262 Y98.184 E.01953
G1 X112.315 Y97.564 E.01954
G1 X112.433 Y96.952 E.01953
G1 X112.613 Y96.355 E.01953
G1 X112.854 Y95.781 E.01953
G1 X113.153 Y95.234 E.01953
G1 X113.507 Y94.722 E.01953
G1 X113.913 Y94.247 E.01959
G1 X114.207 Y93.958 E.01291
G1 X114.69 Y93.559 E.01965
G1 X115.029 Y93.325 E.01291
G1 X115.572 Y93.016 E.01959
G1 X116.142 Y92.765 E.01953
G1 X116.581 Y92.624 E.01447
M204 S1000
G1 X116.924 Y92.886 F6000
G1 X116.895 Y93.179
M204 S800
;TYPE:Gap fill
;WIDTH:0.18442
G1 F1200
G1 X116.368 Y93.361 E.00656
M204 S1000
M204 S800
;WIDTH:0.184419
G1 X116.036 Y93.495 E.00422
M204 S1000
M204 S800
;WIDTH:0.163031
G1 X116.028 Y93.498 E.00008
M204 S1000
M204 S800
;WIDTH:0.176564
G1 X115.856 Y93.582 E.00212
M204 S1000
M204 S800
;WIDTH:0.176563
G1 X115.48 Y93.788 E.00476
M204 S1000
M204 S800
;WIDTH:0.162759
G1 X115.474 Y93.792 E.00008
M204 S1000
M204 S800
;WIDTH:0.174902
G1 X115.365 Y93.86 E.00141
M204 S1000
M204 S800
;WIDTH:0.177801
G1 X115.072 Y94.065 E.00401
M204 S1000
M204 S800
;WIDTH:0.177802
G1 X114.915 Y94.184 E.00222
M204 S1000
M204 S800
;WIDTH:0.162359
G1 X114.909 Y94.189 E.00008
M204 S1000
M204 S800
;WIDTH:0.180815
G1 X114.632 Y94.43 E.00421
M204 S1000
M204 S800
;WIDTH:0.180813
G1 X114.421 Y94.63 E.00333
M204 S1000
M204 S800
;WIDTH:0.170612
G1 X114.416 Y94.635 E.00008
M204 S1000
M204 S800
;WIDTH:0.175562
G1 X114.375 Y94.678 E.00065
M204 S1000
M204 S800
;WIDTH:0.175562
G1 X114.012 Y95.103 E.00616
M204 S1000
M204 S800
;WIDTH:0.174685
G1 X114.008 Y95.107 E.00007
M204 S1000
M204 S800
;WIDTH:0.174685
G1 X114.007 Y95.108 E.00002
M204 S1000
M204 S800
;WIDTH:0.179092
G1 X113.693 Y95.567 E.0063
M204 S1000
M204 S800
;WIDTH:0.179092
G1 X113.666 Y95.612 E.0006
M204 S1000
M204 S800
;WIDTH:0.174039
G1 X113.662 Y95.618 E.00007
M204 S1000
M204 S800
;WIDTH:0.174815
G1 X113.424 Y96.055 E.00546
M204 S1000
M204 S800
;WIDTH:0.174814
G1 X113.271 Y96.373 E.00387
M204 S1000
M204 S800
;WIDTH:0.154883
G1 X113.261 Y96.417 E.00042
M204 S1000
G1 X113.264 Y96.687 F6000
M204 S800
;WIDTH:0.350002
G1 F1200
G1 X113.158 Y97.014 E.00877
M204 S1000
M204 S800
;WIDTH:0.3369
G1 X113.154 Y97.03 E.00041
M204 S1000
M204 S800
;WIDTH:0.344214
G1 X113.129 Y97.123 E.00242
M204 S1000
M204 S800
;WIDTH:0.344213
G1 X113.061 Y97.455 E.00849
M204 S1000
M204 S800
;WIDTH:0.334933
G1 X113.058 Y97.468 E.0003
M204 S1000
M204 S800
;WIDTH:0.346182
G1 X113.027 Y97.662 E.00498
M204 S1000
M204 S800
;WIDTH:0.346182
G1 X113 Y97.909 E.00625
M204 S1000
M204 S800
;WIDTH:0.334637
G1 X112.998 Y97.921 E.00029
M204 S1000
M204 S800
;WIDTH:0.345109
G1 X112.979 Y98.209 E.00726
M204 S1000
M204 S800
;WIDTH:0.345109
G1 X112.977 Y98.338 E.00323
M204 S1000
M204 S800
;WIDTH:0.336475
G1 X112.977 Y98.35 E.00029
M204 S1000
M204 S800
;WIDTH:0.34152
G1 X112.986 Y98.758 E.01014
M204 S1000
M204 S800
;WIDTH:0.34152
G1 X112.987 Y98.76 E.00004
M204 S1000
M204 S800
;WIDTH:0.341364
G1 X112.988 Y98.772 E.00031
M204 S1000
M204 S800
;WIDTH:0.340758
G1 X113.041 Y99.219 E.01116
M204 S1000
M204 S800
;WIDTH:0.338233
G1 X113.042 Y99.232 E.00032
M204 S1000
M204 S800
;WIDTH:0.344003
G1 X113.054 Y99.301 E.00175
M204 S1000
M204 S800
;WIDTH:0.344001
G1 X112.979 Y99.65 E.00893
M204 S1000
G1 X113.014 Y99.549 F6000
M204 S800
;WIDTH:0.156505
G1 F1200
G1 X113.016 Y99.594 E.00043
M204 S1000
M204 S800
;WIDTH:0.170375
G1 X113.092 Y99.861 E.00295
M204 S1000
M204 S800
;WIDTH:0.172037
G1 X113.273 Y100.39 E.006
M204 S1000
M204 S800
;WIDTH:0.172037
G1 X113.274 Y100.393 E.00004
M204 S1000
M204 S800
;WIDTH:0.171744
G1 X113.276 Y100.399 E.00006
M204 S1000
M204 S800
;WIDTH:0.174677
G1 X113.42 Y100.723 E.00388
M204 S1000
M204 S800
;WIDTH:0.174677
G1 X113.481 Y100.845 E.0015
M204 S1000
M204 S800
;WIDTH:0.163997
G1 X113.484 Y100.85 E.00006
M204 S1000
M204 S800
;WIDTH:0.170981
G1 X113.69 Y101.219 E.0045
M204 S1000
M204 S800
;WIDTH:0.170979
G1 X113.729 Y101.281 E.00078
M204 S1000
M204 S800
;WIDTH:0.164601
G1 X113.732 Y101.287 E.00006
M204 S1000
M204 S800
;WIDTH:0.173419
G1 X114.007 Y101.677 E.00518
M204 S1000
M204 S800
;WIDTH:0.173421
G1 X114.066 Y101.752 E.00103
M204 S1000
M204 S800
;WIDTH:0.165424
G1 X114.07 Y101.756 E.00006
M204 S1000
M204 S800
;WIDTH:0.171452
G1 X114.369 Y102.102 E.00489
M204 S1000
M204 S800
;WIDTH:0.171452
G1 X114.373 Y102.106 E.00006
M204 S1000
M204 S800
;WIDTH:0.170923
G1 X114.378 Y102.11 E.00007
M204 S1000
M204 S800
;WIDTH:0.176918
G1 X114.775 Y102.484 E.00607
M204 S1000
M204 S800
;WIDTH:0.17692
G1 X114.82 Y102.521 E.00065
M204 S1000
M204 S800
;WIDTH:0.171585
G1 X114.824 Y102.525 E.00007
M204 S1000
M204 S800
;WIDTH:0.172668
G1 X115.162 Y102.783 E.00458
M204 S1000
M204 S800
;WIDTH:0.172975
G1 X115.166 Y102.787 E.00007
M204 S1000
M204 S800
;WIDTH:0.179767
G1 X115.224 Y102.827 E.00079
M204 S1000
M204 S800
;WIDTH:0.183683
