; generated by PrusaSlicer 2.2.0+win64 on 2020-10-13 at 07:36:22 UTC


;
;

;
;
; 

; external perimeters extrusion width = 0.45mm
; perimeters extrusion width = 0.45mm
; infill extrusion width = 0.45mm
; solid infill extrusion width = 0.45mm
; top infill extrusion width = 0.40mm
; first layer extrusion width = 0.42mm

M73 P0 R186
M201 X9000 Y9000 Z500 E10000 ; sets maximum accelerations, mm/sec^2
M203 X500 Y500 Z12 E120 ; sets maximum feedrates, mm/sec
M204 P2000 R1500 T2000 ; sets acceleration (P, T) and retract acceleration (R), mm/sec^2
M205 X10.00 Y10.00 Z0.20 E2.50 ; sets the jerk limits, mm/sec
M205 S0 T0 ; sets the minimum extruding and travel feed rate, mm/sec
M107
M83  ; extruder relative mode
M140 S85 ; set bed temp
M109 S160 ; Set extruder temp before bed level
M190 S85 ; wait for bed temp

G28 W ; home all without mesh bed level
G80 N7 ; mesh bed leveling

M109 S240 ; wait for extruder temp

M221 S100 ; Set flow to 100

G1 Y-3.0 F1000.0 ; go outside print area
G92 E0.0
G1 E8 ; Purge Bubble
M73 P0 R186
G1 X60.0 E9.0 F1000.0 ; intro line
G1 X100.0 E12.5 F1000.0 ; intro line
G92 E0.0
G21 ; set units to millimeters
G90 ; use absolute coordinates
M83 ; use relative distances for extrusion
M900 K0.08 ; Filament gcode LA 1.5
M900 K45 ; Filament gcode LA 1.0
;BEFORE_LAYER_CHANGE
G92 E0.0
;0.2


G1 E-1.40000 F2100.00000
G1 Z0.200 F10800.000
;AFTER_LAYER_CHANGE
;0.2
G1 Z0.400
G1 X61.443 Y49.416
G1 Z0.200
G1 E1.40000 F2100.00000
M204 S1000
G1 F1200.000
G1 X62.267 Y49.264 E0.02626
G1 X187.724 Y49.264 E3.93363
G1 X188.626 Y49.443 E0.02884
G1 X189.390 Y49.949 E0.02872
G1 X189.908 Y50.709 E0.02884
G1 X190.097 Y51.609 E0.02884
G1 X190.098 Y158.378 E3.34767
G1 X190.040 Y158.881 E0.01585
G1 X189.879 Y159.356 E0.01574
G1 X189.621 Y159.787 E0.01574
G1 X189.279 Y160.154 E0.01574
G1 X188.557 Y160.584 E0.02637
G1 X187.733 Y160.736 E0.02626
G1 X62.276 Y160.736 E3.93363
G1 X61.769 Y160.681 E0.01597
G1 X61.290 Y160.521 E0.01585
G1 X60.855 Y160.262 E0.01585
G1 X60.485 Y159.918 E0.01585
G1 X60.054 Y159.195 E0.02637
G1 X59.902 Y158.372 E0.02626
G1 X59.902 Y51.637 E3.34660
G1 X59.958 Y51.131 E0.01597
G1 X60.118 Y50.651 E0.01585
G1 X60.376 Y50.216 E0.01585
G1 X60.721 Y49.846 E0.01585
G1 X61.392 Y49.446 E0.02449
@Object water_tray_2x3.stl id:0 copy 0
G1 F8640.000
G1 X62.267 Y49.264 E-0.20640
G1 X67.133 Y49.264 E-1.12360
G1 E-0.07000 F2100.00000
G1 Z0.400 F10800.000
G1 X134.714 Y96.711
G1 Z0.200
G1 E1.40000 F2100.00000
G1 F1200.000
G1 X145.186 Y96.711 E0.32836
G1 X145.186 Y113.290 E0.51983
G1 X134.714 Y113.290 E0.32836
G1 X134.714 Y96.771 E0.51795
G1 X135.091 Y97.088 F10800.000
G1 F1200.000
G1 X144.809 Y97.088 E0.30471
G1 X144.809 Y112.913 E0.49618
G1 X135.091 Y112.913 E0.30471
G1 X135.091 Y97.148 E0.49430
G1 X135.018 Y96.695 F10800.000
G1 F8640.000
G1 X140.851 Y97.112 E-1.33000
G1 E-0.07000 F2100.00000
G1 Z0.400 F10800.000
G1 X104.814 Y96.711
G1 Z0.200
G1 E1.40000 F2100.00000
G1 F1200.000
G1 X115.286 Y96.711 E0.32836
G1 X115.286 Y113.290 E0.51983
G1 X104.814 Y113.290 E0.32836
G1 X104.814 Y96.771 E0.51795
G1 X105.191 Y97.088 F10800.000
G1 F1200.000
G1 X114.909 Y97.088 E0.30471
G1 X114.909 Y112.913 E0.49618
G1 X105.191 Y112.913 E0.30471
G1 X105.191 Y97.148 E0.49430
G1 X105.118 Y96.695 F10800.000
G1 F8640.000
G1 X110.951 Y97.112 E-1.33000
G1 E-0.07000 F2100.00000
G1 Z0.400 F10800.000
G1 X63.215 Y52.554
G1 Z0.200
G1 E1.40000 F2100.00000
G1 F1200.000
G1 X186.785 Y52.554 E3.87443
G1 X186.785 Y157.446 E3.28879
G1 X63.215 Y157.446 E3.87443
M73 P0 R185
G1 X63.215 Y52.614 E3.28690
G1 X62.838 Y52.177 F10800.000
G1 F1200.000
G1 X187.162 Y52.177 E3.89807
G1 X187.162 Y157.823 E3.31243
G1 X62.838 Y157.823 E3.89807
G1 X62.838 Y52.237 E3.31055
G1 X63.227 Y52.270 F10800.000
G1 F8640.000
G1 X68.598 Y52.235 E-1.33000
G1 E-0.07000 F2100.00000
G1 Z0.400 F10800.000
G1 X104.701 Y113.011
G1 Z0.200
G1 E1.40000 F2100.00000
G1 F1200.000
G1 X63.498 Y71.808 E1.83000
G1 X63.498 Y71.274 E0.01678
G1 X104.531 Y112.307 E1.82246
G1 X104.531 Y111.773 E0.01678
G1 X63.498 Y70.740 E1.82246
G1 X63.498 Y70.206 E0.01678
G1 X104.531 Y111.239 E1.82246
G1 X104.531 Y110.704 E0.01678
G1 X63.498 Y69.672 E1.82246
G1 X63.498 Y69.138 E0.01678
G1 X104.531 Y110.170 E1.82246
G1 X104.531 Y109.636 E0.01678
G1 X63.498 Y68.603 E1.82246
G1 X63.498 Y68.069 E0.01678
G1 X104.531 Y109.102 E1.82246
G1 X104.531 Y108.568 E0.01678
G1 X63.498 Y67.535 E1.82246
G1 X63.498 Y67.001 E0.01678
G1 X104.531 Y108.034 E1.82246
G1 X104.531 Y107.499 E0.01678
G1 X63.498 Y66.467 E1.82246
M73 P1 R184
G1 X63.498 Y65.933 E0.01678
G1 X104.531 Y106.965 E1.82246
G1 X104.531 Y106.431 E0.01678
G1 X63.498 Y65.399 E1.82246
G1 X63.498 Y64.864 E0.01678
G1 X104.531 Y105.897 E1.82246
G1 X104.531 Y105.363 E0.01678
G1 X63.498 Y64.330 E1.82246
G1 X63.498 Y63.796 E0.01678
G1 X104.531 Y104.829 E1.82246
G1 X104.531 Y104.295 E0.01678
G1 X63.498 Y63.262 E1.82246
G1 X63.498 Y62.728 E0.01678
G1 X104.531 Y103.760 E1.82246
G1 X104.531 Y103.226 E0.01678
G1 X63.498 Y62.194 E1.82246
G1 X63.498 Y61.659 E0.01678
G1 X104.531 Y102.692 E1.82246
G1 X104.531 Y102.158 E0.01678
G1 X63.498 Y61.125 E1.82246
G1 X63.498 Y60.591 E0.01678
G1 X104.531 Y101.624 E1.82246
G1 X104.531 Y101.090 E0.01678
G1 X63.498 Y60.057 E1.82246
G1 X63.498 Y59.523 E0.01678
G1 X104.531 Y100.555 E1.82246
G1 X104.531 Y100.021 E0.01678
G1 X63.498 Y58.989 E1.82246
G1 X63.498 Y58.455 E0.01678
G1 X104.531 Y99.487 E1.82246
G1 X104.531 Y98.953 E0.01678
G1 X63.498 Y57.920 E1.82246
G1 X63.498 Y57.386 E0.01678
G1 X104.531 Y98.419 E1.82246
G1 X104.531 Y97.885 E0.01678
G1 X63.498 Y56.852 E1.82246
G1 X63.498 Y56.318 E0.01678
G1 X104.531 Y97.351 E1.82246
G1 X104.531 Y96.816 E0.01678
G1 X63.498 Y55.784 E1.82246
G1 X63.498 Y55.250 E0.01678
G1 X104.677 Y96.428 E1.82894
M73 P1 R183
G1 X105.211 Y96.428 E0.01678
G1 X63.498 Y54.715 E1.85267
G1 X63.498 Y54.181 E0.01678
G1 X105.745 Y96.428 E1.87639
G1 X106.279 Y96.428 E0.01678
G1 X63.498 Y53.647 E1.90012
G1 X63.498 Y53.113 E0.01678
G1 X106.813 Y96.428 E1.92384
G1 X107.347 Y96.428 E0.01678
G1 X63.757 Y52.837 E1.93609
G1 X64.291 Y52.837 E0.01678
G1 X107.882 Y96.428 E1.93609
G1 X108.416 Y96.428 E0.01678
G1 X64.825 Y52.837 E1.93609
G1 X65.359 Y52.837 E0.01678
G1 X108.950 Y96.428 E1.93609
G1 X109.484 Y96.428 E0.01678
G1 X65.893 Y52.837 E1.93609
G1 X66.427 Y52.837 E0.01678
G1 X110.018 Y96.428 E1.93609
G1 X110.552 Y96.428 E0.01678
G1 X66.962 Y52.837 E1.93609
G1 X67.496 Y52.837 E0.01678
G1 X111.087 Y96.428 E1.93609
G1 X111.621 Y96.428 E0.01678
G1 X68.030 Y52.837 E1.93609
G1 X68.564 Y52.837 E0.01678
G1 X112.155 Y96.428 E1.93609
G1 X112.689 Y96.428 E0.01678
G1 X69.098 Y52.837 E1.93609
G1 X69.632 Y52.837 E0.01678
G1 X113.223 Y96.428 E1.93609
G1 X113.757 Y96.428 E0.01678
G1 X70.166 Y52.837 E1.93609
G1 X70.701 Y52.837 E0.01678
G1 X114.291 Y96.428 E1.93609
G1 X114.826 Y96.428 E0.01678
G1 X71.235 Y52.837 E1.93609
G1 X71.769 Y52.837 E0.01678
G1 X176.094 Y157.163 E4.63361
M73 P2 R182
G1 X176.629 Y157.163 E0.01678
G1 X72.303 Y52.837 E4.63361
G1 X72.837 Y52.837 E0.01678
G1 X177.163 Y157.163 E4.63361
G1 X177.697 Y157.163 E0.01678
G1 X73.371 Y52.837 E4.63361
G1 X73.906 Y52.837 E0.01678
G1 X178.401 Y157.332 E4.64115
G1 F8640.000
G1 X174.328 Y153.259 E-1.33000
G1 E-0.07000 F2100.00000
G1 Z0.400 F10800.000
G1 X175.730 Y157.332
G1 Z0.200
G1 E1.40000 F2100.00000
G1 F1200.000
G1 X115.569 Y97.171 E2.67205
G1 X115.569 Y97.706 E0.01678
G1 X175.026 Y157.163 E2.64079
G1 X174.492 Y157.163 E0.01678
G1 X115.569 Y98.240 E2.61707
G1 X115.569 Y98.774 E0.01678
G1 X173.958 Y157.163 E2.59334
G1 X173.424 Y157.163 E0.01678
G1 X115.569 Y99.308 E2.56962
G1 X115.569 Y99.842 E0.01678
G1 X172.889 Y157.163 E2.54589
G1 X172.355 Y157.163 E0.01678
G1 X115.569 Y100.376 E2.52217
G1 X115.569 Y100.910 E0.01678
G1 X171.821 Y157.163 E2.49844
M73 P2 R180
G1 X171.287 Y157.163 E0.01678
G1 X115.569 Y101.445 E2.47472
G1 X115.569 Y101.979 E0.01678
G1 X170.753 Y157.163 E2.45100
G1 X170.219 Y157.163 E0.01678
G1 X115.569 Y102.513 E2.42727
G1 X115.569 Y103.047 E0.01678
G1 X169.685 Y157.163 E2.40355
G1 X169.150 Y157.163 E0.01678
G1 X115.569 Y103.581 E2.37982
G1 X115.569 Y104.115 E0.01678
G1 X168.616 Y157.163 E2.35610
G1 X168.082 Y157.163 E0.01678
G1 X115.569 Y104.650 E2.33237
G1 X115.569 Y105.184 E0.01678
G1 X167.548 Y157.163 E2.30865
G1 X167.014 Y157.163 E0.01678
G1 X115.569 Y105.718 E2.28492
G1 X115.569 Y106.252 E0.01678
G1 X166.480 Y157.163 E2.26120
G1 X165.945 Y157.163 E0.01678
G1 X115.569 Y106.786 E2.23748
G1 X115.569 Y107.320 E0.01678
G1 X165.411 Y157.163 E2.21375
G1 X164.877 Y157.163 E0.01678
G1 X115.569 Y107.854 E2.19003
G1 X115.569 Y108.389 E0.01678
G1 X164.343 Y157.163 E2.16630
G1 X163.809 Y157.163 E0.01678
G1 X115.569 Y108.923 E2.14258
G1 X115.569 Y109.457 E0.01678
G1 X163.275 Y157.163 E2.11885
G1 X162.741 Y157.163 E0.01678
G1 X115.569 Y109.991 E2.09513
M73 P3 R179
G1 X115.569 Y110.525 E0.01678
G1 X162.206 Y157.163 E2.07141
G1 X161.672 Y157.163 E0.01678
G1 X115.569 Y111.059 E2.04768
G1 X115.569 Y111.594 E0.01678
G1 X161.138 Y157.163 E2.02396
G1 X160.604 Y157.163 E0.01678
G1 X115.569 Y112.128 E2.00023
G1 X115.569 Y112.662 E0.01678
G1 X160.070 Y157.163 E1.97651
G1 X159.536 Y157.163 E0.01678
G1 X115.569 Y113.196 E1.95278
G1 X115.569 Y113.573 E0.01184
G1 X115.412 Y113.573 E0.00494
G1 X159.001 Y157.163 E1.93604
G1 X158.467 Y157.163 E0.01678
G1 X114.877 Y113.573 E1.93604
G1 X114.343 Y113.573 E0.01678
G1 X157.933 Y157.163 E1.93604
G1 X157.399 Y157.163 E0.01678
G1 X113.809 Y113.573 E1.93604
G1 X113.275 Y113.573 E0.01678
G1 X156.865 Y157.163 E1.93604
G1 X156.331 Y157.163 E0.01678
G1 X112.741 Y113.573 E1.93604
G1 X112.207 Y113.573 E0.01678
G1 X155.797 Y157.163 E1.93604
G1 X155.262 Y157.163 E0.01678
G1 X111.673 Y113.573 E1.93604
G1 X111.138 Y113.573 E0.01678
G1 X154.728 Y157.163 E1.93604
G1 X154.194 Y157.163 E0.01678
G1 X110.604 Y113.573 E1.93604
G1 X110.070 Y113.573 E0.01678
G1 X153.660 Y157.163 E1.93604
G1 X153.126 Y157.163 E0.01678
G1 X109.536 Y113.573 E1.93604
G1 X109.002 Y113.573 E0.01678
G1 X152.592 Y157.163 E1.93604
G1 X152.058 Y157.163 E0.01678
G1 X108.468 Y113.573 E1.93604
M73 P3 R178
G1 X107.933 Y113.573 E0.01678
G1 X151.523 Y157.163 E1.93604
G1 X150.989 Y157.163 E0.01678
G1 X107.399 Y113.573 E1.93604
G1 X106.865 Y113.573 E0.01678
G1 X150.455 Y157.163 E1.93604
G1 X149.921 Y157.163 E0.01678
G1 X106.331 Y113.573 E1.93604
G1 X105.797 Y113.573 E0.01678
G1 X149.387 Y157.163 E1.93604
G1 X148.853 Y157.163 E0.01678
G1 X105.093 Y113.403 E1.94358
G1 F8640.000
G1 X109.166 Y117.476 E-1.33000
G1 E-0.07000 F2100.00000
G1 Z0.400 F10800.000
G1 X63.329 Y156.569
G1 Z0.200
G1 E1.40000 F2100.00000
G1 F1200.000
G1 X63.922 Y157.163 E0.02637
G1 X64.456 Y157.163 E0.01678
G1 X63.498 Y156.204 E0.04256
G1 X63.498 Y155.670 E0.01678
G1 X64.991 Y157.163 E0.06629
G1 X65.525 Y157.163 E0.01678
G1 X63.498 Y155.136 E0.09001
G1 X63.498 Y154.602 E0.01678
G1 X66.059 Y157.163 E0.11373
G1 X66.593 Y157.163 E0.01678
G1 X63.498 Y154.068 E0.13746
G1 X63.498 Y153.534 E0.01678
G1 X67.127 Y157.163 E0.16118
G1 X67.661 Y157.163 E0.01678
G1 X63.498 Y153.000 E0.18491
G1 X63.498 Y152.465 E0.01678
G1 X68.196 Y157.163 E0.20863
G1 X68.730 Y157.163 E0.01678
G1 X63.498 Y151.931 E0.23236
G1 X63.498 Y151.397 E0.01678
G1 X69.264 Y157.163 E0.25608
G1 X69.798 Y157.163 E0.01678
G1 X63.498 Y150.863 E0.27980
G1 X63.498 Y150.329 E0.01678
G1 X70.332 Y157.163 E0.30353
G1 X70.866 Y157.163 E0.01678
G1 X63.498 Y149.795 E0.32725
G1 X63.498 Y149.261 E0.01678
G1 X71.400 Y157.163 E0.35098
G1 X71.935 Y157.163 E0.01678
G1 X63.498 Y148.726 E0.37470
G1 X63.498 Y148.192 E0.01678
G1 X72.469 Y157.163 E0.39843
G1 X73.003 Y157.163 E0.01678
G1 X63.498 Y147.658 E0.42215
G1 X63.498 Y147.124 E0.01678
G1 X73.537 Y157.163 E0.44588
G1 X74.071 Y157.163 E0.01678
G1 X63.498 Y146.590 E0.46960
G1 X63.498 Y146.056 E0.01678
G1 X74.605 Y157.163 E0.49332
G1 X75.140 Y157.163 E0.01678
G1 X63.498 Y145.521 E0.51705
G1 X63.498 Y144.987 E0.01678
G1 X75.674 Y157.163 E0.54077
G1 X76.208 Y157.163 E0.01678
G1 X63.498 Y144.453 E0.56450
G1 X63.498 Y143.919 E0.01678
G1 X76.742 Y157.163 E0.58822
G1 X77.276 Y157.163 E0.01678
G1 X63.498 Y143.385 E0.61195
G1 X63.498 Y142.851 E0.01678
G1 X77.810 Y157.163 E0.63567
G1 X78.344 Y157.163 E0.01678
G1 X63.498 Y142.317 E0.65939
G1 X63.498 Y141.782 E0.01678
G1 X78.879 Y157.163 E0.68312
G1 X79.413 Y157.163 E0.01678
G1 X63.498 Y141.248 E0.70684
G1 X63.498 Y140.714 E0.01678
G1 X79.947 Y157.163 E0.73057
G1 X80.481 Y157.163 E0.01678
G1 X63.498 Y140.180 E0.75429
G1 X63.498 Y139.646 E0.01678
G1 X81.015 Y157.163 E0.77802
G1 X81.549 Y157.163 E0.01678
G1 X63.498 Y139.112 E0.80174
G1 X63.498 Y138.577 E0.01678
G1 X82.083 Y157.163 E0.82547
G1 X82.618 Y157.163 E0.01678
G1 X63.498 Y138.043 E0.84919
G1 X63.498 Y137.509 E0.01678
G1 X83.152 Y157.163 E0.87291
G1 X83.686 Y157.163 E0.01678
G1 X63.498 Y136.975 E0.89664
G1 X63.498 Y136.441 E0.01678
G1 X84.220 Y157.163 E0.92036
G1 X84.754 Y157.163 E0.01678
G1 X63.498 Y135.907 E0.94409
G1 X63.498 Y135.373 E0.01678
G1 X85.288 Y157.163 E0.96781
G1 X85.823 Y157.163 E0.01678
G1 X63.498 Y134.838 E0.99154
G1 X63.498 Y134.304 E0.01678
G1 X86.357 Y157.163 E1.01526
G1 X86.891 Y157.163 E0.01678
G1 X63.498 Y133.770 E1.03898
G1 X63.498 Y133.236 E0.01678
G1 X87.425 Y157.163 E1.06271
G1 X87.959 Y157.163 E0.01678
G1 X63.498 Y132.702 E1.08643
M73 P4 R177
G1 X63.498 Y132.168 E0.01678
G1 X88.493 Y157.163 E1.11016
G1 X89.027 Y157.163 E0.01678
G1 X63.498 Y131.633 E1.13388
G1 X63.498 Y131.099 E0.01678
G1 X89.562 Y157.163 E1.15761
G1 X90.096 Y157.163 E0.01678
G1 X63.498 Y130.565 E1.18133
G1 X63.498 Y130.031 E0.01678
G1 X90.630 Y157.163 E1.20506
G1 X91.164 Y157.163 E0.01678
G1 X63.498 Y129.497 E1.22878
G1 X63.498 Y128.963 E0.01678
G1 X91.698 Y157.163 E1.25250
G1 X92.232 Y157.163 E0.01678
G1 X63.498 Y128.429 E1.27623
G1 X63.498 Y127.894 E0.01678
G1 X92.767 Y157.163 E1.29995
G1 X93.301 Y157.163 E0.01678
G1 X63.498 Y127.360 E1.32368
G1 X63.498 Y126.826 E0.01678
G1 X93.835 Y157.163 E1.34740
G1 X94.369 Y157.163 E0.01678
G1 X63.498 Y126.292 E1.37113
G1 X63.498 Y125.758 E0.01678
G1 X94.903 Y157.163 E1.39485
G1 X95.437 Y157.163 E0.01678
G1 X63.498 Y125.224 E1.41857
G1 X63.498 Y124.689 E0.01678
G1 X95.971 Y157.163 E1.44230
G1 X96.506 Y157.163 E0.01678
G1 X63.498 Y124.155 E1.46602
G1 X63.498 Y123.621 E0.01678
G1 X97.040 Y157.163 E1.48975
G1 X97.574 Y157.163 E0.01678
G1 X63.498 Y123.087 E1.51347
G1 X63.498 Y122.553 E0.01678
G1 X98.108 Y157.163 E1.53720
G1 X98.642 Y157.163 E0.01678
G1 X63.498 Y122.019 E1.56092
G1 X63.498 Y121.485 E0.01678
G1 X99.176 Y157.163 E1.58465
G1 X99.711 Y157.163 E0.01678
G1 X63.498 Y120.950 E1.60837
G1 X63.498 Y120.416 E0.01678
G1 X100.245 Y157.163 E1.63209
G1 X100.779 Y157.163 E0.01678
G1 X63.498 Y119.882 E1.65582
G1 X63.498 Y119.348 E0.01678
G1 X101.313 Y157.163 E1.67954
G1 X101.847 Y157.163 E0.01678
G1 X63.498 Y118.814 E1.70327
G1 X63.498 Y118.280 E0.01678
G1 X102.381 Y157.163 E1.72699
M73 P5 R176
G1 X102.915 Y157.163 E0.01678
G1 X63.498 Y117.745 E1.75072
G1 X63.498 Y117.211 E0.01678
G1 X103.450 Y157.163 E1.77444
G1 X103.984 Y157.163 E0.01678
G1 X63.498 Y116.677 E1.79816
G1 X63.498 Y116.143 E0.01678
G1 X104.518 Y157.163 E1.82189
G1 X105.052 Y157.163 E0.01678
G1 X63.498 Y115.609 E1.84561
G1 X63.498 Y115.075 E0.01678
G1 X105.586 Y157.163 E1.86934
G1 X106.120 Y157.163 E0.01678
G1 X63.498 Y114.541 E1.89306
G1 X63.498 Y114.006 E0.01678
G1 X106.655 Y157.163 E1.91679
G1 X107.189 Y157.163 E0.01678
G1 X63.498 Y113.472 E1.94051
G1 X63.498 Y112.938 E0.01678
G1 X107.723 Y157.163 E1.96424
G1 X108.257 Y157.163 E0.01678
G1 X63.498 Y112.404 E1.98796
G1 X63.498 Y111.870 E0.01678
G1 X108.791 Y157.163 E2.01168
G1 X109.325 Y157.163 E0.01678
G1 X63.498 Y111.336 E2.03541
G1 X63.498 Y110.802 E0.01678
G1 X109.859 Y157.163 E2.05913
G1 X110.394 Y157.163 E0.01678
G1 X63.498 Y110.267 E2.08286
G1 X63.498 Y109.733 E0.01678
G1 X110.928 Y157.163 E2.10658
G1 X111.462 Y157.163 E0.01678
G1 X63.498 Y109.199 E2.13031
G1 X63.498 Y108.665 E0.01678
G1 X111.996 Y157.163 E2.15403
G1 X112.530 Y157.163 E0.01678
G1 X63.498 Y108.131 E2.17776
M73 P5 R175
G1 X63.498 Y107.597 E0.01678
G1 X113.064 Y157.163 E2.20148
G1 X113.599 Y157.163 E0.01678
G1 X63.498 Y107.062 E2.22520
