; generated by PrusaSlicer 2.9.4 on 2026-03-25 at 12:12:00 UTC


;
;

;
;
; 

; external perimeters extrusion width = 0.45mm
; perimeters extrusion width = 0.45mm
; infill extrusion width = 0.45mm
; solid infill extrusion width = 0.45mm
; top infill extrusion width = 0.40mm
; support material extrusion width = 0.35mm
; first layer extrusion width = 0.42mm

M73 P0 R47
M201 X9000 Y9000 Z500 E10000 ; sets maximum accelerations, mm/sec^2
M203 X500 Y500 Z12 E120 ; sets maximum feedrates, mm / sec
M204 S2000 T1500 ; sets acceleration (S) and retract acceleration (R), mm/sec^2
M205 X10.00 Y10.00 Z0.20 E4.50 ; sets the jerk limits, mm/sec
M205 S0 T0 ; sets the minimum extruding and travel feed rate, mm/sec

; printing object ADXL345_Revo_Mount-Final id:0 copy 0
; stop printing object ADXL345_Revo_Mount-Final id:0 copy 0

;TYPE:Custom
M83  ; extruder relative mode
M140 S85 ; set bed temp
M109 S160 ; Set extruder temp before bed level
M190 S85 ; wait for bed temp

G28 W ; home all without mesh bed level
G80 N7 ; mesh bed leveling

M109 S240 ; wait for extruder temp

M221 S100 ; Set flow to 100

G1 Y-3.0 F1000.0 ; go outside print area
G92 E0.0
G1 E8 ; Purge Bubble
G1 X60.0 E9.0 F1000.0 ; intro line
G1 X100.0 E12.5 F1000.0 ; intro line
G92 E0.0
G21 ; set units to millimeters
G90 ; use absolute coordinates
M83 ; use relative distances for extrusion

M900 K0.08 ; Filament gcode LA 1.5
M900 K45 ; Filament gcode LA 1.0




M107
;LAYER_CHANGE
;Z:0.2
;HEIGHT:0.2
G1 E-1 F2100
G1 Z.4 F720
G1 X106.311 Y93.604 F10800
G1 Z.2 F720
G1 E1 F2100
M204 S800
;TYPE:Skirt/Brim
;WIDTH:0.42
G1 F1200
G1 X107.473 Y92.447 E.05141
G1 X108.913 Y91.447 E.05497
G1 X109.482 Y91.164 E.01993
G1 X111.092 Y90.642 E.05307
G1 X112.65 Y90.426 E.04932
G1 X136.813 Y90.584 E.75763
G1 X138.119 Y90.672 E.04104
G1 X139.72 Y91.037 E.05149
G1 X141.277 Y91.742 E.05359
G1 X142.549 Y92.641 E.04884
G1 X143.582 Y93.653 E.04534
G1 X144.471 Y94.86 E.047
G1 X145.13 Y96.164 E.04581
G1 X145.597 Y97.664 E.04926
G1 X145.802 Y99.515 E.05839
G1 X145.802 Y110.937 E.35813
G1 X145.692 Y112.283 E.04234
G1 X145.318 Y113.804 E.04911
G1 X144.705 Y115.193 E.0476
G1 X143.851 Y116.482 E.04848
G1 X142.799 Y117.602 E.04818
G1 X141.682 Y118.47 E.04435
G1 X140.223 Y119.238 E.0517
G1 X139.72 Y119.423 E.0168
G1 X138.122 Y119.787 E.05139
G1 X136.839 Y119.876 E.04032
G1 X112.674 Y120.295 E.75779
G1 X110.655 Y119.969 E.06412
G1 X109.488 Y119.56 E.03877
G1 X108.92 Y119.278 E.01988
G1 X107.474 Y118.275 E.05518
G1 X106.311 Y117.118 E.05144
G1 X105.616 Y116.172 E.03681
G1 X104.867 Y114.732 E.05089
G1 X104.311 Y112.735 E.065
G1 X104.198 Y111.376 E.04276
G1 X104.209 Y99.114 E.38447
G1 X104.394 Y97.53 E.05
G1 X104.702 Y96.425 E.03597
G1 X105.376 Y94.946 E.05096
G1 X106.277 Y93.653 E.04941
M204 S1000
G1 X106.585 Y93.869 F10800
M204 S800
G1 F1200
G1 X106.615 Y93.827 E.00162
G1 X107.732 Y92.721 E.04929
G1 X109.121 Y91.761 E.05294
G1 X109.606 Y91.52 E.01698
G1 X111.152 Y91.014 E.051
G1 X112.648 Y90.803 E.04737
G1 X136.81 Y90.961 E.7576
G1 X138.092 Y91.049 E.04029
G1 X139.627 Y91.403 E.04939
G1 X141.11 Y92.081 E.05113
G1 X142.323 Y92.942 E.04664
G1 X143.313 Y93.917 E.04357
G1 X144.162 Y95.077 E.04507
G1 X144.79 Y96.326 E.04383
G1 X145.234 Y97.768 E.04731
G1 X145.425 Y99.515 E.0551
G1 X145.425 Y110.937 E.35813
G1 X145.316 Y112.249 E.04128
G1 X144.954 Y113.705 E.04704
G1 X144.204 Y115.313 E.05563
G1 X143.353 Y116.495 E.04567
G1 X142.306 Y117.531 E.04618
G1 X141.11 Y118.38 E.04599
G1 X140.056 Y118.9 E.03685
G1 X138.095 Y119.411 E.06354
G1 X136.833 Y119.499 E.03967
G1 X112.668 Y119.918 E.75779
G1 X110.779 Y119.613 E.06
G1 X109.128 Y118.964 E.05562
G1 X107.733 Y118.001 E.05315
G1 X106.615 Y116.894 E.04933
G1 X105.919 Y115.949 E.0368
G1 X105.206 Y114.567 E.04876
G1 X104.686 Y112.701 E.06074
G1 X104.575 Y111.376 E.04169
G1 X104.584 Y99.148 E.3834
G1 X104.757 Y97.631 E.04787
G1 X105.065 Y96.526 E.03597
G1 X105.715 Y95.111 E.04882
G1 X106.551 Y93.918 E.04568
M204 S1000
;WIPE_START
G1 F8640
G1 X106.585 Y93.869 E-.01377
G1 X106.615 Y93.827 E-.01192
G1 X107.732 Y92.721 E-.36296
G1 X109.121 Y91.761 E-.38987
G1 X109.606 Y91.52 E-.12505
G1 X110.003 Y91.39 E-.09643
;WIPE_END
G1 Z.4 F720
; printing object ADXL345_Revo_Mount-Final id:0 copy 0
G1 X137.502 Y93.201 F10800
G1 Z.2 F720
G1 E1 F2100
M204 S800
;TYPE:Support material
G1 F1200
G1 X137.935 Y93.232 E.01361
G1 X139.089 Y93.524 E.03732
G1 X140.143 Y94.044 E.03685
G1 X141.01 Y94.694 E.03398
G1 X141.749 Y95.448 E.0331
G1 X142.371 Y96.334 E.03394
G1 X142.813 Y97.265 E.03231
G1 X143.131 Y98.372 E.03611
G1 X143.236 Y99.515 E.03599
G1 X143.137 Y100.632 E.03516
G1 X142.843 Y101.705 E.03488
G1 X142.386 Y102.674 E.03359
G1 X141.76 Y103.573 E.03435
G1 X140.993 Y104.357 E.03439
G1 X140.143 Y104.994 E.0333
G1 X139.664 Y105.23 E.01674
G1 X140.143 Y105.466 E.01674
G1 X141.01 Y106.116 E.03398
G1 X141.749 Y106.871 E.03313
G1 X142.371 Y107.757 E.03394
G1 X142.813 Y108.687 E.03229
G1 X143.131 Y109.795 E.03614
G1 X143.236 Y110.937 E.03596
G1 X143.137 Y112.055 E.03519
G1 X142.843 Y113.128 E.03488
G1 X142.175 Y114.411 E.04535
G1 X141.76 Y114.995 E.02246
G1 X140.993 Y115.78 E.03441
G1 X140.143 Y116.417 E.0333
G1 X139.089 Y116.936 E.03684
G1 X137.938 Y117.228 E.03723
G1 X136.795 Y117.31 E.03593
G1 X135.65 Y117.189 E.0361
G1 X134.539 Y116.865 E.03629
G1 X133.5 Y116.345 E.03643
G1 X132.546 Y115.628 E.03742
G1 X131.744 Y114.723 E.03791
G1 X131.334 Y114.002 E.02601
G1 X131.947 Y113.821 E.02004
G1 X132.497 Y113.466 E.02053
G1 X132.914 Y112.985 E.01996
G1 X133.18 Y112.408 E.01992
G1 X133.277 Y111.759 E.02057
G1 X133.277 Y105.705 E.18982
G1 X134.115 Y105.23 E.0302
G1 X133.277 Y104.755 E.0302
G1 X133.252 Y96.412 E.26159
G1 X132.924 Y95.531 E.02948
G1 X132.421 Y94.973 E.02355
G1 X133.5 Y94.115 E.04322
G1 X134.539 Y93.596 E.03642
G1 X135.65 Y93.272 E.03629
G1 X136.796 Y93.15 E.03614
G1 X137.446 Y93.197 E.02043
M204 S1000
;WIPE_START
G1 F8640
G1 X136.796 Y93.15 E-.15048
G1 X135.65 Y93.272 E-.26611
G1 X134.539 Y93.596 E-.26722
G1 X133.5 Y94.115 E-.26817
G1 X133.337 Y94.244 E-.04802
;WIPE_END
G1 Z.4 F720
G1 X142.597 Y113.252 F10800
G1 Z.2 F720
G1 E1 F2100
M204 S800
G1 F1200
G1 X142.597 Y109.166 E.12811
G1 X142.178 Y108.142 E.03469
G1 X142.178 Y113.741 E.17555
G1 X141.759 Y114.41 E.02475
G1 X141.759 Y107.476 E.21741
G1 X141.34 Y106.938 E.02138
G1 X141.34 Y114.946 E.25109
G1 X140.921 Y115.373 E.01876
G1 X140.921 Y106.511 E.27786
G1 X140.502 Y106.16 E.01714
G1 X140.502 Y115.723 E.29984
G1 X140.083 Y116.038 E.01644
G1 X140.083 Y105.846 E.31956
G1 X139.664 Y105.609 E.01509
G1 X139.664 Y116.274 E.33439
G1 X139.245 Y116.481 E.01465
G1 X139.245 Y93.98 E.7055
G1 X138.826 Y93.808 E.0142
M73 P1 R47
G1 X138.826 Y116.653 E.71629
G1 X138.407 Y116.759 E.01355
G1 X138.407 Y93.701 E.72297
G1 X137.988 Y93.595 E.01355
G1 X137.988 Y116.865 E.72961
G1 X137.569 Y116.915 E.01323
G1 X137.569 Y93.546 E.73272
G1 X137.15 Y93.516 E.01317
G1 X137.15 Y116.945 E.7346
G1 X136.731 Y116.962 E.01315
M73 P1 R46
G1 X136.731 Y93.498 E.7357
G1 X136.312 Y93.543 E.01321
G1 X136.312 Y116.918 E.73291
G1 X135.893 Y116.874 E.01321
G1 X135.893 Y93.587 E.73015
G1 X135.716 Y93.606 E.00558
G1 X135.474 Y93.676 E.0079
G1 X135.474 Y116.784 E.72454
G1 X135.055 Y116.662 E.01368
G1 X135.055 Y93.799 E.71685
G1 X134.636 Y93.926 E.01373
G1 X134.636 Y116.534 E.70886
G1 X134.217 Y116.325 E.01468
G1 X134.217 Y105.559 E.33756
G1 X133.799 Y105.768 E.01465
G1 X133.799 Y116.115 E.32442
G1 X133.38 Y115.83 E.01589
G1 X133.38 Y112.839 E.09378
G1 X132.961 Y113.483 E.02409
G1 X132.961 Y115.515 E.06371
G1 X132.542 Y115.111 E.01825
G1 X132.542 Y113.864 E.0391
G1 X132.123 Y114.113 E.01528
G1 X132.123 Y114.894 E.02449
M204 S1000
G1 X142.597 Y101.829 F10800
M204 S800
G1 F1200
G1 X142.597 Y97.743 E.12811
G1 X142.178 Y96.719 E.03469
G1 X142.178 Y102.318 E.17555
G1 X141.759 Y102.988 E.02478
G1 X141.759 Y96.053 E.21744
G1 X141.34 Y95.516 E.02136
G1 X141.34 Y103.523 E.25105
G1 X140.921 Y103.95 E.01876
G1 X140.921 Y95.088 E.27786
G1 X140.502 Y94.737 E.01714
G1 X140.502 Y104.301 E.29987
G1 X140.083 Y104.615 E.01642
G1 X140.083 Y94.423 E.31956
G1 X139.664 Y94.186 E.01509
G1 X139.664 Y105.041 E.34035
M204 S1000
G1 X134.217 Y105.092 F10800
M204 S800
G1 F1200
G1 X134.217 Y94.136 E.34352
G1 X133.799 Y94.345 E.01465
G1 X133.799 Y104.693 E.32445
G1 X133.617 Y104.586 E.00662
G1 X133.617 Y96.734 E.24619
G1 X133.579 Y96.309 E.01338
G1 X133.38 Y95.661 E.02125
G1 X133.38 Y94.63 E.03233
G1 X132.961 Y94.945 E.01644
G1 X132.961 Y95.287 E.01072
M204 S1000
;WIPE_START
G1 F8640
G1 X132.961 Y94.945 E-.07897
G1 X133.38 Y94.63 E-.12104
G1 X133.38 Y95.661 E-.23806
G1 X133.579 Y96.309 E-.15652
G1 X133.617 Y96.734 E-.09853
G1 X133.617 Y98.063 E-.30688
;WIPE_END
G1 Z.4 F720
G1 X125.28 Y103.994 F10800
G1 Z.2 F720
G1 E1 F2100
M204 S800
G1 F1200
G1 X126.211 Y104.256 E.03032
G1 X126.838 Y104.674 E.02363
G1 X127.345 Y105.271 E.02456
G1 X127.691 Y106.087 E.02779
G1 X127.773 Y106.764 E.02138
G1 X127.772 Y112.012 E.16455
G1 X127.277 Y112.376 E.01926
G1 X126.088 Y112.845 E.04008
G1 X124.927 Y113.016 E.0368
G1 X123.7 Y112.891 E.03867
G1 X122.556 Y112.484 E.03807
G1 X122.228 Y112.273 E.01223
G1 X122.227 Y106.763 E.17276
G1 X122.298 Y106.133 E.01988
G1 X122.716 Y105.178 E.03269
G1 X123.428 Y104.466 E.03157
G1 X124.337 Y104.059 E.03123
G1 X125.224 Y103.991 E.02789
M204 S1000
G1 X127.095 Y112.265 F10800
M204 S800
G1 F1200
G1 X127.095 Y105.517 E.21158
G1 X126.676 Y104.988 E.02116
G1 X126.676 Y112.248 E.22763
G1 X126.257 Y112.414 E.01413
G1 X126.257 Y104.669 E.24284
G1 X125.838 Y104.469 E.01456
G1 X125.838 Y112.539 E.25303
G1 X125.419 Y112.6 E.01328
G1 X125.419 Y104.358 E.25842
G1 X125.002 Y104.318 E.01313
G1 X125 Y112.662 E.26162
G1 X124.581 Y112.639 E.01316
G1 X124.581 Y104.359 E.25961
G1 X124.162 Y104.469 E.01358
G1 X124.162 Y112.597 E.25485
G1 X123.743 Y112.546 E.01323
G1 X123.743 Y104.669 E.24698
G1 X123.324 Y104.988 E.01651
G1 X123.324 Y112.397 E.2323
G1 X122.905 Y112.248 E.01394
G1 X122.905 Y105.208 E.22073
M204 S1000
;WIPE_START
G1 F8640
G1 X122.905 Y109.539 E-1
;WIPE_END
G1 Z.4 F720
G1 X113.131 Y93.001 F10800
G1 Z.2 F720
G1 E1 F2100
M204 S800
G1 F1200
G1 X113.778 Y93.011 E.02029
G1 X114.912 Y93.235 E.03624
G1 X115.992 Y93.658 E.03637
G1 X116.982 Y94.271 E.03651
G1 X117.675 Y94.898 E.0293
G1 X117.076 Y95.531 E.02732
G1 X116.743 Y96.443 E.03044
G1 X116.723 Y104.58 E.25513
G1 X115.992 Y105.032 E.02695
M73 P2 R46
G1 X115.154 Y105.361 E.02823
G1 X115.992 Y105.689 E.02822
G1 X116.723 Y106.141 E.02695
G1 X116.723 Y111.759 E.17615
G1 X116.921 Y112.68 E.02954
G1 X117.272 Y113.233 E.02054
G1 X117.666 Y113.595 E.01678
G1 X118.342 Y113.93 E.02366
G1 X118.873 Y114.019 E.01688
G1 X118.584 Y114.639 E.02145
G1 X117.891 Y115.628 E.03786
G1 X116.982 Y116.451 E.03845
G1 X115.992 Y117.063 E.03649
G1 X114.912 Y117.487 E.03638
G1 X113.78 Y117.71 E.03618
G1 X112.631 Y117.729 E.03603
G1 X111.502 Y117.547 E.03586
G1 X110.336 Y117.139 E.03873
G1 X109.238 Y116.412 E.04129
G1 X108.378 Y115.597 E.03715
G1 X107.682 Y114.652 E.0368
G1 X107.173 Y113.608 E.03642
G1 X106.866 Y112.503 E.03596
G1 X106.764 Y111.376 E.03548
G1 X106.866 Y110.249 E.03548
G1 X107.173 Y109.144 E.03596
G1 X107.682 Y108.101 E.03639
G1 X108.378 Y107.156 E.0368
G1 X109.237 Y106.341 E.03713
G1 X110.331 Y105.616 E.04115
G1 X110.634 Y105.51 E.01006
G1 X110.634 Y105.212 E.00934
G1 X110.336 Y105.108 E.0099
G1 X109.238 Y104.381 E.04129
G1 X108.378 Y103.566 E.03715
G1 X107.682 Y102.621 E.0368
G1 X107.173 Y101.577 E.03642
G1 X106.866 Y100.472 E.03596
G1 X106.764 Y99.345 E.03548
G1 X106.866 Y98.218 E.03548
G1 X107.173 Y97.113 E.03596
G1 X107.682 Y96.07 E.03639
G1 X108.378 Y95.124 E.03682
G1 X109.237 Y94.31 E.03711
G1 X110.331 Y93.585 E.04115
G1 X111.502 Y93.175 E.0389
G1 X112.633 Y92.992 E.03592
G1 X113.074 Y93 E.01383
M204 S1000
;WIPE_START
G1 F8640
G1 X112.633 Y92.992 E-.10184
G1 X111.502 Y93.175 E-.26455
G1 X110.331 Y93.585 E-.28648
G1 X109.237 Y94.31 E-.30304
G1 X109.098 Y94.441 E-.04409
;WIPE_END
G1 Z.4 F720
G1 X118.296 Y114.754 F10800
G1 Z.2 F720
G1 E1 F2100
M204 S800
G1 F1200
G1 X118.296 Y114.27 E.01518
G1 X117.877 Y114.113 E.01403
G1 X117.877 Y115.056 E.02957
G1 X117.458 Y115.562 E.0206
G1 X117.458 Y113.864 E.05324
G1 X117.039 Y113.483 E.01776
G1 X117.039 Y115.941 E.07707
G1 X116.62 Y116.276 E.01682
G1 X116.62 Y112.839 E.10776
G1 X116.421 Y112.191 E.02125
G1 X116.383 Y111.766 E.01338
G1 X116.383 Y106.33 E.17044
G1 X116.201 Y106.218 E.0067
G1 X116.201 Y116.535 E.32348
G1 X115.783 Y116.781 E.01521
G1 X115.783 Y105.972 E.33891
G1 X115.364 Y105.807 E.01412
G1 X115.364 Y116.945 E.34922
G1 X114.945 Y117.109 E.01411
G1 X114.945 Y105.461 E.36521
M204 S1000
G1 X117.039 Y95.287 F10800
M204 S800
G1 F1200
G1 X117.039 Y94.78 E.0159
G1 X116.62 Y94.446 E.0168
G1 X116.62 Y95.661 E.0381
G1 X116.481 Y96.041 E.01269
G1 X116.383 Y96.735 E.02198
G1 X116.383 Y104.391 E.24005
G1 X116.201 Y104.503 E.0067
G1 X116.201 Y94.187 E.32345
G1 X115.783 Y93.94 E.01522
G1 X115.783 Y104.75 E.33894
G1 X115.364 Y104.914 E.01411
G1 X115.364 Y93.776 E.34922
G1 X114.945 Y93.612 E.01411
G1 X114.945 Y105.261 E.36525
M204 S1000
G1 X114.526 Y117.39 F10800
M204 S800
G1 F1200
G1 X114.526 Y93.504 E.74893
G1 X114.107 Y93.422 E.01339
G1 X114.107 Y117.3 E.74868
G1 X113.688 Y117.372 E.01333
G1 X113.688 Y93.349 E.75322
G1 X113.269 Y93.342 E.01314
G1 X113.269 Y117.379 E.75366
G1 X112.85 Y117.386 E.01314
G1 X112.85 Y93.335 E.7541
G1 X112.431 Y93.368 E.01318
G1 X112.431 Y117.353 E.75203
G1 X112.012 Y117.285 E.01331
G1 X112.012 Y93.436 E.74777
G1 X111.593 Y93.504 E.01331
G1 X111.593 Y117.218 E.74354
G1 X111.174 Y117.072 E.01391
G1 X111.174 Y93.649 E.73441
G1 X110.755 Y93.796 E.01392
G1 X110.755 Y104.895 E.348
G1 X110.336 Y104.7 E.01449
G1 X110.336 Y93.989 E.33584
G1 X109.917 Y94.267 E.01577
G1 X109.917 Y104.423 E.31843
G1 X109.498 Y104.146 E.01575
G1 X109.498 Y94.544 E.30106
G1 X109.079 Y94.928 E.01782
G1 X109.079 Y103.763 E.27702
G1 X108.66 Y103.366 E.0181
G1 X108.66 Y95.324 E.25215
G1 X108.241 Y95.883 E.0219
G1 X108.241 Y102.807 E.2171
G1 X107.822 Y102.133 E.02488
G1 X107.822 Y96.557 E.17483
G1 X107.403 Y97.554 E.03391
G1 X107.403 Y101.661 E.12877
M204 S1000
;WIPE_START
G1 F8640
G1 X107.403 Y97.554 E-.94832
G1 X107.49 Y97.348 E-.05168
;WIPE_END
G1 Z.4 F720
G1 X110.755 Y117.106 F10800
G1 Z.2 F720
G1 E1 F2100
M204 S800
G1 F1200
G1 X110.755 Y105.827 E.35365
G1 X110.336 Y106.02 E.01446
G1 X110.336 Y116.732 E.33587
G1 X109.917 Y116.454 E.01577
G1 X109.917 Y106.298 E.31843
G1 X109.498 Y106.576 E.01577
G1 X109.498 Y116.177 E.30103
G1 X109.079 Y115.794 E.0178
G1 X109.079 Y106.959 E.27702
G1 X108.66 Y107.356 E.0181
G1 X108.66 Y115.397 E.25212
G1 X108.241 Y114.839 E.02188
M73 P3 R46
G1 X108.241 Y107.914 E.21713
G1 X107.822 Y108.588 E.02488
G1 X107.822 Y114.164 E.17483
G1 X107.403 Y113.167 E.03391
G1 X107.403 Y109.061 E.12874
M204 S1000
;WIPE_START
G1 F8640
G1 X107.403 Y113.167 E-.94809
G1 X107.49 Y113.374 E-.05191
;WIPE_END
G1 Z.4 F720
G1 X129.794 Y112.006 F10800
G1 Z.2 F720
G1 E1 F2100
M204 S800
;TYPE:Perimeter
;WIDTH:0.419999
G1 F1200
G1 X129.794 Y106.695 E.16652
G1 X129.747 Y106.093 E.01893
G1 X129.634 Y105.526 E.01813
G1 X129.431 Y104.932 E.01968
G1 X129.019 Y104.14 E.02799
G1 X128.674 Y103.676 E.01813
G1 X128.119 Y103.111 E.02483
G1 X127.658 Y102.762 E.01813
G1 X126.958 Y102.384 E.02494
G1 X126.441 Y102.184 E.01738
G1 X125.383 Y101.978 E.0338
G1 X124.343 Y102.003 E.03262
G1 X123.776 Y102.116 E.01813
G1 X123.227 Y102.297 E.01812
G1 X122.7 Y102.546 E.01828
G1 X122.211 Y102.853 E.0181
G1 X121.738 Y103.241 E.01918
G1 X121.178 Y103.863 E.02624
G1 X120.715 Y104.607 E.02748
G1 X120.434 Y105.309 E.02371
G1 X120.261 Y106.067 E.02438
G1 X120.206 Y106.744 E.0213
G1 X120.206 Y112.006 E.16499
G1 X119.102 Y112.006 E.03462
G1 X118.827 Y111.924 E.009
G1 X118.744 Y111.689 E.00781
G1 X118.744 Y96.851 E.46523
G1 X118.826 Y96.577 E.00897
G1 X119.06 Y96.494 E.00778
G1 X131.02 Y96.496 E.375
G1 X131.194 Y96.61 E.00652
G1 X131.256 Y96.893 E.00908
G1 X131.256 Y111.275 E.45094
G1 X131.234 Y111.8 E.01648
G1 X131.125 Y111.944 E.00566
G1 X130.939 Y112.006 E.00615
G1 X129.854 Y112.006 E.03402
M204 S1000
G1 X129.417 Y112.383 F10800
M204 S800
G1 F1200
