; generated by PrusaSlicer 2.2.0+ on 2020-04-22 at 22:24:58 UTC


;
;

;
;
; 

; external perimeters extrusion width = 0.45mm
; perimeters extrusion width = 0.45mm
; infill extrusion width = 0.45mm
; solid infill extrusion width = 0.45mm
; top infill extrusion width = 0.40mm
; first layer extrusion width = 0.42mm

M73 P0 R15
M201 X9000 Y9000 Z500 E10000 ; sets maximum accelerations, mm/sec^2
M203 X500 Y500 Z12 E120 ; sets maximum feedrates, mm/sec
M204 P2000 R1500 T2000 ; sets acceleration (P, T) and retract acceleration (R), mm/sec^2
M205 X10.00 Y10.00 Z0.20 E2.50 ; sets the jerk limits, mm/sec
M205 S0 T0 ; sets the minimum extruding and travel feed rate, mm/sec
M107
M83  ; extruder relative mode
M140 S75 ; set bed temp
M109 S160 ; Set extruder temp before bed level
M190 S75 ; wait for bed temp

G28 W ; home all without mesh bed level
G80 N7 ; mesh bed leveling

M109 S240 ; wait for extruder temp

M221 S100 ; Set flow to 100

G1 Y-3.0 F1000.0 ; go outside print area
G92 E0.0
G1 E8 ; Purge Bubble
M73 P0 R15
G1 X60.0 E9.0 F1000.0 ; intro line
G1 X100.0 E12.5 F1000.0 ; intro line
G92 E0.0
G21 ; set units to millimeters
G90 ; use absolute coordinates
M83 ; use relative distances for extrusion
M900 K45; Filament gcode
;BEFORE_LAYER_CHANGE
G92 E0.0
;0.2


G1 E-0.80000 F2100.00000
G1 Z0.600 F10800.000
;AFTER_LAYER_CHANGE
;0.2
G1 X112.785 Y86.774
G1 Z0.200
G1 E0.80000 F2100.00000
M204 S1000
G1 F1200.000
G1 X114.599 Y84.549 E0.08281
G1 X116.879 Y82.665 E0.08531
G1 X119.404 Y81.310 E0.08267
G1 X122.197 Y80.461 E0.08421
G1 X124.504 Y80.243 E0.06682
G1 X125.899 Y80.260 E0.04024
G1 X127.926 Y80.486 E0.05885
G1 X130.708 Y81.355 E0.08408
G1 X133.310 Y82.790 E0.08570
G1 X135.491 Y84.637 E0.08245
G1 X137.348 Y86.971 E0.08603
G1 X138.683 Y89.568 E0.08423
G1 X139.496 Y92.385 E0.08457
G1 X139.754 Y95.270 E0.08355
G1 X139.450 Y98.207 E0.08519
G1 X138.621 Y100.936 E0.08226
G1 X127.257 Y128.103 E0.84948
G1 X126.839 Y128.777 E0.02286
G1 X126.246 Y129.303 E0.02286
G1 X125.528 Y129.639 E0.02286
G1 X124.744 Y129.757 E0.02286
G1 X123.944 Y129.641 E0.02333
G1 X123.211 Y129.299 E0.02333
G1 X122.610 Y128.758 E0.02333
G1 X122.191 Y128.065 E0.02333
G1 X111.285 Y100.711 E0.84948
G1 X110.501 Y97.969 E0.08225
G1 X110.246 Y95.092 E0.08331
G1 X110.551 Y92.148 E0.08538
G1 X111.406 Y89.354 E0.08430
G1 X112.757 Y86.827 E0.08266
G1 X113.088 Y87.004 F10800.000
G1 F1200.000
G1 X114.871 Y84.811 E0.08153
G1 X117.091 Y82.977 E0.08308
G1 X119.554 Y81.656 E0.08061
G1 X122.271 Y80.831 E0.08191
G1 X124.501 Y80.620 E0.06461
G1 X125.872 Y80.636 E0.03955
G1 X127.861 Y80.857 E0.05772
G1 X130.566 Y81.704 E0.08178
G1 X133.098 Y83.102 E0.08341
G1 X135.225 Y84.904 E0.08042
G1 X137.030 Y87.174 E0.08366
G1 X138.332 Y89.706 E0.08213
G1 X139.125 Y92.453 E0.08246
G1 X139.377 Y95.271 E0.08163
G1 X139.080 Y98.135 E0.08304
G1 X138.267 Y100.806 E0.08054
G1 X126.916 Y127.941 E0.84847
G1 X126.556 Y128.526 E0.01982
G1 X126.044 Y128.984 E0.01982
G1 X125.423 Y129.277 E0.01982
G1 X124.743 Y129.380 E0.01982
G1 X124.049 Y129.279 E0.02025
G1 X123.413 Y128.980 E0.02025
G1 X122.895 Y128.512 E0.02014
G1 X122.535 Y127.909 E0.02025
G1 X111.640 Y100.584 E0.84857
G1 X110.872 Y97.902 E0.08047
G1 X110.623 Y95.091 E0.08141
G1 X110.920 Y92.225 E0.08312
G1 X111.756 Y89.496 E0.08232
G1 X113.060 Y87.057 E0.07979
@Object finger_saver_nail_holder_with_divot.stl id:0 copy 0
G1 F8640.000
G1 X114.871 Y84.811 E-0.66622
G1 X115.184 Y84.552 E-0.09378
G1 E-0.04000 F2100.00000
G1 Z0.800 F10800.000
G1 X123.268 Y92.927
G1 Z0.200
G1 E0.80000 F2100.00000
G1 F1200.000
G1 X122.993 Y93.941 E0.03031
G1 X123.251 Y94.958 E0.03027
G1 X123.607 Y95.327 E0.01478
G1 X123.574 Y99.275 E0.11390
G1 X114.529 Y99.205 E0.26091
G1 X113.987 Y97.325 E0.05645
G1 X113.791 Y95.087 E0.06479
G1 X114.025 Y92.853 E0.06482
G1 X114.682 Y90.708 E0.06469
G1 X115.737 Y88.737 E0.06449
G1 X117.147 Y87.014 E0.06421
G1 X118.858 Y85.606 E0.06392
G1 X120.804 Y84.567 E0.06365
G1 X122.910 Y83.934 E0.06343
G1 X123.704 Y83.861 E0.02298
G1 X123.630 Y92.564 E0.25106
G1 X123.311 Y92.884 E0.01305
G1 F8640.000
G1 X122.993 Y93.941 E-0.25472
G1 X123.251 Y94.958 E-0.24234
G1 X123.607 Y95.327 E-0.11831
G1 X123.602 Y95.953 E-0.14463
G1 E-0.04000 F2100.00000
G1 Z0.800 F10800.000
G1 X126.769 Y92.957
G1 Z0.200
G1 E0.80000 F2100.00000
G1 F1200.000
G1 X126.410 Y92.585 E0.01489
G1 X126.484 Y83.884 E0.25099
G1 X127.278 Y83.971 E0.02304
G1 X129.373 Y84.639 E0.06343
G1 X131.301 Y85.711 E0.06365
G1 X132.989 Y87.147 E0.06392
G1 X134.369 Y88.894 E0.06421
G1 X135.390 Y90.882 E0.06449
G1 X136.012 Y93.038 E0.06470
G1 X136.209 Y95.276 E0.06481
G1 X135.974 Y97.509 E0.06479
G1 X135.401 Y99.380 E0.05645
G1 X126.354 Y99.298 E0.26097
G1 X126.387 Y95.353 E0.11382
G1 X126.751 Y94.987 E0.01488
G1 X127.026 Y93.975 E0.03026
G1 X126.783 Y93.015 E0.02856
G1 F8640.000
G1 X126.410 Y92.585 E-0.13140
G1 X126.433 Y89.863 E-0.62860
G1 E-0.04000 F2100.00000
G1 Z0.800 F10800.000
G1 X124.763 Y125.200
G1 Z0.200
G1 E0.80000 F2100.00000
G1 F1200.000
G1 X124.747 Y125.243 E0.00131
G1 X124.741 Y125.227 E0.00049
G1 F8640.000
G1 X124.747 Y125.243 E-0.00393
G1 X124.741 Y125.227 E-0.00393
G1 E-0.79214 F2100.00000
G1 Z0.800 F10800.000
G1 X114.759 Y99.584
G1 Z0.200
G1 E0.80000 F2100.00000
G1 F1200.000
G1 X115.541 Y101.489 E0.05942
G1 X124.569 Y124.822 E0.72167
G1 X124.932 Y124.825 E0.01046
G1 X134.350 Y101.650 E0.72160
G1 X135.165 Y99.755 E0.05949
G1 X125.974 Y99.672 E0.26513
G1 X126.011 Y95.195 E0.12914
G1 X126.414 Y94.792 E0.01644
G1 X126.637 Y93.971 E0.02452
G1 X126.428 Y93.146 E0.02455
G1 X126.032 Y92.736 E0.01644
G1 X126.110 Y83.464 E0.26746
G1 X127.356 Y83.600 E0.03615
G1 X129.523 Y84.291 E0.06561
G1 X131.517 Y85.400 E0.06582
G1 X133.261 Y86.884 E0.06608
G1 X134.688 Y88.689 E0.06635
G1 X135.743 Y90.743 E0.06661
G1 X136.384 Y92.968 E0.06681
G1 X136.588 Y95.279 E0.06692
G1 X136.345 Y97.585 E0.06689
G1 X135.666 Y99.800 E0.06684
G1 X135.254 Y100.586 E0.02559
G1 X134.845 Y101.434 E0.02716
G1 X125.417 Y124.630 E0.72227
G1 X125.214 Y125.079 E0.01421
G1 X125.031 Y125.553 E0.01465
G1 X124.905 Y126.028 E0.01419
G1 X124.737 Y126.438 E0.01278
G1 X124.580 Y126.038 E0.01240
G1 X124.463 Y125.568 E0.01398
G1 X124.293 Y125.096 E0.01446
G1 X124.098 Y124.650 E0.01403
G1 X115.054 Y101.275 E0.72299
G1 X114.657 Y100.417 E0.02728
G1 X114.257 Y99.620 E0.02571
G1 X113.615 Y97.394 E0.06684
G1 X113.412 Y95.084 E0.06689
G1 X113.654 Y92.777 E0.06692
G1 X114.333 Y90.563 E0.06680
G1 X115.422 Y88.527 E0.06661
G1 X116.878 Y86.746 E0.06635
G1 X118.647 Y85.291 E0.06608
G1 X120.660 Y84.216 E0.06582
G1 X122.838 Y83.562 E0.06561
G1 X124.084 Y83.447 E0.03610
G1 X124.006 Y92.722 E0.26753
G1 X123.606 Y93.122 E0.01634
G1 X123.383 Y93.944 E0.02456
G1 X123.592 Y94.768 E0.02453
G1 X123.986 Y95.176 E0.01634
G1 X123.948 Y99.655 E0.12922
G1 X114.819 Y99.584 E0.26335
G1 X114.392 Y99.743 F10800.000
G1 X114.431 Y99.393
G1 F1200.000
G1 X114.760 Y100.146 E0.00630
G1 F8640.000
G1 X114.431 Y99.393 E-0.18979
G1 E-0.61021 F2100.00000
G1 Z0.800 F10800.000
G1 X114.302 Y98.008
G1 Z0.200
G1 E0.80000 F2100.00000
G1 F1200.000
G1 X115.222 Y98.928 E0.03778
G1 X115.763 Y98.932 E0.01571
G1 X114.333 Y97.501 E0.05873
G1 X114.267 Y97.273 E0.00691
G1 X114.231 Y96.863 E0.01195
G1 X116.304 Y98.936 E0.08513
G1 X116.845 Y98.940 E0.01571
G1 X114.179 Y96.274 E0.10947
G1 X114.127 Y95.686 E0.01715
G1 X117.386 Y98.944 E0.13381
G1 X117.927 Y98.949 E0.01571
G1 X114.075 Y95.097 E0.15814
G1 X114.125 Y94.610 E0.01422
G1 X118.468 Y98.953 E0.17832
G1 X119.009 Y98.957 E0.01571
G1 X114.176 Y94.124 E0.19844
G1 X114.227 Y93.638 E0.01418
G1 X119.550 Y98.961 E0.21856
G1 X120.091 Y98.965 E0.01571
G1 X114.278 Y93.152 E0.23869
G1 X114.303 Y92.909 E0.00710
G1 X114.366 Y92.704 E0.00623
G1 X120.631 Y98.969 E0.25727
G1 X121.172 Y98.974 E0.01571
G1 X114.492 Y92.293 E0.27431
G1 X114.618 Y91.883 E0.01248
G1 X121.713 Y98.978 E0.29135
G1 X122.254 Y98.982 E0.01571
G1 X114.744 Y91.472 E0.30839
G1 X114.870 Y91.061 E0.01248
G1 X122.795 Y98.986 E0.32543
G1 X123.294 Y98.990 E0.01447
G1 X123.294 Y98.948 E0.00122
G1 X115.021 Y90.675 E0.33971
G1 X115.208 Y90.325 E0.01152
G1 X123.298 Y98.416 E0.33221
G1 X123.303 Y97.883 E0.01546
G1 X115.395 Y89.976 E0.32472
G1 X115.582 Y89.626 E0.01152
G1 X123.307 Y97.351 E0.31722
G1 X123.312 Y96.819 E0.01546
G1 X115.769 Y89.276 E0.30972
G1 X115.956 Y88.926 E0.01152
G1 X123.316 Y96.286 E0.30222
G1 X123.321 Y95.754 E0.01546
G1 X116.193 Y88.626 E0.29269
G1 X116.434 Y88.331 E0.01108
G1 X122.925 Y94.821 E0.26651
G1 X122.742 Y94.102 E0.02154
G1 X116.676 Y88.036 E0.24910
G1 X116.917 Y87.741 E0.01108
G1 X122.789 Y93.612 E0.24111
G1 X122.904 Y93.190 E0.01270
G1 X117.159 Y87.445 E0.23589
G1 X117.348 Y87.215 E0.00865
G1 X117.412 Y87.162 E0.00242
G1 X123.023 Y92.772 E0.23038
G1 X123.291 Y92.504 E0.01102
G1 X117.707 Y86.919 E0.22930
G1 X118.001 Y86.677 E0.01107
G1 X123.352 Y92.028 E0.21972
G1 X123.357 Y91.496 E0.01546
G1 X118.296 Y86.435 E0.20781
G1 X118.590 Y86.193 E0.01107
G1 X123.361 Y90.963 E0.19590
G1 X123.366 Y90.431 E0.01546
G1 X118.885 Y85.950 E0.18399
G1 X119.016 Y85.843 E0.00493
G1 X119.210 Y85.739 E0.00639
G1 X123.370 Y89.899 E0.17082
G1 X123.374 Y89.367 E0.01546
G1 X119.560 Y85.552 E0.15664
G1 X119.910 Y85.365 E0.01152
G1 X123.379 Y88.834 E0.14245
G1 X123.383 Y88.302 E0.01546
G1 X120.260 Y85.178 E0.12827
G1 X120.609 Y84.991 E0.01152
G1 X123.388 Y87.770 E0.11409
G1 X123.392 Y87.237 E0.01546
G1 X120.968 Y84.813 E0.09956
G1 X121.380 Y84.689 E0.01251
G1 X123.397 Y86.705 E0.08280
G1 X123.401 Y86.173 E0.01546
G1 X121.793 Y84.565 E0.06603
G1 X122.206 Y84.441 E0.01251
G1 X123.406 Y85.640 E0.04927
G1 X123.410 Y85.108 E0.01546
G1 X122.619 Y84.317 E0.03250
G1 X122.964 Y84.213 E0.01048
G1 X123.044 Y84.206 E0.00233
G1 X123.583 Y84.744 E0.02212
G1 F8640.000
G1 X123.044 Y84.206 E-0.17589
G1 X122.964 Y84.213 E-0.01853
G1 X122.619 Y84.317 E-0.08334
G1 X123.410 Y85.108 E-0.25845
G1 X123.406 Y85.640 E-0.12291
G1 X123.097 Y85.332 E-0.10087
G1 E-0.04000 F2100.00000
G1 Z0.800 F10800.000
G1 X133.831 Y88.395
G1 Z0.200
G1 E0.80000 F2100.00000
G1 F1200.000
G1 X132.759 Y87.323 E0.04452
G1 X131.139 Y85.944 E0.06249
G1 X130.459 Y85.566 E0.02285
G1 X134.331 Y89.438 E0.16083
G1 X134.904 Y90.554 E0.03685
G1 X129.244 Y84.895 E0.23511
G1 X128.447 Y84.640 E0.02458
G1 X135.261 Y91.454 E0.28306
G1 X135.481 Y92.217 E0.02333
G1 X127.650 Y84.386 E0.32532
G1 X127.219 Y84.249 E0.01329
G1 X126.939 Y84.218 E0.00827
G1 X135.701 Y92.980 E0.36399
G1 X135.733 Y93.090 E0.00334
G1 X135.778 Y93.600 E0.01505
G1 X126.761 Y84.583 E0.37458
G1 X126.756 Y85.121 E0.01582
G1 X135.830 Y94.196 E0.37696
G1 X135.883 Y94.791 E0.01756
G1 X126.751 Y85.660 E0.37933
G1 X126.747 Y86.198 E0.01582
G1 X135.915 Y95.367 E0.38087
G1 X135.864 Y95.858 E0.01451
G1 X126.742 Y86.737 E0.37891
G1 X126.738 Y87.275 E0.01582
G1 X135.812 Y96.350 E0.37695
G1 X135.760 Y96.841 E0.01451
G1 X126.733 Y87.814 E0.37499
M73 P6 R14
G1 X126.729 Y88.352 E0.01582
G1 X135.709 Y97.332 E0.37303
G1 X135.696 Y97.453 E0.00356
G1 X135.600 Y97.766 E0.00964
G1 X126.724 Y88.891 E0.36870
G1 X126.720 Y89.430 E0.01582
G1 X135.472 Y98.182 E0.36359
G1 X135.345 Y98.598 E0.01277
G1 X126.715 Y89.968 E0.35849
G1 X126.711 Y90.507 E0.01582
G1 X135.217 Y99.013 E0.35338
G1 X135.192 Y99.096 E0.00254
G1 X134.753 Y99.092 E0.01290
G1 X126.706 Y91.045 E0.33428
G1 X126.702 Y91.584 E0.01582
G1 X134.205 Y99.087 E0.31170
G1 X133.657 Y99.082 E0.01610
G1 X126.697 Y92.122 E0.28912
G1 X126.694 Y92.472 E0.01028
G1 X127.024 Y92.815 E0.01398
G1 X127.085 Y93.053 E0.00722
G1 X133.109 Y99.077 E0.25026
G1 X132.561 Y99.072 E0.01610
G1 X127.269 Y93.780 E0.21984
G1 X127.319 Y93.977 E0.00598
G1 X127.234 Y94.288 E0.00947
G1 X132.013 Y99.067 E0.19851
G1 X131.465 Y99.062 E0.01610
G1 X127.118 Y94.715 E0.18057
G1 X126.999 Y95.139 E0.01293
G1 X130.917 Y99.057 E0.16275
G1 X130.369 Y99.052 E0.01610
G1 X126.728 Y95.411 E0.15125
G1 X126.669 Y95.470 E0.00246
G1 X126.665 Y95.892 E0.01237
G1 X129.821 Y99.047 E0.13108
G1 X129.273 Y99.042 E0.01610
G1 X126.661 Y96.430 E0.10850
G1 X126.656 Y96.969 E0.01582
G1 X128.725 Y99.037 E0.08593
G1 X128.177 Y99.032 E0.01610
G1 X126.652 Y97.507 E0.06335
G1 X126.647 Y98.046 E0.01582
G1 X127.629 Y99.027 E0.04077
G1 X127.081 Y99.022 E0.01610
G1 X126.475 Y98.416 E0.02518
G1 F8640.000
G1 X127.081 Y99.022 E-0.19796
G1 X127.629 Y99.027 E-0.12654
G1 X126.647 Y98.046 E-0.32048
G1 X126.652 Y97.548 E-0.11501
G1 E-0.04000 F2100.00000
G1 Z0.800 F10800.000
G1 X135.155 Y100.317
G1 Z0.200
G1 E0.80000 F2100.00000
G1 F1200.000
G1 X135.300 Y100.013 E0.00194
G1 X135.496 Y99.570 E0.00372
; stop printing object finger_saver_nail_holder_with_divot.stl id:0 copy 0
;BEFORE_LAYER_CHANGE
G92 E0.0
;0.4


G1 F8640.000
G1 X135.300 Y100.013 E-0.11189
G1 E-0.68811 F2100.00000
G1 Z0.800 F10800.000
;AFTER_LAYER_CHANGE
;0.4
M104 S235 ; set temperature
M140 S80 ; set bed temperature
G1 X139.450 Y98.207
G1 Z0.400
G1 E0.80000 F2100.00000
G1 F3600.000
G1 X138.621 Y100.936 E0.08226
G1 X127.257 Y128.103 E0.84948
G1 X126.839 Y128.777 E0.02286
G1 X126.246 Y129.303 E0.02286
G1 X125.528 Y129.639 E0.02286
G1 X124.744 Y129.757 E0.02286
G1 X123.944 Y129.641 E0.02333
G1 X123.211 Y129.299 E0.02333
G1 X122.610 Y128.758 E0.02333
G1 X122.191 Y128.065 E0.02333
G1 X111.285 Y100.711 E0.84948
G1 X110.501 Y97.969 E0.08225
G1 X110.246 Y95.092 E0.08331
G1 X110.551 Y92.148 E0.08538
G1 X111.406 Y89.354 E0.08430
G1 X112.785 Y86.774 E0.08439
G1 X114.599 Y84.549 E0.08281
G1 X116.879 Y82.665 E0.08531
G1 X119.404 Y81.310 E0.08267
G1 X122.197 Y80.461 E0.08421
G1 X124.504 Y80.243 E0.06682
G1 X125.899 Y80.260 E0.04024
G1 X127.926 Y80.486 E0.05885
G1 X130.708 Y81.355 E0.08408
G1 X133.310 Y82.790 E0.08570
G1 X135.491 Y84.637 E0.08245
G1 X137.348 Y86.971 E0.08603
G1 X138.683 Y89.568 E0.08423
G1 X139.496 Y92.385 E0.08457
G1 X139.754 Y95.270 E0.08355
G1 X139.456 Y98.147 E0.08345
G1 X139.082 Y98.109 F10800.000
G1 F3600.000
G1 X138.267 Y100.806 E0.08128
G1 X126.916 Y127.941 E0.84847
G1 X126.556 Y128.526 E0.01982
G1 X126.044 Y128.984 E0.01982
G1 X125.423 Y129.277 E0.01982
G1 X124.743 Y129.380 E0.01982
G1 X124.049 Y129.279 E0.02025
G1 X123.413 Y128.980 E0.02025
G1 X122.895 Y128.512 E0.02014
G1 X122.535 Y127.909 E0.02025
G1 X111.640 Y100.584 E0.84857
G1 X110.872 Y97.902 E0.08047
G1 X110.623 Y95.091 E0.08141
G1 X110.920 Y92.225 E0.08312
G1 X111.756 Y89.496 E0.08232
G1 X113.100 Y86.981 E0.08228
G1 X114.871 Y84.811 E0.08079
G1 X117.091 Y82.977 E0.08308
G1 X119.554 Y81.656 E0.08061
G1 X122.271 Y80.831 E0.08191
G1 X124.501 Y80.620 E0.06461
G1 X125.872 Y80.636 E0.03955
G1 X127.861 Y80.857 E0.05772
G1 X130.566 Y81.704 E0.08178
G1 X133.098 Y83.102 E0.08341
G1 X135.225 Y84.904 E0.08042
G1 X137.030 Y87.174 E0.08366
G1 X138.332 Y89.706 E0.08213
G1 X139.125 Y92.453 E0.08246
G1 X139.377 Y95.271 E0.08163
G1 X139.089 Y98.049 E0.08055
@Object finger_saver_nail_holder_with_divot.stl id:0 copy 0
G1 F8640.000
G1 X138.267 Y100.806 E-0.66423
G1 X138.107 Y101.188 E-0.09577
G1 E-0.04000 F2100.00000
G1 Z1.000 F10800.000
G1 X114.434 Y99.353
G1 Z0.400
G1 E0.80000 F2100.00000
M204 S800
G1 F3600.000
G1 X114.624 Y99.849 E0.01655
G1 X114.464 Y99.537 E0.01092
G1 X113.834 Y97.353 E0.07078
G1 X113.635 Y95.086 E0.07088
G1 X113.872 Y92.821 E0.07091
G1 X114.539 Y90.649 E0.07078
G1 X115.607 Y88.650 E0.07056
G1 X117.036 Y86.904 E0.07027
G1 X118.771 Y85.477 E0.06996
G1 X120.745 Y84.423 E0.06968
G1 X122.881 Y83.781 E0.06944
G1 X123.860 Y83.691 E0.03063
G1 X123.785 Y92.629 E0.27834
G1 X123.407 Y93.007 E0.01665
G1 X123.153 Y93.942 E0.03017
G1 X123.391 Y94.880 E0.03013
G1 X123.763 Y95.265 E0.01665
G1 X123.728 Y99.431 E0.12975
G1 X114.494 Y99.353 E0.28755
M204 S1000
G1 F8640.000
G1 X114.624 Y99.849 E-0.11834
G1 X114.464 Y99.537 E-0.08098
G1 X113.834 Y97.353 E-0.52481
G1 X113.821 Y97.198 E-0.03588
G1 E-0.04000 F2100.00000
G1 Z1.000 F10800.000
G1 X126.198 Y99.452
G1 Z0.400
G1 E0.80000 F2100.00000
M204 S800
G1 F3600.000
G1 X126.233 Y95.288 E0.12967
G1 X126.613 Y94.907 E0.01676
G1 X126.866 Y93.973 E0.03012
G1 X126.628 Y93.035 E0.03016
G1 X126.255 Y92.647 E0.01676
G1 X126.330 Y83.711 E0.27827
G1 X127.310 Y83.818 E0.03069
G1 X129.434 Y84.496 E0.06944
G1 X131.390 Y85.583 E0.06968
G1 X133.101 Y87.039 E0.06996
