; generated by PrusaSlicer 2.2.0+ on 2020-04-21 at 13:48:10 UTC

; 

; external perimeters extrusion width = 0.45mm
; perimeters extrusion width = 0.45mm
; infill extrusion width = 0.45mm
; solid infill extrusion width = 0.45mm
; top infill extrusion width = 0.40mm
; first layer extrusion width = 0.42mm

M73 P0 R66
M201 X9000 Y9000 Z500 E10000 ; sets maximum accelerations, mm/sec^2
M203 X500 Y500 Z12 E120 ; sets maximum feedrates, mm/sec
M204 P2000 R1500 T2000 ; sets acceleration (P, T) and retract acceleration (R), mm/sec^2
M205 X10.00 Y10.00 Z0.20 E2.50 ; sets the jerk limits, mm/sec
M205 S0 T0 ; sets the minimum extruding and travel feed rate, mm/sec
M107
M83  ; extruder relative mode
M140 S75 ; set bed temp
M109 S160 ; Set extruder temp before bed level
M190 S75 ; wait for bed temp

G28 W ; home all without mesh bed level
G80 N7 ; mesh bed leveling

M109 S240 ; wait for extruder temp

M221 S100 ; Set flow to 100

G1 Y-3.0 F1000.0 ; go outside print area
G92 E0.0
G1 E8 ; Purge Bubble
M73 P0 R66
G1 X60.0 E9.0 F1000.0 ; intro line
G1 X100.0 E12.5 F1000.0 ; intro line
G92 E0.0
G21 ; set units to millimeters
G90 ; use absolute coordinates
M83 ; use relative distances for extrusion
M900 K45; Filament gcode
;BEFORE_LAYER_CHANGE
G92 E0.0
;0.2


G1 E-0.80000 F2100.00000
G1 Z0.600 F10800.000
;AFTER_LAYER_CHANGE
;0.2
G1 X71.265 Y92.276
G1 Z0.200
G1 E0.80000 F2100.00000
M204 S1000
G1 F1200.000
G1 X72.357 Y92.163 E0.03165
G1 X177.644 Y92.163 E3.03712
G1 X178.726 Y92.274 E0.03137
G1 X179.636 Y92.546 E0.02737
G1 X180.468 Y92.975 E0.02701
G1 X181.318 Y93.651 E0.03132
G1 X181.927 Y94.384 E0.02749
G1 X182.442 Y95.334 E0.03117
G1 X182.720 Y96.247 E0.02753
G1 X182.834 Y97.258 E0.02935
G1 X182.837 Y112.656 E0.44417
G1 X182.722 Y113.745 E0.03159
G1 X182.486 Y114.554 E0.02431
G1 X182.211 Y115.153 E0.01901
G1 X181.766 Y115.839 E0.02360
G1 X181.331 Y116.337 E0.01907
G1 X180.837 Y116.768 E0.01893
G1 X180.149 Y117.213 E0.02362
G1 X179.549 Y117.487 E0.01903
G1 X178.735 Y117.724 E0.02446
G1 X177.643 Y117.837 E0.03165
G1 X72.276 Y117.835 E3.03942
G1 X71.417 Y117.753 E0.02489
G1 X70.461 Y117.491 E0.02860
G1 X69.794 Y117.182 E0.02120
G1 X69.074 Y116.698 E0.02502
G1 X68.461 Y116.110 E0.02449
G1 X67.930 Y115.396 E0.02567
G1 X67.537 Y114.613 E0.02527
G1 X67.276 Y113.735 E0.02644
G1 X67.163 Y112.643 E0.03165
G1 X67.163 Y97.348 E0.44120
G1 X67.246 Y96.425 E0.02673
G1 X67.445 Y95.647 E0.02317
G1 X67.766 Y94.891 E0.02370
G1 X68.129 Y94.304 E0.01992
G1 X68.640 Y93.693 E0.02297
G1 X69.154 Y93.238 E0.01980
G1 X69.844 Y92.790 E0.02373
G1 X70.447 Y92.514 E0.01914
G1 X71.208 Y92.293 E0.02284
G1 F8640.000
G1 X72.357 Y92.163 E-0.26702
G1 X74.492 Y92.163 E-0.49298
G1 E-0.04000 F2100.00000
G1 Z0.800 F10800.000
G1 X152.038 Y104.347
G1 Z0.200
G1 E0.80000 F2100.00000
G1 F1200.000
G1 X152.157 Y103.824 E0.01548
G1 X152.351 Y103.331 E0.01529
G1 X152.616 Y102.872 E0.01529
G1 X152.946 Y102.458 E0.01529
G1 X153.340 Y102.093 E0.01548
G1 X153.800 Y101.786 E0.01596
G1 X154.250 Y101.569 E0.01441
G1 X154.757 Y101.413 E0.01529
G1 X155.281 Y101.334 E0.01529
G1 X155.817 Y101.334 E0.01548
G1 X156.363 Y101.422 E0.01596
G1 X156.841 Y101.569 E0.01441
G1 X157.318 Y101.799 E0.01529
G1 X157.756 Y102.097 E0.01529
G1 X158.145 Y102.458 E0.01529
G1 X158.475 Y102.872 E0.01529
G1 X158.740 Y103.331 E0.01529
G1 X158.934 Y103.824 E0.01529
G1 X159.051 Y104.341 E0.01529
G1 X159.091 Y104.869 E0.01529
G1 X159.051 Y105.398 E0.01529
G1 X158.932 Y105.921 E0.01548
G1 X158.725 Y106.434 E0.01596
G1 X158.475 Y106.867 E0.01441
G1 X158.145 Y107.281 E0.01529
G1 X157.756 Y107.641 E0.01529
G1 X157.318 Y107.940 E0.01529
G1 X156.841 Y108.170 E0.01529
G1 X156.334 Y108.326 E0.01529
G1 X155.810 Y108.405 E0.01529
G1 X155.281 Y108.405 E0.01529
G1 X154.757 Y108.326 E0.01529
G1 X154.250 Y108.170 E0.01529
G1 X153.773 Y107.940 E0.01529
G1 X153.335 Y107.641 E0.01529
G1 X152.946 Y107.281 E0.01529
G1 X152.616 Y106.867 E0.01529
G1 X152.351 Y106.408 E0.01529
G1 X152.157 Y105.914 E0.01529
G1 X152.040 Y105.398 E0.01529
G1 X152.002 Y104.900 E0.01441
G1 X152.034 Y104.407 E0.01423
G1 X152.410 Y104.432 F10800.000
G1 F1200.000
G1 X152.519 Y103.936 E0.01465
G1 X152.692 Y103.495 E0.01366
G1 X152.928 Y103.085 E0.01366
G1 X153.224 Y102.715 E0.01366
G1 X153.574 Y102.390 E0.01380
G1 X153.987 Y102.114 E0.01433
G1 X154.388 Y101.921 E0.01284
G1 X154.841 Y101.781 E0.01366
G1 X155.309 Y101.711 E0.01366
G1 X155.787 Y101.711 E0.01380
G1 X156.277 Y101.790 E0.01433
G1 X156.703 Y101.921 E0.01284
G1 X157.129 Y102.126 E0.01366
G1 X157.520 Y102.393 E0.01366
G1 X157.867 Y102.715 E0.01366
G1 X158.163 Y103.085 E0.01366
G1 X158.399 Y103.495 E0.01366
G1 X158.572 Y103.936 E0.01366
G1 X158.678 Y104.397 E0.01366
G1 X158.713 Y104.869 E0.01366
G1 X158.678 Y105.341 E0.01366
G1 X158.571 Y105.808 E0.01380
G1 X158.385 Y106.268 E0.01433
G1 X158.163 Y106.654 E0.01284
G1 X157.867 Y107.024 E0.01366
G1 X157.520 Y107.346 E0.01366
G1 X157.129 Y107.612 E0.01366
G1 X156.703 Y107.818 E0.01366
G1 X156.250 Y107.957 E0.01366
G1 X155.782 Y108.028 E0.01366
G1 X155.309 Y108.028 E0.01366
G1 X154.841 Y107.957 E0.01366
G1 X154.388 Y107.818 E0.01366
G1 X153.962 Y107.612 E0.01366
G1 X153.571 Y107.346 E0.01366
G1 X153.224 Y107.024 E0.01366
G1 X152.928 Y106.654 E0.01366
G1 X152.692 Y106.244 E0.01366
G1 X152.519 Y105.803 E0.01366
G1 X152.413 Y105.341 E0.01366
G1 X152.380 Y104.898 E0.01284
G1 X152.407 Y104.492 E0.01174
G1 X152.783 Y104.516 F10800.000
G1 F1200.000
G1 X152.880 Y104.047 E0.01381
G1 X153.032 Y103.659 E0.01203
G1 X153.241 Y103.298 E0.01203
G1 X153.501 Y102.972 E0.01203
G1 X153.809 Y102.687 E0.01211
G1 X154.175 Y102.442 E0.01270
G1 X154.526 Y102.273 E0.01126
G1 X154.925 Y102.150 E0.01203
G1 X155.337 Y102.088 E0.01203
G1 X155.757 Y102.088 E0.01211
G1 X156.191 Y102.158 E0.01270
G1 X156.565 Y102.273 E0.01126
G1 X156.940 Y102.454 E0.01203
G1 X157.285 Y102.689 E0.01203
G1 X157.590 Y102.972 E0.01203
G1 X157.850 Y103.298 E0.01203
G1 X158.059 Y103.659 E0.01203
G1 X158.211 Y104.047 E0.01203
G1 X158.304 Y104.454 E0.01203
G1 X158.335 Y104.869 E0.01203
G1 X158.304 Y105.285 E0.01203
G1 X158.210 Y105.694 E0.01211
G1 X158.045 Y106.103 E0.01270
G1 X157.850 Y106.441 E0.01126
G1 X157.590 Y106.767 E0.01203
G1 X157.285 Y107.050 E0.01203
G1 X156.940 Y107.285 E0.01203
G1 X156.565 Y107.466 E0.01203
G1 X156.166 Y107.589 E0.01203
G1 X155.754 Y107.651 E0.01203
G1 X155.337 Y107.651 E0.01203
G1 X154.925 Y107.589 E0.01203
G1 X154.526 Y107.466 E0.01203
G1 X154.151 Y107.285 E0.01203
G1 X153.806 Y107.050 E0.01203
G1 X153.501 Y106.767 E0.01203
G1 X153.241 Y106.441 E0.01203
G1 X153.032 Y106.080 E0.01203
G1 X152.880 Y105.692 E0.01203
G1 X152.787 Y105.285 E0.01203
G1 X152.758 Y104.896 E0.01126
G1 X152.779 Y104.576 E0.00924
G1 X153.161 Y104.511 F10800.000
G1 F1200.000
G1 X153.241 Y104.159 E0.01043
G1 X153.373 Y103.823 E0.01040
G1 X153.553 Y103.511 E0.01040
G1 X153.778 Y103.229 E0.01040
G1 X154.043 Y102.984 E0.01043
G1 X154.362 Y102.771 E0.01107
G1 X154.665 Y102.625 E0.00969
G1 X155.009 Y102.519 E0.01040
G1 X155.365 Y102.465 E0.01040
G1 X155.727 Y102.465 E0.01043
G1 X156.106 Y102.526 E0.01107
G1 X156.426 Y102.625 E0.00969
G1 X156.751 Y102.781 E0.01040
G1 X157.049 Y102.984 E0.01040
G1 X157.313 Y103.229 E0.01040
G1 X157.538 Y103.511 E0.01040
G1 X157.718 Y103.823 E0.01040
G1 X157.850 Y104.159 E0.01040
G1 X157.930 Y104.510 E0.01040
G1 X157.957 Y104.869 E0.01040
G1 X157.930 Y105.229 E0.01040
G1 X157.849 Y105.581 E0.01043
G1 X157.706 Y105.937 E0.01107
G1 X157.538 Y106.228 E0.00969
G1 X157.313 Y106.509 E0.01040
G1 X157.049 Y106.754 E0.01040
G1 X156.751 Y106.957 E0.01040
G1 X156.426 Y107.114 E0.01040
G1 X156.082 Y107.220 E0.01040
G1 X155.726 Y107.274 E0.01040
G1 X155.365 Y107.274 E0.01040
G1 X155.009 Y107.220 E0.01040
G1 X154.665 Y107.114 E0.01040
G1 X154.340 Y106.957 E0.01040
G1 X154.042 Y106.754 E0.01040
G1 X153.778 Y106.509 E0.01040
G1 X153.553 Y106.228 E0.01040
G1 X153.373 Y105.916 E0.01040
G1 X153.241 Y105.580 E0.01040
G1 X153.161 Y105.229 E0.01040
G1 X153.136 Y104.894 E0.00969
G1 X153.157 Y104.571 E0.00934
G1 X152.878 Y104.286 F10800.000
G1 F8640.000
G1 X153.241 Y104.159 E-0.09716
G1 X153.373 Y103.823 E-0.08321
G1 X153.553 Y103.511 E-0.08321
G1 X153.778 Y103.229 E-0.08321
G1 X154.043 Y102.984 E-0.08345
G1 X154.362 Y102.771 E-0.08859
G1 X154.665 Y102.625 E-0.07754
G1 X155.009 Y102.519 E-0.08321
G1 X155.353 Y102.467 E-0.08042
G1 E-0.04000 F2100.00000
G1 Z0.800 F10800.000
G1 X98.344 Y105.001
G1 Z0.200
G1 E0.80000 F2100.00000
G1 F1200.000
G1 X98.305 Y105.530 E0.01529
G1 X98.187 Y106.046 E0.01529
G1 X97.993 Y106.539 E0.01529
G1 X97.728 Y106.998 E0.01529
G1 X97.398 Y107.413 E0.01529
G1 X97.009 Y107.773 E0.01529
G1 X96.572 Y108.072 E0.01529
G1 X96.094 Y108.302 E0.01529
G1 X95.588 Y108.458 E0.01529
G1 X95.064 Y108.537 E0.01529
G1 X94.534 Y108.537 E0.01529
G1 X94.010 Y108.458 E0.01529
G1 X93.503 Y108.302 E0.01529
G1 X93.026 Y108.072 E0.01529
G1 X92.588 Y107.773 E0.01529
G1 X92.200 Y107.413 E0.01529
G1 X91.869 Y106.998 E0.01529
G1 X91.604 Y106.539 E0.01529
G1 X91.411 Y106.046 E0.01529
G1 X91.293 Y105.530 E0.01529
G1 X91.253 Y105.001 E0.01529
G1 X91.293 Y104.473 E0.01529
G1 X91.411 Y103.956 E0.01529
G1 X91.604 Y103.463 E0.01529
G1 X91.869 Y103.004 E0.01529
G1 X92.200 Y102.590 E0.01529
G1 X92.588 Y102.229 E0.01529
G1 X93.026 Y101.931 E0.01529
G1 X93.503 Y101.701 E0.01529
G1 X94.010 Y101.544 E0.01529
G1 X94.534 Y101.465 E0.01529
G1 X95.070 Y101.465 E0.01548
G1 X95.617 Y101.553 E0.01596
G1 X96.094 Y101.701 E0.01441
G1 X96.572 Y101.931 E0.01529
G1 X97.009 Y102.229 E0.01529
G1 X97.398 Y102.590 E0.01529
G1 X97.728 Y103.004 E0.01529
G1 X97.993 Y103.463 E0.01529
G1 X98.187 Y103.956 E0.01529
G1 X98.305 Y104.473 E0.01529
G1 X98.340 Y104.941 E0.01356
G1 X97.964 Y104.969 F10800.000
G1 F1200.000
G1 X97.931 Y105.473 E0.01456
G1 X97.825 Y105.935 E0.01366
G1 X97.652 Y106.375 E0.01366
G1 X97.416 Y106.785 E0.01366
G1 X97.121 Y107.155 E0.01366
G1 X96.774 Y107.477 E0.01366
G1 X96.382 Y107.744 E0.01366
G1 X95.956 Y107.950 E0.01366
G1 X95.504 Y108.089 E0.01366
G1 X95.035 Y108.160 E0.01366
G1 X94.562 Y108.160 E0.01366
G1 X94.094 Y108.089 E0.01366
G1 X93.642 Y107.950 E0.01366
G1 X93.215 Y107.744 E0.01366
G1 X92.824 Y107.477 E0.01366
G1 X92.477 Y107.155 E0.01366
G1 X92.182 Y106.785 E0.01366
G1 X91.945 Y106.375 E0.01366
G1 X91.772 Y105.935 E0.01366
G1 X91.667 Y105.473 E0.01366
G1 X91.631 Y105.001 E0.01366
G1 X91.667 Y104.529 E0.01366
G1 X91.772 Y104.067 E0.01366
G1 X91.945 Y103.627 E0.01366
G1 X92.182 Y103.217 E0.01366
G1 X92.477 Y102.847 E0.01366
G1 X92.824 Y102.525 E0.01366
G1 X93.215 Y102.258 E0.01366
G1 X93.642 Y102.053 E0.01366
G1 X94.094 Y101.913 E0.01366
G1 X94.562 Y101.843 E0.01366
G1 X95.040 Y101.843 E0.01380
G1 X95.531 Y101.921 E0.01433
G1 X95.956 Y102.053 E0.01284
G1 X96.382 Y102.258 E0.01366
G1 X96.774 Y102.525 E0.01366
G1 X97.121 Y102.847 E0.01366
G1 X97.416 Y103.217 E0.01366
G1 X97.652 Y103.627 E0.01366
G1 X97.825 Y104.067 E0.01366
G1 X97.931 Y104.529 E0.01366
G1 X97.959 Y104.910 E0.01101
G1 X97.583 Y104.938 F10800.000
G1 F1200.000
G1 X97.557 Y105.417 E0.01384
G1 X97.464 Y105.823 E0.01203
G1 X97.312 Y106.211 E0.01203
G1 X97.103 Y106.572 E0.01203
G1 X96.843 Y106.898 E0.01203
G1 X96.538 Y107.182 E0.01203
G1 X96.193 Y107.417 E0.01203
G1 X95.818 Y107.598 E0.01203
G1 X95.419 Y107.720 E0.01203
G1 X95.007 Y107.783 E0.01203
G1 X94.590 Y107.783 E0.01203
G1 X94.178 Y107.720 E0.01203
G1 X93.780 Y107.598 E0.01203
G1 X93.404 Y107.417 E0.01203
G1 X93.060 Y107.182 E0.01203
G1 X92.754 Y106.898 E0.01203
G1 X92.494 Y106.572 E0.01203
G1 X92.286 Y106.211 E0.01203
G1 X92.133 Y105.823 E0.01203
G1 X92.041 Y105.417 E0.01203
G1 X92.009 Y105.001 E0.01203
G1 X92.041 Y104.585 E0.01203
G1 X92.133 Y104.179 E0.01203
G1 X92.286 Y103.791 E0.01203
G1 X92.494 Y103.430 E0.01203
G1 X92.754 Y103.104 E0.01203
G1 X93.060 Y102.820 E0.01203
G1 X93.404 Y102.586 E0.01203
G1 X93.780 Y102.405 E0.01203
G1 X94.178 Y102.282 E0.01203
G1 X94.590 Y102.220 E0.01203
G1 X95.010 Y102.220 E0.01211
G1 X95.445 Y102.290 E0.01270
G1 X95.818 Y102.405 E0.01126
G1 X96.193 Y102.586 E0.01203
G1 X96.538 Y102.820 E0.01203
G1 X96.843 Y103.104 E0.01203
G1 X97.103 Y103.430 E0.01203
G1 X97.312 Y103.791 E0.01203
G1 X97.464 Y104.179 E0.01203
G1 X97.557 Y104.585 E0.01203
G1 X97.579 Y104.878 E0.00846
G1 X97.210 Y105.001 F10800.000
G1 F1200.000
G1 X97.183 Y105.360 E0.01040
G1 X97.103 Y105.712 E0.01040
G1 X96.971 Y106.047 E0.01040
G1 X96.791 Y106.359 E0.01040
G1 X96.566 Y106.641 E0.01040
G1 X96.302 Y106.886 E0.01040
G1 X96.004 Y107.089 E0.01040
G1 X95.680 Y107.246 E0.01040
G1 X95.335 Y107.352 E0.01040
G1 X94.979 Y107.406 E0.01040
G1 X94.619 Y107.406 E0.01040
G1 X94.262 Y107.352 E0.01040
G1 X93.918 Y107.246 E0.01040
G1 X93.593 Y107.089 E0.01040
G1 X93.295 Y106.886 E0.01040
G1 X93.031 Y106.641 E0.01040
G1 X92.807 Y106.359 E0.01040
G1 X92.626 Y106.047 E0.01040
G1 X92.495 Y105.712 E0.01040
G1 X92.415 Y105.360 E0.01040
G1 X92.388 Y105.001 E0.01040
G1 X92.415 Y104.642 E0.01040
G1 X92.495 Y104.290 E0.01040
G1 X92.626 Y103.955 E0.01040
G1 X92.807 Y103.643 E0.01040
G1 X93.031 Y103.361 E0.01040
G1 X93.295 Y103.116 E0.01040
G1 X93.593 Y102.913 E0.01040
G1 X93.918 Y102.757 E0.01040
G1 X94.262 Y102.650 E0.01040
G1 X94.619 Y102.597 E0.01040
G1 X94.980 Y102.597 E0.01043
G1 X95.359 Y102.658 E0.01107
G1 X95.680 Y102.757 E0.00969
G1 X96.004 Y102.913 E0.01040
G1 X96.302 Y103.116 E0.01040
G1 X96.566 Y103.361 E0.01040
G1 X96.791 Y103.643 E0.01040
G1 X96.971 Y103.955 E0.01040
G1 X97.103 Y104.290 E0.01040
G1 X97.183 Y104.642 E0.01040
G1 X97.205 Y104.941 E0.00866
G1 X97.522 Y105.181 F10800.000
G1 F8640.000
G1 X97.183 Y105.360 E-0.09693
G1 X97.103 Y105.712 E-0.08321
G1 X96.971 Y106.047 E-0.08321
G1 X96.791 Y106.359 E-0.08321
G1 X96.566 Y106.641 E-0.08321
G1 X96.302 Y106.886 E-0.08321
G1 X96.004 Y107.089 E-0.08321
G1 X95.680 Y107.246 E-0.08321
G1 X95.346 Y107.348 E-0.08059
G1 E-0.04000 F2100.00000
G1 Z0.800 F10800.000
G1 X71.584 Y113.416
G1 Z0.200
G1 E0.80000 F2100.00000
G1 F1200.000
G1 X71.366 Y113.108 E0.01088
G1 X71.326 Y113.022 E0.00273
G1 X71.261 Y112.796 E0.00680
G1 X71.227 Y112.429 E0.01061
G1 X71.227 Y97.541 E0.42946
G1 X71.234 Y97.389 E0.00439
G1 X71.295 Y97.071 E0.00934
G1 X71.427 Y96.784 E0.00913
G1 X71.648 Y96.526 E0.00978
G1 X71.892 Y96.366 E0.00842
G1 X72.204 Y96.261 E0.00951
G1 X72.571 Y96.227 E0.01061
G1 X177.658 Y96.239 E3.03135
G1 X178.021 Y96.331 E0.01079
G1 X178.329 Y96.505 E0.01021
G1 X178.546 Y96.742 E0.00925
G1 X178.683 Y97.007 E0.00863
G1 X178.739 Y97.200 E0.00580
G1 X178.773 Y97.571 E0.01073
G1 X178.766 Y112.611 E0.43385
G1 X178.673 Y113.024 E0.01220
G1 X178.573 Y113.216 E0.00626
G1 X178.392 Y113.438 E0.00824
G1 X178.108 Y113.634 E0.00996
G1 X177.796 Y113.739 E0.00951
G1 X177.429 Y113.773 E0.01061
G1 X72.571 Y113.773 E3.02475
G1 X72.204 Y113.739 E0.01061
G1 X72.085 Y113.710 E0.00355
G1 X71.892 Y113.634 E0.00598
G1 X71.629 Y113.456 E0.00917
G1 X71.317 Y113.683 F10800.000
G1 F1200.000
G1 X71.227 Y113.583 E0.00388
G1 X71.035 Y113.292 E0.01006
G1 X70.976 Y113.163 E0.00409
G1 X70.888 Y112.857 E0.00917
G1 X70.850 Y112.446 E0.01190
G1 X70.850 Y97.532 E0.43021
G1 X70.859 Y97.345 E0.00541
G1 X70.929 Y96.974 E0.01088
G1 X71.038 Y96.703 E0.00842
G1 X71.117 Y96.568 E0.00452
G1 X71.334 Y96.302 E0.00993
G1 X71.417 Y96.227 E0.00321
G1 X71.708 Y96.035 E0.01006
G1 X71.979 Y95.927 E0.00840
G1 X72.143 Y95.888 E0.00486
G1 X72.553 Y95.850 E0.01190
G1 X177.684 Y95.862 E3.03259
G1 X177.831 Y95.883 E0.00428
G1 X178.162 Y95.979 E0.00994
G1 X178.457 Y96.133 E0.00960
G1 X178.566 Y96.212 E0.00388
G1 X178.683 Y96.317 E0.00453
G1 X178.867 Y96.543 E0.00840
G1 X179.031 Y96.858 E0.01025
G1 X179.112 Y97.140 E0.00845
G1 X179.150 Y97.554 E0.01199
G1 X179.141 Y112.655 E0.43562
G1 X179.071 Y113.026 E0.01088
G1 X179.023 Y113.164 E0.00422
G1 X178.883 Y113.432 E0.00872
G1 X178.666 Y113.698 E0.00993
G1 X178.583 Y113.773 E0.00321
G1 X178.292 Y113.965 E0.01006
G1 X178.021 Y114.073 E0.00840
G1 X177.857 Y114.112 E0.00486
G1 X177.446 Y114.150 E0.01190
G1 X72.554 Y114.150 E3.02574
G1 X72.143 Y114.112 E0.01190
G1 X71.837 Y114.024 E0.00917
G1 X71.708 Y113.965 E0.00409
G1 X71.362 Y113.723 E0.01219
G1 X71.050 Y113.950 F10800.000
G1 F1200.000
