; generated by PrusaSlicer 2.0.0+ on 2019-09-12 at 20:23:21

; 

; external perimeters extrusion width = 0.60mm
; perimeters extrusion width = 0.43mm
; infill extrusion width = 0.45mm
; solid infill extrusion width = 0.70mm
; top infill extrusion width = 0.43mm
; support material extrusion width = 0.35mm
; first layer extrusion width = 0.42mm

M73 P0 R312
M201 X9000 Y9000 Z500 E10000 ; sets maximum accelerations, mm/sec^2
M203 X500 Y500 Z12 E120 ; sets maximum feedrates, mm/sec
M204 P2000 R1500 T2000 ; sets acceleration (P, T) and retract acceleration (R), mm/sec^2
M205 X10.00 Y10.00 Z0.20 E2.50 ; sets the jerk limits, mm/sec
M205 S0 T0 ; sets the minimum extruding and travel feed rate, mm/sec
M107
M83  ; extruder relative mode
M140 S75 ; set bed temp
M109 S160 ; Set extruder temp before bed level
M190 S75 ; wait for bed temp

G28 W ; home all without mesh bed level
G80 N7 ; mesh bed leveling

M109 S240 ; wait for extruder temp

M221 S100 ; Set flow to 100

G1 Y-3.0 F1000.0 ; go outside print area
G92 E0.0
G1 E8 ; Purge Bubble
M73 P0 R312
G1 X60.0 E9.0 F1000.0 ; intro line
G1 X100.0 E12.5 F1000.0 ; intro line
G92 E0.0
M900 K45; Filament gcode
G21 ; set units to millimeters
G90 ; use absolute coordinates
M83 ; use relative distances for extrusion
;BEFORE_LAYER_CHANGE
G92 E0.0
;0.2


G1 E-0.80000 F2100.00000
G1 Z0.600 F10800.000
;AFTER_LAYER_CHANGE
;0.2
G1 X14.145 Y40.666
G1 Z0.200
G1 E0.80000 F2100.00000
M204 S1000
G1 F1200
G1 X14.719 Y40.588 E0.01671
G1 X228.908 Y40.418 E6.17849
G1 X229.715 Y40.573 E0.02369
G1 X230.407 Y41.014 E0.02369
G1 X230.888 Y41.679 E0.02369
G1 X231.091 Y42.471 E0.02358
G1 X235.620 Y149.673 E3.09510
G1 X235.620 Y160.328 E0.30735
G1 X235.541 Y160.895 E0.01650
G1 X235.292 Y161.465 E0.01797
G1 X231.044 Y168.167 E0.22888
G1 X230.725 Y168.551 E0.01441
G1 X230.326 Y168.853 E0.01441
G1 X229.793 Y169.079 E0.01671
G1 X229.219 Y169.157 E0.01671
G1 X14.718 Y169.326 E6.18749
G1 X14.161 Y169.253 E0.01619
G1 X13.639 Y169.038 E0.01630
G1 X13.189 Y168.696 E0.01630
G1 X12.841 Y168.251 E0.01630
G1 X12.615 Y167.718 E0.01671
G1 X12.537 Y167.144 E0.01671
G1 X12.537 Y42.762 E3.58792
G1 X12.613 Y42.202 E0.01630
G1 X12.829 Y41.684 E0.01619
G1 X13.169 Y41.237 E0.01619
G1 X13.612 Y40.892 E0.01619
G1 X14.090 Y40.689 E0.01498
G1 F8640
G1 X14.719 Y40.588 E-0.14720
G1 X17.373 Y40.586 E-0.61280
G1 E-0.04000 F2100.00000
G1 Z0.800 F10800.000
G1 X14.725 Y167.138
G1 Z0.200
G1 E0.80000 F2100.00000
G1 F1200
G1 X14.725 Y42.776 E3.58733
G1 X15.479 Y42.776 E0.02175
G1 X15.479 Y166.968 E3.58243
G1 X16.233 Y166.968 E0.02175
G1 X16.233 Y42.776 E3.58243
M73 P0 R311
G1 X16.988 Y42.776 E0.02175
G1 X16.988 Y166.968 E3.58243
G1 X17.742 Y166.968 E0.02175
G1 X17.742 Y42.776 E3.58243
G1 X18.496 Y42.776 E0.02175
G1 X18.496 Y166.968 E3.58243
G1 X19.250 Y166.968 E0.02175
G1 X19.250 Y42.776 E3.58243
G1 X20.004 Y42.776 E0.02175
G1 X20.004 Y166.968 E3.58243
G1 X20.758 Y166.968 E0.02175
G1 X20.758 Y42.776 E3.58243
G1 X21.512 Y42.776 E0.02175
G1 X21.512 Y166.968 E3.58243
G1 X22.267 Y166.968 E0.02175
G1 X22.267 Y42.776 E3.58243
G1 X23.021 Y42.776 E0.02175
G1 X23.021 Y166.968 E3.58243
G1 X23.775 Y166.968 E0.02175
G1 X23.775 Y42.776 E3.58243
M73 P0 R310
G1 X24.529 Y42.776 E0.02175
G1 X24.529 Y167.138 E3.58733
G1 F8640
G1 X24.529 Y163.846 E-0.76000
G1 E-0.04000 F2100.00000
G1 Z0.800 F10800.000
G1 X233.431 Y160.313
G1 Z0.200
G1 E0.80000 F2100.00000
G1 F1200
G1 X233.431 Y149.696 E0.30626
G1 X232.677 Y149.696 E0.02175
G1 X232.677 Y160.143 E0.30137
G1 X231.923 Y160.143 E0.02175
G1 X231.923 Y149.696 E0.30137
G1 X231.169 Y149.696 E0.02175
G1 X231.169 Y160.143 E0.30137
G1 X230.415 Y160.143 E0.02175
G1 X230.415 Y149.696 E0.30137
G1 X229.660 Y149.696 E0.02175
G1 X229.660 Y160.143 E0.30137
G1 X229.214 Y160.143 E0.01288
G1 X229.214 Y166.968 E0.19686
G1 X228.906 Y166.968 E0.00887
G1 X228.906 Y149.696 E0.49823
G1 X228.152 Y149.696 E0.02175
G1 X228.152 Y166.968 E0.49823
G1 X227.398 Y166.968 E0.02175
G1 X227.398 Y149.696 E0.49823
G1 X226.739 Y149.696 E0.01902
G1 X226.739 Y155.202 E0.15883
G1 X226.644 Y155.297 E0.00387
G1 X226.644 Y166.968 E0.33666
G1 X225.890 Y166.968 E0.02175
G1 X225.890 Y155.489 E0.33114
G1 X225.135 Y155.489 E0.02175
G1 X225.135 Y166.968 E0.33114
G1 X224.381 Y166.968 E0.02175
G1 X224.381 Y155.489 E0.33114
G1 X223.627 Y155.489 E0.02175
G1 X223.627 Y166.968 E0.33114
G1 X222.873 Y166.968 E0.02175
G1 X222.873 Y155.489 E0.33114
G1 X222.119 Y155.489 E0.02175
G1 X222.119 Y166.968 E0.33114
G1 X221.365 Y166.968 E0.02175
G1 X221.365 Y155.489 E0.33114
G1 X220.610 Y155.489 E0.02175
G1 X220.610 Y166.968 E0.33114
G1 X219.856 Y166.968 E0.02175
G1 X219.856 Y155.489 E0.33114
G1 X219.102 Y155.489 E0.02175
G1 X219.102 Y166.968 E0.33114
G1 X218.348 Y166.968 E0.02175
G1 X218.348 Y156.521 E0.30137
G1 X217.594 Y156.521 E0.02175
G1 X217.594 Y166.968 E0.30137
G1 X216.840 Y166.968 E0.02175
G1 X216.840 Y156.521 E0.30137
G1 X216.085 Y156.521 E0.02175
G1 X216.085 Y166.968 E0.30137
G1 X215.331 Y166.968 E0.02175
G1 X215.331 Y156.521 E0.30137
G1 X214.577 Y156.521 E0.02175
G1 X214.577 Y166.968 E0.30137
G1 X213.823 Y166.968 E0.02175
G1 X213.823 Y156.521 E0.30137
G1 X213.069 Y156.521 E0.02175
G1 X213.069 Y166.968 E0.30137
G1 X212.315 Y166.968 E0.02175
G1 X212.315 Y156.521 E0.30137
G1 X211.561 Y156.521 E0.02175
G1 X211.561 Y166.968 E0.30137
G1 X210.806 Y166.968 E0.02175
G1 X210.806 Y156.521 E0.30137
G1 X210.052 Y156.521 E0.02175
G1 X210.052 Y166.968 E0.30137
G1 X209.298 Y166.968 E0.02175
G1 X209.298 Y156.521 E0.30137
G1 X208.544 Y156.521 E0.02175
G1 X208.544 Y166.968 E0.30137
G1 X207.790 Y166.968 E0.02175
G1 X207.790 Y156.521 E0.30137
G1 X207.036 Y156.521 E0.02175
G1 X207.036 Y166.968 E0.30137
G1 X206.281 Y166.968 E0.02175
G1 X206.281 Y156.521 E0.30137
G1 X205.527 Y156.521 E0.02175
G1 X205.527 Y166.968 E0.30137
G1 X204.773 Y166.968 E0.02175
G1 X204.773 Y156.521 E0.30137
G1 X204.019 Y156.521 E0.02175
G1 X204.019 Y166.968 E0.30137
G1 X203.265 Y166.968 E0.02175
G1 X203.265 Y156.521 E0.30137
G1 X202.511 Y156.521 E0.02175
G1 X202.511 Y166.968 E0.30137
G1 X201.756 Y166.968 E0.02175
G1 X201.756 Y156.521 E0.30137
G1 X201.002 Y156.521 E0.02175
G1 X201.002 Y166.968 E0.30137
G1 X200.248 Y166.968 E0.02175
G1 X200.248 Y156.521 E0.30137
G1 X199.494 Y156.521 E0.02175
G1 X199.494 Y166.968 E0.30137
G1 X198.740 Y166.968 E0.02175
G1 X198.740 Y156.521 E0.30137
G1 X197.986 Y156.521 E0.02175
G1 X197.986 Y166.968 E0.30137
G1 X197.232 Y166.968 E0.02175
G1 X197.232 Y156.521 E0.30137
G1 X196.477 Y156.521 E0.02175
G1 X196.477 Y166.968 E0.30137
G1 X195.723 Y166.968 E0.02175
G1 X195.723 Y156.521 E0.30137
G1 X194.969 Y156.521 E0.02175
G1 X194.969 Y166.968 E0.30137
G1 X194.215 Y166.968 E0.02175
G1 X194.215 Y156.521 E0.30137
G1 X193.461 Y156.521 E0.02175
G1 X193.461 Y166.968 E0.30137
G1 X192.707 Y166.968 E0.02175
G1 X192.707 Y156.521 E0.30137
G1 X191.952 Y156.521 E0.02175
G1 X191.952 Y166.968 E0.30137
G1 X191.198 Y166.968 E0.02175
G1 X191.198 Y156.521 E0.30137
G1 X190.444 Y156.521 E0.02175
G1 X190.444 Y166.968 E0.30137
G1 X189.690 Y166.968 E0.02175
G1 X189.690 Y156.521 E0.30137
G1 X188.936 Y156.521 E0.02175
G1 X188.936 Y166.968 E0.30137
G1 X188.182 Y166.968 E0.02175
G1 X188.182 Y156.521 E0.30137
G1 X187.427 Y156.521 E0.02175
G1 X187.427 Y166.968 E0.30137
G1 X186.673 Y166.968 E0.02175
G1 X186.673 Y156.521 E0.30137
G1 X185.919 Y156.521 E0.02175
G1 X185.919 Y166.968 E0.30137
G1 X185.165 Y166.968 E0.02175
G1 X185.165 Y156.521 E0.30137
G1 X184.411 Y156.521 E0.02175
G1 X184.411 Y166.968 E0.30137
G1 X183.657 Y166.968 E0.02175
G1 X183.657 Y156.521 E0.30137
G1 X182.902 Y156.521 E0.02175
G1 X182.902 Y166.968 E0.30137
G1 X182.148 Y166.968 E0.02175
G1 X182.148 Y156.521 E0.30137
G1 X181.394 Y156.521 E0.02175
G1 X181.394 Y166.968 E0.30137
G1 X180.640 Y166.968 E0.02175
G1 X180.640 Y156.521 E0.30137
G1 X179.886 Y156.521 E0.02175
G1 X179.886 Y166.968 E0.30137
G1 X179.132 Y166.968 E0.02175
G1 X179.132 Y156.521 E0.30137
G1 X178.378 Y156.521 E0.02175
G1 X178.378 Y166.968 E0.30137
G1 X177.623 Y166.968 E0.02175
G1 X177.623 Y156.521 E0.30137
G1 X176.869 Y156.521 E0.02175
G1 X176.869 Y166.968 E0.30137
G1 X176.115 Y166.968 E0.02175
G1 X176.115 Y156.521 E0.30137
G1 X175.361 Y156.521 E0.02175
G1 X175.361 Y166.968 E0.30137
G1 X174.607 Y166.968 E0.02175
G1 X174.607 Y156.521 E0.30137
G1 X173.853 Y156.521 E0.02175
G1 X173.853 Y166.968 E0.30137
G1 X173.098 Y166.968 E0.02175
G1 X173.098 Y156.521 E0.30137
G1 X172.344 Y156.521 E0.02175
G1 X172.344 Y166.968 E0.30137
G1 X171.590 Y166.968 E0.02175
G1 X171.590 Y156.521 E0.30137
G1 X170.836 Y156.521 E0.02175
G1 X170.836 Y166.968 E0.30137
G1 X170.082 Y166.968 E0.02175
G1 X170.082 Y156.521 E0.30137
G1 X169.328 Y156.521 E0.02175
G1 X169.328 Y166.968 E0.30137
G1 X168.573 Y166.968 E0.02175
G1 X168.573 Y156.521 E0.30137
G1 X167.819 Y156.521 E0.02175
G1 X167.819 Y166.968 E0.30137
M73 P0 R309
G1 X167.065 Y166.968 E0.02175
G1 X167.065 Y156.521 E0.30137
G1 X166.311 Y156.521 E0.02175
G1 X166.311 Y166.968 E0.30137
G1 X165.557 Y166.968 E0.02175
G1 X165.557 Y156.521 E0.30137
G1 X164.803 Y156.521 E0.02175
G1 X164.803 Y166.968 E0.30137
G1 X164.049 Y166.968 E0.02175
G1 X164.049 Y156.521 E0.30137
G1 X163.294 Y156.521 E0.02175
G1 X163.294 Y166.968 E0.30137
G1 X162.540 Y166.968 E0.02175
G1 X162.540 Y156.521 E0.30137
G1 X161.786 Y156.521 E0.02175
G1 X161.786 Y166.968 E0.30137
G1 X161.032 Y166.968 E0.02175
G1 X161.032 Y156.521 E0.30137
G1 X160.278 Y156.521 E0.02175
G1 X160.278 Y166.968 E0.30137
G1 X159.524 Y166.968 E0.02175
G1 X159.524 Y156.521 E0.30137
G1 X158.769 Y156.521 E0.02175
G1 X158.769 Y166.968 E0.30137
G1 X158.015 Y166.968 E0.02175
G1 X158.015 Y156.521 E0.30137
G1 X157.261 Y156.521 E0.02175
G1 X157.261 Y166.968 E0.30137
G1 X156.507 Y166.968 E0.02175
G1 X156.507 Y156.521 E0.30137
G1 X155.753 Y156.521 E0.02175
G1 X155.753 Y166.968 E0.30137
G1 X154.999 Y166.968 E0.02175
G1 X154.999 Y156.521 E0.30137
G1 X154.244 Y156.521 E0.02175
G1 X154.244 Y166.968 E0.30137
G1 X153.490 Y166.968 E0.02175
G1 X153.490 Y156.521 E0.30137
G1 X152.736 Y156.521 E0.02175
G1 X152.736 Y166.968 E0.30137
G1 X151.982 Y166.968 E0.02175
G1 X151.982 Y156.521 E0.30137
G1 X151.228 Y156.521 E0.02175
G1 X151.228 Y166.968 E0.30137
G1 X150.474 Y166.968 E0.02175
G1 X150.474 Y156.521 E0.30137
G1 X149.719 Y156.521 E0.02175
G1 X149.719 Y166.968 E0.30137
G1 X148.965 Y166.968 E0.02175
G1 X148.965 Y156.521 E0.30137
G1 X148.211 Y156.521 E0.02175
G1 X148.211 Y166.968 E0.30137
G1 X147.457 Y166.968 E0.02175
G1 X147.457 Y156.521 E0.30137
G1 X146.703 Y156.521 E0.02175
G1 X146.703 Y166.968 E0.30137
G1 X145.949 Y166.968 E0.02175
G1 X145.949 Y156.521 E0.30137
G1 X145.195 Y156.521 E0.02175
G1 X145.195 Y166.968 E0.30137
G1 X144.440 Y166.968 E0.02175
G1 X144.440 Y156.521 E0.30137
G1 X143.686 Y156.521 E0.02175
G1 X143.686 Y166.968 E0.30137
G1 X142.932 Y166.968 E0.02175
G1 X142.932 Y156.521 E0.30137
G1 X142.178 Y156.521 E0.02175
G1 X142.178 Y166.968 E0.30137
G1 X141.424 Y166.968 E0.02175
G1 X141.424 Y156.521 E0.30137
G1 X140.670 Y156.521 E0.02175
G1 X140.670 Y166.968 E0.30137
G1 X139.915 Y166.968 E0.02175
G1 X139.915 Y156.521 E0.30137
G1 X139.161 Y156.521 E0.02175
G1 X139.161 Y166.968 E0.30137
G1 X138.407 Y166.968 E0.02175
G1 X138.407 Y156.521 E0.30137
G1 X137.653 Y156.521 E0.02175
G1 X137.653 Y166.968 E0.30137
G1 X136.899 Y166.968 E0.02175
G1 X136.899 Y156.521 E0.30137
G1 X136.145 Y156.521 E0.02175
G1 X136.145 Y166.968 E0.30137
G1 X135.390 Y166.968 E0.02175
G1 X135.390 Y156.521 E0.30137
G1 X134.636 Y156.521 E0.02175
G1 X134.636 Y166.968 E0.30137
G1 X133.882 Y166.968 E0.02175
G1 X133.882 Y156.521 E0.30137
G1 X133.128 Y156.521 E0.02175
G1 X133.128 Y166.968 E0.30137
G1 X132.374 Y166.968 E0.02175
G1 X132.374 Y156.521 E0.30137
G1 X131.620 Y156.521 E0.02175
G1 X131.620 Y166.968 E0.30137
G1 X130.866 Y166.968 E0.02175
G1 X130.866 Y156.521 E0.30137
G1 X130.111 Y156.521 E0.02175
G1 X130.111 Y166.968 E0.30137
G1 X129.357 Y166.968 E0.02175
G1 X129.357 Y156.521 E0.30137
G1 X128.603 Y156.521 E0.02175
G1 X128.603 Y166.968 E0.30137
G1 X127.849 Y166.968 E0.02175
G1 X127.849 Y156.521 E0.30137
G1 X127.095 Y156.521 E0.02175
G1 X127.095 Y166.968 E0.30137
G1 X126.341 Y166.968 E0.02175
G1 X126.341 Y156.521 E0.30137
G1 X125.586 Y156.521 E0.02175
G1 X125.586 Y166.968 E0.30137
G1 X124.832 Y166.968 E0.02175
G1 X124.832 Y156.521 E0.30137
G1 X124.078 Y156.521 E0.02175
G1 X124.078 Y166.968 E0.30137
G1 X123.324 Y166.968 E0.02175
G1 X123.324 Y156.521 E0.30137
G1 X122.570 Y156.521 E0.02175
G1 X122.570 Y166.968 E0.30137
G1 X121.816 Y166.968 E0.02175
G1 X121.816 Y156.521 E0.30137
G1 X121.061 Y156.521 E0.02175
G1 X121.061 Y166.968 E0.30137
G1 X120.307 Y166.968 E0.02175
G1 X120.307 Y156.521 E0.30137
G1 X119.553 Y156.521 E0.02175
G1 X119.553 Y166.968 E0.30137
G1 X118.799 Y166.968 E0.02175
G1 X118.799 Y156.521 E0.30137
G1 X118.045 Y156.521 E0.02175
G1 X118.045 Y166.968 E0.30137
G1 X117.291 Y166.968 E0.02175
G1 X117.291 Y156.521 E0.30137
G1 X116.537 Y156.521 E0.02175
G1 X116.537 Y166.968 E0.30137
G1 X115.782 Y166.968 E0.02175
G1 X115.782 Y156.521 E0.30137
G1 X115.028 Y156.521 E0.02175
G1 X115.028 Y166.968 E0.30137
G1 X114.274 Y166.968 E0.02175
G1 X114.274 Y156.521 E0.30137
G1 X113.520 Y156.521 E0.02175
G1 X113.520 Y166.968 E0.30137
G1 X112.766 Y166.968 E0.02175
G1 X112.766 Y156.521 E0.30137
G1 X112.012 Y156.521 E0.02175
G1 X112.012 Y166.968 E0.30137
G1 X111.257 Y166.968 E0.02175
G1 X111.257 Y156.521 E0.30137
G1 X110.503 Y156.521 E0.02175
G1 X110.503 Y166.968 E0.30137
G1 X109.749 Y166.968 E0.02175
G1 X109.749 Y156.521 E0.30137
G1 X108.995 Y156.521 E0.02175
G1 X108.995 Y166.968 E0.30137
G1 X108.241 Y166.968 E0.02175
G1 X108.241 Y156.521 E0.30137
G1 X107.487 Y156.521 E0.02175
G1 X107.487 Y166.968 E0.30137
G1 X106.732 Y166.968 E0.02175
G1 X106.732 Y156.521 E0.30137
G1 X105.978 Y156.521 E0.02175
G1 X105.978 Y166.968 E0.30137
G1 X105.224 Y166.968 E0.02175
G1 X105.224 Y156.521 E0.30137
G1 X104.470 Y156.521 E0.02175
G1 X104.470 Y166.968 E0.30137
G1 X103.716 Y166.968 E0.02175
G1 X103.716 Y156.521 E0.30137
G1 X102.962 Y156.521 E0.02175
G1 X102.962 Y166.968 E0.30137
G1 X102.207 Y166.968 E0.02175
G1 X102.207 Y156.521 E0.30137
G1 X101.453 Y156.521 E0.02175
G1 X101.453 Y166.968 E0.30137
G1 X100.699 Y166.968 E0.02175
G1 X100.699 Y156.521 E0.30137
G1 X99.945 Y156.521 E0.02175
G1 X99.945 Y166.968 E0.30137
G1 X99.191 Y166.968 E0.02175
G1 X99.191 Y156.521 E0.30137
G1 X98.437 Y156.521 E0.02175
G1 X98.437 Y166.968 E0.30137
G1 X97.683 Y166.968 E0.02175
G1 X97.683 Y156.521 E0.30137
G1 X96.928 Y156.521 E0.02175
G1 X96.928 Y166.968 E0.30137
G1 X96.174 Y166.968 E0.02175
G1 X96.174 Y156.521 E0.30137
G1 X95.420 Y156.521 E0.02175
G1 X95.420 Y166.968 E0.30137
G1 X94.666 Y166.968 E0.02175
G1 X94.666 Y156.521 E0.30137
G1 X93.912 Y156.521 E0.02175
G1 X93.912 Y166.968 E0.30137
G1 X93.158 Y166.968 E0.02175
G1 X93.158 Y156.521 E0.30137
G1 X92.403 Y156.521 E0.02175
G1 X92.403 Y166.968 E0.30137
G1 X91.649 Y166.968 E0.02175
G1 X91.649 Y156.521 E0.30137
G1 X90.895 Y156.521 E0.02175
G1 X90.895 Y166.968 E0.30137
G1 X90.141 Y166.968 E0.02175
G1 X90.141 Y156.521 E0.30137
G1 X89.387 Y156.521 E0.02175
G1 X89.387 Y166.968 E0.30137
G1 X88.633 Y166.968 E0.02175
G1 X88.633 Y156.521 E0.30137
G1 X87.878 Y156.521 E0.02175
G1 X87.878 Y166.968 E0.30137
M73 P1 R308
G1 X87.124 Y166.968 E0.02175
G1 X87.124 Y156.521 E0.30137
G1 X86.370 Y156.521 E0.02175
G1 X86.370 Y166.968 E0.30137
G1 X85.616 Y166.968 E0.02175
G1 X85.616 Y156.521 E0.30137
G1 X84.862 Y156.521 E0.02175
G1 X84.862 Y166.968 E0.30137
G1 X84.108 Y166.968 E0.02175
G1 X84.108 Y156.521 E0.30137
G1 X83.354 Y156.521 E0.02175
G1 X83.354 Y166.968 E0.30137
G1 X82.599 Y166.968 E0.02175
G1 X82.599 Y156.521 E0.30137
G1 X81.845 Y156.521 E0.02175
G1 X81.845 Y166.968 E0.30137
G1 X81.091 Y166.968 E0.02175
G1 X81.091 Y156.521 E0.30137
G1 X80.337 Y156.521 E0.02175
G1 X80.337 Y166.968 E0.30137
G1 X79.583 Y166.968 E0.02175
G1 X79.583 Y156.521 E0.30137
G1 X78.829 Y156.521 E0.02175
G1 X78.829 Y166.968 E0.30137
G1 X78.074 Y166.968 E0.02175
G1 X78.074 Y156.521 E0.30137
G1 X77.320 Y156.521 E0.02175
G1 X77.320 Y166.968 E0.30137
G1 X76.566 Y166.968 E0.02175
G1 X76.566 Y156.521 E0.30137
G1 X75.812 Y156.521 E0.02175
