; generated by PrusaSlicer 2.9.4 on 2026-03-23 at 14:39:20 UTC


;
;

;
;
; 

; external perimeters extrusion width = 0.45mm
; perimeters extrusion width = 0.45mm
; infill extrusion width = 0.45mm
; solid infill extrusion width = 0.45mm
; top infill extrusion width = 0.40mm
; first layer extrusion width = 0.42mm

; external perimeters extrusion width = 0.45mm
; perimeters extrusion width = 0.45mm
; infill extrusion width = 0.45mm
; solid infill extrusion width = 0.45mm
; top infill extrusion width = 0.40mm
; first layer extrusion width = 0.42mm

M73 P0 R39
M201 X9000 Y9000 Z500 E10000 ; sets maximum accelerations, mm/sec^2
M203 X500 Y500 Z12 E120 ; sets maximum feedrates, mm / sec
M204 S2000 T1500 ; sets acceleration (S) and retract acceleration (R), mm/sec^2
M205 X10.00 Y10.00 Z0.20 E4.50 ; sets the jerk limits, mm/sec
M205 S0 T0 ; sets the minimum extruding and travel feed rate, mm/sec

; printing object 45 Degree Top id:0 copy 0
; stop printing object 45 Degree Top id:0 copy 0
; printing object 45 Degree Bottom id:1 copy 0
; stop printing object 45 Degree Bottom id:1 copy 0

;TYPE:Custom
M83  ; extruder relative mode
M140 S85 ; set bed temp
M109 S160 ; Set extruder temp before bed level
M190 S85 ; wait for bed temp

G28 W ; home all without mesh bed level
G80 N7 ; mesh bed leveling

M109 S240 ; wait for extruder temp

M221 S100 ; Set flow to 100

G1 Y-3.0 F1000.0 ; go outside print area
G92 E0.0
G1 E8 ; Purge Bubble
G1 X60.0 E9.0 F1000.0 ; intro line
G1 X100.0 E12.5 F1000.0 ; intro line
G92 E0.0
G21 ; set units to millimeters
G90 ; use absolute coordinates
M83 ; use relative distances for extrusion

M900 K0.08 ; Filament gcode LA 1.5
M900 K45 ; Filament gcode LA 1.0




M107
;LAYER_CHANGE
;Z:0.2
;HEIGHT:0.2
G1 E-1 F2100
G1 Z.4 F720
G1 X95.448 Y114.402 F10800
G1 Z.2 F720
G1 E1 F2100
M204 S800
;TYPE:Skirt/Brim
;WIDTH:0.42
G1 F1200
G1 X96.285 Y113.779 E.03272
G1 X97.467 Y113.186 E.04146
G1 X98.466 Y112.887 E.0327
G1 X99.94 Y112.73 E.04648
G1 X163.384 Y113.686 E1.98947
G1 X164.953 Y113.88 E.04957
G1 X166.356 Y114.39 E.04681
G1 X167.614 Y115.194 E.04681
G1 X168.665 Y116.254 E.0468
G1 X169.46 Y117.518 E.04682
G1 X169.958 Y118.926 E.04683
G1 X170.137 Y120.408 E.0468
G1 X170.103 Y121.155 E.02345
G1 X169.863 Y122.385 E.03929
G1 X169.23 Y123.869 E.05059
G1 X156.167 Y146.488 E.81898
G1 X155.425 Y147.498 E.0393
G1 X154.716 Y148.187 E.031
G1 X153.687 Y148.901 E.03927
G1 X152.793 Y149.323 E.031
G1 X151.349 Y149.704 E.04683
G1 X150.065 Y149.772 E.04032
G1 X86.246 Y148.788 E2.00124
G1 X85.466 Y148.666 E.02475
G1 X84.467 Y148.367 E.0327
G1 X83.748 Y148.041 E.02475
G1 X82.643 Y147.314 E.04147
G1 X81.541 Y146.188 E.0494
G1 X81.095 Y145.537 E.02474
G1 X80.627 Y144.605 E.0327
G1 X80.247 Y143.338 E.04147
G1 X80.126 Y141.767 E.0494
G1 X80.371 Y140.21 E.04942
G1 X80.968 Y138.752 E.0494
G1 X94.095 Y116.015 E.82319
G1 X94.541 Y115.364 E.02474
G1 X95.407 Y114.446 E.03957
M204 S1000
;WIPE_START
G1 F8640
G1 X95.448 Y114.402 E-.01389
G1 X96.285 Y113.779 E-.24093
G1 X97.467 Y113.186 E-.30535
G1 X98.466 Y112.887 E-.24078
G1 X99.323 Y112.795 E-.19905
;WIPE_END
G1 Z.4 F720
; printing object 45 Degree Top id:0 copy 0
G1 X95.492 Y132.247 F10800
G1 Z.2 F720
G1 E1 F2100
M204 S800
;TYPE:Perimeter
;WIDTH:0.419999
G1 F1200
G1 X95.521 Y132.172 E.00252
G1 X95.696 Y131.872 E.01089
G1 X96.092 Y131.361 E.02027
G1 X96.334 Y131.121 E.01069
G1 X96.857 Y130.722 E.02063
G1 X97.133 Y130.56 E.01003
G1 X97.747 Y130.294 E.02098
G1 X98.503 Y130.123 E.0243
G1 X99.1 Y130.038 E.01891
G1 X99.662 Y130.038 E.01762
G1 X100.195 Y130.105 E.01684
G1 X100.749 Y130.2 E.01762
G1 X101.249 Y130.344 E.01631
G1 X102.118 Y130.702 E.02947
G1 X102.828 Y131.104 E.02558
G1 X103.269 Y131.417 E.01696
G1 X103.978 Y132.058 E.02997
G1 X104.606 Y132.828 E.03115
G1 X105.005 Y133.5 E.0245
G1 X105.343 Y134.399 E.03011
G1 X105.479 Y135.179 E.02483
G1 X105.482 Y135.89 E.02229
G1 X105.442 Y136.191 E.00952
G1 X105.279 Y136.835 E.02083
G1 X105.133 Y137.19 E.01204
G1 X104.867 Y137.672 E.01726
G1 X104.427 Y138.209 E.02177
G1 X103.983 Y138.586 E.01826
G1 X103.462 Y138.93 E.01958
G1 X102.778 Y139.223 E.02333
G1 X101.88 Y139.427 E.02887
G1 X100.98 Y139.463 E.02824
G1 X99.937 Y139.323 E.033
G1 X99.011 Y139.042 E.03034
G1 X98.109 Y138.612 E.03133
G1 X97.427 Y138.168 E.02552
G1 X96.919 Y137.736 E.02091
G1 X96.543 Y137.383 E.01617
G1 X96.044 Y136.776 E.02464
G1 X95.535 Y135.912 E.03144
G1 X95.259 Y135.184 E.02441
G1 X95.134 Y134.647 E.01729
G1 X95.091 Y133.688 E.0301
G1 X95.179 Y133.066 E.0197
G1 X95.471 Y132.303 E.02562
M204 S1000
G1 X95.83 Y132.416 F10800
M204 S800
G1 F1200
G1 X95.869 Y132.318 E.00331
G1 X95.994 Y132.103 E.0078
G1 X96.39 Y131.592 E.02027
G1 X97.086 Y131.022 E.02821
G1 X97.897 Y130.64 E.02811
G1 X98.569 Y130.494 E.02156
G1 X99.1 Y130.415 E.01683
G1 X99.661 Y130.416 E.01759
G1 X100.527 Y130.537 E.02742
G1 X101.145 Y130.706 E.02009
G1 X101.971 Y131.049 E.02804
G1 X102.638 Y131.43 E.02408
G1 X103.047 Y131.722 E.01576
G1 X103.723 Y132.335 E.02861
G1 X104.31 Y133.061 E.02927
G1 X104.677 Y133.687 E.02275
G1 X104.988 Y134.524 E.028
G1 X105.105 Y135.231 E.02247
G1 X105.105 Y135.883 E.02044
G1 X104.913 Y136.742 E.0276
G1 X104.655 Y137.285 E.01885
G1 X104.425 Y137.621 E.01277
G1 X104.094 Y138.016 E.01616
G1 X103.506 Y138.472 E.02333
G1 X102.63 Y138.876 E.03025
G1 X101.808 Y139.057 E.02639
G1 X100.974 Y139.086 E.02617
G1 X99.994 Y138.95 E.03102
G1 X99.127 Y138.683 E.02844
G1 X98.276 Y138.274 E.0296
G1 X97.637 Y137.855 E.02396
G1 X97.169 Y137.454 E.01932
G1 X96.785 Y137.084 E.01672
G1 X96.335 Y136.537 E.02221
G1 X95.864 Y135.728 E.02935
G1 X95.614 Y135.059 E.02239
G1 X95.503 Y134.57 E.01572
G1 X95.468 Y133.68 E.02793
G1 X95.55 Y133.135 E.01728
G1 X95.808 Y132.472 E.02231
M204 S1000
G1 X96.166 Y132.585 F10800
M204 S800
G1 F1200
G1 X96.217 Y132.463 E.00415
G1 X96.688 Y131.823 E.02492
G1 X97.314 Y131.321 E.02516
G1 X98.047 Y130.986 E.02527
G1 X99.103 Y130.792 E.03366
G1 X99.661 Y130.793 E.0175
G1 X100.47 Y130.91 E.02563
G1 X101.041 Y131.069 E.01858
G1 X101.824 Y131.396 E.02661
G1 X102.447 Y131.755 E.02254
G1 X102.875 Y132.068 E.01663
G1 X103.467 Y132.613 E.02523
G1 X104.014 Y133.295 E.02741
G1 X104.349 Y133.873 E.02095
G1 X104.632 Y134.649 E.0259
G1 X104.732 Y135.283 E.02012
G1 X104.728 Y135.877 E.01862
G1 X104.548 Y136.65 E.02489
G1 X104.322 Y137.108 E.01601
G1 X103.847 Y137.726 E.02444
G1 X103.28 Y138.17 E.02258
G1 X102.481 Y138.53 E.02748
G1 X101.736 Y138.687 E.02387
G1 X100.967 Y138.709 E.02412
G1 X100.051 Y138.577 E.02902
G1 X99.243 Y138.324 E.02655
G1 X98.443 Y137.936 E.02788
G1 X97.847 Y137.542 E.0224
G1 X97.418 Y137.171 E.01778
G1 X97.076 Y136.844 E.01484
G1 X96.626 Y136.297 E.02221
G1 X96.193 Y135.543 E.02726
G1 X95.97 Y134.934 E.02033
G1 X95.86 Y134.391 E.01737
G1 X95.845 Y133.672 E.02255
G1 X95.945 Y133.115 E.01774
G1 X96.143 Y132.64 E.01614
M204 S1000
G1 X96.503 Y132.755 F10800
M204 S800
;TYPE:External perimeter
G1 F1200
G1 X96.565 Y132.608 E.005
G1 X96.986 Y132.054 E.02182
G1 X97.543 Y131.621 E.02212
G1 X98.197 Y131.332 E.02242
G1 X99.103 Y131.169 E.02886
G1 X99.66 Y131.17 E.01746
G1 X100.413 Y131.282 E.02387
G1 X100.937 Y131.431 E.01708
G1 X101.676 Y131.743 E.02515
G1 X102.257 Y132.081 E.02108
G1 X102.62 Y132.345 E.01407
G1 X103.212 Y132.89 E.02523
G1 X103.718 Y133.528 E.02553
M73 P1 R39
G1 X104.021 Y134.059 E.01917
G1 X104.276 Y134.775 E.02383
G1 X104.358 Y135.335 E.01775
G1 X104.351 Y135.87 E.01678
G1 X104.182 Y136.557 E.02218
G1 X103.947 Y137.011 E.01603
G1 X103.557 Y137.485 E.01925
G1 X103.055 Y137.868 E.0198
G1 X102.332 Y138.183 E.02473
G1 X101.665 Y138.317 E.02133
G1 X100.96 Y138.332 E.02211
G1 X100.108 Y138.204 E.02701
G1 X99.358 Y137.965 E.02468
G1 X98.61 Y137.598 E.02612
G1 X98.057 Y137.229 E.02084
G1 X97.367 Y136.604 E.02919
G1 X96.917 Y136.057 E.02221
G1 X96.522 Y135.359 E.02515
G1 X96.326 Y134.809 E.01831
G1 X96.237 Y134.383 E.01365
G1 X96.222 Y133.664 E.02255
G1 X96.302 Y133.236 E.01365
G1 X96.48 Y132.81 E.01448
M204 S1000
;WIPE_START
G1 F8640
G1 X96.503 Y132.755 E-.01377
G1 X96.565 Y132.608 E-.03684
G1 X96.986 Y132.054 E-.16067
G1 X97.543 Y131.621 E-.1629
G1 X98.197 Y131.332 E-.1651
G1 X99.103 Y131.169 E-.21256
G1 X99.66 Y131.17 E-.12861
G1 X100.172 Y131.246 E-.11955
;WIPE_END
G1 Z.4 F720
G1 X112.712 Y139.265 F10800
G1 Z.2 F720
G1 E1 F2100
M204 S800
;TYPE:Perimeter
G1 F1200
G1 X112.803 Y139.254 E.00287
G1 X113.493 Y139.318 E.02173
G1 X113.99 Y139.47 E.0163
G1 X114.503 Y139.752 E.01835
;WIDTH:0.463635
G1 X114.729 Y139.94 E.01028
;WIDTH:0.50727
G1 X114.955 Y140.127 E.01133
;WIDTH:0.550905
G1 X115.181 Y140.314 E.01239
G1 X115.465 Y140.781 E.02309
;WIDTH:0.543037
G1 X115.646 Y141.247 E.02079
;WIDTH:0.55195
G1 X115.743 Y141.952 E.03012
G1 X115.702 Y142.569 E.02617
;WIDTH:0.543155
G1 X115.542 Y143.111 E.02351
;WIDTH:0.54398
G1 X115.297 Y143.576 E.0219
;WIDTH:0.550377
G1 X114.784 Y144.165 E.03296
G1 X114.362 Y144.479 E.02219
;WIDTH:0.547097
G1 X113.902 Y144.698 E.02136
G1 X113.408 Y144.836 E.0215
;WIDTH:0.544984
G1 X112.884 Y144.883 E.02196
;WIDTH:0.576555
G1 X112.356 Y144.844 E.02349
G1 X112.156 Y144.751 E.00979
;WIDTH:0.537416
G1 X111.956 Y144.658 E.00907
;WIDTH:0.498277
G1 X111.757 Y144.565 E.00832
;WIDTH:0.459138
G1 X111.557 Y144.472 E.00763
;WIDTH:0.419999
G1 X111.079 Y144.137 E.0183
G1 X110.741 Y143.786 E.01528
G1 X110.475 Y143.392 E.01491
G1 X110.308 Y143.034 E.01239
G1 X110.194 Y142.663 E.01217
G1 X110.122 Y142.083 E.01833
G1 X110.155 Y141.597 E.01527
G1 X110.322 Y141.013 E.01904
G1 X110.468 Y140.688 E.01117
G1 X110.682 Y140.362 E.01223
G1 X111.007 Y140 E.01525
G1 X111.389 Y139.699 E.01525
G1 X111.835 Y139.465 E.01579
G1 X112.362 Y139.306 E.01726
G1 X112.652 Y139.272 E.00916
M204 S1000
G1 X112.738 Y139.634 F10800
M204 S800
;TYPE:External perimeter
G1 F1200
G1 X112.769 Y139.63 E.00098
G1 X113.459 Y139.693 E.02172
G1 X113.899 Y139.841 E.01456
G1 X114.266 Y140.046 E.01318
G1 X114.592 Y140.312 E.01319
G1 X114.867 Y140.632 E.01323
G1 X115.111 Y141.072 E.01578
G1 X115.23 Y141.399 E.01091
G1 X115.313 Y142.087 E.02173
G1 X115.26 Y142.549 E.01458
G1 X115.133 Y142.956 E.01337
G1 X114.883 Y143.405 E.01611
G1 X114.414 Y143.913 E.02168
G1 X114.096 Y144.126 E.012
G1 X113.638 Y144.33 E.01572
G1 X113.221 Y144.416 E.01335
G1 X112.892 Y144.443 E.01035
G1 X112.473 Y144.405 E.01319
G1 X112.067 Y144.293 E.01321
G1 X111.688 Y144.113 E.01316
G1 X111.346 Y143.87 E.01315
G1 X111.05 Y143.57 E.01321
G1 X110.814 Y143.227 E.01305
G1 X110.668 Y142.923 E.01057
G1 X110.554 Y142.552 E.01217
G1 X110.498 Y142.102 E.01422
G1 X110.523 Y141.682 E.01319
G1 X110.669 Y141.16 E.017
G1 X110.951 Y140.631 E.0188
G1 X111.245 Y140.292 E.01407
G1 X111.573 Y140.029 E.01318
G1 X111.947 Y139.825 E.01336
G1 X112.42 Y139.679 E.01552
G1 X112.679 Y139.643 E.0082
M204 S1000
;WIPE_START
G1 F8640
G1 X112.738 Y139.634 E-.01378
G1 X112.769 Y139.63 E-.00722
G1 X113.459 Y139.693 E-.15999
G1 X113.899 Y139.841 E-.10719
G1 X114.266 Y140.046 E-.09707
G1 X114.592 Y140.312 E-.09715
G1 X114.867 Y140.632 E-.09742
G1 X115.111 Y141.072 E-.11617
G1 X115.23 Y141.399 E-.08035
G1 X115.313 Y142.087 E-.16001
G1 X115.281 Y142.361 E-.06365
;WIPE_END
G1 Z.4 F720
G1 X88.617 Y144.22 F10800
G1 Z.2 F720
G1 E1 F2100
M204 S800
;TYPE:Perimeter
G1 F1200
G1 X88.253 Y144.469 E.01383
G1 X87.728 Y144.696 E.01793
;WIDTH:0.467961
G1 X87.603 Y144.749 E.0048
;WIDTH:0.515923
G1 X87.477 Y144.803 E.00539
;WIDTH:0.563884
G1 X87.351 Y144.856 E.00592
G1 X86.855 Y144.88 E.02151
;WIDTH:0.547213
G1 X86.225 Y144.795 E.02666
G1 X85.882 Y144.691 E.01503
;WIDTH:0.543488
G1 X85.437 Y144.471 E.02066
;WIDTH:0.539343
G1 X85.039 Y144.176 E.02045
;WIDTH:0.541542
G1 X84.691 Y143.821 E.02061
;WIDTH:0.545303
G1 X84.382 Y143.344 E.02374
G1 X84.135 Y142.681 E.02956
;WIDTH:0.542447
G1 X84.061 Y142.127 E.02322
;WIDTH:0.54025
G1 X84.094 Y141.599 E.02188
;WIDTH:0.541362
G1 X84.217 Y141.103 E.02118
;WIDTH:0.546863
G1 X84.454 Y140.592 E.0236
;WIDTH:0.55936
G1 X84.63 Y140.317 E.01402
G1 X84.855 Y140.129 E.01259
;WIDTH:0.512907
G1 X85.081 Y139.942 E.01146
;WIDTH:0.466453
G1 X85.307 Y139.755 E.01033
;WIDTH:0.419999
G1 X85.835 Y139.465 E.01889
G1 X86.362 Y139.306 E.01726
G1 X86.803 Y139.254 E.01392
G1 X87.493 Y139.318 E.02173
G1 X87.99 Y139.47 E.0163
G1 X88.503 Y139.752 E.01835
G1 X88.876 Y140.065 E.01527
G1 X89.218 Y140.484 E.01696
G1 X89.433 Y140.858 E.01353
G1 X89.604 Y141.346 E.01621
G1 X89.687 Y142.042 E.02198
G1 X89.641 Y142.562 E.01637
G1 X89.464 Y143.135 E.0188
G1 X89.16 Y143.661 E.01905
G1 X88.692 Y144.169 E.02166
G1 X88.666 Y144.186 E.00097
M204 S1000
G1 X88.389 Y143.93 F10800
M204 S800
;TYPE:External perimeter
G1 F1200
G1 X88.096 Y144.126 E.01105
G1 X87.638 Y144.33 E.01572
G1 X87.311 Y144.408 E.01054
G1 X86.892 Y144.443 E.01318
G1 X86.339 Y144.369 E.01749
G1 X86.067 Y144.293 E.00886
G1 X85.688 Y144.113 E.01316
G1 X85.346 Y143.87 E.01315
G1 X85.05 Y143.57 E.01321
G1 X84.777 Y143.151 E.01568
G1 X84.554 Y142.552 E.02004
G1 X84.506 Y141.956 E.01875
G1 X84.523 Y141.682 E.00861
G1 X84.696 Y141.096 E.01916
G1 X84.951 Y140.631 E.01663
G1 X85.245 Y140.292 E.01407
G1 X85.573 Y140.029 E.01318
G1 X85.947 Y139.825 E.01336
G1 X86.42 Y139.679 E.01552
G1 X86.769 Y139.63 E.01105
G1 X87.459 Y139.693 E.02172
G1 X87.899 Y139.841 E.01456
G1 X88.266 Y140.046 E.01318
G1 X88.592 Y140.312 E.01319
G1 X88.971 Y140.805 E.0195
G1 X89.219 Y141.354 E.01889
G1 X89.313 Y142.087 E.02317
G1 X89.26 Y142.549 E.01458
G1 X89.133 Y142.956 E.01337
G1 X88.883 Y143.405 E.01611
G1 X88.435 Y143.891 E.02072
M204 S1000
;WIPE_START
G1 F8640
G1 X88.389 Y143.93 E-.01393
G1 X88.096 Y144.126 E-.0814
G1 X87.638 Y144.33 E-.11577
G1 X87.311 Y144.408 E-.07762
G1 X86.892 Y144.443 E-.09709
G1 X86.339 Y144.369 E-.12883
G1 X86.067 Y144.293 E-.06521
G1 X85.688 Y144.113 E-.09688
G1 X85.346 Y143.87 E-.09687
G1 X85.05 Y143.57 E-.09731
G1 X84.777 Y143.151 E-.11547
G1 X84.756 Y143.096 E-.01362
;WIPE_END
G1 Z.4 F720
G1 X102.651 Y119.224 F10800
G1 Z.2 F720
G1 E1 F2100
M204 S800
;TYPE:Perimeter
G1 F1200
G1 X102.687 Y119.526 E.00954
G1 X102.641 Y120.045 E.01634
G1 X102.464 Y120.619 E.01883
G1 X102.16 Y121.144 E.01902
G1 X101.692 Y121.652 E.02166
G1 X101.253 Y121.952 E.01667
G1 X100.794 Y122.159 E.01579
G1 X100.345 Y122.267 E.01448
G1 X99.86 Y122.302 E.01525
G1 X99.357 Y122.247 E.01587
G1 X98.908 Y122.118 E.01465
G1 X98.471 Y121.906 E.01523
G1 X98.079 Y121.62 E.01521
G1 X97.741 Y121.269 E.01528
G1 X97.475 Y120.875 E.01491
G1 X97.308 Y120.517 E.01239
G1 X97.173 Y120.05 E.01524
G1 X97.122 Y119.566 E.01526
;WIDTH:0.457077
G1 X97.144 Y119.275 E.01005
;WIDTH:0.494155
G1 X97.166 Y118.983 E.01099
;WIDTH:0.531232
G1 X97.188 Y118.692 E.01185
;WIDTH:0.571706
G1 X97.203 Y118.581 E.00492
G1 X97.419 Y118.132 E.02191
;WIDTH:0.54545
G1 X97.635 Y117.805 E.01638
;WIDTH:0.545055
G1 X97.968 Y117.436 E.02075
;WIDTH:0.545499
G1 X98.384 Y117.114 E.02198
G1 X98.773 Y116.906 E.01843
;WIDTH:0.544157
G1 X99.262 Y116.75 E.02139
G1 X99.809 Y116.677 E.023
;WIDTH:0.54887
G1 X100.482 Y116.735 E.02842
G1 X101.01 Y116.896 E.02322
;WIDTH:0.542576
G1 X101.512 Y117.167 E.0237
;WIDTH:0.54356
G1 X101.923 Y117.507 E.0222
G1 X102.242 Y117.889 E.02072
;WIDTH:0.549271
G1 X102.493 Y118.318 E.02093
;WIDTH:0.580979
G1 X102.65 Y118.683 E.01778
G1 X102.639 Y118.722 E.00181
;WIDTH:0.540734
G1 X102.627 Y118.76 E.00165
;WIDTH:0.500489
G1 X102.616 Y118.799 E.00154
;WIDTH:0.460244
G1 X102.605 Y118.837 E.00137
;WIDTH:0.419999
G1 X102.644 Y119.164 E.01033
M204 S1000
G1 X102.276 Y119.265 F10800
M204 S800
;TYPE:External perimeter
G1 F1200
G1 X102.313 Y119.571 E.00966
G1 X102.26 Y120.033 E.01458
G1 X102.133 Y120.439 E.01334
G1 X101.883 Y120.889 E.01614
G1 X101.414 Y121.396 E.02166
G1 X101.096 Y121.609 E.012
G1 X100.638 Y121.814 E.01573
G1 X100.311 Y121.892 E.01054
G1 X99.892 Y121.927 E.01318
G1 X99.454 Y121.883 E.0138
G1 X99.067 Y121.777 E.01258
G1 X98.688 Y121.597 E.01316
G1 X98.346 Y121.354 E.01315
G1 X98.05 Y121.053 E.01324
G1 X97.814 Y120.71 E.01305
G1 X97.668 Y120.406 E.01057
G1 X97.547 Y120.003 E.01319
G1 X97.498 Y119.585 E.0132
G1 X97.523 Y119.165 E.01319
G1 X97.62 Y118.758 E.01312
G1 X97.79 Y118.368 E.01334
G1 X98.202 Y117.821 E.02147
G1 X98.598 Y117.498 E.01602
G1 X98.934 Y117.313 E.01203
