; generated by PrusaSlicer 2.9.2 on 2025-08-21 at 20:47:30 UTC


;
;

;
;
; 

; external perimeters extrusion width = 0.45mm
; perimeters extrusion width = 0.45mm
; infill extrusion width = 0.45mm
; solid infill extrusion width = 0.45mm
; top infill extrusion width = 0.40mm
; first layer extrusion width = 0.42mm

; external perimeters extrusion width = 0.45mm
; perimeters extrusion width = 0.45mm
; infill extrusion width = 0.45mm
; solid infill extrusion width = 0.45mm
; top infill extrusion width = 0.40mm
; first layer extrusion width = 0.42mm

; external perimeters extrusion width = 0.45mm
; perimeters extrusion width = 0.45mm
; infill extrusion width = 0.45mm
; solid infill extrusion width = 0.45mm
; top infill extrusion width = 0.40mm
; first layer extrusion width = 0.42mm

M73 P0 R190
M201 X9000 Y9000 Z500 E10000 ; sets maximum accelerations, mm/sec^2
M203 X500 Y500 Z12 E120 ; sets maximum feedrates, mm / sec
M204 S2000 T1500 ; sets acceleration (S) and retract acceleration (R), mm/sec^2
M205 X10.00 Y10.00 Z0.20 E4.50 ; sets the jerk limits, mm/sec
M205 S0 T0 ; sets the minimum extruding and travel feed rate, mm/sec

; printing object xbox_one_s_bottom_right.stl id:1 copy 0
; stop printing object xbox_one_s_bottom_right.stl id:1 copy 0
; printing object xbox_one_s_top.stl id:2 copy 0
; stop printing object xbox_one_s_top.stl id:2 copy 0
; printing object xbox_one_s_bottom_left.stl id:0 copy 0
; stop printing object xbox_one_s_bottom_left.stl id:0 copy 0

;TYPE:Custom
M83  ; extruder relative mode
M140 S85 ; set bed temp
M109 S160 ; Set extruder temp before bed level
M190 S85 ; wait for bed temp

G28 W ; home all without mesh bed level
G80 N7 ; mesh bed leveling

M109 S250 ; wait for extruder temp

M221 S100 ; Set flow to 100

G1 Y-3.0 F1000.0 ; go outside print area
G92 E0.0
G1 E8 ; Purge Bubble
G1 X60.0 E9.0 F1000.0 ; intro line
G1 X100.0 E12.5 F1000.0 ; intro line
M73 P0 R189
G92 E0.0
G21 ; set units to millimeters
G90 ; use absolute coordinates
M83 ; use relative distances for extrusion

M900 K0.08 ; Filament gcode LA 1.5
M900 K45 ; Filament gcode LA 1.0




M107
;LAYER_CHANGE
;Z:0.2
;HEIGHT:0.2
G1 E-1 F2100
G1 Z.4 F720
G1 X26.874 Y17.206 F6000
G1 Z.2 F720
G1 E1 F2100
M204 S800
;TYPE:Skirt/Brim
;WIDTH:0.42
G1 F1200
G1 X27.907 Y16.403 E.04102
G1 X28.672 Y16.265 E.02437
G1 X145.946 Y16.268 E3.67704
G1 X147.622 Y16.361 E.05263
G1 X149.068 Y16.577 E.04584
G1 X150.697 Y16.976 E.05259
G1 X152.28 Y17.533 E.05262
G1 X153.979 Y18.34 E.05897
G1 X218.284 Y56.618 E2.34641
G1 X218.712 Y56.951 E.017
G1 X222.876 Y61.115 E.18464
G1 X223.517 Y62.662 E.0525
G1 X223.517 Y69.239 E.20622
G1 X223.36 Y70.052 E.02596
G1 X221.53 Y74.524 E.1515
G1 X161.975 Y168.157 E3.47933
G1 X157.512 Y172.694 E.19954
G1 X156.57 Y173.249 E.03428
G1 X87.471 Y193.118 E2.25434
G1 X85.907 Y193.477 E.05031
G1 X84.625 Y193.655 E.04058
G1 X83.132 Y193.732 E.04687
G1 X81.78 Y193.735 E.04239
G1 X80.532 Y193.344 E.04101
G1 X79.908 Y192.679 E.02859
G1 X26.799 Y104.901 E3.21677
G1 X26.483 Y103.768 E.03688
G1 X26.483 Y18.454 E2.67496
G1 X26.856 Y17.263 E.03913
M204 S1000
;WIPE_START
G1 F4800
G1 X26.874 Y17.206 E-.02484
G1 X27.907 Y16.403 E-.5438
G1 X28.672 Y16.265 E-.32309
G1 X28.933 Y16.265 E-.10827
;WIPE_END
G1 Z.4 F720
; printing object xbox_one_s_bottom_right.stl id:1 copy 0
G1 X143.767 Y19.241 F6000
G1 Z.2 F720
G1 E1 F2100
M204 S800
;TYPE:Perimeter
;WIDTH:0.419999
G1 F1200
G1 X145.819 Y19.241 E.06434
G1 X147.221 Y19.31 E.04401
G1 X148.591 Y19.514 E.04343
G1 X149.934 Y19.852 E.04342
G1 X151.236 Y20.32 E.04338
G1 X152.487 Y20.915 E.04343
G1 X153.673 Y21.629 E.0434
G1 X154.783 Y22.457 E.04342
G1 X155.806 Y23.39 E.04341
G1 X156.732 Y24.42 E.04343
G1 X157.563 Y25.551 E.044
G1 X176.361 Y53.943 E1.06764
G1 X177.144 Y54.99 E.04099
G1 X178.041 Y55.949 E.04117
G1 X179.037 Y56.805 E.04118
G1 X180.121 Y57.546 E.04117
G1 X181.252 Y58.153 E.04025
G1 X182.499 Y58.653 E.04212
G1 X183.764 Y59.005 E.04117
G1 X184.999 Y59.21 E.03925
G1 X186.304 Y59.285 E.04098
G1 X216.838 Y59.286 E.95737
G1 X220.541 Y62.988 E.16417
G1 X220.541 Y63.609 E.01947
G1 X220.541 Y69.087 E.17176
G1 X219.151 Y72.563 E.11738
G1 X218.005 Y72.563 E.03593
G1 X218.005 Y64.907 E.24005
G1 X217.97 Y64.713 E.00618
G1 X217.879 Y64.551 E.00583
G1 X217.764 Y64.444 E.00493
G1 X217.439 Y64.341 E.01069
G1 X194.188 Y64.341 E.72902
G1 X194.038 Y64.362 E.00475
G1 X193.794 Y64.501 E.0088
G1 X193.663 Y64.697 E.00739
G1 X193.622 Y64.907 E.00671
G1 X193.622 Y68.421 E.11018
G1 X174.796 Y68.421 E.59028
G1 X174.789 Y64.815 E.11306
G1 X174.694 Y64.582 E.00789
G1 X174.49 Y64.404 E.00849
G1 X174.231 Y64.341 E.00836
G1 X150.98 Y64.341 E.72902
G1 X150.695 Y64.418 E.00926
G1 X150.484 Y64.635 E.00949
G1 X150.414 Y64.907 E.00881
G1 X150.414 Y67.63 E.08538
G1 X148.513 Y67.63 E.0596
G1 X148.355 Y67.652 E.005
G1 X148.208 Y67.719 E.00507
G1 X148.026 Y67.908 E.00823
G1 X147.948 Y68.195 E.00933
G1 X147.948 Y81.381 E.41344
G1 X148.026 Y81.668 E.00933
G1 X148.207 Y81.857 E.00821
G1 X148.513 Y81.947 E.01
G1 X150.414 Y81.947 E.0596
G1 X150.414 Y102.981 E.65951
G1 X143.767 Y102.981 E.20841
G1 X143.767 Y19.301 E2.62372
M204 S1000
G1 X143.39 Y18.864 F6000
M204 S800
;TYPE:External perimeter
G1 F1200
G1 X145.828 Y18.864 E.07644
G1 X147.259 Y18.934 E.04492
G1 X148.665 Y19.144 E.04457
G1 X150.044 Y19.491 E.04459
G1 X151.382 Y19.972 E.04458
G1 X152.666 Y20.582 E.04457
G1 X153.883 Y21.316 E.04456
G1 X155.023 Y22.166 E.04459
G1 X156.073 Y23.124 E.04457
G1 X157.024 Y24.181 E.04458
G1 X157.873 Y25.335 E.04492
G1 X176.664 Y53.718 E1.06729
G1 X177.42 Y54.733 E.03968
G1 X178.288 Y55.664 E.03991
G1 X179.251 Y56.494 E.03986
G1 X180.3 Y57.214 E.03989
G1 X181.402 Y57.806 E.03922
G1 X182.601 Y58.29 E.04054
G1 X183.826 Y58.633 E.03989
G1 X185.06 Y58.838 E.03922
G1 X186.324 Y58.908 E.03969
G1 X216.995 Y58.908 E.96167
G1 X220.918 Y62.832 E.17397
G1 X220.918 Y63.609 E.02436
M73 P0 R188
G1 X220.918 Y69.16 E.17405
G1 X219.406 Y72.94 E.12765
G1 X217.627 Y72.94 E.05578
G1 X217.627 Y64.907 E.25187
G1 X217.585 Y64.788 E.00396
G1 X217.439 Y64.718 E.00508
G1 X194.188 Y64.718 E.72902
G1 X194.056 Y64.772 E.00447
G1 X193.999 Y64.907 E.00459
G1 X193.999 Y68.798 E.122
G1 X174.419 Y68.798 E.61392
G1 X174.419 Y64.907 E.122
G1 X174.371 Y64.781 E.00423
G1 X174.234 Y64.718 E.00473
G1 X150.98 Y64.718 E.72911
G1 X150.859 Y64.762 E.00404
G1 X150.791 Y64.907 E.00502
G1 X150.791 Y68.007 E.0972
G1 X148.513 Y68.007 E.07142
G1 X148.379 Y68.063 E.00455
G1 X148.325 Y68.195 E.00447
G1 X148.325 Y81.381 E.41344
G1 X148.379 Y81.513 E.00447
G1 X148.513 Y81.57 E.00457
G1 X150.791 Y81.57 E.07142
G1 X150.791 Y103.358 E.68315
G1 X143.39 Y103.358 E.23205
G1 X143.39 Y18.924 E2.64736
M204 S1000
;WIPE_START
G1 F4800
G1 X143.39 Y18.864 E-.02494
G1 X145.736 Y18.864 E-.97506
;WIPE_END
G1 Z.4 F720
G1 X220.428 Y63.275 F6000
G1 Z.2 F720
G1 E1 F2100
M204 S800
;TYPE:Solid infill
;WIDTH:0.420621
G1 F1200
G1 X216.721 Y59.568 E.16465
G1 X216.187 Y59.568 E.01677
G1 X220.258 Y63.64 E.18083
G1 X220.258 Y64.174 E.01677
G1 X215.652 Y59.568 E.20457
G1 X215.118 Y59.568 E.01677
G1 X220.258 Y64.708 E.22829
G1 X220.258 Y65.242 E.01677
G1 X214.584 Y59.568 E.25201
G1 X214.05 Y59.568 E.01677
G1 X220.258 Y65.776 E.27573
G1 X220.258 Y66.311 E.0168
G1 X213.516 Y59.568 E.29947
G1 X212.982 Y59.568 E.01677
G1 X217.478 Y64.065 E.19971
G1 X217.79 Y64.133 E.01003
G1 X218.035 Y64.302 E.00935
G1 X218.102 Y64.377 E.00316
G1 X218.237 Y64.616 E.00862
G1 X218.282 Y64.869 E.00807
G1 X220.258 Y66.845 E.08776
G1 X220.258 Y67.379 E.01677
G1 X218.287 Y65.408 E.08754
G1 X218.287 Y65.942 E.01677
G1 X220.258 Y67.913 E.08754
G1 X220.258 Y68.447 E.01677
G1 X218.287 Y66.476 E.08754
G1 X218.287 Y67.011 E.0168
G1 X220.258 Y68.981 E.08752
G1 X220.258 Y69.033 E.00163
G1 X220.12 Y69.378 E.01167
G1 X218.287 Y67.545 E.08141
G1 X218.287 Y68.079 E.01677
G1 X219.968 Y69.759 E.07464
G1 X219.815 Y70.141 E.01292
G1 X218.287 Y68.613 E.06787
G1 X218.287 Y69.147 E.01677
G1 X219.662 Y70.522 E.06107
G1 X219.51 Y70.904 E.01291
G1 X218.287 Y69.681 E.05432
G1 X218.287 Y70.215 E.01677
G1 X219.357 Y71.285 E.04752
G1 X219.205 Y71.667 E.01291
G1 X218.287 Y70.75 E.04075
G1 X218.287 Y71.284 E.01677
G1 X219.052 Y72.048 E.03396
G1 X218.959 Y72.28 E.00785
G1 X218.749 Y72.28 E.0066
G1 X218.118 Y71.648 E.02805
M204 S1000
;WIPE_START
G1 F4800
G1 X218.749 Y72.28 E-.37118
G1 X218.959 Y72.28 E-.08728
G1 X219.052 Y72.048 E-.10388
G1 X218.307 Y71.304 E-.43766
;WIPE_END
G1 Z.4 F720
G1 X217.108 Y64.228 F6000
G1 Z.2 F720
G1 E1 F2100
M204 S800
G1 F1200
G1 X212.448 Y59.568 E.20697
G1 X211.913 Y59.568 E.0168
G1 X216.404 Y64.059 E.19947
G1 X215.87 Y64.059 E.01677
G1 X211.379 Y59.568 E.19947
G1 X210.845 Y59.568 E.01677
G1 X215.336 Y64.06 E.19949
G1 X214.802 Y64.06 E.01677
G1 X210.311 Y59.568 E.19949
G1 X209.777 Y59.568 E.01677
G1 X214.269 Y64.06 E.19951
G1 X213.735 Y64.06 E.01677
G1 X209.243 Y59.568 E.19951
G1 X208.708 Y59.568 E.0168
G1 X213.201 Y64.061 E.19956
G1 X212.667 Y64.061 E.01677
G1 X208.174 Y59.568 E.19956
G1 X207.64 Y59.568 E.01677
G1 X212.133 Y64.061 E.19956
G1 X211.599 Y64.061 E.01677
G1 X207.106 Y59.568 E.19956
G1 X206.572 Y59.568 E.01677
G1 X211.065 Y64.062 E.19958
G1 X210.531 Y64.062 E.01677
G1 X206.038 Y59.568 E.19958
G1 X205.504 Y59.568 E.01677
G1 X209.997 Y64.062 E.19958
G1 X209.464 Y64.062 E.01674
G1 X204.969 Y59.568 E.19962
G1 X204.435 Y59.568 E.01677
G1 X208.93 Y64.063 E.19964
G1 X208.396 Y64.063 E.01677
G1 X203.901 Y59.568 E.19964
G1 X203.367 Y59.568 E.01677
G1 X207.862 Y64.063 E.19964
G1 X207.328 Y64.063 E.01677
G1 X202.833 Y59.568 E.19964
G1 X202.299 Y59.568 E.01677
G1 X206.794 Y64.064 E.19967
G1 X206.26 Y64.064 E.01677
G1 X201.765 Y59.568 E.19967
G1 X201.23 Y59.568 E.0168
G1 X205.726 Y64.064 E.19969
G1 X205.192 Y64.064 E.01677
G1 X200.696 Y59.568 E.19969
G1 X200.162 Y59.568 E.01677
G1 X204.659 Y64.065 E.19973
G1 X204.125 Y64.065 E.01677
G1 X199.628 Y59.568 E.19973
G1 X199.094 Y59.568 E.01677
G1 X203.591 Y64.065 E.19973
G1 X203.057 Y64.066 E.01677
G1 X198.56 Y59.568 E.19976
G1 X198.025 Y59.568 E.0168
G1 X202.523 Y64.066 E.19978
G1 X201.989 Y64.066 E.01677
G1 X197.491 Y59.568 E.19978
G1 X196.957 Y59.568 E.01677
G1 X201.455 Y64.066 E.19978
G1 X200.921 Y64.067 E.01677
G1 X196.423 Y59.568 E.1998
G1 X195.889 Y59.568 E.01677
G1 X200.387 Y64.067 E.1998
G1 X199.853 Y64.067 E.01677
G1 X195.355 Y59.568 E.1998
G1 X194.821 Y59.568 E.01677
G1 X199.32 Y64.067 E.19982
G1 X198.786 Y64.068 E.01677
G1 X194.286 Y59.568 E.19987
G1 X193.752 Y59.568 E.01677
G1 X198.252 Y64.068 E.19987
G1 X197.718 Y64.068 E.01677
G1 X193.218 Y59.568 E.19987
G1 X192.684 Y59.568 E.01677
G1 X197.184 Y64.068 E.19987
G1 X196.65 Y64.069 E.01677
G1 X192.15 Y59.568 E.19989
G1 X191.616 Y59.568 E.01677
G1 X196.116 Y64.069 E.19989
G1 X195.582 Y64.069 E.01677
G1 X191.082 Y59.568 E.19989
G1 X190.547 Y59.568 E.0168
G1 X195.048 Y64.069 E.19991
G1 X194.515 Y64.07 E.01674
G1 X190.013 Y59.568 E.19996
G1 X189.479 Y59.568 E.01677
G1 X193.997 Y64.086 E.20067
G1 X193.762 Y64.172 E.00786
G1 X193.641 Y64.264 E.00477
G1 X188.945 Y59.568 E.20857
G1 X188.411 Y59.568 E.01677
G1 X193.411 Y64.569 E.2221
G1 X193.357 Y64.734 E.00545
G1 X193.339 Y65.031 E.00934
G1 X187.877 Y59.568 E.24262
G1 X187.343 Y59.568 E.01677
G1 X193.339 Y65.565 E.26633
G1 X193.339 Y66.099 E.01677
G1 X186.808 Y59.568 E.29007
G1 X186.271 Y59.565 E.01687
G1 X193.339 Y66.634 E.31395
G1 X193.339 Y67.168 E.01677
G1 X185.706 Y59.535 E.33902
G1 X185.142 Y59.504 E.01774
G1 X193.339 Y67.702 E.36409
G1 X193.339 Y68.139 E.01372
G1 X193.242 Y68.139 E.00305
G1 X184.515 Y59.412 E.38761
G1 X183.875 Y59.305 E.02038
G1 X192.708 Y68.139 E.39234
G1 X192.174 Y68.139 E.01677
G1 X183.168 Y59.133 E.4
G1 X182.422 Y58.921 E.02436
G1 X191.64 Y68.139 E.40942
G1 X191.105 Y68.139 E.0168
G1 X181.537 Y58.571 E.42496
G1 X181.094 Y58.39 E.01503
G1 X180.506 Y58.073 E.02098
G1 X190.741 Y68.308 E.45458
M204 S1000
;WIPE_START
G1 F4800
G1 X189.04 Y66.607 E-1
;WIPE_END
G1 Z.4 F720
G1 X150.301 Y82.886 F6000
G1 Z.2 F720
G1 E1 F2100
M204 S800
G1 F1200
G1 X149.645 Y82.23 E.02914
G1 X149.111 Y82.23 E.01677
G1 X150.301 Y83.42 E.05285
M204 S1000
;WIPE_START
G1 F4800
G1 X149.111 Y82.23 E-.69946
G1 X149.645 Y82.23 E-.22194
G1 X149.779 Y82.364 E-.0786
;WIPE_END
G1 Z.4 F720
G1 X158.141 Y26.628 F6000
G1 Z.2 F720
G1 E1 F2100
M204 S800
G1 F1200
G1 X153.169 Y21.656 E.22083
G1 X152.353 Y21.164 E.02993
G1 X151.953 Y20.974 E.01391
G1 X158.585 Y27.606 E.29456
G1 X159.631 Y29.186 E.05951
G1 X150.97 Y20.525 E.38468
G1 X150.136 Y20.225 E.02784
G1 X160.678 Y30.767 E.46822
G1 X161.724 Y32.347 E.05951
G1 X149.381 Y20.005 E.54819
G1 X148.668 Y19.825 E.0231
G1 X162.77 Y33.928 E.62636
G1 X163.817 Y35.508 E.05953
G1 X148.024 Y19.716 E.70142
G1 X147.396 Y19.622 E.01994
G1 X164.863 Y37.089 E.77579
G1 X165.909 Y38.669 E.05951
G1 X146.813 Y19.573 E.84814
G1 X146.251 Y19.545 E.01767
G1 X166.956 Y40.25 E.91961
G1 X168.002 Y41.83 E.05951
M73 P1 R188
G1 X145.697 Y19.526 E.99065
G1 X145.163 Y19.525 E.01677
G1 X169.049 Y43.411 E1.06089
G1 X170.095 Y44.991 E.05951
G1 X144.628 Y19.525 E1.13109
G1 X144.093 Y19.524 E.0168
G1 X171.141 Y46.572 E1.20133
G1 X172.188 Y48.152 E.05953
M73 P1 R187
G1 X144.05 Y20.015 E1.24972
G1 X144.05 Y20.549 E.01677
G1 X173.234 Y49.733 E1.2962
G1 X174.28 Y51.313 E.05951
G1 X144.05 Y21.083 E1.34266
G1 X144.05 Y21.617 E.01677
G1 X175.929 Y53.496 E1.4159
M204 S1000
;WIPE_START
G1 F4800
G1 X174.228 Y51.795 E-1
;WIPE_END
G1 Z.4 F720
G1 X143.88 Y21.982 F6000
G1 Z.2 F720
G1 E1 F2100
M204 S800
G1 F1200
G1 X190.037 Y68.139 E2.05005
G1 X189.503 Y68.139 E.01677
G1 X144.05 Y22.685 E2.01881
G1 X144.05 Y23.22 E.0168
G1 X188.969 Y68.139 E1.99507
G1 X188.435 Y68.139 E.01677
G1 X144.05 Y23.754 E1.97135
G1 X144.05 Y24.288 E.01677
G1 X187.9 Y68.139 E1.94761
G1 X187.366 Y68.139 E.01677
G1 X144.05 Y24.822 E1.92389
G1 X144.05 Y25.356 E.01677
G1 X186.832 Y68.139 E1.90017
G1 X186.298 Y68.139 E.01677
G1 X144.05 Y25.89 E1.87646
G1 X144.05 Y26.425 E.0168
G1 X185.764 Y68.139 E1.85272
G1 X185.23 Y68.139 E.01677
G1 X144.05 Y26.959 E1.829
G1 X144.05 Y27.493 E.01677
G1 X184.696 Y68.139 E1.80528
G1 X184.161 Y68.139 E.0168
G1 X144.05 Y28.027 E1.78154
G1 X144.05 Y28.561 E.01677
G1 X183.627 Y68.139 E1.75782
G1 X183.093 Y68.139 E.01677
G1 X144.05 Y29.095 E1.73411
G1 X144.05 Y29.629 E.01677
G1 X182.559 Y68.139 E1.71039
G1 X182.025 Y68.139 E.01677
G1 X144.05 Y30.164 E1.68665
G1 X144.05 Y30.698 E.01677
G1 X181.491 Y68.139 E1.66293
G1 X180.957 Y68.139 E.01677
M73 P1 R186
G1 X144.05 Y31.232 E1.63922
G1 X144.05 Y31.766 E.01677
G1 X180.422 Y68.139 E1.61548
G1 X179.888 Y68.139 E.01677
G1 X144.05 Y32.3 E1.59176
G1 X144.05 Y32.834 E.01677
G1 X179.354 Y68.139 E1.56804
G1 X178.82 Y68.139 E.01677
G1 X144.05 Y33.368 E1.54432
G1 X144.05 Y33.903 E.0168
G1 X174.208 Y64.06 E1.33944
G1 X174.295 Y64.06 E.00273
G1 X174.577 Y64.131 E.00913
G1 X174.796 Y64.273 E.0082
G1 X174.979 Y64.504 E.00926
G1 X175.069 Y64.769 E.00879
G1 X175.07 Y64.922 E.00481
G1 X178.286 Y68.139 E.14286
G1 X177.752 Y68.139 E.01677
G1 X175.071 Y65.458 E.11908
G1 X175.073 Y65.994 E.01683
G1 X177.217 Y68.139 E.09525
G1 X176.683 Y68.139 E.01677
G1 X175.074 Y66.529 E.07149
G1 X175.076 Y67.065 E.01683
G1 X176.149 Y68.139 E.04768
G1 X175.615 Y68.139 E.01677
G1 X175.077 Y67.601 E.0239
G1 X175.079 Y68.137 E.01683
G1 X175.251 Y68.308 E.00762
M204 S1000
;WIPE_START
G1 F4800
G1 X175.079 Y68.137 E-.10081
G1 X175.077 Y67.601 E-.22278
G1 X175.615 Y68.139 E-.31623
G1 X176.149 Y68.139 E-.22194
G1 X175.914 Y67.904 E-.13824
;WIPE_END
G1 Z.4 F720
G1 X173.843 Y64.23 F6000
G1 Z.2 F720
G1 E1 F2100
M204 S800
G1 F1200
G1 X144.05 Y34.437 E1.32325
G1 X144.05 Y34.971 E.01677
G1 X173.139 Y64.06 E1.29198
G1 X172.605 Y64.06 E.01677
G1 X144.05 Y35.505 E1.26826
G1 X144.05 Y36.039 E.01677
G1 X172.071 Y64.06 E1.24455
G1 X171.537 Y64.06 E.01677
G1 X144.05 Y36.573 E1.22083
G1 X144.05 Y37.108 E.0168
G1 X171.002 Y64.06 E1.19707
G1 X170.468 Y64.06 E.01677
G1 X144.05 Y37.642 E1.17335
G1 X144.05 Y38.176 E.01677
G1 X169.934 Y64.06 E1.14963
G1 X169.4 Y64.06 E.01677
G1 X144.05 Y38.71 E1.12591
G1 X144.05 Y39.244 E.01677
G1 X168.866 Y64.06 E1.1022
G1 X168.331 Y64.06 E.0168
G1 X144.05 Y39.778 E1.07846
G1 X144.05 Y40.312 E.01677
