; generated by PrusaSlicer 2.2.0+win64 on 2020-07-05 at 18:54:01 UTC


;
;

;
;
; 

; external perimeters extrusion width = 0.60mm
; perimeters extrusion width = 0.43mm
; infill extrusion width = 0.45mm
; solid infill extrusion width = 0.70mm
; top infill extrusion width = 0.43mm
; first layer extrusion width = 0.42mm

M73 P0 R130
M201 X9000 Y9000 Z500 E10000 ; sets maximum accelerations, mm/sec^2
M203 X500 Y500 Z12 E120 ; sets maximum feedrates, mm/sec
M204 P2000 R1500 T2000 ; sets acceleration (P, T) and retract acceleration (R), mm/sec^2
M205 X10.00 Y10.00 Z0.20 E2.50 ; sets the jerk limits, mm/sec
M205 S0 T0 ; sets the minimum extruding and travel feed rate, mm/sec
M107
M83  ; extruder relative mode
M140 S75 ; set bed temp
M109 S160 ; Set extruder temp before bed level
M190 S75 ; wait for bed temp

G28 W ; home all without mesh bed level
G80 N7 ; mesh bed leveling

M109 S240 ; wait for extruder temp

M221 S100 ; Set flow to 100

G1 Y-3.0 F1000.0 ; go outside print area
G92 E0.0
G1 E8 ; Purge Bubble
M73 P0 R130
G1 X60.0 E9.0 F1000.0 ; intro line
G1 X100.0 E12.5 F1000.0 ; intro line
G92 E0.0
G21 ; set units to millimeters
G90 ; use absolute coordinates
M83 ; use relative distances for extrusion
M900 K45; Filament gcode
;BEFORE_LAYER_CHANGE
G92 E0.0
;0.2


G1 E-0.80000 F2100.00000
G1 Z0.600 F10800.000
;AFTER_LAYER_CHANGE
;0.2
G1 X72.772 Y62.967
G1 Z0.200
G1 E0.80000 F2100.00000
M204 S1000
G1 F1200.000
G1 X73.099 Y62.098 E0.02678
G1 X73.364 Y61.636 E0.01535
G1 X74.009 Y60.858 E0.02917
G1 X74.792 Y60.264 E0.02833
G1 X75.607 Y59.898 E0.02577
G1 X76.089 Y59.761 E0.01448
G1 X76.988 Y59.657 E0.02610
G1 X173.020 Y59.657 E2.77014
G1 X173.940 Y59.760 E0.02669
G1 X174.436 Y59.903 E0.01491
G1 X175.254 Y60.274 E0.02589
G1 X176.097 Y60.924 E0.03072
G1 X176.683 Y61.653 E0.02698
G1 X176.935 Y62.101 E0.01480
G1 X177.256 Y62.946 E0.02610
G1 X177.392 Y63.956 E0.02938
G1 X177.360 Y146.006 E2.36681
G1 X177.224 Y147.048 E0.03031
G1 X176.892 Y147.919 E0.02689
G1 X176.628 Y148.377 E0.01524
G1 X175.988 Y149.146 E0.02889
G1 X175.204 Y149.737 E0.02831
G1 X174.387 Y150.104 E0.02583
G1 X173.908 Y150.240 E0.01437
G1 X173.011 Y150.343 E0.02604
G1 X76.979 Y150.343 E2.77014
G1 X75.912 Y150.210 E0.03102
G1 X75.040 Y149.880 E0.02689
G1 X74.575 Y149.614 E0.01546
G1 X73.802 Y148.971 E0.02900
G1 X73.212 Y148.187 E0.02830
G1 X72.845 Y147.370 E0.02583
G1 X72.709 Y146.891 E0.01437
G1 X72.606 Y145.998 E0.02593
G1 X72.639 Y64.028 E2.36451
G1 X72.764 Y63.026 E0.02913
; printing object top_nobutton.stl id:1 copy 0
G1 F8640.000
G1 X73.099 Y62.098 E-0.22785
G1 X73.364 Y61.636 E-0.12287
G1 X74.009 Y60.858 E-0.23352
G1 X74.616 Y60.398 E-0.17576
G1 E-0.04000 F2100.00000
G1 Z0.800 F10800.000
G1 X166.500 Y139.483
G1 Z0.200
G1 E0.80000 F2100.00000
G1 F1200.000
G1 X167.403 Y138.790 E0.03284
G1 X168.454 Y138.355 E0.03282
G1 X169.583 Y138.207 E0.03283
G1 X170.712 Y138.355 E0.03284
G1 X171.763 Y138.791 E0.03283
G1 X172.666 Y139.483 E0.03282
G1 X173.359 Y140.387 E0.03284
G1 X173.794 Y141.437 E0.03282
G1 X173.943 Y142.566 E0.03284
G1 X173.794 Y143.695 E0.03284
G1 X173.358 Y144.746 E0.03282
G1 X172.666 Y145.649 E0.03283
G1 X171.762 Y146.342 E0.03284
G1 X170.711 Y146.778 E0.03283
G1 X169.583 Y146.926 E0.03283
G1 X168.454 Y146.778 E0.03283
G1 X167.403 Y146.342 E0.03283
G1 X166.500 Y145.649 E0.03283
G1 X165.807 Y144.746 E0.03284
G1 X165.371 Y143.695 E0.03283
G1 X165.223 Y142.566 E0.03283
G1 X165.371 Y141.438 E0.03283
G1 X165.807 Y140.386 E0.03283
G1 X166.463 Y139.531 E0.03109
G1 X166.397 Y139.097 F10800.000
G1 F8640.000
G1 X167.403 Y138.790 E-0.27627
G1 X168.454 Y138.355 E-0.26273
G1 X169.403 Y138.230 E-0.22100
G1 E-0.04000 F2100.00000
G1 Z0.800 F10800.000
G1 X170.550 Y147.179
G1 Z0.200
G1 E0.80000 F2100.00000
G1 F1200.000
G1 X170.809 Y147.145 E0.00756
G1 X171.953 Y146.671 E0.03569
G1 X172.935 Y145.918 E0.03570
G1 X173.688 Y144.936 E0.03569
G1 X174.161 Y143.793 E0.03568
G1 X174.196 Y143.534 E0.00754
G1 X174.196 Y145.915 E0.06867
G1 X174.148 Y146.279 E0.01059
G1 X174.028 Y146.569 E0.00906
G1 X173.836 Y146.819 E0.00909
G1 X173.586 Y147.011 E0.00909
G1 X173.295 Y147.131 E0.00907
G1 X172.931 Y147.179 E0.01059
G1 X170.610 Y147.179 E0.06697
G1 F8640.000
G1 X170.809 Y147.145 E-0.04679
G1 X171.953 Y146.671 E-0.28572
G1 X172.935 Y145.918 E-0.28580
G1 X173.308 Y145.431 E-0.14169
G1 E-0.04000 F2100.00000
G1 Z0.800 F10800.000
G1 X174.196 Y112.398
G1 Z0.200
G1 E0.80000 F2100.00000
G1 F1200.000
G1 X174.161 Y112.139 E0.00754
G1 X173.688 Y110.996 E0.03568
G1 X172.935 Y110.014 E0.03570
G1 X171.953 Y109.261 E0.03569
G1 X170.808 Y108.786 E0.03576
G1 X170.538 Y108.753 E0.00784
G1 X172.931 Y108.753 E0.06904
G1 X173.295 Y108.801 E0.01059
G1 X173.586 Y108.921 E0.00907
G1 X173.836 Y109.113 E0.00909
G1 X174.028 Y109.363 E0.00909
G1 X174.148 Y109.654 E0.00906
G1 X174.196 Y110.018 E0.01059
G1 X174.196 Y112.338 E0.06694
G1 X173.794 Y112.237 F10800.000
G1 F1200.000
G1 X173.943 Y113.366 E0.03285
G1 X173.794 Y114.495 E0.03283
G1 X173.358 Y115.546 E0.03282
G1 X172.666 Y116.449 E0.03283
G1 X171.762 Y117.142 E0.03284
G1 X170.711 Y117.577 E0.03282
G1 X169.582 Y117.727 E0.03287
G1 X168.421 Y117.564 E0.03381
G1 X167.403 Y117.142 E0.03179
G1 X166.500 Y116.449 E0.03282
G1 X165.807 Y115.546 E0.03284
G1 X165.371 Y114.495 E0.03282
G1 X165.223 Y113.366 E0.03283
G1 X165.371 Y112.238 E0.03283
G1 X165.807 Y111.186 E0.03283
G1 X166.500 Y110.283 E0.03282
G1 X167.403 Y109.590 E0.03284
G1 X168.455 Y109.155 E0.03283
G1 X169.548 Y109.011 E0.03181
G1 X170.711 Y109.154 E0.03379
G1 X171.763 Y109.590 E0.03285
G1 X172.666 Y110.283 E0.03283
G1 X173.359 Y111.187 E0.03284
G1 X173.771 Y112.182 E0.03109
G1 X174.181 Y112.341 F10800.000
G1 F8640.000
G1 X173.943 Y113.366 E-0.27634
G1 X173.794 Y114.495 E-0.26283
G1 X173.428 Y115.378 E-0.22083
G1 E-0.04000 F2100.00000
G1 Z0.800 F10800.000
G1 X131.768 Y118.581
G1 Z0.200
G1 E0.80000 F2100.00000
G1 F1200.000
G1 X131.768 Y127.733 E0.26401
G1 X132.106 Y128.043 E0.01323
G1 X133.160 Y129.248 E0.04618
G1 X133.473 Y129.684 E0.01547
G1 X133.990 Y130.560 E0.02934
G1 X134.534 Y131.740 E0.03749
G1 X135.021 Y133.443 E0.05109
G1 X135.121 Y134.067 E0.01825
G1 X135.207 Y135.399 E0.03848
G1 X135.162 Y136.428 E0.02971
G1 X134.969 Y137.630 E0.03514
G1 X134.821 Y138.243 E0.01817
G1 X134.671 Y138.716 E0.01432
G1 X134.407 Y139.413 E0.02149
G1 X134.111 Y140.063 E0.02061
G1 X133.643 Y140.899 E0.02765
G1 X133.177 Y141.577 E0.02372
G1 X132.829 Y142.021 E0.01627
G1 X132.084 Y142.826 E0.03163
G1 X131.569 Y143.297 E0.02014
G1 X130.818 Y143.875 E0.02735
G1 X130.345 Y144.190 E0.01639
G1 X129.808 Y144.502 E0.01792
G1 X129.076 Y144.864 E0.02354
G1 X128.670 Y145.035 E0.01270
G1 X127.369 Y145.450 E0.03941
G1 X126.421 Y145.638 E0.02788
G1 X125.548 Y145.731 E0.02533
G1 X124.659 Y145.750 E0.02564
G1 X123.758 Y145.691 E0.02604
G1 X122.757 Y145.533 E0.02922
G1 X121.823 Y145.292 E0.02784
G1 X120.841 Y144.933 E0.03016
G1 X120.451 Y144.755 E0.01238
G1 X119.844 Y144.439 E0.01973
G1 X118.958 Y143.886 E0.03013
G1 X118.191 Y143.295 E0.02792
G1 X117.678 Y142.827 E0.02003
G1 X117.164 Y142.287 E0.02151
G1 X116.722 Y141.761 E0.01982
G1 X116.356 Y141.255 E0.01802
G1 X115.954 Y140.619 E0.02168
G1 X115.629 Y140.019 E0.01971
G1 X115.394 Y139.512 E0.01611
G1 X115.147 Y138.873 E0.01976
G1 X114.981 Y138.344 E0.01599
G1 X114.782 Y137.605 E0.02206
G1 X114.620 Y136.637 E0.02833
G1 X114.571 Y134.784 E0.05347
G1 X114.590 Y134.563 E0.00638
G1 X114.938 Y132.612 E0.05718
G1 X115.250 Y131.684 E0.02822
G1 X115.716 Y130.659 E0.03250
G1 X115.956 Y130.219 E0.01447
G1 X116.207 Y129.823 E0.01350
G1 X116.922 Y128.834 E0.03521
G1 X117.757 Y127.945 E0.03520
G1 X117.994 Y127.730 E0.00920
G1 X117.994 Y118.581 E0.26392
G1 X120.168 Y118.581 E0.06272
G1 X120.168 Y128.741 E0.29307
G1 X119.520 Y129.275 E0.02421
G1 X119.197 Y129.576 E0.01275
G1 X118.738 Y130.067 E0.01939
G1 X118.308 Y130.594 E0.01962
G1 X118.054 Y130.957 E0.01277
G1 X117.823 Y131.333 E0.01274
G1 X117.460 Y132.038 E0.02286
G1 X117.290 Y132.440 E0.01259
G1 X117.032 Y133.204 E0.02326
G1 X116.923 Y133.628 E0.01263
G1 X116.822 Y134.177 E0.01610
G1 X116.730 Y135.103 E0.02686
G1 X116.724 Y135.571 E0.01348
G1 X116.767 Y136.249 E0.01959
G1 X116.828 Y136.692 E0.01292
G1 X116.943 Y137.299 E0.01780
G1 X117.122 Y137.942 E0.01927
G1 X117.407 Y138.685 E0.02293
G1 X117.699 Y139.289 E0.01937
G1 X118.092 Y139.946 E0.02209
G1 X118.341 Y140.299 E0.01247
G1 X118.903 Y140.971 E0.02526
G1 X119.548 Y141.595 E0.02589
G1 X119.981 Y141.943 E0.01603
G1 X120.518 Y142.314 E0.01881
G1 X121.099 Y142.650 E0.01938
G1 X121.616 Y142.894 E0.01648
G1 X122.470 Y143.214 E0.02630
G1 X123.247 Y143.412 E0.02314
G1 X123.679 Y143.490 E0.01266
G1 X124.357 Y143.562 E0.01966
G1 X124.882 Y143.580 E0.01516
G1 X125.507 Y143.555 E0.01806
G1 X126.293 Y143.456 E0.02284
G1 X127.080 Y143.278 E0.02327
G1 X127.599 Y143.112 E0.01572
G1 X128.339 Y142.804 E0.02313
G1 X128.903 Y142.516 E0.01828
G1 X129.472 Y142.164 E0.01928
G1 X130.166 Y141.635 E0.02516
G1 X130.489 Y141.345 E0.01252
G1 X131.103 Y140.697 E0.02576
G1 X131.378 Y140.354 E0.01267
G1 X131.639 Y139.985 E0.01304
G1 X132.056 Y139.304 E0.02304
G1 X132.374 Y138.644 E0.02114
G1 X132.719 Y137.662 E0.03002
G1 X132.831 Y137.243 E0.01252
G1 X132.995 Y136.255 E0.02887
G1 X133.028 Y135.766 E0.01415
G1 X133.020 Y134.968 E0.02302
G1 X132.845 Y133.695 E0.03707
G1 X132.710 Y133.141 E0.01643
G1 X132.077 Y131.587 E0.04842
G1 X131.502 Y130.661 E0.03144
G1 X131.251 Y130.334 E0.01189
G1 X130.102 Y129.160 E0.04739
G1 X129.594 Y128.741 E0.01900
G1 X129.594 Y118.581 E0.29307
G1 X131.708 Y118.581 E0.06098
G1 X131.391 Y118.958 F10800.000
G1 F1200.000
G1 X131.391 Y127.899 E0.25792
G1 X131.836 Y128.307 E0.01742
G1 X132.865 Y129.483 E0.04506
G1 X133.157 Y129.890 E0.01445
G1 X133.655 Y130.735 E0.02830
G1 X134.180 Y131.872 E0.03611
G1 X134.652 Y133.525 E0.04960
G1 X134.746 Y134.109 E0.01708
G1 X134.829 Y135.403 E0.03738
G1 X134.787 Y136.390 E0.02849
G1 X134.599 Y137.556 E0.03408
G1 X134.457 Y138.142 E0.01738
G1 X134.315 Y138.592 E0.01364
G1 X134.059 Y139.268 E0.02083
G1 X133.774 Y139.893 E0.01981
G1 X133.322 Y140.700 E0.02670
G1 X132.873 Y141.354 E0.02288
G1 X132.542 Y141.776 E0.01548
G1 X131.818 Y142.558 E0.03072
G1 X131.326 Y143.008 E0.01923
G1 X130.598 Y143.569 E0.02652
G1 X130.145 Y143.870 E0.01568
G1 X129.629 Y144.170 E0.01722
G1 X128.919 Y144.521 E0.02284
G1 X128.540 Y144.681 E0.01188
G1 X127.274 Y145.085 E0.03831
G1 X126.364 Y145.265 E0.02677
G1 X125.524 Y145.354 E0.02438
G1 X124.667 Y145.372 E0.02472
G1 X123.800 Y145.316 E0.02507
G1 X122.834 Y145.164 E0.02820
G1 X121.935 Y144.931 E0.02678
G1 X120.984 Y144.584 E0.02921
G1 X120.616 Y144.416 E0.01168
G1 X120.031 Y144.111 E0.01902
G1 X119.173 Y143.576 E0.02917
G1 X118.434 Y143.006 E0.02693
G1 X117.942 Y142.557 E0.01919
G1 X117.445 Y142.035 E0.02079
G1 X117.020 Y141.529 E0.01909
G1 X116.668 Y141.043 E0.01729
G1 X116.280 Y140.429 E0.02097
G1 X115.966 Y139.849 E0.01900
G1 X115.741 Y139.364 E0.01542
G1 X115.503 Y138.748 E0.01906
G1 X115.343 Y138.238 E0.01541
G1 X115.151 Y137.525 E0.02130
G1 X114.996 Y136.600 E0.02705
G1 X114.949 Y134.795 E0.05211
G1 X114.964 Y134.612 E0.00528
G1 X115.304 Y132.705 E0.05587
G1 X115.601 Y131.823 E0.02686
G1 X116.053 Y130.827 E0.03154
G1 X116.281 Y130.410 E0.01372
G1 X116.519 Y130.035 E0.01282
G1 X117.213 Y129.075 E0.03417
G1 X118.022 Y128.214 E0.03407
G1 X118.371 Y127.898 E0.01359
G1 X118.371 Y118.958 E0.25787
G1 X119.791 Y118.958 E0.04096
G1 X119.791 Y128.563 E0.27706
G1 X119.272 Y128.991 E0.01942
G1 X118.931 Y129.309 E0.01345
G1 X118.454 Y129.819 E0.02013
G1 X118.007 Y130.367 E0.02040
G1 X117.739 Y130.750 E0.01350
G1 X117.494 Y131.148 E0.01347
G1 X117.118 Y131.878 E0.02368
G1 X116.937 Y132.306 E0.01342
G1 X116.671 Y133.097 E0.02407
G1 X116.555 Y133.547 E0.01341
G1 X116.449 Y134.124 E0.01693
G1 X116.353 Y135.083 E0.02778
G1 X116.347 Y135.580 E0.01436
G1 X116.391 Y136.286 E0.02040
G1 X116.456 Y136.753 E0.01360
G1 X116.576 Y137.384 E0.01853
G1 X116.764 Y138.060 E0.02024
G1 X117.060 Y138.834 E0.02390
G1 X117.367 Y139.468 E0.02031
G1 X117.776 Y140.152 E0.02297
G1 X118.042 Y140.529 E0.01333
G1 X118.627 Y141.228 E0.02628
G1 X119.298 Y141.878 E0.02696
G1 X119.755 Y142.246 E0.01692
G1 X120.316 Y142.633 E0.01965
G1 X120.924 Y142.985 E0.02027
G1 X121.469 Y143.241 E0.01738
G1 X122.357 Y143.574 E0.02733
G1 X123.167 Y143.781 E0.02412
G1 X123.625 Y143.864 E0.01344
G1 X124.330 Y143.938 E0.02044
G1 X124.883 Y143.958 E0.01595
G1 X125.539 Y143.931 E0.01894
G1 X126.358 Y143.827 E0.02382
G1 X127.179 Y143.642 E0.02427
G1 X127.729 Y143.467 E0.01666
G1 X128.498 Y143.147 E0.02403
G1 X129.089 Y142.844 E0.01914
G1 X129.686 Y142.475 E0.02026
G1 X130.407 Y141.926 E0.02614
G1 X130.752 Y141.615 E0.01339
G1 X131.388 Y140.945 E0.02665
G1 X131.679 Y140.581 E0.01346
G1 X131.954 Y140.192 E0.01373
G1 X132.387 Y139.485 E0.02394
G1 X132.723 Y138.789 E0.02229
G1 X133.079 Y137.773 E0.03104
G1 X133.200 Y137.323 E0.01346
G1 X133.370 Y136.299 E0.02993
G1 X133.405 Y135.777 E0.01510
G1 X133.397 Y134.940 E0.02413
G1 X133.216 Y133.624 E0.03831
G1 X133.070 Y133.025 E0.01779
G1 X132.414 Y131.415 E0.05015
G1 X131.812 Y130.446 E0.03290
G1 X131.536 Y130.087 E0.01308
G1 X130.357 Y128.882 E0.04862
G1 X129.971 Y128.563 E0.01445
G1 X129.971 Y118.958 E0.27706
G1 X131.331 Y118.958 E0.03923
G1 X131.747 Y118.775 F10800.000
G1 F8640.000
G1 X131.353 Y122.249 E-0.76000
G1 E-0.04000 F2100.00000
G1 Z0.800 F10800.000
G1 X168.616 Y108.753
G1 Z0.200
G1 E0.80000 F2100.00000
G1 F1200.000
G1 X168.356 Y108.787 E0.00756
G1 X167.213 Y109.261 E0.03569
G1 X166.231 Y110.014 E0.03570
G1 X165.478 Y110.996 E0.03569
G1 X165.004 Y112.139 E0.03570
G1 X164.843 Y113.366 E0.03570
G1 X165.004 Y114.593 E0.03570
G1 X165.478 Y115.736 E0.03569
G1 X166.231 Y116.718 E0.03570
G1 X167.213 Y117.471 E0.03569
G1 X168.321 Y117.930 E0.03461
G1 X169.580 Y118.107 E0.03668
G1 X170.810 Y117.945 E0.03579
G1 X171.953 Y117.471 E0.03568
G1 X172.935 Y116.718 E0.03570
G1 X173.688 Y115.736 E0.03569
G1 X174.161 Y114.593 E0.03568
G1 X174.196 Y114.334 E0.00754
G1 X174.196 Y141.598 E0.78645
G1 X174.161 Y141.339 E0.00754
G1 X173.688 Y140.196 E0.03568
G1 X172.935 Y139.214 E0.03570
G1 X171.953 Y138.461 E0.03569
G1 X170.810 Y137.987 E0.03569
G1 X169.583 Y137.826 E0.03570
G1 X168.356 Y137.987 E0.03570
G1 X167.213 Y138.461 E0.03569
G1 X166.231 Y139.214 E0.03570
G1 X165.478 Y140.196 E0.03569
G1 X165.004 Y141.339 E0.03570
G1 X164.843 Y142.566 E0.03570
G1 X165.004 Y143.793 E0.03570
G1 X165.478 Y144.936 E0.03569
G1 X166.231 Y145.918 E0.03570
G1 X167.213 Y146.671 E0.03569
G1 X168.356 Y147.145 E0.03569
G1 X168.616 Y147.179 E0.00756
G1 X81.350 Y147.179 E2.51727
G1 X81.610 Y147.145 E0.00756
G1 X82.753 Y146.671 E0.03570
G1 X83.735 Y145.918 E0.03570
G1 X84.488 Y144.936 E0.03569
G1 X84.962 Y143.793 E0.03569
G1 X85.123 Y142.566 E0.03569
G1 X84.962 Y141.339 E0.03570
G1 X84.488 Y140.196 E0.03569
G1 X83.735 Y139.214 E0.03570
G1 X82.753 Y138.461 E0.03569
G1 X81.610 Y137.987 E0.03570
G1 X80.383 Y137.826 E0.03570
G1 X79.156 Y137.987 E0.03569
G1 X78.013 Y138.461 E0.03569
G1 X77.031 Y139.214 E0.03569
G1 X76.278 Y140.196 E0.03570
G1 X75.804 Y141.339 E0.03568
G1 X75.770 Y141.598 E0.00754
G1 X75.770 Y114.334 E0.78645
G1 X75.804 Y114.593 E0.00754
G1 X76.278 Y115.736 E0.03568
G1 X77.031 Y116.718 E0.03570
G1 X78.013 Y117.471 E0.03569
G1 X79.121 Y117.930 E0.03461
G1 X80.380 Y118.107 E0.03668
G1 X81.610 Y117.945 E0.03579
G1 X82.753 Y117.471 E0.03568
G1 X83.735 Y116.718 E0.03570
G1 X84.488 Y115.736 E0.03569
G1 X84.962 Y114.593 E0.03570
G1 X85.123 Y113.366 E0.03569
G1 X84.962 Y112.139 E0.03570
G1 X84.488 Y110.996 E0.03569
G1 X83.735 Y110.014 E0.03570
G1 X82.753 Y109.261 E0.03569
G1 X81.610 Y108.787 E0.03569
G1 X81.350 Y108.753 E0.00756
G1 X168.556 Y108.753 E2.51554
M73 P0 R129
G1 F8640.000
G1 X168.356 Y108.787 E-0.04679
G1 X167.213 Y109.261 E-0.28571
G1 X166.231 Y110.014 E-0.28579
G1 X165.857 Y110.501 E-0.14171
G1 E-0.04000 F2100.00000
G1 Z0.800 F10800.000
G1 X79.416 Y108.753
G1 Z0.200
G1 E0.80000 F2100.00000
G1 F1200.000
G1 X79.156 Y108.787 E0.00756
G1 X78.013 Y109.261 E0.03569
G1 X77.031 Y110.014 E0.03569
G1 X76.278 Y110.996 E0.03570
G1 X75.804 Y112.139 E0.03568
